(G-CODE GENERATED BY FLATCAM v8.994 - www.flatcam.org - Version Date: 2020/11/7)

(Name: io-board-B_Cu.gbr_iso_combined_cnc)
(Type: G-code from Geometry)
(Units: MM)

(Created on Sunday, 02 May 2021 at 21:25)

(This preprocessor is the default preprocessor used by FlatCAM.)
(It is made to work with MACH3 compatible motion controllers.)

(TOOL DIAMETER: 0.1 mm)
(Feedrate_XY: 120.0 mm/min)
(Feedrate_Z: 60.0 mm/min)
(Feedrate rapids 1500.0 mm/min)

(Z_Cut: -0.0 mm)
(Z_Move: 2.0 mm)
(Z Start: None mm)
(Z End: 15.0 mm)
(X,Y End: None mm)
(Steps per circle: 64)
(Preprocessor Geometry: default)

(X range:    7.6833 ...  171.9979  mm)
(Y range:    4.7754 ...  101.1792  mm)

(Spindle Speed: 0.0 RPM)
G21
G90
G94

G01 F120.00

M5
G00 Z15.0000
G00 X0.0000 Y0.0000
T1
M6    
(MSG, Change to Tool Dia = 0.1000)
M0
G00 Z15.0000
S1000
M03
G01 F120.00
G00 X12.5296 Y16.4806
G01 F60.00
G01 Z-0.0000
G01 F120.00
G01 X12.5285 Y16.4698
G01 X12.5250 Y16.3958
G01 X12.5250 Y13.7958
G01 X12.5285 Y13.7218
G01 X12.5296 Y13.7110
G01 X12.5406 Y13.6378
G01 X12.5599 Y13.5607
G01 X12.5867 Y13.4858
G01 X12.6206 Y13.4140
G01 X12.6615 Y13.3458
G01 X12.7089 Y13.2819
G01 X12.7622 Y13.2230
G01 X12.8211 Y13.1697
G01 X12.8850 Y13.1223
G01 X12.9532 Y13.0814
G01 X13.0250 Y13.0475
G01 X13.0999 Y13.0207
G01 X13.1770 Y13.0014
G01 X13.2556 Y12.9897
G01 X13.3350 Y12.9858
G01 X13.4144 Y12.9897
G01 X13.4930 Y13.0014
G01 X13.5701 Y13.0207
G01 X13.6399 Y13.0455
G01 X13.6499 Y13.0496
G01 X13.7168 Y13.0814
G01 X13.7850 Y13.1223
G01 X13.8446 Y13.1663
G01 X13.8529 Y13.1732
G01 X13.9078 Y13.2230
G01 X13.9576 Y13.2779
G01 X13.9645 Y13.2862
G01 X14.0054 Y13.3414
G01 X14.0114 Y13.3503
G01 X14.0494 Y13.4140
G01 X14.0812 Y13.4809
G01 X14.0853 Y13.4909
G01 X14.1101 Y13.5607
G01 X14.1283 Y13.6325
G01 X14.1304 Y13.6431
G01 X14.1411 Y13.7164
G01 X14.1450 Y13.7958
G01 X14.1450 Y16.3958
G01 X14.1415 Y16.4698
G01 X14.1404 Y16.4806
G01 X14.1294 Y16.5538
G01 X14.1101 Y16.6309
G01 X14.0833 Y16.7058
G01 X14.0518 Y16.7728
G01 X14.0467 Y16.7823
G01 X14.0114 Y16.8413
G01 X14.0054 Y16.8502
G01 X13.9611 Y16.9097
G01 X13.9078 Y16.9686
G01 X13.8489 Y17.0219
G01 X13.7850 Y17.0693
G01 X13.7168 Y17.1102
G01 X13.6450 Y17.1441
G01 X13.5701 Y17.1709
G01 X13.4983 Y17.1891
G01 X13.4877 Y17.1912
G01 X13.4198 Y17.2012
G01 X13.4090 Y17.2023
G01 X13.3350 Y17.2058
G01 X13.2556 Y17.2019
G01 X13.1770 Y17.1902
G01 X13.1051 Y17.1724
G01 X13.0947 Y17.1692
G01 X13.0301 Y17.1461
G01 X13.0201 Y17.1420
G01 X12.9532 Y17.1102
G01 X12.8850 Y17.0693
G01 X12.8211 Y17.0219
G01 X12.7622 Y16.9686
G01 X12.7089 Y16.9097
G01 X12.6646 Y16.8502
G01 X12.6586 Y16.8413
G01 X12.6233 Y16.7823
G01 X12.6182 Y16.7728
G01 X12.5867 Y16.7058
G01 X12.5599 Y16.6309
G01 X12.5406 Y16.5538
G01 X12.5296 Y16.4806
G00 Z2.0000
G00 X12.5889 Y16.4717
G01 F60.00
G01 Z-0.0000
G01 F120.00
G01 X12.5850 Y16.3958
G01 X12.5850 Y13.7958
G01 X12.5889 Y13.7199
G01 X12.5994 Y13.6495
G01 X12.6170 Y13.5793
G01 X12.6421 Y13.5088
G01 X12.6736 Y13.4423
G01 X12.7114 Y13.3791
G01 X12.7552 Y13.3200
G01 X12.8047 Y13.2655
G01 X12.8592 Y13.2160
G01 X12.9183 Y13.1722
G01 X12.9815 Y13.1344
G01 X13.0480 Y13.1029
G01 X13.1173 Y13.0781
G01 X13.1887 Y13.0602
G01 X13.2615 Y13.0494
G01 X13.3350 Y13.0458
G01 X13.4085 Y13.0494
G01 X13.4813 Y13.0602
G01 X13.5515 Y13.0778
G01 X13.6243 Y13.1039
G01 X13.6885 Y13.1344
G01 X13.7517 Y13.1722
G01 X13.8108 Y13.2160
G01 X13.8636 Y13.2638
G01 X13.9148 Y13.3200
G01 X13.9599 Y13.3812
G01 X13.9964 Y13.4423
G01 X14.0279 Y13.5088
G01 X14.0534 Y13.5805
G01 X14.0706 Y13.6495
G01 X14.0811 Y13.7199
G01 X14.0850 Y13.7958
G01 X14.0850 Y16.3958
G01 X14.0811 Y16.4717
G01 X14.0706 Y16.5421
G01 X14.0530 Y16.6123
G01 X14.0279 Y16.6828
G01 X13.9975 Y16.7472
G01 X13.9572 Y16.8145
G01 X13.9148 Y16.8716
G01 X13.8653 Y16.9261
G01 X13.8108 Y16.9756
G01 X13.7517 Y17.0194
G01 X13.6885 Y17.0572
G01 X13.6220 Y17.0887
G01 X13.5527 Y17.1135
G01 X13.4837 Y17.1309
G01 X13.4061 Y17.1424
G01 X13.3350 Y17.1458
G01 X13.2615 Y17.1422
G01 X13.1887 Y17.1314
G01 X13.1197 Y17.1142
G01 X13.0457 Y17.0877
G01 X12.9815 Y17.0572
G01 X12.9183 Y17.0194
G01 X12.8592 Y16.9756
G01 X12.8047 Y16.9261
G01 X12.7552 Y16.8716
G01 X12.7128 Y16.8145
G01 X12.6725 Y16.7472
G01 X12.6421 Y16.6828
G01 X12.6173 Y16.6135
G01 X12.5994 Y16.5421
G01 X12.5889 Y16.4717
G00 Z2.0000
G00 X15.0696 Y16.4806
G01 F60.00
G01 Z-0.0000
G01 F120.00
G01 X15.0685 Y16.4698
G01 X15.0650 Y16.3958
G01 X15.0650 Y13.7958
G01 X15.0685 Y13.7218
G01 X15.0696 Y13.7110
G01 X15.0806 Y13.6378
G01 X15.0999 Y13.5607
G01 X15.1267 Y13.4858
G01 X15.1606 Y13.4140
G01 X15.2015 Y13.3458
G01 X15.2489 Y13.2819
G01 X15.3022 Y13.2230
G01 X15.3611 Y13.1697
G01 X15.4250 Y13.1223
G01 X15.4932 Y13.0814
G01 X15.5650 Y13.0475
G01 X15.6399 Y13.0207
G01 X15.7170 Y13.0014
G01 X15.7956 Y12.9897
G01 X15.8750 Y12.9858
G01 X15.9544 Y12.9897
G01 X16.0330 Y13.0014
G01 X16.1101 Y13.0207
G01 X16.1799 Y13.0455
G01 X16.1899 Y13.0496
G01 X16.2568 Y13.0814
G01 X16.3250 Y13.1223
G01 X16.3846 Y13.1663
G01 X16.3929 Y13.1732
G01 X16.4478 Y13.2230
G01 X16.4976 Y13.2779
G01 X16.5045 Y13.2862
G01 X16.5454 Y13.3414
G01 X16.5514 Y13.3503
G01 X16.5894 Y13.4140
G01 X16.6212 Y13.4809
G01 X16.6253 Y13.4909
G01 X16.6501 Y13.5607
G01 X16.6683 Y13.6325
G01 X16.6704 Y13.6431
G01 X16.6811 Y13.7164
G01 X16.6850 Y13.7958
G01 X16.6850 Y16.3958
G01 X16.6815 Y16.4698
G01 X16.6804 Y16.4806
G01 X16.6694 Y16.5538
G01 X16.6501 Y16.6309
G01 X16.6233 Y16.7058
G01 X16.5918 Y16.7728
G01 X16.5867 Y16.7823
G01 X16.5514 Y16.8413
G01 X16.5454 Y16.8502
G01 X16.5011 Y16.9097
G01 X16.4478 Y16.9686
G01 X16.3889 Y17.0219
G01 X16.3250 Y17.0693
G01 X16.2568 Y17.1102
G01 X16.1850 Y17.1441
G01 X16.1101 Y17.1709
G01 X16.0383 Y17.1891
G01 X16.0277 Y17.1912
G01 X15.9598 Y17.2012
G01 X15.9490 Y17.2023
G01 X15.8750 Y17.2058
G01 X15.7956 Y17.2019
G01 X15.7170 Y17.1902
G01 X15.6451 Y17.1724
G01 X15.6347 Y17.1692
G01 X15.5701 Y17.1461
G01 X15.5601 Y17.1420
G01 X15.4932 Y17.1102
G01 X15.4250 Y17.0693
G01 X15.3611 Y17.0219
G01 X15.3022 Y16.9686
G01 X15.2489 Y16.9097
G01 X15.2046 Y16.8502
G01 X15.1986 Y16.8413
G01 X15.1633 Y16.7823
G01 X15.1582 Y16.7728
G01 X15.1267 Y16.7058
G01 X15.0999 Y16.6309
G01 X15.0806 Y16.5538
G01 X15.0696 Y16.4806
G00 Z2.0000
G00 X15.1289 Y16.4717
G01 F60.00
G01 Z-0.0000
G01 F120.00
G01 X15.1250 Y16.3958
G01 X15.1250 Y13.7958
G01 X15.1289 Y13.7199
G01 X15.1394 Y13.6495
G01 X15.1570 Y13.5793
G01 X15.1821 Y13.5088
G01 X15.2136 Y13.4423
G01 X15.2514 Y13.3791
G01 X15.2952 Y13.3200
G01 X15.3447 Y13.2655
G01 X15.3992 Y13.2160
G01 X15.4583 Y13.1722
G01 X15.5215 Y13.1344
G01 X15.5880 Y13.1029
G01 X15.6573 Y13.0781
G01 X15.7287 Y13.0602
G01 X15.8015 Y13.0494
G01 X15.8750 Y13.0458
G01 X15.9485 Y13.0494
G01 X16.0213 Y13.0602
G01 X16.0915 Y13.0778
G01 X16.1643 Y13.1039
G01 X16.2285 Y13.1344
G01 X16.2917 Y13.1722
G01 X16.3508 Y13.2160
G01 X16.4036 Y13.2638
G01 X16.4548 Y13.3200
G01 X16.4999 Y13.3812
G01 X16.5364 Y13.4423
G01 X16.5679 Y13.5088
G01 X16.5934 Y13.5805
G01 X16.6106 Y13.6495
G01 X16.6211 Y13.7199
G01 X16.6250 Y13.7958
G01 X16.6250 Y16.3958
G01 X16.6211 Y16.4717
G01 X16.6106 Y16.5421
G01 X16.5930 Y16.6123
G01 X16.5679 Y16.6828
G01 X16.5375 Y16.7472
G01 X16.4972 Y16.8145
G01 X16.4548 Y16.8716
G01 X16.4053 Y16.9261
G01 X16.3508 Y16.9756
G01 X16.2917 Y17.0194
G01 X16.2285 Y17.0572
G01 X16.1620 Y17.0887
G01 X16.0927 Y17.1135
G01 X16.0237 Y17.1309
G01 X15.9461 Y17.1424
G01 X15.8750 Y17.1458
G01 X15.8015 Y17.1422
G01 X15.7287 Y17.1314
G01 X15.6597 Y17.1142
G01 X15.5857 Y17.0877
G01 X15.5215 Y17.0572
G01 X15.4583 Y17.0194
G01 X15.3992 Y16.9756
G01 X15.3447 Y16.9261
G01 X15.2952 Y16.8716
G01 X15.2528 Y16.8145
G01 X15.2125 Y16.7472
G01 X15.1821 Y16.6828
G01 X15.1573 Y16.6135
G01 X15.1394 Y16.5421
G01 X15.1289 Y16.4717
G00 Z2.0000
G00 X17.6096 Y16.4806
G01 F60.00
G01 Z-0.0000
G01 F120.00
G01 X17.6085 Y16.4698
G01 X17.6050 Y16.3958
G01 X17.6050 Y13.7958
G01 X17.6085 Y13.7218
G01 X17.6096 Y13.7110
G01 X17.6206 Y13.6378
G01 X17.6399 Y13.5607
G01 X17.6667 Y13.4858
G01 X17.7006 Y13.4140
G01 X17.7415 Y13.3458
G01 X17.7889 Y13.2819
G01 X17.8422 Y13.2230
G01 X17.9011 Y13.1697
G01 X17.9650 Y13.1223
G01 X18.0332 Y13.0814
G01 X18.1050 Y13.0475
G01 X18.1799 Y13.0207
G01 X18.2570 Y13.0014
G01 X18.3356 Y12.9897
G01 X18.4150 Y12.9858
G01 X18.4944 Y12.9897
G01 X18.5730 Y13.0014
G01 X18.6501 Y13.0207
G01 X18.7199 Y13.0455
G01 X18.7299 Y13.0496
G01 X18.7968 Y13.0814
G01 X18.8650 Y13.1223
G01 X18.9246 Y13.1663
G01 X18.9329 Y13.1732
G01 X18.9878 Y13.2230
G01 X19.0376 Y13.2779
G01 X19.0445 Y13.2862
G01 X19.0854 Y13.3414
G01 X19.0914 Y13.3503
G01 X19.1294 Y13.4140
G01 X19.1612 Y13.4809
G01 X19.1653 Y13.4909
G01 X19.1901 Y13.5607
G01 X19.2083 Y13.6325
G01 X19.2104 Y13.6431
G01 X19.2211 Y13.7164
G01 X19.2250 Y13.7958
G01 X19.2250 Y16.3958
G01 X19.2215 Y16.4698
G01 X19.2204 Y16.4806
G01 X19.2094 Y16.5538
G01 X19.1901 Y16.6309
G01 X19.1633 Y16.7058
G01 X19.1318 Y16.7728
G01 X19.1267 Y16.7823
G01 X19.0914 Y16.8413
G01 X19.0854 Y16.8502
G01 X19.0411 Y16.9097
G01 X18.9878 Y16.9686
G01 X18.9289 Y17.0219
G01 X18.8650 Y17.0693
G01 X18.7968 Y17.1102
G01 X18.7250 Y17.1441
G01 X18.6501 Y17.1709
G01 X18.5783 Y17.1891
G01 X18.5677 Y17.1912
G01 X18.4998 Y17.2012
G01 X18.4890 Y17.2023
G01 X18.4150 Y17.2058
G01 X18.3356 Y17.2019
G01 X18.2570 Y17.1902
G01 X18.1851 Y17.1724
G01 X18.1747 Y17.1692
G01 X18.1101 Y17.1461
G01 X18.1001 Y17.1420
G01 X18.0332 Y17.1102
G01 X17.9650 Y17.0693
G01 X17.9011 Y17.0219
G01 X17.8422 Y16.9686
G01 X17.7889 Y16.9097
G01 X17.7446 Y16.8502
G01 X17.7386 Y16.8413
G01 X17.7033 Y16.7823
G01 X17.6982 Y16.7728
G01 X17.6667 Y16.7058
G01 X17.6399 Y16.6309
G01 X17.6206 Y16.5538
G01 X17.6096 Y16.4806
G00 Z2.0000
G00 X17.6689 Y16.4717
G01 F60.00
G01 Z-0.0000
G01 F120.00
G01 X17.6650 Y16.3958
G01 X17.6650 Y13.7958
G01 X17.6689 Y13.7199
G01 X17.6794 Y13.6495
G01 X17.6970 Y13.5793
G01 X17.7221 Y13.5088
G01 X17.7536 Y13.4423
G01 X17.7914 Y13.3791
G01 X17.8352 Y13.3200
G01 X17.8847 Y13.2655
G01 X17.9392 Y13.2160
G01 X17.9983 Y13.1722
G01 X18.0615 Y13.1344
G01 X18.1280 Y13.1029
G01 X18.1973 Y13.0781
G01 X18.2687 Y13.0602
G01 X18.3415 Y13.0494
G01 X18.4150 Y13.0458
G01 X18.4885 Y13.0494
G01 X18.5613 Y13.0602
G01 X18.6315 Y13.0778
G01 X18.7043 Y13.1039
G01 X18.7685 Y13.1344
G01 X18.8317 Y13.1722
G01 X18.8908 Y13.2160
G01 X18.9436 Y13.2638
G01 X18.9948 Y13.3200
G01 X19.0399 Y13.3812
G01 X19.0764 Y13.4423
G01 X19.1079 Y13.5088
G01 X19.1334 Y13.5805
G01 X19.1506 Y13.6495
G01 X19.1611 Y13.7199
G01 X19.1650 Y13.7958
G01 X19.1650 Y16.3958
G01 X19.1611 Y16.4717
G01 X19.1506 Y16.5421
G01 X19.1330 Y16.6123
G01 X19.1079 Y16.6828
G01 X19.0775 Y16.7472
G01 X19.0372 Y16.8145
G01 X18.9948 Y16.8716
G01 X18.9453 Y16.9261
G01 X18.8908 Y16.9756
G01 X18.8317 Y17.0194
G01 X18.7685 Y17.0572
G01 X18.7020 Y17.0887
G01 X18.6327 Y17.1135
G01 X18.5637 Y17.1309
G01 X18.4861 Y17.1424
G01 X18.4150 Y17.1458
G01 X18.3415 Y17.1422
G01 X18.2687 Y17.1314
G01 X18.1997 Y17.1142
G01 X18.1257 Y17.0877
G01 X18.0615 Y17.0572
G01 X17.9983 Y17.0194
G01 X17.9392 Y16.9756
G01 X17.8847 Y16.9261
G01 X17.8352 Y16.8716
G01 X17.7928 Y16.8145
G01 X17.7525 Y16.7472
G01 X17.7221 Y16.6828
G01 X17.6973 Y16.6135
G01 X17.6794 Y16.5421
G01 X17.6689 Y16.4717
G00 Z2.0000
G00 X20.1496 Y16.4806
G01 F60.00
G01 Z-0.0000
G01 F120.00
G01 X20.1485 Y16.4698
G01 X20.1450 Y16.3958
G01 X20.1450 Y13.7958
G01 X20.1485 Y13.7218
G01 X20.1496 Y13.7110
G01 X20.1606 Y13.6378
G01 X20.1799 Y13.5607
G01 X20.2067 Y13.4858
G01 X20.2406 Y13.4140
G01 X20.2815 Y13.3458
G01 X20.3289 Y13.2819
G01 X20.3822 Y13.2230
G01 X20.4411 Y13.1697
G01 X20.5050 Y13.1223
G01 X20.5732 Y13.0814
G01 X20.6450 Y13.0475
G01 X20.7199 Y13.0207
G01 X20.7970 Y13.0014
G01 X20.8756 Y12.9897
G01 X20.9550 Y12.9858
G01 X21.0344 Y12.9897
G01 X21.1130 Y13.0014
G01 X21.1901 Y13.0207
G01 X21.2599 Y13.0455
G01 X21.2699 Y13.0496
G01 X21.3368 Y13.0814
G01 X21.4050 Y13.1223
G01 X21.4646 Y13.1663
G01 X21.4729 Y13.1732
G01 X21.5278 Y13.2230
G01 X21.5776 Y13.2779
G01 X21.5845 Y13.2862
G01 X21.6254 Y13.3414
G01 X21.6314 Y13.3503
G01 X21.6694 Y13.4140
G01 X21.7012 Y13.4809
G01 X21.7053 Y13.4909
G01 X21.7301 Y13.5607
G01 X21.7483 Y13.6325
G01 X21.7504 Y13.6431
G01 X21.7611 Y13.7164
G01 X21.7650 Y13.7958
G01 X21.7650 Y16.3958
G01 X21.7615 Y16.4698
G01 X21.7604 Y16.4806
G01 X21.7494 Y16.5538
G01 X21.7301 Y16.6309
G01 X21.7033 Y16.7058
G01 X21.6718 Y16.7728
G01 X21.6667 Y16.7823
G01 X21.6314 Y16.8413
G01 X21.6254 Y16.8502
G01 X21.5811 Y16.9097
G01 X21.5278 Y16.9686
G01 X21.4689 Y17.0219
G01 X21.4050 Y17.0693
G01 X21.3368 Y17.1102
G01 X21.2650 Y17.1441
G01 X21.1901 Y17.1709
G01 X21.1183 Y17.1891
G01 X21.1077 Y17.1912
G01 X21.0398 Y17.2012
G01 X21.0290 Y17.2023
G01 X20.9550 Y17.2058
G01 X20.8756 Y17.2019
G01 X20.7970 Y17.1902
G01 X20.7251 Y17.1724
G01 X20.7147 Y17.1692
G01 X20.6501 Y17.1461
G01 X20.6401 Y17.1420
G01 X20.5732 Y17.1102
G01 X20.5050 Y17.0693
G01 X20.4411 Y17.0219
G01 X20.3822 Y16.9686
G01 X20.3289 Y16.9097
G01 X20.2846 Y16.8502
G01 X20.2786 Y16.8413
G01 X20.2433 Y16.7823
G01 X20.2382 Y16.7728
G01 X20.2067 Y16.7058
G01 X20.1799 Y16.6309
G01 X20.1606 Y16.5538
G01 X20.1496 Y16.4806
G00 Z2.0000
G00 X20.2089 Y16.4717
G01 F60.00
G01 Z-0.0000
G01 F120.00
G01 X20.2050 Y16.3958
G01 X20.2050 Y13.7958
G01 X20.2089 Y13.7199
G01 X20.2194 Y13.6495
G01 X20.2370 Y13.5793
G01 X20.2621 Y13.5088
G01 X20.2936 Y13.4423
G01 X20.3314 Y13.3791
G01 X20.3752 Y13.3200
G01 X20.4247 Y13.2655
G01 X20.4792 Y13.2160
G01 X20.5383 Y13.1722
G01 X20.6015 Y13.1344
G01 X20.6680 Y13.1029
G01 X20.7373 Y13.0781
G01 X20.8087 Y13.0602
G01 X20.8815 Y13.0494
G01 X20.9550 Y13.0458
G01 X21.0285 Y13.0494
G01 X21.1013 Y13.0602
G01 X21.1715 Y13.0778
G01 X21.2443 Y13.1039
G01 X21.3085 Y13.1344
G01 X21.3717 Y13.1722
G01 X21.4308 Y13.2160
G01 X21.4836 Y13.2638
G01 X21.5348 Y13.3200
G01 X21.5799 Y13.3812
G01 X21.6164 Y13.4423
G01 X21.6479 Y13.5088
G01 X21.6734 Y13.5805
G01 X21.6906 Y13.6495
G01 X21.7011 Y13.7199
G01 X21.7050 Y13.7958
G01 X21.7050 Y16.3958
G01 X21.7011 Y16.4717
G01 X21.6906 Y16.5421
G01 X21.6730 Y16.6123
G01 X21.6479 Y16.6828
G01 X21.6175 Y16.7472
G01 X21.5772 Y16.8145
G01 X21.5348 Y16.8716
G01 X21.4853 Y16.9261
G01 X21.4308 Y16.9756
G01 X21.3717 Y17.0194
G01 X21.3085 Y17.0572
G01 X21.2420 Y17.0887
G01 X21.1727 Y17.1135
G01 X21.1037 Y17.1309
G01 X21.0261 Y17.1424
G01 X20.9550 Y17.1458
G01 X20.8815 Y17.1422
G01 X20.8087 Y17.1314
G01 X20.7397 Y17.1142
G01 X20.6657 Y17.0877
G01 X20.6015 Y17.0572
G01 X20.5383 Y17.0194
G01 X20.4792 Y16.9756
G01 X20.4247 Y16.9261
G01 X20.3752 Y16.8716
G01 X20.3328 Y16.8145
G01 X20.2925 Y16.7472
G01 X20.2621 Y16.6828
G01 X20.2373 Y16.6135
G01 X20.2194 Y16.5421
G01 X20.2089 Y16.4717
G00 Z2.0000
G00 X22.6896 Y16.4806
G01 F60.00
G01 Z-0.0000
G01 F120.00
G01 X22.6885 Y16.4698
G01 X22.6850 Y16.3958
G01 X22.6850 Y13.7931
G01 X22.6889 Y13.7164
G01 X22.6996 Y13.6431
G01 X22.7017 Y13.6325
G01 X22.7199 Y13.5607
G01 X22.7447 Y13.4909
G01 X22.7488 Y13.4809
G01 X22.7806 Y13.4140
G01 X22.8132 Y13.3594
G01 X22.8132 Y11.6215
G01 X22.8165 Y11.5574
G01 X22.8263 Y11.4912
G01 X22.8426 Y11.4263
G01 X22.8632 Y11.3683
G01 X22.8673 Y11.3584
G01 X22.8937 Y11.3028
G01 X22.9281 Y11.2454
G01 X22.9680 Y11.1917
G01 X23.0110 Y11.1440
G01 X25.0687 Y9.0863
G01 X25.1164 Y9.0433
G01 X25.1657 Y9.0065
G01 X25.1747 Y9.0005
G01 X25.2228 Y8.9717
G01 X25.2323 Y8.9666
G01 X25.2880 Y8.9404
G01 X25.3510 Y8.9179
G01 X25.4159 Y8.9016
G01 X25.4794 Y8.8921
G01 X25.4875 Y8.8914
G01 X25.5489 Y8.8885
G01 X63.9915 Y8.8886
G01 X64.0529 Y8.8918
G01 X64.1191 Y8.9016
G01 X64.1840 Y8.9179
G01 X64.2420 Y8.9385
G01 X64.2519 Y8.9426
G01 X64.3027 Y8.9666
G01 X64.3122 Y8.9717
G01 X64.3649 Y9.0034
G01 X64.4144 Y9.0400
G01 X64.4207 Y9.0450
G01 X64.4682 Y9.0882
G01 X66.0400 Y10.6600
G01 X69.6460 Y7.0540
G01 X69.6937 Y7.0110
G01 X69.7474 Y6.9711
G01 X69.8048 Y6.9367
G01 X69.8604 Y6.9103
G01 X69.8703 Y6.9062
G01 X69.9232 Y6.8873
G01 X69.9335 Y6.8841
G01 X69.9932 Y6.8693
G01 X70.0594 Y6.8595
G01 X70.1262 Y6.8562
G01 X85.5214 Y6.8562
G01 X85.5828 Y6.8591
G01 X85.5909 Y6.8598
G01 X85.6544 Y6.8693
G01 X85.7141 Y6.8841
G01 X85.7244 Y6.8873
G01 X85.7773 Y6.9062
G01 X85.7872 Y6.9103
G01 X85.8428 Y6.9367
G01 X85.9002 Y6.9711
G01 X85.9539 Y7.0110
G01 X85.9996 Y7.0522
G01 X88.2381 Y9.2905
G01 X90.5154 Y7.0134
G01 X90.5611 Y6.9722
G01 X90.6104 Y6.9354
G01 X90.6194 Y6.9294
G01 X90.6675 Y6.9006
G01 X90.6770 Y6.8955
G01 X90.7327 Y6.8693
G01 X90.7957 Y6.8468
G01 X90.8606 Y6.8305
G01 X90.9214 Y6.8214
G01 X90.9322 Y6.8203
G01 X90.9936 Y6.8174
G01 X105.1980 Y6.8174
G01 X105.2621 Y6.8207
G01 X105.3283 Y6.8305
G01 X105.3932 Y6.8468
G01 X105.4562 Y6.8693
G01 X105.5167 Y6.8979
G01 X105.5741 Y6.9323
G01 X105.6278 Y6.9722
G01 X105.6735 Y7.0134
G01 X108.7498 Y10.0895
G01 X113.8661 Y4.9732
G01 X113.9138 Y4.9302
G01 X113.9675 Y4.8903
G01 X114.0249 Y4.8559
G01 X114.0854 Y4.8273
G01 X114.1484 Y4.8048
G01 X114.2133 Y4.7885
G01 X114.2795 Y4.7787
G01 X114.3436 Y4.7754
G01 X145.9987 Y4.7754
G01 X146.0655 Y4.7787
G01 X146.1264 Y4.7876
G01 X146.1344 Y4.7891
G01 X146.1966 Y4.8048
G01 X146.2546 Y4.8254
G01 X146.2645 Y4.8295
G01 X146.3201 Y4.8559
G01 X146.3729 Y4.8874
G01 X146.3819 Y4.8934
G01 X146.4312 Y4.9302
G01 X146.4808 Y4.9751
G01 X152.2471 Y10.7414
G01 X152.2920 Y10.7910
G01 X152.3304 Y10.8425
G01 X152.3348 Y10.8493
G01 X152.3636 Y10.8974
G01 X152.3687 Y10.9069
G01 X152.3949 Y10.9626
G01 X152.4174 Y11.0256
G01 X152.4325 Y11.0852
G01 X152.4346 Y11.0958
G01 X152.4435 Y11.1567
G01 X152.4467 Y11.2181
G01 X152.4468 Y13.3594
G01 X152.4794 Y13.4140
G01 X152.5112 Y13.4809
G01 X152.5153 Y13.4909
G01 X152.5401 Y13.5607
G01 X152.5583 Y13.6325
G01 X152.5604 Y13.6431
G01 X152.5711 Y13.7164
G01 X152.5750 Y13.7931
G01 X152.5750 Y16.3985
G01 X152.5711 Y16.4752
G01 X152.5604 Y16.5485
G01 X152.5583 Y16.5591
G01 X152.5401 Y16.6309
G01 X152.5133 Y16.7058
G01 X152.4794 Y16.7776
G01 X152.4385 Y16.8458
G01 X152.3911 Y16.9097
G01 X152.3378 Y16.9686
G01 X152.2789 Y17.0219
G01 X152.2150 Y17.0693
G01 X152.1468 Y17.1102
G01 X152.0750 Y17.1441
G01 X152.0001 Y17.1709
G01 X151.9230 Y17.1902
G01 X151.8444 Y17.2019
G01 X151.7650 Y17.2058
G01 X151.6856 Y17.2019
G01 X151.6070 Y17.1902
G01 X151.5299 Y17.1709
G01 X151.4601 Y17.1461
G01 X151.4501 Y17.1420
G01 X151.3832 Y17.1102
G01 X151.3150 Y17.0693
G01 X151.2511 Y17.0219
G01 X151.1962 Y16.9723
G01 X151.1885 Y16.9646
G01 X151.1389 Y16.9097
G01 X151.0946 Y16.8502
G01 X151.0886 Y16.8413
G01 X151.0506 Y16.7776
G01 X151.0167 Y16.7058
G01 X150.9899 Y16.6309
G01 X150.9717 Y16.5591
G01 X150.9696 Y16.5485
G01 X150.9596 Y16.4806
G01 X150.9587 Y16.4725
G01 X150.9550 Y16.3958
G01 X150.9550 Y13.7931
G01 X150.9589 Y13.7164
G01 X150.9696 Y13.6431
G01 X150.9717 Y13.6325
G01 X150.9899 Y13.5607
G01 X151.0147 Y13.4909
G01 X151.0188 Y13.4809
G01 X151.0506 Y13.4140
G01 X151.0832 Y13.3594
G01 X151.0832 Y11.5059
G01 X145.7163 Y6.1390
G01 X114.6287 Y6.1390
G01 X109.2668 Y11.5009
G01 X109.2668 Y13.3594
G01 X109.2994 Y13.4140
G01 X109.3312 Y13.4809
G01 X109.3353 Y13.4909
G01 X109.3601 Y13.5607
G01 X109.3783 Y13.6325
G01 X109.3804 Y13.6431
G01 X109.3911 Y13.7164
G01 X109.3950 Y13.7931
G01 X109.3950 Y16.3958
G01 X109.3911 Y16.4752
G01 X109.3794 Y16.5538
G01 X109.3616 Y16.6257
G01 X109.3584 Y16.6361
G01 X109.3353 Y16.7007
G01 X109.3312 Y16.7107
G01 X109.2994 Y16.7776
G01 X109.2585 Y16.8458
G01 X109.2111 Y16.9097
G01 X109.1578 Y16.9686
G01 X109.0989 Y17.0219
G01 X109.0350 Y17.0693
G01 X108.9668 Y17.1102
G01 X108.8999 Y17.1420
G01 X108.8899 Y17.1461
G01 X108.8253 Y17.1692
G01 X108.8149 Y17.1724
G01 X108.7430 Y17.1902
G01 X108.6698 Y17.2012
G01 X108.6617 Y17.2021
G01 X108.5850 Y17.2058
G01 X108.5056 Y17.2019
G01 X108.4270 Y17.1902
G01 X108.3499 Y17.1709
G01 X108.2750 Y17.1441
G01 X108.2032 Y17.1102
G01 X108.1350 Y17.0693
G01 X108.0711 Y17.0219
G01 X108.0122 Y16.9686
G01 X107.9589 Y16.9097
G01 X107.9115 Y16.8458
G01 X107.8706 Y16.7776
G01 X107.8367 Y16.7058
G01 X107.8099 Y16.6309
G01 X107.7906 Y16.5538
G01 X107.7792 Y16.4779
G01 X107.7785 Y16.4698
G01 X107.7750 Y16.3958
G01 X107.7750 Y13.7931
G01 X107.7789 Y13.7164
G01 X107.7896 Y13.6431
G01 X107.7917 Y13.6325
G01 X107.8099 Y13.5607
G01 X107.8347 Y13.4909
G01 X107.8388 Y13.4809
G01 X107.8706 Y13.4140
G01 X107.9032 Y13.3594
G01 X107.9032 Y11.2185
G01 X107.9053 Y11.1734
G01 X104.9129 Y8.1810
G01 X91.2760 Y8.1810
G01 X88.9199 Y10.5371
G01 X88.9199 Y64.1657
G01 X93.1092 Y68.3550
G01 X102.5669 Y68.3550
G01 X102.5669 Y61.6146
G01 X101.6483 Y60.6960
G01 X99.1068 Y60.6960
G01 X99.1068 Y61.7129
G01 X99.1370 Y61.7536
G01 X99.1415 Y61.7603
G01 X99.1808 Y61.8257
G01 X99.1847 Y61.8328
G01 X99.2195 Y61.9067
G01 X99.2472 Y61.9836
G01 X99.2494 Y61.9914
G01 X99.2673 Y62.0628
G01 X99.2694 Y62.0733
G01 X99.2809 Y62.1515
G01 X99.2850 Y62.2331
G01 X99.2850 Y64.7385
G01 X99.2809 Y64.8201
G01 X99.2685 Y64.9036
G01 X99.2480 Y64.9854
G01 X99.2205 Y65.0624
G01 X99.2173 Y65.0698
G01 X99.1835 Y65.1412
G01 X99.1430 Y65.2090
G01 X99.1370 Y65.2180
G01 X99.0931 Y65.2771
G01 X99.0863 Y65.2855
G01 X99.0331 Y65.3439
G01 X98.9706 Y65.4006
G01 X98.9028 Y65.4509
G01 X98.8304 Y65.4943
G01 X98.7541 Y65.5303
G01 X98.6746 Y65.5588
G01 X98.5928 Y65.5793
G01 X98.5147 Y65.5910
G01 X98.5039 Y65.5921
G01 X98.4304 Y65.5957
G01 X98.4196 Y65.5957
G01 X98.3407 Y65.5917
G01 X98.2572 Y65.5793
G01 X98.1754 Y65.5588
G01 X98.0959 Y65.5303
G01 X98.0196 Y65.4943
G01 X97.9518 Y65.4538
G01 X97.9428 Y65.4478
G01 X97.8837 Y65.4039
G01 X97.8753 Y65.3971
G01 X97.8169 Y65.3439
G01 X97.7602 Y65.2814
G01 X97.7099 Y65.2136
G01 X97.6692 Y65.1459
G01 X97.6641 Y65.1364
G01 X97.6327 Y65.0698
G01 X97.6285 Y65.0599
G01 X97.6020 Y64.9854
G01 X97.5815 Y64.9036
G01 X97.5691 Y64.8201
G01 X97.5650 Y64.7385
G01 X97.5650 Y62.2358
G01 X97.5689 Y62.1542
G01 X97.5698 Y62.1461
G01 X97.5806 Y62.0733
G01 X97.5827 Y62.0628
G01 X97.6020 Y61.9862
G01 X97.6295 Y61.9092
G01 X97.6327 Y61.9018
G01 X97.6641 Y61.8352
G01 X97.6678 Y61.8280
G01 X97.7099 Y61.7580
G01 X97.7432 Y61.7129
G01 X97.7432 Y60.0142
G01 X97.7463 Y59.9501
G01 X97.7472 Y59.9420
G01 X97.7554 Y59.8865
G01 X97.7575 Y59.8759
G01 X97.7726 Y59.8163
G01 X97.7951 Y59.7533
G01 X97.8237 Y59.6928
G01 X97.8552 Y59.6400
G01 X97.8612 Y59.6310
G01 X97.8947 Y59.5859
G01 X97.9015 Y59.5776
G01 X97.9392 Y59.5360
G01 X97.9468 Y59.5284
G01 X97.9925 Y59.4872
G01 X98.0418 Y59.4504
G01 X98.0508 Y59.4444
G01 X98.1036 Y59.4129
G01 X98.1592 Y59.3865
G01 X98.1691 Y59.3824
G01 X98.2271 Y59.3618
G01 X98.2920 Y59.3455
G01 X98.3582 Y59.3357
G01 X98.4223 Y59.3324
G01 X101.9334 Y59.3324
G01 X101.9975 Y59.3357
G01 X102.0584 Y59.3446
G01 X102.0690 Y59.3467
G01 X102.1286 Y59.3618
G01 X102.1916 Y59.3843
G01 X102.2473 Y59.4105
G01 X102.2568 Y59.4156
G01 X102.3049 Y59.4444
G01 X102.3117 Y59.4488
G01 X102.3632 Y59.4872
G01 X102.4128 Y59.5321
G01 X103.7345 Y60.8540
G01 X103.7757 Y60.8997
G01 X103.8125 Y60.9490
G01 X103.8185 Y60.9580
G01 X103.8500 Y61.0108
G01 X103.8786 Y61.0713
G01 X103.8994 Y61.1292
G01 X103.9026 Y61.1395
G01 X103.9162 Y61.1939
G01 X103.9179 Y61.2018
G01 X103.9272 Y61.2654
G01 X103.9305 Y61.3322
G01 X103.9305 Y68.3550
G01 X106.3229 Y68.3551
G01 X106.3843 Y68.3583
G01 X106.4452 Y68.3672
G01 X106.4558 Y68.3693
G01 X106.5154 Y68.3844
G01 X106.5784 Y68.4069
G01 X106.6341 Y68.4331
G01 X106.6436 Y68.4382
G01 X106.6963 Y68.4699
G01 X106.7500 Y68.5098
G01 X106.7996 Y68.5547
G01 X111.2687 Y73.0238
G01 X111.3136 Y73.0734
G01 X111.3504 Y73.1227
G01 X111.3564 Y73.1317
G01 X111.3879 Y73.1845
G01 X111.4143 Y73.2401
G01 X111.4184 Y73.2500
G01 X111.4382 Y73.3054
G01 X111.4405 Y73.3132
G01 X111.4541 Y73.3676
G01 X111.4562 Y73.3782
G01 X111.4651 Y73.4391
G01 X111.4684 Y73.5059
G01 X111.4684 Y77.4558
G01 X111.4655 Y77.5172
G01 X111.4644 Y77.5280
G01 X111.4553 Y77.5888
G01 X111.4405 Y77.6485
G01 X111.4373 Y77.6588
G01 X111.4165 Y77.7167
G01 X111.3903 Y77.7724
G01 X111.3866 Y77.7796
G01 X111.3535 Y77.8346
G01 X111.3169 Y77.8841
G01 X111.3101 Y77.8924
G01 X111.2724 Y77.9340
G01 X111.2648 Y77.9416
G01 X111.2191 Y77.9828
G01 X111.1698 Y78.0196
G01 X111.1608 Y78.0256
G01 X111.1080 Y78.0571
G01 X111.0475 Y78.0857
G01 X110.9845 Y78.1082
G01 X110.9196 Y78.1245
G01 X110.8534 Y78.1343
G01 X110.7866 Y78.1376
G01 X109.0879 Y78.1376
G01 X109.0472 Y78.1678
G01 X109.0405 Y78.1723
G01 X108.9751 Y78.2116
G01 X108.9680 Y78.2155
G01 X108.8941 Y78.2503
G01 X108.8172 Y78.2780
G01 X108.8094 Y78.2802
G01 X108.7380 Y78.2981
G01 X108.7275 Y78.3002
G01 X108.6493 Y78.3117
G01 X108.5677 Y78.3158
G01 X106.0650 Y78.3158
G01 X105.9807 Y78.3117
G01 X105.8999 Y78.2998
G01 X105.8920 Y78.2981
G01 X105.8206 Y78.2802
G01 X105.8102 Y78.2771
G01 X105.7359 Y78.2503
G01 X105.6644 Y78.2167
G01 X105.6549 Y78.2116
G01 X105.5872 Y78.1709
G01 X105.5237 Y78.1239
G01 X105.5153 Y78.1171
G01 X105.4569 Y78.0639
G01 X105.4037 Y78.0055
G01 X105.3969 Y77.9971
G01 X105.3499 Y77.9336
G01 X105.3092 Y77.8659
G01 X105.3041 Y77.8564
G01 X105.2705 Y77.7849
G01 X105.2420 Y77.7054
G01 X105.2215 Y77.6236
G01 X105.2091 Y77.5401
G01 X105.2050 Y77.4558
G01 X105.2087 Y77.3769
G01 X105.2098 Y77.3661
G01 X105.2215 Y77.2880
G01 X105.2406 Y77.2114
G01 X105.2437 Y77.2010
G01 X105.2705 Y77.1267
G01 X105.3041 Y77.0552
G01 X105.3092 Y77.0457
G01 X105.3470 Y76.9826
G01 X105.3530 Y76.9736
G01 X105.4002 Y76.9102
G01 X105.4569 Y76.8477
G01 X105.5194 Y76.7910
G01 X105.5872 Y76.7407
G01 X105.6596 Y76.6973
G01 X105.7359 Y76.6613
G01 X105.8154 Y76.6328
G01 X105.8972 Y76.6123
G01 X105.9807 Y76.5999
G01 X106.0650 Y76.5958
G01 X108.5704 Y76.5959
G01 X108.6493 Y76.5999
G01 X108.7275 Y76.6114
G01 X108.7380 Y76.6135
G01 X108.8094 Y76.6314
G01 X108.8198 Y76.6345
G01 X108.8941 Y76.6613
G01 X108.9704 Y76.6973
G01 X109.0428 Y76.7407
G01 X109.0879 Y76.7740
G01 X110.1048 Y76.7740
G01 X110.1048 Y73.7883
G01 X106.0351 Y69.7186
G01 X92.8268 Y69.7186
G01 X92.7654 Y69.7157
G01 X92.7546 Y69.7146
G01 X92.6938 Y69.7055
G01 X92.6341 Y69.6907
G01 X92.6238 Y69.6875
G01 X92.5659 Y69.6667
G01 X92.5102 Y69.6405
G01 X92.5007 Y69.6354
G01 X92.4480 Y69.6037
G01 X92.3985 Y69.5671
G01 X92.3902 Y69.5603
G01 X92.3466 Y69.5208
G01 X87.9557 Y65.1299
G01 X86.5236 Y65.1299
G01 X80.0568 Y71.5967
G01 X80.0568 Y73.0494
G01 X80.0894 Y73.1040
G01 X80.1212 Y73.1709
G01 X80.1253 Y73.1809
G01 X80.1501 Y73.2507
G01 X80.1683 Y73.3225
G01 X80.1704 Y73.3331
G01 X80.1811 Y73.4064
G01 X80.1850 Y73.4831
G01 X80.1850 Y76.0858
G01 X80.1813 Y76.1625
G01 X80.1804 Y76.1706
G01 X80.1704 Y76.2385
G01 X80.1683 Y76.2491
G01 X80.1501 Y76.3209
G01 X80.1233 Y76.3958
G01 X80.0894 Y76.4676
G01 X80.0514 Y76.5313
G01 X80.0454 Y76.5402
G01 X80.0011 Y76.5997
G01 X79.9515 Y76.6546
G01 X79.9438 Y76.6623
G01 X79.8889 Y76.7119
G01 X79.8250 Y76.7593
G01 X79.7615 Y76.7975
G01 X79.7520 Y76.8026
G01 X79.6850 Y76.8341
G01 X79.6127 Y76.8601
G01 X79.6049 Y76.8624
G01 X79.5330 Y76.8802
G01 X79.4544 Y76.8919
G01 X79.3750 Y76.8958
G01 X79.2956 Y76.8919
G01 X79.2170 Y76.8802
G01 X79.1399 Y76.8609
G01 X79.0650 Y76.8341
G01 X78.9932 Y76.8002
G01 X78.9250 Y76.7593
G01 X78.8611 Y76.7119
G01 X78.8022 Y76.6586
G01 X78.7489 Y76.5997
G01 X78.7015 Y76.5358
G01 X78.6606 Y76.4676
G01 X78.6267 Y76.3958
G01 X78.6016 Y76.3261
G01 X78.5984 Y76.3157
G01 X78.5806 Y76.2438
G01 X78.5696 Y76.1706
G01 X78.5685 Y76.1598
G01 X78.5650 Y76.0858
G01 X78.5650 Y73.4831
G01 X78.5689 Y73.4064
G01 X78.5796 Y73.3331
G01 X78.5817 Y73.3225
G01 X78.5999 Y73.2507
G01 X78.6247 Y73.1809
G01 X78.6288 Y73.1709
G01 X78.6606 Y73.1040
G01 X78.6932 Y73.0494
G01 X78.6932 Y71.5967
G01 X78.0949 Y70.9984
G01 X59.5216 Y70.9984
G01 X56.8584 Y73.6616
G01 X56.8584 Y77.4558
G01 X56.8555 Y77.5172
G01 X56.8544 Y77.5280
G01 X56.8453 Y77.5888
G01 X56.8290 Y77.6537
G01 X56.8065 Y77.7167
G01 X56.7779 Y77.7772
G01 X56.7435 Y77.8346
G01 X56.7036 Y77.8883
G01 X56.6587 Y77.9379
G01 X56.6132 Y77.9793
G01 X56.6049 Y77.9861
G01 X56.5554 Y78.0227
G01 X56.5027 Y78.0544
G01 X56.4932 Y78.0595
G01 X56.4375 Y78.0857
G01 X56.3745 Y78.1082
G01 X56.3149 Y78.1233
G01 X56.3043 Y78.1254
G01 X56.2488 Y78.1336
G01 X56.2407 Y78.1345
G01 X56.1766 Y78.1376
G01 X54.4779 Y78.1376
G01 X54.4328 Y78.1709
G01 X54.3628 Y78.2130
G01 X54.3556 Y78.2167
G01 X54.2890 Y78.2481
G01 X54.2816 Y78.2513
G01 X54.2046 Y78.2788
G01 X54.1280 Y78.2981
G01 X54.1175 Y78.3002
G01 X54.0447 Y78.3110
G01 X54.0366 Y78.3119
G01 X53.9550 Y78.3158
G01 X51.4496 Y78.3157
G01 X51.3707 Y78.3117
G01 X51.2925 Y78.3002
G01 X51.2820 Y78.2981
G01 X51.2106 Y78.2802
G01 X51.2002 Y78.2771
G01 X51.1259 Y78.2503
G01 X51.0496 Y78.2143
G01 X50.9772 Y78.1709
G01 X50.9137 Y78.1239
G01 X50.9053 Y78.1171
G01 X50.8508 Y78.0676
G01 X50.8432 Y78.0600
G01 X50.7902 Y78.0014
G01 X50.7399 Y77.9336
G01 X50.6992 Y77.8659
G01 X50.6941 Y77.8564
G01 X50.6605 Y77.7849
G01 X50.6328 Y77.7080
G01 X50.6306 Y77.7002
G01 X50.6115 Y77.6236
G01 X50.5991 Y77.5401
G01 X50.5950 Y77.4558
G01 X50.5991 Y77.3715
G01 X50.6115 Y77.2880
G01 X50.6320 Y77.2062
G01 X50.6605 Y77.1267
G01 X50.6941 Y77.0552
G01 X50.6992 Y77.0457
G01 X50.7370 Y76.9826
G01 X50.7430 Y76.9736
G01 X50.7902 Y76.9102
G01 X50.8432 Y76.8516
G01 X50.8508 Y76.8440
G01 X50.9094 Y76.7910
G01 X50.9728 Y76.7438
G01 X50.9818 Y76.7378
G01 X51.0496 Y76.6973
G01 X51.1259 Y76.6613
G01 X51.2054 Y76.6328
G01 X51.2872 Y76.6123
G01 X51.3707 Y76.5999
G01 X51.4550 Y76.5958
G01 X53.9604 Y76.5959
G01 X54.0393 Y76.5999
G01 X54.1175 Y76.6114
G01 X54.1280 Y76.6135
G01 X54.1994 Y76.6314
G01 X54.2098 Y76.6345
G01 X54.2841 Y76.6613
G01 X54.3604 Y76.6973
G01 X54.4328 Y76.7407
G01 X54.4779 Y76.7740
G01 X55.4948 Y76.7740
G01 X55.4948 Y73.3765
G01 X55.4981 Y73.3124
G01 X55.5079 Y73.2462
G01 X55.5242 Y73.1813
G01 X55.5448 Y73.1233
G01 X55.5478 Y73.1158
G01 X55.5753 Y73.0578
G01 X55.6097 Y73.0004
G01 X55.6496 Y72.9467
G01 X55.6926 Y72.8990
G01 X58.2750 Y70.3166
G01 X55.3960 Y67.4376
G01 X55.3565 Y67.3940
G01 X55.3497 Y67.3857
G01 X55.3131 Y67.3362
G01 X55.2814 Y67.2835
G01 X55.2763 Y67.2740
G01 X55.2501 Y67.2183
G01 X55.2276 Y67.1553
G01 X55.2125 Y67.0957
G01 X55.2104 Y67.0851
G01 X55.2015 Y67.0242
G01 X55.1982 Y66.9601
G01 X55.1982 Y65.2587
G01 X55.1649 Y65.2136
G01 X55.1215 Y65.1412
G01 X55.0855 Y65.0649
G01 X55.0587 Y64.9906
G01 X55.0556 Y64.9802
G01 X55.0377 Y64.9088
G01 X55.0356 Y64.8983
G01 X55.0241 Y64.8201
G01 X55.0201 Y64.7412
G01 X55.0200 Y62.2358
G01 X55.0237 Y62.1569
G01 X55.0248 Y62.1461
G01 X55.0365 Y62.0680
G01 X55.0556 Y61.9914
G01 X55.0587 Y61.9810
G01 X55.0855 Y61.9067
G01 X55.1191 Y61.8352
G01 X55.1242 Y61.8257
G01 X55.1620 Y61.7626
G01 X55.1680 Y61.7536
G01 X55.2152 Y61.6902
G01 X55.2682 Y61.6316
G01 X55.2758 Y61.6240
G01 X55.3344 Y61.5710
G01 X55.4022 Y61.5207
G01 X55.4699 Y61.4800
G01 X55.4794 Y61.4749
G01 X55.5460 Y61.4435
G01 X55.5534 Y61.4403
G01 X55.6304 Y61.4128
G01 X55.7070 Y61.3935
G01 X55.7175 Y61.3914
G01 X55.7903 Y61.3806
G01 X55.8011 Y61.3795
G01 X55.8800 Y61.3758
G01 X55.9589 Y61.3795
G01 X55.9697 Y61.3806
G01 X56.0478 Y61.3923
G01 X56.1296 Y61.4128
G01 X56.2091 Y61.4413
G01 X56.2854 Y61.4773
G01 X56.3578 Y61.5207
G01 X56.4213 Y61.5677
G01 X56.4297 Y61.5745
G01 X56.4842 Y61.6240
G01 X56.4918 Y61.6316
G01 X56.5448 Y61.6902
G01 X56.5920 Y61.7536
G01 X56.5980 Y61.7626
G01 X56.6385 Y61.8304
G01 X56.6745 Y61.9067
G01 X56.7030 Y61.9862
G01 X56.7235 Y62.0680
G01 X56.7359 Y62.1515
G01 X56.7400 Y62.2358
G01 X56.7400 Y64.7385
G01 X56.7359 Y64.8201
G01 X56.7244 Y64.8983
G01 X56.7223 Y64.9088
G01 X56.7044 Y64.9802
G01 X56.7022 Y64.9880
G01 X56.6745 Y65.0649
G01 X56.6397 Y65.1388
G01 X56.6358 Y65.1459
G01 X56.5965 Y65.2113
G01 X56.5920 Y65.2180
G01 X56.5618 Y65.2587
G01 X56.5618 Y66.6750
G01 X59.5216 Y69.6348
G01 X78.3800 Y69.6348
G01 X78.4441 Y69.6381
G01 X78.5050 Y69.6470
G01 X78.5156 Y69.6491
G01 X78.5752 Y69.6642
G01 X78.6382 Y69.6867
G01 X78.6939 Y69.7129
G01 X78.7034 Y69.7180
G01 X78.7515 Y69.7468
G01 X78.7583 Y69.7512
G01 X78.8098 Y69.7896
G01 X78.8575 Y69.8326
G01 X79.3750 Y70.3501
G01 X85.7591 Y63.9660
G01 X85.8087 Y63.9211
G01 X85.8624 Y63.8812
G01 X85.9151 Y63.8495
G01 X85.9246 Y63.8444
G01 X85.9803 Y63.8182
G01 X86.0382 Y63.7974
G01 X86.0485 Y63.7942
G01 X86.1082 Y63.7794
G01 X86.1744 Y63.7696
G01 X86.2412 Y63.7663
G01 X87.5563 Y63.7663
G01 X87.5563 Y10.5371
G01 X85.2390 Y8.2198
G01 X70.4086 Y8.2198
G01 X66.7218 Y11.9066
G01 X66.7218 Y13.3594
G01 X66.7544 Y13.4140
G01 X66.7862 Y13.4809
G01 X66.7903 Y13.4909
G01 X66.8151 Y13.5607
G01 X66.8333 Y13.6325
G01 X66.8354 Y13.6431
G01 X66.8461 Y13.7164
G01 X66.8500 Y13.7931
G01 X66.8500 Y16.3958
G01 X66.8465 Y16.4698
G01 X66.8458 Y16.4779
G01 X66.8344 Y16.5538
G01 X66.8151 Y16.6309
G01 X66.7883 Y16.7058
G01 X66.7568 Y16.7728
G01 X66.7517 Y16.7823
G01 X66.7164 Y16.8413
G01 X66.7104 Y16.8502
G01 X66.6661 Y16.9097
G01 X66.6128 Y16.9686
G01 X66.5539 Y17.0219
G01 X66.4944 Y17.0662
G01 X66.4855 Y17.0722
G01 X66.4265 Y17.1075
G01 X66.4170 Y17.1126
G01 X66.3500 Y17.1441
G01 X66.2751 Y17.1709
G01 X66.1980 Y17.1902
G01 X66.1221 Y17.2016
G01 X66.1140 Y17.2023
G01 X66.0400 Y17.2058
G01 X65.9606 Y17.2019
G01 X65.8820 Y17.1902
G01 X65.8049 Y17.1709
G01 X65.7300 Y17.1441
G01 X65.6582 Y17.1102
G01 X65.5900 Y17.0693
G01 X65.5261 Y17.0219
G01 X65.4672 Y16.9686
G01 X65.4139 Y16.9097
G01 X65.3665 Y16.8458
G01 X65.3256 Y16.7776
G01 X65.2917 Y16.7058
G01 X65.2649 Y16.6309
G01 X65.2456 Y16.5538
G01 X65.2346 Y16.4806
G01 X65.2335 Y16.4698
G01 X65.2300 Y16.3958
G01 X65.2300 Y13.7931
G01 X65.2339 Y13.7164
G01 X65.2446 Y13.6431
G01 X65.2467 Y13.6325
G01 X65.2649 Y13.5607
G01 X65.2897 Y13.4909
G01 X65.2938 Y13.4809
G01 X65.3256 Y13.4140
G01 X65.3582 Y13.3594
G01 X65.3582 Y11.9066
G01 X63.7037 Y10.2521
G01 X25.8313 Y10.2521
G01 X24.1768 Y11.9066
G01 X24.1768 Y13.3594
G01 X24.2094 Y13.4140
G01 X24.2412 Y13.4809
G01 X24.2453 Y13.4909
G01 X24.2701 Y13.5607
G01 X24.2894 Y13.6378
G01 X24.3004 Y13.7110
G01 X24.3015 Y13.7218
G01 X24.3050 Y13.7958
G01 X24.3050 Y16.3985
G01 X24.3015 Y16.4698
G01 X24.3004 Y16.4806
G01 X24.2894 Y16.5538
G01 X24.2716 Y16.6257
G01 X24.2684 Y16.6361
G01 X24.2433 Y16.7058
G01 X24.2106 Y16.7752
G01 X24.2067 Y16.7823
G01 X24.1714 Y16.8413
G01 X24.1654 Y16.8502
G01 X24.1211 Y16.9097
G01 X24.0678 Y16.9686
G01 X24.0089 Y17.0219
G01 X23.9494 Y17.0662
G01 X23.9405 Y17.0722
G01 X23.8815 Y17.1075
G01 X23.8720 Y17.1126
G01 X23.8050 Y17.1441
G01 X23.7301 Y17.1709
G01 X23.6530 Y17.1902
G01 X23.5798 Y17.2012
G01 X23.5690 Y17.2023
G01 X23.5004 Y17.2057
G01 X23.4896 Y17.2057
G01 X23.4156 Y17.2019
G01 X23.3370 Y17.1902
G01 X23.2599 Y17.1709
G01 X23.1901 Y17.1461
G01 X23.1801 Y17.1420
G01 X23.1132 Y17.1102
G01 X23.0450 Y17.0693
G01 X22.9854 Y17.0253
G01 X22.9771 Y17.0184
G01 X22.9262 Y16.9723
G01 X22.9185 Y16.9646
G01 X22.8689 Y16.9097
G01 X22.8215 Y16.8458
G01 X22.7806 Y16.7776
G01 X22.7488 Y16.7107
G01 X22.7447 Y16.7007
G01 X22.7216 Y16.6361
G01 X22.7184 Y16.6257
G01 X22.7006 Y16.5538
G01 X22.6896 Y16.4806
G00 Z2.0000
G00 X22.7489 Y16.4717
G01 F60.00
G01 Z-0.0000
G01 F120.00
G01 X22.7450 Y16.3958
G01 X22.7450 Y13.7946
G01 X22.7486 Y13.7223
G01 X22.7590 Y13.6519
G01 X22.7773 Y13.5781
G01 X22.8021 Y13.5088
G01 X22.8325 Y13.4444
G01 X22.8701 Y13.3812
G01 X22.8732 Y13.3766
G01 X22.8732 Y11.6230
G01 X22.8762 Y11.5633
G01 X22.8852 Y11.5029
G01 X22.9000 Y11.4437
G01 X22.9197 Y11.3885
G01 X22.9466 Y11.3311
G01 X22.9780 Y11.2788
G01 X23.0144 Y11.2297
G01 X23.0545 Y11.1854
G01 X25.1101 Y9.1298
G01 X25.1544 Y9.0897
G01 X25.2014 Y9.0547
G01 X25.2580 Y9.0208
G01 X25.3110 Y8.9958
G01 X25.3684 Y8.9753
G01 X25.4276 Y8.9605
G01 X25.4867 Y8.9516
G01 X25.5489 Y8.9485
G01 X63.9886 Y8.9486
G01 X64.0470 Y8.9515
G01 X64.1074 Y8.9605
G01 X64.1666 Y8.9753
G01 X64.2218 Y8.9950
G01 X64.2813 Y9.0231
G01 X64.3315 Y9.0533
G01 X64.3815 Y9.0904
G01 X64.4258 Y9.1306
G01 X66.0400 Y10.7449
G01 X69.6874 Y7.0975
G01 X69.7317 Y7.0574
G01 X69.7808 Y7.0210
G01 X69.8331 Y6.9896
G01 X69.8860 Y6.9645
G01 X69.9481 Y6.9423
G01 X70.0049 Y6.9282
G01 X70.0653 Y6.9192
G01 X70.1262 Y6.9162
G01 X85.5214 Y6.9162
G01 X85.5836 Y6.9193
G01 X85.6427 Y6.9282
G01 X85.6995 Y6.9423
G01 X85.7616 Y6.9645
G01 X85.8145 Y6.9896
G01 X85.8668 Y7.0210
G01 X85.9159 Y7.0574
G01 X85.9593 Y7.0966
G01 X88.2381 Y9.3754
G01 X90.5557 Y7.0578
G01 X90.5991 Y7.0186
G01 X90.6461 Y6.9836
G01 X90.7027 Y6.9497
G01 X90.7557 Y6.9247
G01 X90.8131 Y6.9042
G01 X90.8723 Y6.8894
G01 X90.9302 Y6.8807
G01 X90.9936 Y6.8774
G01 X105.1965 Y6.8774
G01 X105.2562 Y6.8804
G01 X105.3166 Y6.8894
G01 X105.3758 Y6.9042
G01 X105.4332 Y6.9247
G01 X105.4884 Y6.9508
G01 X105.5407 Y6.9822
G01 X105.5898 Y7.0186
G01 X105.6332 Y7.0578
G01 X108.7498 Y10.1744
G01 X113.9075 Y5.0167
G01 X113.9518 Y4.9766
G01 X114.0009 Y4.9402
G01 X114.0532 Y4.9088
G01 X114.1084 Y4.8827
G01 X114.1658 Y4.8622
G01 X114.2250 Y4.8474
G01 X114.2854 Y4.8384
G01 X114.3451 Y4.8354
G01 X145.9987 Y4.8354
G01 X146.0596 Y4.8384
G01 X146.1212 Y4.8476
G01 X146.1792 Y4.8622
G01 X146.2344 Y4.8819
G01 X146.2918 Y4.9088
G01 X146.3462 Y4.9416
G01 X146.3932 Y4.9766
G01 X146.4384 Y5.0175
G01 X152.2047 Y10.7838
G01 X152.2456 Y10.8290
G01 X152.2813 Y10.8770
G01 X152.3145 Y10.9326
G01 X152.3395 Y10.9856
G01 X152.3600 Y11.0430
G01 X152.3753 Y11.1046
G01 X152.3838 Y11.1626
G01 X152.3867 Y11.2210
G01 X152.3868 Y13.3766
G01 X152.3899 Y13.3812
G01 X152.4275 Y13.4444
G01 X152.4579 Y13.5088
G01 X152.4827 Y13.5781
G01 X152.5010 Y13.6519
G01 X152.5114 Y13.7223
G01 X152.5150 Y13.7946
G01 X152.5150 Y16.3958
G01 X152.5111 Y16.4717
G01 X152.5006 Y16.5421
G01 X152.4827 Y16.6135
G01 X152.4579 Y16.6828
G01 X152.4264 Y16.7493
G01 X152.3886 Y16.8125
G01 X152.3448 Y16.8716
G01 X152.2953 Y16.9261
G01 X152.2408 Y16.9756
G01 X152.1817 Y17.0194
G01 X152.1185 Y17.0572
G01 X152.0520 Y17.0887
G01 X151.9827 Y17.1135
G01 X151.9113 Y17.1314
G01 X151.8385 Y17.1422
G01 X151.7650 Y17.1458
G01 X151.6915 Y17.1422
G01 X151.6187 Y17.1314
G01 X151.5473 Y17.1135
G01 X151.4757 Y17.0877
G01 X151.4115 Y17.0572
G01 X151.3483 Y17.0194
G01 X151.2892 Y16.9756
G01 X151.2364 Y16.9278
G01 X151.1852 Y16.8716
G01 X151.1401 Y16.8104
G01 X151.1036 Y16.7493
G01 X151.0721 Y16.6828
G01 X151.0473 Y16.6135
G01 X151.0299 Y16.5445
G01 X151.0185 Y16.4681
G01 X151.0150 Y16.3958
G01 X151.0150 Y13.7946
G01 X151.0186 Y13.7223
G01 X151.0290 Y13.6519
G01 X151.0473 Y13.5781
G01 X151.0721 Y13.5088
G01 X151.1025 Y13.4444
G01 X151.1401 Y13.3812
G01 X151.1432 Y13.3766
G01 X151.1432 Y11.4811
G01 X145.7411 Y6.0790
G01 X114.6039 Y6.0790
G01 X109.2068 Y11.4761
G01 X109.2068 Y13.3766
G01 X109.2099 Y13.3812
G01 X109.2475 Y13.4444
G01 X109.2779 Y13.5088
G01 X109.3027 Y13.5781
G01 X109.3210 Y13.6519
G01 X109.3314 Y13.7223
G01 X109.3350 Y13.7946
G01 X109.3350 Y16.3958
G01 X109.3314 Y16.4693
G01 X109.3206 Y16.5421
G01 X109.3034 Y16.6111
G01 X109.2769 Y16.6851
G01 X109.2464 Y16.7493
G01 X109.2086 Y16.8125
G01 X109.1648 Y16.8716
G01 X109.1153 Y16.9261
G01 X109.0608 Y16.9756
G01 X109.0017 Y17.0194
G01 X108.9385 Y17.0572
G01 X108.8743 Y17.0877
G01 X108.8003 Y17.1142
G01 X108.7313 Y17.1314
G01 X108.6573 Y17.1423
G01 X108.5850 Y17.1458
G01 X108.5115 Y17.1422
G01 X108.4387 Y17.1314
G01 X108.3673 Y17.1135
G01 X108.2980 Y17.0887
G01 X108.2315 Y17.0572
G01 X108.1683 Y17.0194
G01 X108.1092 Y16.9756
G01 X108.0547 Y16.9261
G01 X108.0052 Y16.8716
G01 X107.9614 Y16.8125
G01 X107.9236 Y16.7493
G01 X107.8921 Y16.6828
G01 X107.8673 Y16.6135
G01 X107.8494 Y16.5421
G01 X107.8387 Y16.4705
G01 X107.8350 Y16.3958
G01 X107.8350 Y13.7946
G01 X107.8386 Y13.7223
G01 X107.8490 Y13.6519
G01 X107.8673 Y13.5781
G01 X107.8921 Y13.5088
G01 X107.9225 Y13.4444
G01 X107.9601 Y13.3812
G01 X107.9632 Y13.3766
G01 X107.9632 Y11.2185
G01 X107.9660 Y11.1600
G01 X107.9672 Y11.1504
G01 X104.9377 Y8.1210
G01 X91.2512 Y8.1210
G01 X88.8599 Y10.5123
G01 X88.8599 Y64.1905
G01 X93.0844 Y68.4150
G01 X102.6269 Y68.4150
G01 X102.6269 Y61.5898
G01 X101.6731 Y60.6360
G01 X99.0468 Y60.6360
G01 X99.0468 Y61.7327
G01 X99.0902 Y61.7913
G01 X99.1305 Y61.8587
G01 X99.1641 Y61.9297
G01 X99.1898 Y62.0012
G01 X99.2100 Y62.0821
G01 X99.2211 Y62.1574
G01 X99.2250 Y62.2346
G01 X99.2250 Y64.7370
G01 X99.2211 Y64.8142
G01 X99.2100 Y64.8895
G01 X99.1898 Y64.9704
G01 X99.1641 Y65.0419
G01 X99.1305 Y65.1129
G01 X99.0902 Y65.1803
G01 X99.0449 Y65.2414
G01 X98.9889 Y65.3032
G01 X98.9325 Y65.3542
G01 X98.8695 Y65.4010
G01 X98.8021 Y65.4413
G01 X98.7311 Y65.4749
G01 X98.6572 Y65.5014
G01 X98.5835 Y65.5199
G01 X98.5010 Y65.5321
G01 X98.4250 Y65.5358
G01 X98.3442 Y65.5316
G01 X98.2689 Y65.5204
G01 X98.1928 Y65.5014
G01 X98.1189 Y65.4749
G01 X98.0501 Y65.4424
G01 X97.9805 Y65.4010
G01 X97.9194 Y65.3557
G01 X97.8576 Y65.2997
G01 X97.8066 Y65.2433
G01 X97.7598 Y65.1803
G01 X97.7195 Y65.1129
G01 X97.6859 Y65.0419
G01 X97.6594 Y64.9680
G01 X97.6404 Y64.8919
G01 X97.6289 Y64.8142
G01 X97.6251 Y64.7383
G01 X97.6250 Y62.2358
G01 X97.6287 Y62.1586
G01 X97.6409 Y62.0773
G01 X97.6594 Y62.0036
G01 X97.6859 Y61.9297
G01 X97.7207 Y61.8565
G01 X97.7598 Y61.7913
G01 X97.8032 Y61.7327
G01 X97.8032 Y60.0142
G01 X97.8061 Y59.9545
G01 X97.8157 Y59.8905
G01 X97.8300 Y59.8337
G01 X97.8505 Y59.7763
G01 X97.8766 Y59.7211
G01 X97.9067 Y59.6708
G01 X97.9460 Y59.6179
G01 X97.9871 Y59.5728
G01 X98.0305 Y59.5336
G01 X98.0775 Y59.4986
G01 X98.1319 Y59.4658
G01 X98.1848 Y59.4407
G01 X98.2445 Y59.4192
G01 X98.3037 Y59.4044
G01 X98.3641 Y59.3954
G01 X98.4238 Y59.3924
G01 X101.9319 Y59.3924
G01 X101.9916 Y59.3954
G01 X102.0496 Y59.4039
G01 X102.1112 Y59.4192
G01 X102.1686 Y59.4397
G01 X102.2216 Y59.4647
G01 X102.2772 Y59.4979
G01 X102.3252 Y59.5336
G01 X102.3704 Y59.5745
G01 X103.6901 Y60.8943
G01 X103.7293 Y60.9377
G01 X103.7643 Y60.9847
G01 X103.7971 Y61.0391
G01 X103.8232 Y61.0943
G01 X103.8429 Y61.1494
G01 X103.8588 Y61.2121
G01 X103.8675 Y61.2713
G01 X103.8705 Y61.3322
G01 X103.8705 Y68.4150
G01 X106.3200 Y68.4151
G01 X106.3784 Y68.4180
G01 X106.4364 Y68.4265
G01 X106.4980 Y68.4418
G01 X106.5554 Y68.4623
G01 X106.6084 Y68.4873
G01 X106.6629 Y68.5198
G01 X106.7120 Y68.5562
G01 X106.7572 Y68.5971
G01 X111.2263 Y73.0662
G01 X111.2672 Y73.1114
G01 X111.3049 Y73.1625
G01 X111.3350 Y73.2128
G01 X111.3601 Y73.2657
G01 X111.3812 Y73.3242
G01 X111.3969 Y73.3870
G01 X111.4054 Y73.4450
G01 X111.4084 Y73.5059
G01 X111.4084 Y77.4558
G01 X111.4051 Y77.5192
G01 X111.3964 Y77.5771
G01 X111.3823 Y77.6339
G01 X111.3611 Y77.6937
G01 X111.3344 Y77.7500
G01 X111.3036 Y77.8012
G01 X111.2656 Y77.8521
G01 X111.2245 Y77.8972
G01 X111.1811 Y77.9364
G01 X111.1341 Y77.9714
G01 X111.0797 Y78.0042
G01 X111.0245 Y78.0303
G01 X110.9671 Y78.0508
G01 X110.9067 Y78.0659
G01 X110.8475 Y78.0746
G01 X110.7866 Y78.0776
G01 X109.0681 Y78.0776
G01 X109.0095 Y78.1210
G01 X108.9421 Y78.1613
G01 X108.8711 Y78.1949
G01 X108.7996 Y78.2206
G01 X108.7187 Y78.2408
G01 X108.6434 Y78.2519
G01 X108.5662 Y78.2558
G01 X106.0650 Y78.2558
G01 X105.9866 Y78.2519
G01 X105.9101 Y78.2407
G01 X105.8304 Y78.2206
G01 X105.7589 Y78.1949
G01 X105.6901 Y78.1624
G01 X105.6205 Y78.1210
G01 X105.5556 Y78.0726
G01 X105.4993 Y78.0215
G01 X105.4482 Y77.9652
G01 X105.3998 Y77.9003
G01 X105.3584 Y77.8307
G01 X105.3259 Y77.7619
G01 X105.2994 Y77.6880
G01 X105.2804 Y77.6119
G01 X105.2689 Y77.5342
G01 X105.2650 Y77.4558
G01 X105.2692 Y77.3750
G01 X105.2804 Y77.2997
G01 X105.3002 Y77.2212
G01 X105.3259 Y77.1497
G01 X105.3584 Y77.0809
G01 X105.3985 Y77.0134
G01 X105.4466 Y76.9483
G01 X105.4993 Y76.8901
G01 X105.5575 Y76.8374
G01 X105.6205 Y76.7906
G01 X105.6879 Y76.7503
G01 X105.7589 Y76.7167
G01 X105.8328 Y76.6902
G01 X105.9101 Y76.6709
G01 X105.9866 Y76.6597
G01 X106.0650 Y76.6558
G01 X108.5675 Y76.6559
G01 X108.6434 Y76.6597
G01 X108.7187 Y76.6708
G01 X108.7996 Y76.6910
G01 X108.8711 Y76.7167
G01 X108.9421 Y76.7503
G01 X109.0095 Y76.7906
G01 X109.0681 Y76.8340
G01 X110.1648 Y76.8340
G01 X110.1648 Y73.7635
G01 X106.0599 Y69.6586
G01 X92.8268 Y69.6586
G01 X92.7634 Y69.6553
G01 X92.7055 Y69.6466
G01 X92.6487 Y69.6325
G01 X92.5889 Y69.6113
G01 X92.5316 Y69.5840
G01 X92.4814 Y69.5538
G01 X92.4343 Y69.5190
G01 X92.3871 Y69.4765
G01 X87.9805 Y65.0699
G01 X86.4988 Y65.0699
G01 X79.9968 Y71.5719
G01 X79.9968 Y73.0666
G01 X79.9999 Y73.0712
G01 X80.0375 Y73.1344
G01 X80.0679 Y73.1988
G01 X80.0927 Y73.2681
G01 X80.1110 Y73.3419
G01 X80.1214 Y73.4123
G01 X80.1250 Y73.4846
G01 X80.1250 Y76.0858
G01 X80.1215 Y76.1581
G01 X80.1101 Y76.2345
G01 X80.0927 Y76.3035
G01 X80.0679 Y76.3728
G01 X80.0364 Y76.4393
G01 X79.9999 Y76.5004
G01 X79.9548 Y76.5616
G01 X79.9036 Y76.6178
G01 X79.8508 Y76.6656
G01 X79.7917 Y76.7094
G01 X79.7264 Y76.7483
G01 X79.6620 Y76.7787
G01 X79.5939 Y76.8031
G01 X79.5213 Y76.8214
G01 X79.4485 Y76.8322
G01 X79.3750 Y76.8358
G01 X79.3015 Y76.8322
G01 X79.2287 Y76.8214
G01 X79.1573 Y76.8035
G01 X79.0880 Y76.7787
G01 X79.0215 Y76.7472
G01 X78.9583 Y76.7094
G01 X78.8992 Y76.6656
G01 X78.8447 Y76.6161
G01 X78.7952 Y76.5616
G01 X78.7514 Y76.5025
G01 X78.7136 Y76.4393
G01 X78.6821 Y76.3728
G01 X78.6566 Y76.3011
G01 X78.6394 Y76.2321
G01 X78.6289 Y76.1617
G01 X78.6250 Y76.0858
G01 X78.6250 Y73.4846
G01 X78.6286 Y73.4123
G01 X78.6390 Y73.3419
G01 X78.6573 Y73.2681
G01 X78.6821 Y73.1988
G01 X78.7125 Y73.1344
G01 X78.7501 Y73.0712
G01 X78.7532 Y73.0666
G01 X78.7532 Y71.5719
G01 X78.1197 Y70.9384
G01 X59.4968 Y70.9384
G01 X56.7984 Y73.6368
G01 X56.7984 Y77.4558
G01 X56.7956 Y77.5143
G01 X56.7864 Y77.5771
G01 X56.7716 Y77.6363
G01 X56.7511 Y77.6937
G01 X56.7250 Y77.7489
G01 X56.6936 Y77.8012
G01 X56.6572 Y77.8503
G01 X56.6163 Y77.8955
G01 X56.5701 Y77.9372
G01 X56.5220 Y77.9728
G01 X56.4718 Y78.0030
G01 X56.4145 Y78.0303
G01 X56.3571 Y78.0508
G01 X56.3003 Y78.0651
G01 X56.2363 Y78.0747
G01 X56.1766 Y78.0776
G01 X54.4581 Y78.0776
G01 X54.3995 Y78.1210
G01 X54.3343 Y78.1601
G01 X54.2611 Y78.1949
G01 X54.1872 Y78.2214
G01 X54.1135 Y78.2399
G01 X54.0322 Y78.2521
G01 X53.9550 Y78.2558
G01 X51.4525 Y78.2557
G01 X51.3766 Y78.2519
G01 X51.3013 Y78.2408
G01 X51.2204 Y78.2206
G01 X51.1489 Y78.1949
G01 X51.0779 Y78.1613
G01 X51.0105 Y78.1210
G01 X50.9494 Y78.0757
G01 X50.8876 Y78.0197
G01 X50.8366 Y77.9633
G01 X50.7898 Y77.9003
G01 X50.7484 Y77.8307
G01 X50.7159 Y77.7619
G01 X50.6898 Y77.6892
G01 X50.6704 Y77.6119
G01 X50.6589 Y77.5342
G01 X50.6550 Y77.4558
G01 X50.6592 Y77.3750
G01 X50.6704 Y77.2997
G01 X50.6902 Y77.2212
G01 X50.7159 Y77.1497
G01 X50.7484 Y77.0809
G01 X50.7885 Y77.0134
G01 X50.8366 Y76.9483
G01 X50.8893 Y76.8901
G01 X50.9475 Y76.8374
G01 X51.0105 Y76.7906
G01 X51.0779 Y76.7503
G01 X51.1489 Y76.7167
G01 X51.2228 Y76.6902
G01 X51.3001 Y76.6709
G01 X51.3766 Y76.6597
G01 X51.4550 Y76.6558
G01 X53.9575 Y76.6559
G01 X54.0334 Y76.6597
G01 X54.1087 Y76.6708
G01 X54.1896 Y76.6910
G01 X54.2611 Y76.7167
G01 X54.3321 Y76.7503
G01 X54.3995 Y76.7906
G01 X54.4581 Y76.8340
G01 X55.5548 Y76.8340
G01 X55.5548 Y73.3780
G01 X55.5578 Y73.3183
G01 X55.5668 Y73.2579
G01 X55.5816 Y73.1987
G01 X55.6026 Y73.1401
G01 X55.6282 Y73.0861
G01 X55.6596 Y73.0338
G01 X55.6960 Y72.9847
G01 X55.7369 Y72.9395
G01 X58.3599 Y70.3166
G01 X55.4395 Y67.3962
G01 X55.3978 Y67.3499
G01 X55.3630 Y67.3028
G01 X55.3328 Y67.2526
G01 X55.3055 Y67.1953
G01 X55.2850 Y67.1379
G01 X55.2697 Y67.0763
G01 X55.2612 Y67.0183
G01 X55.2582 Y66.9586
G01 X55.2582 Y65.2389
G01 X55.2148 Y65.1803
G01 X55.1745 Y65.1129
G01 X55.1409 Y65.0419
G01 X55.1152 Y64.9704
G01 X55.0950 Y64.8895
G01 X55.0839 Y64.8142
G01 X55.0801 Y64.7383
G01 X55.0800 Y62.2358
G01 X55.0837 Y62.1598
G01 X55.0954 Y62.0797
G01 X55.1152 Y62.0012
G01 X55.1409 Y61.9297
G01 X55.1734 Y61.8609
G01 X55.2162 Y61.7893
G01 X55.2616 Y61.7283
G01 X55.3126 Y61.6719
G01 X55.3725 Y61.6174
G01 X55.4355 Y61.5706
G01 X55.5007 Y61.5315
G01 X55.5750 Y61.4962
G01 X55.6478 Y61.4702
G01 X55.7263 Y61.4508
G01 X55.8040 Y61.4395
G01 X55.8800 Y61.4358
G01 X55.9560 Y61.4395
G01 X56.0361 Y61.4512
G01 X56.1122 Y61.4702
G01 X56.1861 Y61.4967
G01 X56.2571 Y61.5303
G01 X56.3245 Y61.5706
G01 X56.3894 Y61.6190
G01 X56.4474 Y61.6719
G01 X56.4984 Y61.7283
G01 X56.5438 Y61.7893
G01 X56.5855 Y61.8587
G01 X56.6191 Y61.9297
G01 X56.6456 Y62.0036
G01 X56.6649 Y62.0809
G01 X56.6761 Y62.1574
G01 X56.6800 Y62.2358
G01 X56.6800 Y64.7370
G01 X56.6761 Y64.8142
G01 X56.6650 Y64.8895
G01 X56.6448 Y64.9704
G01 X56.6191 Y65.0419
G01 X56.5855 Y65.1129
G01 X56.5452 Y65.1803
G01 X56.5018 Y65.2389
G01 X56.5018 Y66.6998
G01 X59.4968 Y69.6948
G01 X78.3798 Y69.6949
G01 X78.4382 Y69.6978
G01 X78.4962 Y69.7063
G01 X78.5601 Y69.7224
G01 X78.6152 Y69.7421
G01 X78.6704 Y69.7682
G01 X78.7227 Y69.7996
G01 X78.7698 Y69.8344
G01 X78.8170 Y69.8769
G01 X79.3750 Y70.4350
G01 X85.8015 Y64.0084
G01 X85.8467 Y63.9675
G01 X85.8958 Y63.9311
G01 X85.9460 Y63.9009
G01 X86.0033 Y63.8736
G01 X86.0607 Y63.8531
G01 X86.1175 Y63.8388
G01 X86.1815 Y63.8292
G01 X86.2412 Y63.8263
G01 X87.6163 Y63.8263
G01 X87.6163 Y10.5123
G01 X85.2638 Y8.1598
G01 X70.3838 Y8.1598
G01 X66.6618 Y11.8818
G01 X66.6618 Y13.3766
G01 X66.6649 Y13.3812
G01 X66.7025 Y13.4444
G01 X66.7329 Y13.5088
G01 X66.7577 Y13.5781
G01 X66.7760 Y13.6519
G01 X66.7864 Y13.7223
G01 X66.7900 Y13.7946
G01 X66.7900 Y16.3958
G01 X66.7864 Y16.4693
G01 X66.7756 Y16.5421
G01 X66.7584 Y16.6111
G01 X66.7319 Y16.6851
G01 X66.7014 Y16.7493
G01 X66.6636 Y16.8125
G01 X66.6198 Y16.8716
G01 X66.5703 Y16.9261
G01 X66.5158 Y16.9756
G01 X66.4587 Y17.0180
G01 X66.3914 Y17.0583
G01 X66.3270 Y17.0887
G01 X66.2577 Y17.1135
G01 X66.1863 Y17.1314
G01 X66.1147 Y17.1421
G01 X66.0400 Y17.1458
G01 X65.9665 Y17.1422
G01 X65.8937 Y17.1314
G01 X65.8223 Y17.1135
G01 X65.7530 Y17.0887
G01 X65.6865 Y17.0572
G01 X65.6233 Y17.0194
G01 X65.5642 Y16.9756
G01 X65.5097 Y16.9261
G01 X65.4602 Y16.8716
G01 X65.4164 Y16.8125
G01 X65.3786 Y16.7493
G01 X65.3471 Y16.6828
G01 X65.3223 Y16.6135
G01 X65.3044 Y16.5421
G01 X65.2937 Y16.4705
G01 X65.2900 Y16.3958
G01 X65.2900 Y13.7946
G01 X65.2936 Y13.7223
G01 X65.3040 Y13.6519
G01 X65.3223 Y13.5781
G01 X65.3471 Y13.5088
G01 X65.3775 Y13.4444
G01 X65.4151 Y13.3812
G01 X65.4182 Y13.3766
G01 X65.4182 Y11.8818
G01 X63.7285 Y10.1921
G01 X25.8065 Y10.1921
G01 X24.1168 Y11.8818
G01 X24.1168 Y13.3766
G01 X24.1199 Y13.3812
G01 X24.1575 Y13.4444
G01 X24.1879 Y13.5088
G01 X24.2127 Y13.5781
G01 X24.2306 Y13.6495
G01 X24.2411 Y13.7199
G01 X24.2450 Y13.7958
G01 X24.2450 Y16.3970
G01 X24.2414 Y16.4693
G01 X24.2301 Y16.5445
G01 X24.2127 Y16.6135
G01 X24.1888 Y16.6805
G01 X24.1575 Y16.7472
G01 X24.1172 Y16.8145
G01 X24.0748 Y16.8716
G01 X24.0253 Y16.9261
G01 X23.9708 Y16.9756
G01 X23.9137 Y17.0180
G01 X23.8464 Y17.0583
G01 X23.7820 Y17.0887
G01 X23.7127 Y17.1135
G01 X23.6413 Y17.1314
G01 X23.5709 Y17.1419
G01 X23.4925 Y17.1457
G01 X23.4215 Y17.1422
G01 X23.3487 Y17.1314
G01 X23.2773 Y17.1135
G01 X23.2103 Y17.0896
G01 X23.1415 Y17.0572
G01 X23.0783 Y17.0194
G01 X23.0211 Y16.9771
G01 X22.9630 Y16.9244
G01 X22.9152 Y16.8716
G01 X22.8714 Y16.8125
G01 X22.8336 Y16.7493
G01 X22.8031 Y16.6851
G01 X22.7766 Y16.6111
G01 X22.7594 Y16.5421
G01 X22.7489 Y16.4717
G00 Z2.0000
G00 X25.2296 Y16.4806
G01 F60.00
G01 Z-0.0000
G01 F120.00
G01 X25.2285 Y16.4698
G01 X25.2250 Y16.3958
G01 X25.2250 Y13.7958
G01 X25.2285 Y13.7218
G01 X25.2296 Y13.7110
G01 X25.2406 Y13.6378
G01 X25.2599 Y13.5607
G01 X25.2867 Y13.4858
G01 X25.3206 Y13.4140
G01 X25.3615 Y13.3458
G01 X25.4089 Y13.2819
G01 X25.4622 Y13.2230
G01 X25.5211 Y13.1697
G01 X25.5850 Y13.1223
G01 X25.6532 Y13.0814
G01 X25.7250 Y13.0475
G01 X25.7999 Y13.0207
G01 X25.8770 Y13.0014
G01 X25.9556 Y12.9897
G01 X26.0350 Y12.9858
G01 X26.1144 Y12.9897
G01 X26.1930 Y13.0014
G01 X26.2701 Y13.0207
G01 X26.3399 Y13.0455
G01 X26.3499 Y13.0496
G01 X26.4168 Y13.0814
G01 X26.4850 Y13.1223
G01 X26.5446 Y13.1663
G01 X26.5529 Y13.1732
G01 X26.6078 Y13.2230
G01 X26.6576 Y13.2779
G01 X26.6645 Y13.2862
G01 X26.7054 Y13.3414
G01 X26.7114 Y13.3503
G01 X26.7494 Y13.4140
G01 X26.7812 Y13.4809
G01 X26.7853 Y13.4909
G01 X26.8101 Y13.5607
G01 X26.8283 Y13.6325
G01 X26.8304 Y13.6431
G01 X26.8411 Y13.7164
G01 X26.8450 Y13.7958
G01 X26.8450 Y16.3958
G01 X26.8415 Y16.4698
G01 X26.8404 Y16.4806
G01 X26.8294 Y16.5538
G01 X26.8101 Y16.6309
G01 X26.7833 Y16.7058
G01 X26.7518 Y16.7728
G01 X26.7467 Y16.7823
G01 X26.7114 Y16.8413
G01 X26.7054 Y16.8502
G01 X26.6611 Y16.9097
G01 X26.6078 Y16.9686
G01 X26.5489 Y17.0219
G01 X26.4850 Y17.0693
G01 X26.4168 Y17.1102
G01 X26.3450 Y17.1441
G01 X26.2701 Y17.1709
G01 X26.1983 Y17.1891
G01 X26.1877 Y17.1912
G01 X26.1198 Y17.2012
G01 X26.1090 Y17.2023
G01 X26.0350 Y17.2058
G01 X25.9556 Y17.2019
G01 X25.8770 Y17.1902
G01 X25.8051 Y17.1724
G01 X25.7947 Y17.1692
G01 X25.7301 Y17.1461
G01 X25.7201 Y17.1420
G01 X25.6532 Y17.1102
G01 X25.5850 Y17.0693
G01 X25.5211 Y17.0219
G01 X25.4622 Y16.9686
G01 X25.4089 Y16.9097
G01 X25.3646 Y16.8502
G01 X25.3586 Y16.8413
G01 X25.3233 Y16.7823
G01 X25.3182 Y16.7728
G01 X25.2867 Y16.7058
G01 X25.2599 Y16.6309
G01 X25.2406 Y16.5538
G01 X25.2296 Y16.4806
G00 Z2.0000
G00 X25.2889 Y16.4717
G01 F60.00
G01 Z-0.0000
G01 F120.00
G01 X25.2850 Y16.3958
G01 X25.2850 Y13.7958
G01 X25.2889 Y13.7199
G01 X25.2994 Y13.6495
G01 X25.3170 Y13.5793
G01 X25.3421 Y13.5088
G01 X25.3736 Y13.4423
G01 X25.4114 Y13.3791
G01 X25.4552 Y13.3200
G01 X25.5047 Y13.2655
G01 X25.5592 Y13.2160
G01 X25.6183 Y13.1722
G01 X25.6815 Y13.1344
G01 X25.7480 Y13.1029
G01 X25.8173 Y13.0781
G01 X25.8887 Y13.0602
G01 X25.9615 Y13.0494
G01 X26.0350 Y13.0458
G01 X26.1085 Y13.0494
G01 X26.1813 Y13.0602
G01 X26.2515 Y13.0778
G01 X26.3243 Y13.1039
G01 X26.3885 Y13.1344
G01 X26.4517 Y13.1722
G01 X26.5108 Y13.2160
G01 X26.5636 Y13.2638
G01 X26.6148 Y13.3200
G01 X26.6599 Y13.3812
G01 X26.6964 Y13.4423
G01 X26.7279 Y13.5088
G01 X26.7534 Y13.5805
G01 X26.7706 Y13.6495
G01 X26.7811 Y13.7199
G01 X26.7850 Y13.7958
G01 X26.7850 Y16.3958
G01 X26.7811 Y16.4717
G01 X26.7706 Y16.5421
G01 X26.7530 Y16.6123
G01 X26.7279 Y16.6828
G01 X26.6975 Y16.7472
G01 X26.6572 Y16.8145
G01 X26.6148 Y16.8716
G01 X26.5653 Y16.9261
G01 X26.5108 Y16.9756
G01 X26.4517 Y17.0194
G01 X26.3885 Y17.0572
G01 X26.3220 Y17.0887
G01 X26.2527 Y17.1135
G01 X26.1837 Y17.1309
G01 X26.1061 Y17.1424
G01 X26.0350 Y17.1458
G01 X25.9615 Y17.1422
G01 X25.8887 Y17.1314
G01 X25.8197 Y17.1142
G01 X25.7457 Y17.0877
G01 X25.6815 Y17.0572
G01 X25.6183 Y17.0194
G01 X25.5592 Y16.9756
G01 X25.5047 Y16.9261
G01 X25.4552 Y16.8716
G01 X25.4128 Y16.8145
G01 X25.3725 Y16.7472
G01 X25.3421 Y16.6828
G01 X25.3173 Y16.6135
G01 X25.2994 Y16.5421
G01 X25.2889 Y16.4717
G00 Z2.0000
G00 X27.7696 Y16.4806
G01 F60.00
G01 Z-0.0000
G01 F120.00
G01 X27.7685 Y16.4698
G01 X27.7650 Y16.3958
G01 X27.7650 Y13.7958
G01 X27.7685 Y13.7218
G01 X27.7696 Y13.7110
G01 X27.7806 Y13.6378
G01 X27.7999 Y13.5607
G01 X27.8267 Y13.4858
G01 X27.8606 Y13.4140
G01 X27.9015 Y13.3458
G01 X27.9489 Y13.2819
G01 X28.0022 Y13.2230
G01 X28.0611 Y13.1697
G01 X28.1250 Y13.1223
G01 X28.1932 Y13.0814
G01 X28.2650 Y13.0475
G01 X28.3399 Y13.0207
G01 X28.4170 Y13.0014
G01 X28.4956 Y12.9897
G01 X28.5750 Y12.9858
G01 X28.6544 Y12.9897
G01 X28.7330 Y13.0014
G01 X28.8101 Y13.0207
G01 X28.8799 Y13.0455
G01 X28.8899 Y13.0496
G01 X28.9568 Y13.0814
G01 X29.0250 Y13.1223
G01 X29.0846 Y13.1663
G01 X29.0929 Y13.1732
G01 X29.1478 Y13.2230
G01 X29.1976 Y13.2779
G01 X29.2045 Y13.2862
G01 X29.2454 Y13.3414
G01 X29.2514 Y13.3503
G01 X29.2894 Y13.4140
G01 X29.3212 Y13.4809
G01 X29.3253 Y13.4909
G01 X29.3501 Y13.5607
G01 X29.3683 Y13.6325
G01 X29.3704 Y13.6431
G01 X29.3811 Y13.7164
G01 X29.3850 Y13.7958
G01 X29.3850 Y16.3958
G01 X29.3815 Y16.4698
G01 X29.3804 Y16.4806
G01 X29.3694 Y16.5538
G01 X29.3501 Y16.6309
G01 X29.3233 Y16.7058
G01 X29.2918 Y16.7728
G01 X29.2867 Y16.7823
G01 X29.2514 Y16.8413
G01 X29.2454 Y16.8502
G01 X29.2011 Y16.9097
G01 X29.1478 Y16.9686
G01 X29.0889 Y17.0219
G01 X29.0250 Y17.0693
G01 X28.9568 Y17.1102
G01 X28.8850 Y17.1441
G01 X28.8101 Y17.1709
G01 X28.7383 Y17.1891
G01 X28.7277 Y17.1912
G01 X28.6598 Y17.2012
G01 X28.6490 Y17.2023
G01 X28.5750 Y17.2058
G01 X28.4956 Y17.2019
G01 X28.4170 Y17.1902
G01 X28.3451 Y17.1724
G01 X28.3347 Y17.1692
G01 X28.2701 Y17.1461
G01 X28.2601 Y17.1420
G01 X28.1932 Y17.1102
G01 X28.1250 Y17.0693
G01 X28.0611 Y17.0219
G01 X28.0022 Y16.9686
G01 X27.9489 Y16.9097
G01 X27.9046 Y16.8502
G01 X27.8986 Y16.8413
G01 X27.8633 Y16.7823
G01 X27.8582 Y16.7728
G01 X27.8267 Y16.7058
G01 X27.7999 Y16.6309
G01 X27.7806 Y16.5538
G01 X27.7696 Y16.4806
G00 Z2.0000
G00 X27.8289 Y16.4717
G01 F60.00
G01 Z-0.0000
G01 F120.00
G01 X27.8250 Y16.3958
G01 X27.8250 Y13.7958
G01 X27.8289 Y13.7199
G01 X27.8394 Y13.6495
G01 X27.8570 Y13.5793
G01 X27.8821 Y13.5088
G01 X27.9136 Y13.4423
G01 X27.9514 Y13.3791
G01 X27.9952 Y13.3200
G01 X28.0447 Y13.2655
G01 X28.0992 Y13.2160
G01 X28.1583 Y13.1722
G01 X28.2215 Y13.1344
G01 X28.2880 Y13.1029
G01 X28.3573 Y13.0781
G01 X28.4287 Y13.0602
G01 X28.5015 Y13.0494
G01 X28.5750 Y13.0458
G01 X28.6485 Y13.0494
G01 X28.7213 Y13.0602
G01 X28.7915 Y13.0778
G01 X28.8643 Y13.1039
G01 X28.9285 Y13.1344
G01 X28.9917 Y13.1722
G01 X29.0508 Y13.2160
G01 X29.1036 Y13.2638
G01 X29.1548 Y13.3200
G01 X29.1999 Y13.3812
G01 X29.2364 Y13.4423
G01 X29.2679 Y13.5088
G01 X29.2934 Y13.5805
G01 X29.3106 Y13.6495
G01 X29.3211 Y13.7199
G01 X29.3250 Y13.7958
G01 X29.3250 Y16.3958
G01 X29.3211 Y16.4717
G01 X29.3106 Y16.5421
G01 X29.2930 Y16.6123
G01 X29.2679 Y16.6828
G01 X29.2375 Y16.7472
G01 X29.1972 Y16.8145
G01 X29.1548 Y16.8716
G01 X29.1053 Y16.9261
G01 X29.0508 Y16.9756
G01 X28.9917 Y17.0194
G01 X28.9285 Y17.0572
G01 X28.8620 Y17.0887
G01 X28.7927 Y17.1135
G01 X28.7237 Y17.1309
G01 X28.6461 Y17.1424
G01 X28.5750 Y17.1458
G01 X28.5015 Y17.1422
G01 X28.4287 Y17.1314
G01 X28.3597 Y17.1142
G01 X28.2857 Y17.0877
G01 X28.2215 Y17.0572
G01 X28.1583 Y17.0194
G01 X28.0992 Y16.9756
G01 X28.0447 Y16.9261
G01 X27.9952 Y16.8716
G01 X27.9528 Y16.8145
G01 X27.9125 Y16.7472
G01 X27.8821 Y16.6828
G01 X27.8573 Y16.6135
G01 X27.8394 Y16.5421
G01 X27.8289 Y16.4717
G00 Z2.0000
G00 X30.3096 Y16.4806
G01 F60.00
G01 Z-0.0000
G01 F120.00
G01 X30.3085 Y16.4698
G01 X30.3050 Y16.3958
G01 X30.3050 Y13.7931
G01 X30.3089 Y13.7164
G01 X30.3196 Y13.6431
G01 X30.3217 Y13.6325
G01 X30.3399 Y13.5607
G01 X30.3647 Y13.4909
G01 X30.3688 Y13.4809
G01 X30.4006 Y13.4140
G01 X30.4332 Y13.3594
G01 X30.4332 Y11.6242
G01 X30.4361 Y11.5628
G01 X30.4368 Y11.5547
G01 X30.4463 Y11.4912
G01 X30.4626 Y11.4263
G01 X30.4851 Y11.3633
G01 X30.5113 Y11.3076
G01 X30.5164 Y11.2981
G01 X30.5452 Y11.2500
G01 X30.5512 Y11.2410
G01 X30.5880 Y11.1917
G01 X30.6329 Y11.1421
G01 X30.6825 Y11.0972
G01 X30.7318 Y11.0604
G01 X30.7408 Y11.0544
G01 X30.7889 Y11.0256
G01 X30.7984 Y11.0205
G01 X30.8541 Y10.9943
G01 X30.9171 Y10.9718
G01 X30.9820 Y10.9555
G01 X31.0482 Y10.9457
G01 X31.1150 Y10.9424
G01 X37.1331 Y10.9424
G01 X37.1999 Y10.9457
G01 X37.2661 Y10.9555
G01 X37.3310 Y10.9718
G01 X37.3940 Y10.9943
G01 X37.4545 Y11.0229
G01 X37.5119 Y11.0573
G01 X37.5656 Y11.0972
G01 X37.6152 Y11.1421
G01 X41.4963 Y15.0232
G01 X41.5412 Y15.0728
G01 X41.5780 Y15.1221
G01 X41.5840 Y15.1311
G01 X41.6155 Y15.1839
G01 X41.6441 Y15.2444
G01 X41.6649 Y15.3023
G01 X41.6681 Y15.3126
G01 X41.6817 Y15.3670
G01 X41.6834 Y15.3749
G01 X41.6927 Y15.4385
G01 X41.6960 Y15.5053
G01 X41.6960 Y37.6409
G01 X41.6931 Y37.7023
G01 X41.6920 Y37.7131
G01 X41.6829 Y37.7739
G01 X41.6666 Y37.8388
G01 X41.6441 Y37.9018
G01 X41.6179 Y37.9575
G01 X41.6128 Y37.9670
G01 X41.5840 Y38.0151
G01 X41.5780 Y38.0241
G01 X41.5412 Y38.0734
G01 X41.4982 Y38.1211
G01 X36.8768 Y42.7425
G01 X36.8768 Y47.7429
G01 X36.9101 Y47.7880
G01 X36.9522 Y47.8580
G01 X36.9559 Y47.8652
G01 X36.9873 Y47.9318
G01 X36.9905 Y47.9392
G01 X37.0180 Y48.0162
G01 X37.0373 Y48.0928
G01 X37.0394 Y48.1033
G01 X37.0502 Y48.1761
G01 X37.0513 Y48.1869
G01 X37.0550 Y48.2658
G01 X37.0550 Y50.7658
G01 X37.0513 Y50.8447
G01 X37.0502 Y50.8555
G01 X37.0394 Y50.9283
G01 X37.0373 Y50.9388
G01 X37.0180 Y51.0154
G01 X36.9895 Y51.0949
G01 X36.9535 Y51.1712
G01 X36.9130 Y51.2390
G01 X36.9070 Y51.2480
G01 X36.8631 Y51.3071
G01 X36.8563 Y51.3155
G01 X36.8031 Y51.3739
G01 X36.7406 Y51.4306
G01 X36.6728 Y51.4809
G01 X36.6051 Y51.5216
G01 X36.5956 Y51.5267
G01 X36.5290 Y51.5581
G01 X36.5191 Y51.5623
G01 X36.4446 Y51.5888
G01 X36.3680 Y51.6081
G01 X36.3601 Y51.6098
G01 X36.2793 Y51.6217
G01 X36.1950 Y51.6258
G01 X36.1107 Y51.6217
G01 X36.0325 Y51.6102
G01 X36.0220 Y51.6081
G01 X35.9506 Y51.5902
G01 X35.9402 Y51.5871
G01 X35.8659 Y51.5603
G01 X35.7944 Y51.5267
G01 X35.7849 Y51.5216
G01 X35.7172 Y51.4809
G01 X35.6537 Y51.4339
G01 X35.6453 Y51.4271
G01 X35.5869 Y51.3739
G01 X35.5302 Y51.3114
G01 X35.4799 Y51.2436
G01 X35.4365 Y51.1712
G01 X35.4005 Y51.0949
G01 X35.3720 Y51.0154
G01 X35.3515 Y50.9336
G01 X35.3391 Y50.8501
G01 X35.3350 Y50.7658
G01 X35.3350 Y48.2658
G01 X35.3387 Y48.1869
G01 X35.3398 Y48.1761
G01 X35.3506 Y48.1033
G01 X35.3527 Y48.0928
G01 X35.3720 Y48.0162
G01 X35.3995 Y47.9392
G01 X35.4027 Y47.9318
G01 X35.4341 Y47.8652
G01 X35.4378 Y47.8580
G01 X35.4799 Y47.7880
G01 X35.5132 Y47.7429
G01 X35.5132 Y42.4601
G01 X35.5161 Y42.3987
G01 X35.5172 Y42.3879
G01 X35.5263 Y42.3271
G01 X35.5418 Y42.2648
G01 X35.5443 Y42.2571
G01 X35.5651 Y42.1992
G01 X35.5913 Y42.1435
G01 X35.5964 Y42.1340
G01 X35.6281 Y42.0813
G01 X35.6647 Y42.0318
G01 X35.6715 Y42.0235
G01 X35.7129 Y41.9780
G01 X40.3324 Y37.3585
G01 X40.3324 Y15.7877
G01 X36.8507 Y12.3060
G01 X31.7968 Y12.3060
G01 X31.7968 Y13.3594
G01 X31.8294 Y13.4140
G01 X31.8612 Y13.4809
G01 X31.8653 Y13.4909
G01 X31.8901 Y13.5607
G01 X31.9083 Y13.6325
G01 X31.9104 Y13.6431
G01 X31.9211 Y13.7164
G01 X31.9250 Y13.7931
G01 X31.9250 Y16.3985
G01 X31.9211 Y16.4752
G01 X31.9104 Y16.5485
G01 X31.9083 Y16.5591
G01 X31.8916 Y16.6257
G01 X31.8884 Y16.6361
G01 X31.8633 Y16.7058
G01 X31.8294 Y16.7776
G01 X31.7885 Y16.8458
G01 X31.7445 Y16.9054
G01 X31.7376 Y16.9137
G01 X31.6915 Y16.9646
G01 X31.6838 Y16.9723
G01 X31.6289 Y17.0219
G01 X31.5650 Y17.0693
G01 X31.4968 Y17.1102
G01 X31.4250 Y17.1441
G01 X31.3501 Y17.1709
G01 X31.2783 Y17.1891
G01 X31.2677 Y17.1912
G01 X31.1998 Y17.2012
G01 X31.1890 Y17.2023
G01 X31.1150 Y17.2058
G01 X31.0356 Y17.2019
G01 X30.9570 Y17.1902
G01 X30.8851 Y17.1724
G01 X30.8747 Y17.1692
G01 X30.8101 Y17.1461
G01 X30.8001 Y17.1420
G01 X30.7332 Y17.1102
G01 X30.6650 Y17.0693
G01 X30.6011 Y17.0219
G01 X30.5422 Y16.9686
G01 X30.4889 Y16.9097
G01 X30.4446 Y16.8502
G01 X30.4386 Y16.8413
G01 X30.4033 Y16.7823
G01 X30.3982 Y16.7728
G01 X30.3667 Y16.7058
G01 X30.3399 Y16.6309
G01 X30.3206 Y16.5538
G01 X30.3096 Y16.4806
G00 Z2.0000
G00 X30.3689 Y16.4717
G01 F60.00
G01 Z-0.0000
G01 F120.00
G01 X30.3650 Y16.3958
G01 X30.3650 Y13.7946
G01 X30.3686 Y13.7223
G01 X30.3790 Y13.6519
G01 X30.3973 Y13.5781
G01 X30.4221 Y13.5088
G01 X30.4525 Y13.4444
G01 X30.4901 Y13.3812
G01 X30.4932 Y13.3766
G01 X30.4932 Y11.6242
G01 X30.4963 Y11.5620
G01 X30.5052 Y11.5029
G01 X30.5200 Y11.4437
G01 X30.5405 Y11.3863
G01 X30.5655 Y11.3333
G01 X30.5994 Y11.2767
G01 X30.6344 Y11.2297
G01 X30.6753 Y11.1845
G01 X30.7205 Y11.1436
G01 X30.7675 Y11.1086
G01 X30.8241 Y11.0747
G01 X30.8771 Y11.0497
G01 X30.9345 Y11.0292
G01 X30.9937 Y11.0144
G01 X31.0541 Y11.0054
G01 X31.1150 Y11.0024
G01 X37.1331 Y11.0024
G01 X37.1940 Y11.0054
G01 X37.2544 Y11.0144
G01 X37.3136 Y11.0292
G01 X37.3710 Y11.0497
G01 X37.4262 Y11.0758
G01 X37.4785 Y11.1072
G01 X37.5276 Y11.1436
G01 X37.5728 Y11.1845
G01 X41.4539 Y15.0656
G01 X41.4948 Y15.1108
G01 X41.5298 Y15.1578
G01 X41.5626 Y15.2122
G01 X41.5887 Y15.2674
G01 X41.6084 Y15.3225
G01 X41.6243 Y15.3852
G01 X41.6330 Y15.4444
G01 X41.6360 Y15.5053
G01 X41.6360 Y37.6409
G01 X41.6327 Y37.7043
G01 X41.6240 Y37.7622
G01 X41.6092 Y37.8214
G01 X41.5887 Y37.8788
G01 X41.5637 Y37.9318
G01 X41.5298 Y37.9884
G01 X41.4948 Y38.0354
G01 X41.4547 Y38.0797
G01 X36.8168 Y42.7177
G01 X36.8168 Y47.7627
G01 X36.8602 Y47.8213
G01 X36.8993 Y47.8865
G01 X36.9341 Y47.9597
G01 X36.9606 Y48.0336
G01 X36.9791 Y48.1073
G01 X36.9913 Y48.1898
G01 X36.9950 Y48.2658
G01 X36.9950 Y50.7658
G01 X36.9913 Y50.8418
G01 X36.9791 Y50.9243
G01 X36.9606 Y50.9980
G01 X36.9341 Y51.0719
G01 X36.9005 Y51.1429
G01 X36.8615 Y51.2082
G01 X36.8118 Y51.2752
G01 X36.7607 Y51.3315
G01 X36.7025 Y51.3842
G01 X36.6395 Y51.4310
G01 X36.5743 Y51.4701
G01 X36.4989 Y51.5058
G01 X36.4272 Y51.5314
G01 X36.3499 Y51.5507
G01 X36.2734 Y51.5619
G01 X36.1950 Y51.5658
G01 X36.1166 Y51.5619
G01 X36.0365 Y51.5499
G01 X35.9604 Y51.5306
G01 X35.8889 Y51.5049
G01 X35.8201 Y51.4724
G01 X35.7505 Y51.4310
G01 X35.6894 Y51.3857
G01 X35.6293 Y51.3315
G01 X35.5766 Y51.2733
G01 X35.5298 Y51.2103
G01 X35.4895 Y51.1429
G01 X35.4559 Y51.0719
G01 X35.4294 Y50.9980
G01 X35.4104 Y50.9219
G01 X35.3987 Y50.8430
G01 X35.3950 Y50.7658
G01 X35.3950 Y48.2658
G01 X35.3987 Y48.1898
G01 X35.4109 Y48.1073
G01 X35.4294 Y48.0336
G01 X35.4559 Y47.9597
G01 X35.4907 Y47.8865
G01 X35.5298 Y47.8213
G01 X35.5732 Y47.7627
G01 X35.5732 Y42.4601
G01 X35.5765 Y42.3967
G01 X35.5852 Y42.3388
G01 X35.5996 Y42.2808
G01 X35.6205 Y42.2222
G01 X35.6478 Y42.1649
G01 X35.6780 Y42.1147
G01 X35.7128 Y42.0676
G01 X35.7553 Y42.0204
G01 X40.3924 Y37.3833
G01 X40.3924 Y15.7629
G01 X36.8755 Y12.2460
G01 X31.7368 Y12.2460
G01 X31.7368 Y13.3766
G01 X31.7399 Y13.3812
G01 X31.7775 Y13.4444
G01 X31.8079 Y13.5088
G01 X31.8327 Y13.5781
G01 X31.8510 Y13.6519
G01 X31.8614 Y13.7223
G01 X31.8650 Y13.7946
G01 X31.8650 Y16.3958
G01 X31.8614 Y16.4693
G01 X31.8510 Y16.5397
G01 X31.8323 Y16.6147
G01 X31.8079 Y16.6828
G01 X31.7764 Y16.7493
G01 X31.7386 Y16.8125
G01 X31.6963 Y16.8697
G01 X31.6436 Y16.9278
G01 X31.5908 Y16.9756
G01 X31.5317 Y17.0194
G01 X31.4685 Y17.0572
G01 X31.4020 Y17.0887
G01 X31.3327 Y17.1135
G01 X31.2637 Y17.1309
G01 X31.1861 Y17.1424
G01 X31.1150 Y17.1458
G01 X31.0415 Y17.1422
G01 X30.9687 Y17.1314
G01 X30.8997 Y17.1142
G01 X30.8257 Y17.0877
G01 X30.7615 Y17.0572
G01 X30.6983 Y17.0194
G01 X30.6392 Y16.9756
G01 X30.5847 Y16.9261
G01 X30.5352 Y16.8716
G01 X30.4928 Y16.8145
G01 X30.4525 Y16.7472
G01 X30.4221 Y16.6828
G01 X30.3973 Y16.6135
G01 X30.3794 Y16.5421
G01 X30.3689 Y16.4717
G00 Z2.0000
G00 X32.8496 Y16.4806
G01 F60.00
G01 Z-0.0000
G01 F120.00
G01 X32.8485 Y16.4698
G01 X32.8450 Y16.3958
G01 X32.8450 Y13.7958
G01 X32.8485 Y13.7218
G01 X32.8496 Y13.7110
G01 X32.8606 Y13.6378
G01 X32.8799 Y13.5607
G01 X32.9067 Y13.4858
G01 X32.9406 Y13.4140
G01 X32.9815 Y13.3458
G01 X33.0289 Y13.2819
G01 X33.0822 Y13.2230
G01 X33.1411 Y13.1697
G01 X33.2050 Y13.1223
G01 X33.2732 Y13.0814
G01 X33.3450 Y13.0475
G01 X33.4199 Y13.0207
G01 X33.4970 Y13.0014
G01 X33.5756 Y12.9897
G01 X33.6550 Y12.9858
G01 X33.7344 Y12.9897
G01 X33.8130 Y13.0014
G01 X33.8901 Y13.0207
G01 X33.9599 Y13.0455
G01 X33.9699 Y13.0496
G01 X34.0368 Y13.0814
G01 X34.1050 Y13.1223
G01 X34.1646 Y13.1663
G01 X34.1729 Y13.1732
G01 X34.2278 Y13.2230
G01 X34.2776 Y13.2779
G01 X34.2845 Y13.2862
G01 X34.3254 Y13.3414
G01 X34.3314 Y13.3503
G01 X34.3694 Y13.4140
G01 X34.4012 Y13.4809
G01 X34.4053 Y13.4909
G01 X34.4301 Y13.5607
G01 X34.4483 Y13.6325
G01 X34.4504 Y13.6431
G01 X34.4611 Y13.7164
G01 X34.4650 Y13.7958
G01 X34.4650 Y16.3958
G01 X34.4615 Y16.4698
G01 X34.4604 Y16.4806
G01 X34.4494 Y16.5538
G01 X34.4301 Y16.6309
G01 X34.4033 Y16.7058
G01 X34.3718 Y16.7728
G01 X34.3667 Y16.7823
G01 X34.3314 Y16.8413
G01 X34.3254 Y16.8502
G01 X34.2811 Y16.9097
G01 X34.2278 Y16.9686
G01 X34.1689 Y17.0219
G01 X34.1050 Y17.0693
G01 X34.0368 Y17.1102
G01 X33.9650 Y17.1441
G01 X33.8901 Y17.1709
G01 X33.8183 Y17.1891
G01 X33.8077 Y17.1912
G01 X33.7398 Y17.2012
G01 X33.7290 Y17.2023
G01 X33.6550 Y17.2058
G01 X33.5756 Y17.2019
G01 X33.4970 Y17.1902
G01 X33.4251 Y17.1724
G01 X33.4147 Y17.1692
G01 X33.3501 Y17.1461
G01 X33.3401 Y17.1420
G01 X33.2732 Y17.1102
G01 X33.2050 Y17.0693
G01 X33.1411 Y17.0219
G01 X33.0822 Y16.9686
G01 X33.0289 Y16.9097
G01 X32.9846 Y16.8502
G01 X32.9786 Y16.8413
G01 X32.9433 Y16.7823
G01 X32.9382 Y16.7728
G01 X32.9067 Y16.7058
G01 X32.8799 Y16.6309
G01 X32.8606 Y16.5538
G01 X32.8496 Y16.4806
G00 Z2.0000
G00 X32.9089 Y16.4717
G01 F60.00
G01 Z-0.0000
G01 F120.00
G01 X32.9050 Y16.3958
G01 X32.9050 Y13.7958
G01 X32.9089 Y13.7199
G01 X32.9194 Y13.6495
G01 X32.9370 Y13.5793
G01 X32.9621 Y13.5088
G01 X32.9936 Y13.4423
G01 X33.0314 Y13.3791
G01 X33.0752 Y13.3200
G01 X33.1247 Y13.2655
G01 X33.1792 Y13.2160
G01 X33.2383 Y13.1722
G01 X33.3015 Y13.1344
G01 X33.3680 Y13.1029
G01 X33.4373 Y13.0781
G01 X33.5087 Y13.0602
G01 X33.5815 Y13.0494
G01 X33.6550 Y13.0458
G01 X33.7285 Y13.0494
G01 X33.8013 Y13.0602
G01 X33.8715 Y13.0778
G01 X33.9443 Y13.1039
G01 X34.0085 Y13.1344
G01 X34.0717 Y13.1722
G01 X34.1308 Y13.2160
G01 X34.1836 Y13.2638
G01 X34.2348 Y13.3200
G01 X34.2799 Y13.3812
G01 X34.3164 Y13.4423
G01 X34.3479 Y13.5088
G01 X34.3734 Y13.5805
G01 X34.3906 Y13.6495
G01 X34.4011 Y13.7199
G01 X34.4050 Y13.7958
G01 X34.4050 Y16.3958
G01 X34.4011 Y16.4717
G01 X34.3906 Y16.5421
G01 X34.3730 Y16.6123
G01 X34.3479 Y16.6828
G01 X34.3175 Y16.7472
G01 X34.2772 Y16.8145
G01 X34.2348 Y16.8716
G01 X34.1853 Y16.9261
G01 X34.1308 Y16.9756
G01 X34.0717 Y17.0194
G01 X34.0085 Y17.0572
G01 X33.9420 Y17.0887
G01 X33.8727 Y17.1135
G01 X33.8037 Y17.1309
G01 X33.7261 Y17.1424
G01 X33.6550 Y17.1458
G01 X33.5815 Y17.1422
G01 X33.5087 Y17.1314
G01 X33.4397 Y17.1142
G01 X33.3657 Y17.0877
G01 X33.3015 Y17.0572
G01 X33.2383 Y17.0194
G01 X33.1792 Y16.9756
G01 X33.1247 Y16.9261
G01 X33.0752 Y16.8716
G01 X33.0328 Y16.8145
G01 X32.9925 Y16.7472
G01 X32.9621 Y16.6828
G01 X32.9373 Y16.6135
G01 X32.9194 Y16.5421
G01 X32.9089 Y16.4717
G00 Z2.0000
G00 X32.9089 Y21.8117
G01 F60.00
G01 Z-0.0000
G01 F120.00
G01 X32.9050 Y21.7358
G01 X32.9050 Y19.1358
G01 X32.9089 Y19.0599
G01 X32.9194 Y18.9895
G01 X32.9370 Y18.9193
G01 X32.9621 Y18.8488
G01 X32.9936 Y18.7823
G01 X33.0314 Y18.7191
G01 X33.0752 Y18.6600
G01 X33.1247 Y18.6055
G01 X33.1792 Y18.5560
G01 X33.2383 Y18.5122
G01 X33.3015 Y18.4744
G01 X33.3680 Y18.4429
G01 X33.4373 Y18.4181
G01 X33.5087 Y18.4002
G01 X33.5815 Y18.3894
G01 X33.6550 Y18.3858
G01 X33.7285 Y18.3894
G01 X33.8013 Y18.4002
G01 X33.8715 Y18.4178
G01 X33.9443 Y18.4439
G01 X34.0085 Y18.4744
G01 X34.0717 Y18.5122
G01 X34.1308 Y18.5560
G01 X34.1836 Y18.6038
G01 X34.2348 Y18.6600
G01 X34.2799 Y18.7212
G01 X34.3164 Y18.7823
G01 X34.3479 Y18.8488
G01 X34.3734 Y18.9205
G01 X34.3906 Y18.9895
G01 X34.4011 Y19.0599
G01 X34.4050 Y19.1358
G01 X34.4050 Y21.7358
G01 X34.4011 Y21.8117
G01 X34.3906 Y21.8821
G01 X34.3730 Y21.9523
G01 X34.3479 Y22.0228
G01 X34.3175 Y22.0872
G01 X34.2772 Y22.1545
G01 X34.2348 Y22.2116
G01 X34.1853 Y22.2661
G01 X34.1308 Y22.3156
G01 X34.0717 Y22.3594
G01 X34.0085 Y22.3972
G01 X33.9443 Y22.4277
G01 X33.8703 Y22.4542
G01 X33.8013 Y22.4714
G01 X33.7285 Y22.4822
G01 X33.6550 Y22.4858
G01 X33.5815 Y22.4822
G01 X33.5087 Y22.4714
G01 X33.4397 Y22.4542
G01 X33.3657 Y22.4277
G01 X33.3015 Y22.3972
G01 X33.2383 Y22.3594
G01 X33.1792 Y22.3156
G01 X33.1247 Y22.2661
G01 X33.0752 Y22.2116
G01 X33.0328 Y22.1545
G01 X32.9925 Y22.0872
G01 X32.9621 Y22.0228
G01 X32.9373 Y21.9535
G01 X32.9194 Y21.8821
G01 X32.9089 Y21.8117
G00 Z2.0000
G00 X32.8496 Y21.8206
G01 F60.00
G01 Z-0.0000
G01 F120.00
G01 X32.8485 Y21.8098
G01 X32.8450 Y21.7358
G01 X32.8450 Y19.1358
G01 X32.8485 Y19.0618
G01 X32.8496 Y19.0510
G01 X32.8606 Y18.9778
G01 X32.8799 Y18.9007
G01 X32.9067 Y18.8258
G01 X32.9406 Y18.7540
G01 X32.9815 Y18.6858
G01 X33.0289 Y18.6219
G01 X33.0822 Y18.5630
G01 X33.1411 Y18.5097
G01 X33.2050 Y18.4623
G01 X33.2732 Y18.4214
G01 X33.3450 Y18.3875
G01 X33.4199 Y18.3607
G01 X33.4970 Y18.3414
G01 X33.5756 Y18.3297
G01 X33.6550 Y18.3258
G01 X33.7344 Y18.3297
G01 X33.8130 Y18.3414
G01 X33.8901 Y18.3607
G01 X33.9599 Y18.3855
G01 X33.9699 Y18.3896
G01 X34.0368 Y18.4214
G01 X34.1050 Y18.4623
G01 X34.1646 Y18.5063
G01 X34.1729 Y18.5132
G01 X34.2278 Y18.5630
G01 X34.2776 Y18.6179
G01 X34.2845 Y18.6262
G01 X34.3254 Y18.6814
G01 X34.3314 Y18.6903
G01 X34.3694 Y18.7540
G01 X34.4012 Y18.8209
G01 X34.4053 Y18.8309
G01 X34.4301 Y18.9007
G01 X34.4483 Y18.9725
G01 X34.4504 Y18.9831
G01 X34.4611 Y19.0564
G01 X34.4650 Y19.1358
G01 X34.4650 Y21.7358
G01 X34.4615 Y21.8098
G01 X34.4604 Y21.8206
G01 X34.4494 Y21.8938
G01 X34.4301 Y21.9709
G01 X34.4033 Y22.0458
G01 X34.3718 Y22.1128
G01 X34.3667 Y22.1223
G01 X34.3314 Y22.1813
G01 X34.3254 Y22.1902
G01 X34.2811 Y22.2497
G01 X34.2278 Y22.3086
G01 X34.1689 Y22.3619
G01 X34.1050 Y22.4093
G01 X34.0368 Y22.4502
G01 X33.9699 Y22.4820
G01 X33.9599 Y22.4861
G01 X33.8953 Y22.5092
G01 X33.8849 Y22.5124
G01 X33.8130 Y22.5302
G01 X33.7344 Y22.5419
G01 X33.6550 Y22.5458
G01 X33.5756 Y22.5419
G01 X33.4970 Y22.5302
G01 X33.4251 Y22.5124
G01 X33.4147 Y22.5092
G01 X33.3501 Y22.4861
G01 X33.3401 Y22.4820
G01 X33.2732 Y22.4502
G01 X33.2050 Y22.4093
G01 X33.1411 Y22.3619
G01 X33.0822 Y22.3086
G01 X33.0289 Y22.2497
G01 X32.9846 Y22.1902
G01 X32.9786 Y22.1813
G01 X32.9433 Y22.1223
G01 X32.9382 Y22.1128
G01 X32.9067 Y22.0458
G01 X32.8799 Y21.9709
G01 X32.8606 Y21.8938
G01 X32.8496 Y21.8206
G00 Z2.0000
G00 X30.3689 Y21.8117
G01 F60.00
G01 Z-0.0000
G01 F120.00
G01 X30.3650 Y21.7358
G01 X30.3650 Y19.1358
G01 X30.3689 Y19.0599
G01 X30.3794 Y18.9895
G01 X30.3970 Y18.9193
G01 X30.4221 Y18.8488
G01 X30.4536 Y18.7823
G01 X30.4914 Y18.7191
G01 X30.5352 Y18.6600
G01 X30.5847 Y18.6055
G01 X30.6392 Y18.5560
G01 X30.6983 Y18.5122
G01 X30.7615 Y18.4744
G01 X30.8280 Y18.4429
G01 X30.8973 Y18.4181
G01 X30.9687 Y18.4002
G01 X31.0415 Y18.3894
G01 X31.1150 Y18.3858
G01 X31.1885 Y18.3894
G01 X31.2613 Y18.4002
G01 X31.3315 Y18.4178
G01 X31.4043 Y18.4439
G01 X31.4685 Y18.4744
G01 X31.5317 Y18.5122
G01 X31.5908 Y18.5560
G01 X31.6436 Y18.6038
G01 X31.6948 Y18.6600
G01 X31.7399 Y18.7212
G01 X31.7764 Y18.7823
G01 X31.8079 Y18.8488
G01 X31.8334 Y18.9205
G01 X31.8506 Y18.9895
G01 X31.8611 Y19.0599
G01 X31.8650 Y19.1358
G01 X31.8650 Y21.7358
G01 X31.8611 Y21.8117
G01 X31.8506 Y21.8821
G01 X31.8330 Y21.9523
G01 X31.8079 Y22.0228
G01 X31.7775 Y22.0872
G01 X31.7372 Y22.1545
G01 X31.6948 Y22.2116
G01 X31.6453 Y22.2661
G01 X31.5908 Y22.3156
G01 X31.5317 Y22.3594
G01 X31.4685 Y22.3972
G01 X31.4043 Y22.4277
G01 X31.3303 Y22.4542
G01 X31.2613 Y22.4714
G01 X31.1885 Y22.4822
G01 X31.1150 Y22.4858
G01 X31.0415 Y22.4822
G01 X30.9687 Y22.4714
G01 X30.8997 Y22.4542
G01 X30.8257 Y22.4277
G01 X30.7615 Y22.3972
G01 X30.6983 Y22.3594
G01 X30.6392 Y22.3156
G01 X30.5847 Y22.2661
G01 X30.5352 Y22.2116
G01 X30.4928 Y22.1545
G01 X30.4525 Y22.0872
G01 X30.4221 Y22.0228
G01 X30.3973 Y21.9535
G01 X30.3794 Y21.8821
G01 X30.3689 Y21.8117
G00 Z2.0000
G00 X30.3096 Y21.8206
G01 F60.00
G01 Z-0.0000
G01 F120.00
G01 X30.3085 Y21.8098
G01 X30.3050 Y21.7358
G01 X30.3050 Y19.1358
G01 X30.3085 Y19.0618
G01 X30.3096 Y19.0510
G01 X30.3206 Y18.9778
G01 X30.3399 Y18.9007
G01 X30.3667 Y18.8258
G01 X30.4006 Y18.7540
G01 X30.4415 Y18.6858
G01 X30.4889 Y18.6219
G01 X30.5422 Y18.5630
G01 X30.6011 Y18.5097
G01 X30.6650 Y18.4623
G01 X30.7332 Y18.4214
G01 X30.8050 Y18.3875
G01 X30.8799 Y18.3607
G01 X30.9570 Y18.3414
G01 X31.0356 Y18.3297
G01 X31.1150 Y18.3258
G01 X31.1944 Y18.3297
G01 X31.2730 Y18.3414
G01 X31.3501 Y18.3607
G01 X31.4199 Y18.3855
G01 X31.4299 Y18.3896
G01 X31.4968 Y18.4214
G01 X31.5650 Y18.4623
G01 X31.6246 Y18.5063
G01 X31.6329 Y18.5132
G01 X31.6878 Y18.5630
G01 X31.7376 Y18.6179
G01 X31.7445 Y18.6262
G01 X31.7854 Y18.6814
G01 X31.7914 Y18.6903
G01 X31.8294 Y18.7540
G01 X31.8612 Y18.8209
G01 X31.8653 Y18.8309
G01 X31.8901 Y18.9007
G01 X31.9083 Y18.9725
G01 X31.9104 Y18.9831
G01 X31.9211 Y19.0564
G01 X31.9250 Y19.1358
G01 X31.9250 Y21.7358
G01 X31.9215 Y21.8098
G01 X31.9204 Y21.8206
G01 X31.9094 Y21.8938
G01 X31.8901 Y21.9709
G01 X31.8633 Y22.0458
G01 X31.8318 Y22.1128
G01 X31.8267 Y22.1223
G01 X31.7914 Y22.1813
G01 X31.7854 Y22.1902
G01 X31.7411 Y22.2497
G01 X31.6878 Y22.3086
G01 X31.6289 Y22.3619
G01 X31.5650 Y22.4093
G01 X31.4968 Y22.4502
G01 X31.4299 Y22.4820
G01 X31.4199 Y22.4861
G01 X31.3553 Y22.5092
G01 X31.3449 Y22.5124
G01 X31.2730 Y22.5302
G01 X31.1944 Y22.5419
G01 X31.1150 Y22.5458
G01 X31.0356 Y22.5419
G01 X30.9570 Y22.5302
G01 X30.8851 Y22.5124
G01 X30.8747 Y22.5092
G01 X30.8101 Y22.4861
G01 X30.8001 Y22.4820
G01 X30.7332 Y22.4502
G01 X30.6650 Y22.4093
G01 X30.6011 Y22.3619
G01 X30.5422 Y22.3086
G01 X30.4889 Y22.2497
G01 X30.4446 Y22.1902
G01 X30.4386 Y22.1813
G01 X30.4033 Y22.1223
G01 X30.3982 Y22.1128
G01 X30.3667 Y22.0458
G01 X30.3399 Y21.9709
G01 X30.3206 Y21.8938
G01 X30.3096 Y21.8206
G00 Z2.0000
G00 X25.2889 Y21.8117
G01 F60.00
G01 Z-0.0000
G01 F120.00
G01 X25.2850 Y21.7358
G01 X25.2850 Y19.1358
G01 X25.2889 Y19.0599
G01 X25.2994 Y18.9895
G01 X25.3170 Y18.9193
G01 X25.3421 Y18.8488
G01 X25.3736 Y18.7823
G01 X25.4114 Y18.7191
G01 X25.4552 Y18.6600
G01 X25.5047 Y18.6055
G01 X25.5592 Y18.5560
G01 X25.6183 Y18.5122
G01 X25.6815 Y18.4744
G01 X25.7480 Y18.4429
G01 X25.8173 Y18.4181
G01 X25.8887 Y18.4002
G01 X25.9615 Y18.3894
G01 X26.0350 Y18.3858
G01 X26.1085 Y18.3894
G01 X26.1813 Y18.4002
G01 X26.2515 Y18.4178
G01 X26.3243 Y18.4439
G01 X26.3885 Y18.4744
G01 X26.4517 Y18.5122
G01 X26.5108 Y18.5560
G01 X26.5636 Y18.6038
G01 X26.6148 Y18.6600
G01 X26.6599 Y18.7212
G01 X26.6964 Y18.7823
G01 X26.7279 Y18.8488
G01 X26.7534 Y18.9205
G01 X26.7706 Y18.9895
G01 X26.7811 Y19.0599
G01 X26.7850 Y19.1358
G01 X26.7850 Y21.7358
G01 X26.7811 Y21.8117
G01 X26.7706 Y21.8821
G01 X26.7530 Y21.9523
G01 X26.7279 Y22.0228
G01 X26.6975 Y22.0872
G01 X26.6572 Y22.1545
G01 X26.6148 Y22.2116
G01 X26.5653 Y22.2661
G01 X26.5108 Y22.3156
G01 X26.4517 Y22.3594
G01 X26.3885 Y22.3972
G01 X26.3243 Y22.4277
G01 X26.2503 Y22.4542
G01 X26.1813 Y22.4714
G01 X26.1085 Y22.4822
G01 X26.0350 Y22.4858
G01 X25.9615 Y22.4822
G01 X25.8887 Y22.4714
G01 X25.8197 Y22.4542
G01 X25.7457 Y22.4277
G01 X25.6815 Y22.3972
G01 X25.6183 Y22.3594
G01 X25.5592 Y22.3156
G01 X25.5047 Y22.2661
G01 X25.4552 Y22.2116
G01 X25.4128 Y22.1545
G01 X25.3725 Y22.0872
G01 X25.3421 Y22.0228
G01 X25.3173 Y21.9535
G01 X25.2994 Y21.8821
G01 X25.2889 Y21.8117
G00 Z2.0000
G00 X25.2296 Y21.8206
G01 F60.00
G01 Z-0.0000
G01 F120.00
G01 X25.2285 Y21.8098
G01 X25.2250 Y21.7358
G01 X25.2250 Y19.1358
G01 X25.2285 Y19.0618
G01 X25.2296 Y19.0510
G01 X25.2406 Y18.9778
G01 X25.2599 Y18.9007
G01 X25.2867 Y18.8258
G01 X25.3206 Y18.7540
G01 X25.3615 Y18.6858
G01 X25.4089 Y18.6219
G01 X25.4622 Y18.5630
G01 X25.5211 Y18.5097
G01 X25.5850 Y18.4623
G01 X25.6532 Y18.4214
G01 X25.7250 Y18.3875
G01 X25.7999 Y18.3607
G01 X25.8770 Y18.3414
G01 X25.9556 Y18.3297
G01 X26.0350 Y18.3258
G01 X26.1144 Y18.3297
G01 X26.1930 Y18.3414
G01 X26.2701 Y18.3607
G01 X26.3399 Y18.3855
G01 X26.3499 Y18.3896
G01 X26.4168 Y18.4214
G01 X26.4850 Y18.4623
G01 X26.5446 Y18.5063
G01 X26.5529 Y18.5132
G01 X26.6078 Y18.5630
G01 X26.6576 Y18.6179
G01 X26.6645 Y18.6262
G01 X26.7054 Y18.6814
G01 X26.7114 Y18.6903
G01 X26.7494 Y18.7540
G01 X26.7812 Y18.8209
G01 X26.7853 Y18.8309
G01 X26.8101 Y18.9007
G01 X26.8283 Y18.9725
G01 X26.8304 Y18.9831
G01 X26.8411 Y19.0564
G01 X26.8450 Y19.1358
G01 X26.8450 Y21.7358
G01 X26.8415 Y21.8098
G01 X26.8404 Y21.8206
G01 X26.8294 Y21.8938
G01 X26.8101 Y21.9709
G01 X26.7833 Y22.0458
G01 X26.7518 Y22.1128
G01 X26.7467 Y22.1223
G01 X26.7114 Y22.1813
G01 X26.7054 Y22.1902
G01 X26.6611 Y22.2497
G01 X26.6078 Y22.3086
G01 X26.5489 Y22.3619
G01 X26.4850 Y22.4093
G01 X26.4168 Y22.4502
G01 X26.3499 Y22.4820
G01 X26.3399 Y22.4861
G01 X26.2753 Y22.5092
G01 X26.2649 Y22.5124
G01 X26.1930 Y22.5302
G01 X26.1144 Y22.5419
G01 X26.0350 Y22.5458
G01 X25.9556 Y22.5419
G01 X25.8770 Y22.5302
G01 X25.8051 Y22.5124
G01 X25.7947 Y22.5092
G01 X25.7301 Y22.4861
G01 X25.7201 Y22.4820
G01 X25.6532 Y22.4502
G01 X25.5850 Y22.4093
G01 X25.5211 Y22.3619
G01 X25.4622 Y22.3086
G01 X25.4089 Y22.2497
G01 X25.3646 Y22.1902
G01 X25.3586 Y22.1813
G01 X25.3233 Y22.1223
G01 X25.3182 Y22.1128
G01 X25.2867 Y22.0458
G01 X25.2599 Y21.9709
G01 X25.2406 Y21.8938
G01 X25.2296 Y21.8206
G00 Z2.0000
G00 X22.7489 Y21.8117
G01 F60.00
G01 Z-0.0000
G01 F120.00
G01 X22.7450 Y21.7358
G01 X22.7450 Y19.1358
G01 X22.7489 Y19.0599
G01 X22.7594 Y18.9895
G01 X22.7770 Y18.9193
G01 X22.8021 Y18.8488
G01 X22.8336 Y18.7823
G01 X22.8714 Y18.7191
G01 X22.9152 Y18.6600
G01 X22.9647 Y18.6055
G01 X23.0192 Y18.5560
G01 X23.0783 Y18.5122
G01 X23.1415 Y18.4744
G01 X23.2080 Y18.4429
G01 X23.2773 Y18.4181
G01 X23.3487 Y18.4002
G01 X23.4215 Y18.3894
G01 X23.4950 Y18.3858
G01 X23.5685 Y18.3894
G01 X23.6413 Y18.4002
G01 X23.7115 Y18.4178
G01 X23.7843 Y18.4439
G01 X23.8485 Y18.4744
G01 X23.9117 Y18.5122
G01 X23.9708 Y18.5560
G01 X24.0236 Y18.6038
G01 X24.0748 Y18.6600
G01 X24.1199 Y18.7212
G01 X24.1564 Y18.7823
G01 X24.1879 Y18.8488
G01 X24.2134 Y18.9205
G01 X24.2306 Y18.9895
G01 X24.2411 Y19.0599
G01 X24.2450 Y19.1358
G01 X24.2450 Y21.7358
G01 X24.2411 Y21.8117
G01 X24.2306 Y21.8821
G01 X24.2130 Y21.9523
G01 X24.1879 Y22.0228
G01 X24.1575 Y22.0872
G01 X24.1172 Y22.1545
G01 X24.0748 Y22.2116
G01 X24.0253 Y22.2661
G01 X23.9708 Y22.3156
G01 X23.9117 Y22.3594
G01 X23.8485 Y22.3972
G01 X23.7843 Y22.4277
G01 X23.7103 Y22.4542
G01 X23.6413 Y22.4714
G01 X23.5685 Y22.4822
G01 X23.4950 Y22.4858
G01 X23.4215 Y22.4822
G01 X23.3487 Y22.4714
G01 X23.2797 Y22.4542
G01 X23.2057 Y22.4277
G01 X23.1415 Y22.3972
G01 X23.0783 Y22.3594
G01 X23.0192 Y22.3156
G01 X22.9647 Y22.2661
G01 X22.9152 Y22.2116
G01 X22.8728 Y22.1545
G01 X22.8325 Y22.0872
G01 X22.8021 Y22.0228
G01 X22.7773 Y21.9535
G01 X22.7594 Y21.8821
G01 X22.7489 Y21.8117
G00 Z2.0000
G00 X22.6896 Y21.8206
G01 F60.00
G01 Z-0.0000
G01 F120.00
G01 X22.6885 Y21.8098
G01 X22.6850 Y21.7358
G01 X22.6850 Y19.1358
G01 X22.6885 Y19.0618
G01 X22.6896 Y19.0510
G01 X22.7006 Y18.9778
G01 X22.7199 Y18.9007
G01 X22.7467 Y18.8258
G01 X22.7806 Y18.7540
G01 X22.8215 Y18.6858
G01 X22.8689 Y18.6219
G01 X22.9222 Y18.5630
G01 X22.9811 Y18.5097
G01 X23.0450 Y18.4623
G01 X23.1132 Y18.4214
G01 X23.1850 Y18.3875
G01 X23.2599 Y18.3607
G01 X23.3370 Y18.3414
G01 X23.4156 Y18.3297
G01 X23.4950 Y18.3258
G01 X23.5744 Y18.3297
G01 X23.6530 Y18.3414
G01 X23.7301 Y18.3607
G01 X23.7999 Y18.3855
G01 X23.8099 Y18.3896
G01 X23.8768 Y18.4214
G01 X23.9450 Y18.4623
G01 X24.0046 Y18.5063
G01 X24.0129 Y18.5132
G01 X24.0678 Y18.5630
G01 X24.1176 Y18.6179
G01 X24.1245 Y18.6262
G01 X24.1654 Y18.6814
G01 X24.1714 Y18.6903
G01 X24.2094 Y18.7540
G01 X24.2412 Y18.8209
G01 X24.2453 Y18.8309
G01 X24.2701 Y18.9007
G01 X24.2883 Y18.9725
G01 X24.2904 Y18.9831
G01 X24.3011 Y19.0564
G01 X24.3050 Y19.1358
G01 X24.3050 Y21.7358
G01 X24.3015 Y21.8098
G01 X24.3004 Y21.8206
G01 X24.2894 Y21.8938
G01 X24.2701 Y21.9709
G01 X24.2433 Y22.0458
G01 X24.2118 Y22.1128
G01 X24.2067 Y22.1223
G01 X24.1714 Y22.1813
G01 X24.1654 Y22.1902
G01 X24.1211 Y22.2497
G01 X24.0678 Y22.3086
G01 X24.0089 Y22.3619
G01 X23.9450 Y22.4093
G01 X23.8768 Y22.4502
G01 X23.8099 Y22.4820
G01 X23.7999 Y22.4861
G01 X23.7353 Y22.5092
G01 X23.7249 Y22.5124
G01 X23.6530 Y22.5302
G01 X23.5744 Y22.5419
G01 X23.4950 Y22.5458
G01 X23.4156 Y22.5419
G01 X23.3370 Y22.5302
G01 X23.2651 Y22.5124
G01 X23.2547 Y22.5092
G01 X23.1901 Y22.4861
G01 X23.1801 Y22.4820
G01 X23.1132 Y22.4502
G01 X23.0450 Y22.4093
G01 X22.9811 Y22.3619
G01 X22.9222 Y22.3086
G01 X22.8689 Y22.2497
G01 X22.8246 Y22.1902
G01 X22.8186 Y22.1813
G01 X22.7833 Y22.1223
G01 X22.7782 Y22.1128
G01 X22.7467 Y22.0458
G01 X22.7199 Y21.9709
G01 X22.7006 Y21.8938
G01 X22.6896 Y21.8206
G00 Z2.0000
G00 X20.2089 Y21.8117
G01 F60.00
G01 Z-0.0000
G01 F120.00
G01 X20.2050 Y21.7358
G01 X20.2050 Y19.1358
G01 X20.2089 Y19.0599
G01 X20.2194 Y18.9895
G01 X20.2370 Y18.9193
G01 X20.2621 Y18.8488
G01 X20.2936 Y18.7823
G01 X20.3314 Y18.7191
G01 X20.3752 Y18.6600
G01 X20.4247 Y18.6055
G01 X20.4792 Y18.5560
G01 X20.5383 Y18.5122
G01 X20.6015 Y18.4744
G01 X20.6680 Y18.4429
G01 X20.7373 Y18.4181
G01 X20.8087 Y18.4002
G01 X20.8815 Y18.3894
G01 X20.9550 Y18.3858
G01 X21.0285 Y18.3894
G01 X21.1013 Y18.4002
G01 X21.1715 Y18.4178
G01 X21.2443 Y18.4439
G01 X21.3085 Y18.4744
G01 X21.3717 Y18.5122
G01 X21.4308 Y18.5560
G01 X21.4836 Y18.6038
G01 X21.5348 Y18.6600
G01 X21.5799 Y18.7212
G01 X21.6164 Y18.7823
G01 X21.6479 Y18.8488
G01 X21.6734 Y18.9205
G01 X21.6906 Y18.9895
G01 X21.7011 Y19.0599
G01 X21.7050 Y19.1358
G01 X21.7050 Y21.7358
G01 X21.7011 Y21.8117
G01 X21.6906 Y21.8821
G01 X21.6730 Y21.9523
G01 X21.6479 Y22.0228
G01 X21.6175 Y22.0872
G01 X21.5772 Y22.1545
G01 X21.5348 Y22.2116
G01 X21.4853 Y22.2661
G01 X21.4308 Y22.3156
G01 X21.3717 Y22.3594
G01 X21.3085 Y22.3972
G01 X21.2443 Y22.4277
G01 X21.1703 Y22.4542
G01 X21.1013 Y22.4714
G01 X21.0285 Y22.4822
G01 X20.9550 Y22.4858
G01 X20.8815 Y22.4822
G01 X20.8087 Y22.4714
G01 X20.7397 Y22.4542
G01 X20.6657 Y22.4277
G01 X20.6015 Y22.3972
G01 X20.5383 Y22.3594
G01 X20.4792 Y22.3156
G01 X20.4247 Y22.2661
G01 X20.3752 Y22.2116
G01 X20.3328 Y22.1545
G01 X20.2925 Y22.0872
G01 X20.2621 Y22.0228
G01 X20.2373 Y21.9535
G01 X20.2194 Y21.8821
G01 X20.2089 Y21.8117
G00 Z2.0000
G00 X20.1496 Y21.8206
G01 F60.00
G01 Z-0.0000
G01 F120.00
G01 X20.1485 Y21.8098
G01 X20.1450 Y21.7358
G01 X20.1450 Y19.1358
G01 X20.1485 Y19.0618
G01 X20.1496 Y19.0510
G01 X20.1606 Y18.9778
G01 X20.1799 Y18.9007
G01 X20.2067 Y18.8258
G01 X20.2406 Y18.7540
G01 X20.2815 Y18.6858
G01 X20.3289 Y18.6219
G01 X20.3822 Y18.5630
G01 X20.4411 Y18.5097
G01 X20.5050 Y18.4623
G01 X20.5732 Y18.4214
G01 X20.6450 Y18.3875
G01 X20.7199 Y18.3607
G01 X20.7970 Y18.3414
G01 X20.8756 Y18.3297
G01 X20.9550 Y18.3258
G01 X21.0344 Y18.3297
G01 X21.1130 Y18.3414
G01 X21.1901 Y18.3607
G01 X21.2599 Y18.3855
G01 X21.2699 Y18.3896
G01 X21.3368 Y18.4214
G01 X21.4050 Y18.4623
G01 X21.4646 Y18.5063
G01 X21.4729 Y18.5132
G01 X21.5278 Y18.5630
G01 X21.5776 Y18.6179
G01 X21.5845 Y18.6262
G01 X21.6254 Y18.6814
G01 X21.6314 Y18.6903
G01 X21.6694 Y18.7540
G01 X21.7012 Y18.8209
G01 X21.7053 Y18.8309
G01 X21.7301 Y18.9007
G01 X21.7483 Y18.9725
G01 X21.7504 Y18.9831
G01 X21.7611 Y19.0564
G01 X21.7650 Y19.1358
G01 X21.7650 Y21.7358
G01 X21.7615 Y21.8098
G01 X21.7604 Y21.8206
G01 X21.7494 Y21.8938
G01 X21.7301 Y21.9709
G01 X21.7033 Y22.0458
G01 X21.6718 Y22.1128
G01 X21.6667 Y22.1223
G01 X21.6314 Y22.1813
G01 X21.6254 Y22.1902
G01 X21.5811 Y22.2497
G01 X21.5278 Y22.3086
G01 X21.4689 Y22.3619
G01 X21.4050 Y22.4093
G01 X21.3368 Y22.4502
G01 X21.2699 Y22.4820
G01 X21.2599 Y22.4861
G01 X21.1953 Y22.5092
G01 X21.1849 Y22.5124
G01 X21.1130 Y22.5302
G01 X21.0344 Y22.5419
G01 X20.9550 Y22.5458
G01 X20.8756 Y22.5419
G01 X20.7970 Y22.5302
G01 X20.7251 Y22.5124
G01 X20.7147 Y22.5092
G01 X20.6501 Y22.4861
G01 X20.6401 Y22.4820
G01 X20.5732 Y22.4502
G01 X20.5050 Y22.4093
G01 X20.4411 Y22.3619
G01 X20.3822 Y22.3086
G01 X20.3289 Y22.2497
G01 X20.2846 Y22.1902
G01 X20.2786 Y22.1813
G01 X20.2433 Y22.1223
G01 X20.2382 Y22.1128
G01 X20.2067 Y22.0458
G01 X20.1799 Y21.9709
G01 X20.1606 Y21.8938
G01 X20.1496 Y21.8206
G00 Z2.0000
G00 X12.5864 Y22.2559
G01 F60.00
G01 Z-0.0000
G01 F120.00
G01 X12.5850 Y22.2300
G01 X12.5850 Y18.6416
G01 X12.5862 Y18.6165
G01 X12.5895 Y18.5941
G01 X12.5964 Y18.5662
G01 X12.6045 Y18.5437
G01 X12.6141 Y18.5232
G01 X12.6281 Y18.4995
G01 X12.6431 Y18.4793
G01 X12.6582 Y18.4625
G01 X12.6785 Y18.4439
G01 X12.7008 Y18.4276
G01 X12.7202 Y18.4160
G01 X12.7429 Y18.4053
G01 X12.7689 Y18.3962
G01 X12.7909 Y18.3907
G01 X12.8145 Y18.3872
G01 X12.8408 Y18.3858
G01 X13.8292 Y18.3858
G01 X13.8543 Y18.3870
G01 X13.8767 Y18.3903
G01 X13.9046 Y18.3972
G01 X13.9271 Y18.4053
G01 X13.9476 Y18.4149
G01 X13.9733 Y18.4303
G01 X13.9915 Y18.4439
G01 X14.0101 Y18.4607
G01 X14.0269 Y18.4793
G01 X14.0405 Y18.4975
G01 X14.0559 Y18.5232
G01 X14.0655 Y18.5437
G01 X14.0740 Y18.5673
G01 X14.0801 Y18.5917
G01 X14.0835 Y18.6141
G01 X14.0850 Y18.6416
G01 X14.0850 Y22.2312
G01 X14.0835 Y22.2575
G01 X14.0801 Y22.2799
G01 X14.0746 Y22.3019
G01 X14.0655 Y22.3279
G01 X14.0542 Y22.3517
G01 X14.0419 Y22.3721
G01 X14.0284 Y22.3903
G01 X14.0101 Y22.4109
G01 X13.9905 Y22.4285
G01 X13.9713 Y22.4427
G01 X13.9568 Y22.4515
G01 X13.9568 Y24.5643
G01 X16.9505 Y27.5581
G01 X16.9906 Y27.6024
G01 X17.0256 Y27.6494
G01 X17.0584 Y27.7038
G01 X17.0853 Y27.7612
G01 X17.1050 Y27.8164
G01 X17.1198 Y27.8756
G01 X17.1288 Y27.9360
G01 X17.1318 Y27.9969
G01 X17.1318 Y32.2258
G01 X17.2612 Y32.2258
G01 X17.2673 Y32.2263
G01 X17.2733 Y32.2276
G01 X17.2803 Y32.2301
G01 X17.2878 Y32.2342
G01 X17.2936 Y32.2388
G01 X17.2994 Y32.2450
G01 X17.3035 Y32.2512
G01 X17.3071 Y32.2590
G01 X17.3093 Y32.2673
G01 X17.3100 Y32.2746
G01 X17.3100 Y36.2758
G01 X17.3095 Y36.2831
G01 X17.3075 Y36.2915
G01 X17.3041 Y36.2994
G01 X17.3002 Y36.3056
G01 X17.2954 Y36.3112
G01 X17.2888 Y36.3167
G01 X17.2825 Y36.3205
G01 X17.2757 Y36.3233
G01 X17.2673 Y36.3253
G01 X17.2600 Y36.3258
G01 X15.7588 Y36.3258
G01 X15.7515 Y36.3251
G01 X15.7443 Y36.3233
G01 X15.7375 Y36.3205
G01 X15.7302 Y36.3160
G01 X15.7238 Y36.3103
G01 X15.7191 Y36.3046
G01 X15.7153 Y36.2983
G01 X15.7125 Y36.2915
G01 X15.7107 Y36.2843
G01 X15.7100 Y36.2758
G01 X15.7100 Y32.2746
G01 X15.7107 Y32.2673
G01 X15.7129 Y32.2590
G01 X15.7159 Y32.2522
G01 X15.7206 Y32.2450
G01 X15.7264 Y32.2388
G01 X15.7322 Y32.2342
G01 X15.7386 Y32.2306
G01 X15.7467 Y32.2276
G01 X15.7527 Y32.2263
G01 X15.7588 Y32.2258
G01 X15.8882 Y32.2258
G01 X15.8882 Y28.2545
G01 X12.8953 Y25.2616
G01 X12.8528 Y25.2144
G01 X12.8180 Y25.1673
G01 X12.7872 Y25.1161
G01 X12.7605 Y25.0598
G01 X12.7393 Y25.0000
G01 X12.7252 Y24.9432
G01 X12.7165 Y24.8853
G01 X12.7132 Y24.8231
G01 X12.7132 Y22.4515
G01 X12.7052 Y22.4469
G01 X12.6876 Y22.4348
G01 X12.6676 Y22.4183
G01 X12.6502 Y22.4006
G01 X12.6367 Y22.3842
G01 X12.6239 Y22.3656
G01 X12.6118 Y22.3440
G01 X12.6015 Y22.3202
G01 X12.5948 Y22.3000
G01 X12.5898 Y22.2793
G01 X12.5864 Y22.2559
G00 Z2.0000
G00 X12.5269 Y22.2642
G01 F60.00
G01 Z-0.0000
G01 F120.00
G01 X12.5260 Y22.2541
G01 X12.5250 Y22.2300
G01 X12.5250 Y18.6416
G01 X12.5265 Y18.6106
G01 X12.5311 Y18.5800
G01 X12.5386 Y18.5499
G01 X12.5471 Y18.5258
G01 X12.5512 Y18.5158
G01 X12.5623 Y18.4927
G01 X12.5753 Y18.4707
G01 X12.5813 Y18.4617
G01 X12.5967 Y18.4413
G01 X12.6138 Y18.4222
G01 X12.6214 Y18.4146
G01 X12.6426 Y18.3958
G01 X12.6654 Y18.3790
G01 X12.6872 Y18.3658
G01 X12.6968 Y18.3607
G01 X12.7199 Y18.3498
G01 X12.7440 Y18.3411
G01 X12.7543 Y18.3380
G01 X12.7792 Y18.3319
G01 X12.8072 Y18.3276
G01 X12.8152 Y18.3269
G01 X12.8408 Y18.3258
G01 X13.8319 Y18.3258
G01 X13.8602 Y18.3273
G01 X13.8908 Y18.3319
G01 X13.9209 Y18.3394
G01 X13.9450 Y18.3479
G01 X13.9550 Y18.3520
G01 X13.9757 Y18.3618
G01 X13.9828 Y18.3658
G01 X14.0046 Y18.3790
G01 X14.0295 Y18.3975
G01 X14.0486 Y18.4146
G01 X14.0562 Y18.4222
G01 X14.0733 Y18.4413
G01 X14.0918 Y18.4662
G01 X14.1077 Y18.4927
G01 X14.1188 Y18.5158
G01 X14.1229 Y18.5258
G01 X14.1314 Y18.5499
G01 X14.1389 Y18.5800
G01 X14.1428 Y18.6053
G01 X14.1439 Y18.6160
G01 X14.1450 Y18.6416
G01 X14.1450 Y22.2327
G01 X14.1432 Y22.2636
G01 X14.1394 Y22.2890
G01 X14.1377 Y22.2969
G01 X14.1314 Y22.3217
G01 X14.1229 Y22.3458
G01 X14.1199 Y22.3533
G01 X14.1090 Y22.3765
G01 X14.1050 Y22.3836
G01 X14.0918 Y22.4054
G01 X14.0766 Y22.4261
G01 X14.0716 Y22.4324
G01 X14.0506 Y22.4552
G01 X14.0316 Y22.4724
G01 X14.0168 Y22.4837
G01 X14.0168 Y24.5395
G01 X16.9940 Y27.5167
G01 X17.0370 Y27.5644
G01 X17.0738 Y27.6137
G01 X17.0798 Y27.6227
G01 X17.1113 Y27.6755
G01 X17.1399 Y27.7360
G01 X17.1607 Y27.7939
G01 X17.1639 Y27.8042
G01 X17.1775 Y27.8586
G01 X17.1792 Y27.8665
G01 X17.1885 Y27.9301
G01 X17.1918 Y27.9969
G01 X17.1918 Y32.1658
G01 X17.2600 Y32.1658
G01 X17.2735 Y32.1666
G01 X17.2867 Y32.1691
G01 X17.2971 Y32.1722
G01 X17.3070 Y32.1764
G01 X17.3166 Y32.1814
G01 X17.3277 Y32.1891
G01 X17.3378 Y32.1980
G01 X17.3467 Y32.2081
G01 X17.3544 Y32.2192
G01 X17.3606 Y32.2312
G01 X17.3653 Y32.2439
G01 X17.3673 Y32.2517
G01 X17.3688 Y32.2597
G01 X17.3700 Y32.2731
G01 X17.3700 Y36.2785
G01 X17.3695 Y36.2866
G01 X17.3684 Y36.2946
G01 X17.3667 Y36.3025
G01 X17.3636 Y36.3129
G01 X17.3606 Y36.3204
G01 X17.3570 Y36.3277
G01 X17.3529 Y36.3346
G01 X17.3484 Y36.3413
G01 X17.3433 Y36.3476
G01 X17.3378 Y36.3536
G01 X17.3298 Y36.3608
G01 X17.3233 Y36.3657
G01 X17.3166 Y36.3702
G01 X17.3095 Y36.3741
G01 X17.3021 Y36.3774
G01 X17.2945 Y36.3802
G01 X17.2867 Y36.3825
G01 X17.2761 Y36.3846
G01 X17.2681 Y36.3855
G01 X17.2600 Y36.3858
G01 X15.7546 Y36.3857
G01 X15.7465 Y36.3850
G01 X15.7385 Y36.3837
G01 X15.7307 Y36.3818
G01 X15.7229 Y36.3794
G01 X15.7154 Y36.3764
G01 X15.7081 Y36.3728
G01 X15.7012 Y36.3687
G01 X15.6945 Y36.3642
G01 X15.6882 Y36.3591
G01 X15.6803 Y36.3516
G01 X15.6750 Y36.3456
G01 X15.6701 Y36.3391
G01 X15.6656 Y36.3324
G01 X15.6617 Y36.3253
G01 X15.6584 Y36.3179
G01 X15.6556 Y36.3103
G01 X15.6533 Y36.3025
G01 X15.6512 Y36.2919
G01 X15.6503 Y36.2839
G01 X15.6500 Y36.2758
G01 X15.6500 Y32.2731
G01 X15.6512 Y32.2597
G01 X15.6540 Y32.2465
G01 X15.6584 Y32.2337
G01 X15.6643 Y32.2216
G01 X15.6716 Y32.2103
G01 X15.6803 Y32.2000
G01 X15.6861 Y32.1943
G01 X15.6923 Y32.1891
G01 X15.7034 Y32.1814
G01 X15.7130 Y32.1764
G01 X15.7229 Y32.1722
G01 X15.7359 Y32.1685
G01 X15.7465 Y32.1666
G01 X15.7600 Y32.1658
G01 X15.8282 Y32.1658
G01 X15.8282 Y28.2793
G01 X12.8529 Y25.3040
G01 X12.8080 Y25.2544
G01 X12.7712 Y25.2051
G01 X12.7652 Y25.1961
G01 X12.7337 Y25.1433
G01 X12.7051 Y25.0828
G01 X12.6843 Y25.0249
G01 X12.6811 Y25.0146
G01 X12.6663 Y24.9549
G01 X12.6572 Y24.8941
G01 X12.6561 Y24.8833
G01 X12.6532 Y24.8246
G01 X12.6532 Y22.4840
G01 X12.6465 Y22.4789
G01 X12.6280 Y22.4634
G01 X12.6074 Y22.4428
G01 X12.5888 Y22.4203
G01 X12.5710 Y22.3941
G01 X12.5570 Y22.3685
G01 X12.5473 Y22.3464
G01 X12.5446 Y22.3393
G01 X12.5371 Y22.3164
G01 X12.5314 Y22.2930
G01 X12.5299 Y22.2855
G01 X12.5269 Y22.2642
G00 Z2.0000
G00 X13.1742 Y35.6066
G01 F60.00
G01 Z-0.0000
G01 F120.00
G01 X13.1700 Y35.5258
G01 X13.1700 Y33.0258
G01 X13.1742 Y32.9450
G01 X13.1854 Y32.8697
G01 X13.2041 Y32.7948
G01 X13.2309 Y32.7197
G01 X13.2645 Y32.6487
G01 X13.3048 Y32.5813
G01 X13.3501 Y32.5202
G01 X13.4061 Y32.4584
G01 X13.4625 Y32.4074
G01 X13.5276 Y32.3593
G01 X13.5929 Y32.3203
G01 X13.6639 Y32.2867
G01 X13.7378 Y32.2602
G01 X13.8139 Y32.2412
G01 X13.8916 Y32.2297
G01 X13.9700 Y32.2258
G01 X14.0484 Y32.2297
G01 X14.1261 Y32.2412
G01 X14.2046 Y32.2610
G01 X14.2761 Y32.2867
G01 X14.3471 Y32.3203
G01 X14.4145 Y32.3606
G01 X14.4756 Y32.4059
G01 X14.5374 Y32.4619
G01 X14.5884 Y32.5183
G01 X14.6352 Y32.5813
G01 X14.6755 Y32.6487
G01 X14.7081 Y32.7174
G01 X14.7362 Y32.7959
G01 X14.7546 Y32.8697
G01 X14.7661 Y32.9474
G01 X14.7700 Y33.0258
G01 X14.7699 Y35.5283
G01 X14.7661 Y35.6042
G01 X14.7550 Y35.6795
G01 X14.7348 Y35.7604
G01 X14.7091 Y35.8319
G01 X14.6755 Y35.9029
G01 X14.6352 Y35.9703
G01 X14.5918 Y36.0289
G01 X14.5918 Y37.1256
G01 X17.6188 Y37.1256
G01 X18.1099 Y36.6345
G01 X18.1099 Y27.0217
G01 X15.4345 Y24.3462
G01 X15.3944 Y24.3019
G01 X15.3594 Y24.2549
G01 X15.3255 Y24.1983
G01 X15.3005 Y24.1453
G01 X15.2800 Y24.0879
G01 X15.2652 Y24.0287
G01 X15.2563 Y23.9696
G01 X15.2532 Y23.9074
G01 X15.2532 Y22.1550
G01 X15.2501 Y22.1504
G01 X15.2125 Y22.0872
G01 X15.1821 Y22.0228
G01 X15.1573 Y21.9535
G01 X15.1390 Y21.8797
G01 X15.1286 Y21.8093
G01 X15.1250 Y21.7370
G01 X15.1250 Y19.1358
G01 X15.1289 Y19.0599
G01 X15.1394 Y18.9895
G01 X15.1566 Y18.9205
G01 X15.1812 Y18.8511
G01 X15.2136 Y18.7823
G01 X15.2501 Y18.7212
G01 X15.2952 Y18.6600
G01 X15.3447 Y18.6055
G01 X15.3992 Y18.5560
G01 X15.4563 Y18.5136
G01 X15.5215 Y18.4744
G01 X15.5880 Y18.4429
G01 X15.6573 Y18.4181
G01 X15.7287 Y18.4002
G01 X15.8015 Y18.3894
G01 X15.8750 Y18.3858
G01 X15.9485 Y18.3894
G01 X16.0201 Y18.4000
G01 X16.0950 Y18.4189
G01 X16.1620 Y18.4429
G01 X16.2285 Y18.4744
G01 X16.2917 Y18.5122
G01 X16.3489 Y18.5545
G01 X16.4070 Y18.6072
G01 X16.4548 Y18.6600
G01 X16.4986 Y18.7191
G01 X16.5364 Y18.7823
G01 X16.5669 Y18.8465
G01 X16.5934 Y18.9205
G01 X16.6106 Y18.9895
G01 X16.6214 Y19.0623
G01 X16.6250 Y19.1358
G01 X16.6250 Y21.7370
G01 X16.6214 Y21.8093
G01 X16.6110 Y21.8797
G01 X16.5927 Y21.9535
G01 X16.5679 Y22.0228
G01 X16.5375 Y22.0872
G01 X16.4999 Y22.1504
G01 X16.4968 Y22.1550
G01 X16.4968 Y23.6498
G01 X19.1722 Y26.3253
G01 X19.2123 Y26.3696
G01 X19.2473 Y26.4166
G01 X19.2801 Y26.4710
G01 X19.3062 Y26.5262
G01 X19.3259 Y26.5813
G01 X19.3418 Y26.6440
G01 X19.3505 Y26.7032
G01 X19.3535 Y26.7641
G01 X19.3535 Y36.8921
G01 X19.3505 Y36.9530
G01 X19.3413 Y37.0146
G01 X19.3267 Y37.0726
G01 X19.3070 Y37.1278
G01 X19.2801 Y37.1852
G01 X19.2473 Y37.2396
G01 X19.2123 Y37.2866
G01 X19.1714 Y37.3318
G01 X18.3161 Y38.1871
G01 X18.2718 Y38.2273
G01 X18.2218 Y38.2644
G01 X18.1673 Y38.2969
G01 X18.1121 Y38.3227
G01 X18.0569 Y38.3424
G01 X18.0001 Y38.3567
G01 X17.9373 Y38.3662
G01 X17.8764 Y38.3692
G01 X13.9700 Y38.3692
G01 X13.9091 Y38.3662
G01 X13.8475 Y38.3570
G01 X13.7895 Y38.3424
G01 X13.7343 Y38.3227
G01 X13.6769 Y38.2958
G01 X13.6225 Y38.2630
G01 X13.5755 Y38.2280
G01 X13.5303 Y38.1871
G01 X13.4894 Y38.1419
G01 X13.4544 Y38.0949
G01 X13.4216 Y38.0405
G01 X13.3947 Y37.9831
G01 X13.3750 Y37.9279
G01 X13.3607 Y37.8711
G01 X13.3512 Y37.8083
