(This GCode script was designed to adjust the Z height of a CNC machine according)
(to the minute variations in the surface height in order to achieve a better result in the milling/etching process)
(This script is the output of AutoLevellerAE, 0.9.5u2 Changeset: ...2d0387 @ http://autoleveller.co.uk)
(Author: James Hawthorne PhD. File creation date: 02-05-2021 16:24)
(This program and any of its output is licensed under GPLv2 and as such...)
(AutoLevellerAE comes with ABSOLUTELY NO WARRANTY; for details, see sections 11 and 12 of the GPLv2 @ http://www.gnu.org/licenses/old-licenses/gpl-2.0.html)

(The following is a checklist which can be used before the probe routine starts)
(The checklist may not be entirely correct given your machine, therefore you should make your own adaptations as appropriate)
(1. Make sure wires/clips are attached and the probe is working correctly)
(Test probe connections within control software before starting)
(2. Home all axis)
(3. Load GCode file that contains the probe routine into your software controller)
(4. Jog tool tip close to surface and touch off Z)
(5. Jog Z up a fraction to make sure surface is cleared)
(6. Jog to and touch off X and Y at the desired bottom left corner of the probe area)
(Note: The first probe will touch off Z to 0.0 when it first touches to the surface,)
(all other probe values are relative to this first point)

G90 G21 S20000 G17

M0 (Attach probe wires and clips that need attaching)
(Initialize probe routine)
G0 Z25 (Move clear of the board first)
G1 X4.4154 Y4.7514 F600 (Move to bottom left corner)
G0 Z2 (Quick move to probe clearance height)
G38.2 Z-1 F100 (Probe to a maximum of the specified probe height at the specified feed rate)
G92 Z0 (Touch off Z to 0 once contact is made)
G0 Z2 (Move Z to above the contact point)
G38.2 Z-1 F50 (Repeat at a more accurate slower rate)
G92 Z0
G0 Z2

(PROBEOPEN RawProbeLog.txt)
G0 Z2
G1 X4.4154 Y4.7514 F600
G38.2 Z-1 F100
G0 Z2
G1 X14.72716 Y4.7514 F600
G38.2 Z-1 F100
G0 Z2
G1 X25.03892 Y4.7514 F600
G38.2 Z-1 F100
G0 Z2
G1 X35.35068 Y4.7514 F600
G38.2 Z-1 F100
G0 Z2
G1 X45.66244 Y4.7514 F600
G38.2 Z-1 F100
G0 Z2
G1 X55.9742 Y4.7514 F600
G38.2 Z-1 F100
G0 Z2
G1 X66.28596 Y4.7514 F600
G38.2 Z-1 F100
G0 Z2
G1 X76.59772 Y4.7514 F600
G38.2 Z-1 F100
G0 Z2
G1 X86.90948 Y4.7514 F600
G38.2 Z-1 F100
G0 Z2
G1 X97.22124 Y4.7514 F600
G38.2 Z-1 F100
G0 Z2
G1 X107.533 Y4.7514 F600
G38.2 Z-1 F100
G0 Z2
G1 X117.84476 Y4.7514 F600
G38.2 Z-1 F100
G0 Z2
G1 X128.15652 Y4.7514 F600
G38.2 Z-1 F100
G0 Z2
G1 X138.46828 Y4.7514 F600
G38.2 Z-1 F100
G0 Z2
G1 X148.78004 Y4.7514 F600
G38.2 Z-1 F100
G0 Z2
G1 X159.0918 Y4.7514 F600
G38.2 Z-1 F100
G0 Z2
G1 X169.40356 Y4.7514 F600
G38.2 Z-1 F100
G0 Z2
G1 X169.40356 Y15.5473 F600
G38.2 Z-1 F100
G0 Z2
G1 X159.0918 Y15.5473 F600
G38.2 Z-1 F100
G0 Z2
G1 X148.78004 Y15.5473 F600
G38.2 Z-1 F100
G0 Z2
G1 X138.46828 Y15.5473 F600
G38.2 Z-1 F100
G0 Z2
G1 X128.15652 Y15.5473 F600
G38.2 Z-1 F100
G0 Z2
G1 X117.84476 Y15.5473 F600
G38.2 Z-1 F100
G0 Z2
G1 X107.533 Y15.5473 F600
G38.2 Z-1 F100
G0 Z2
G1 X97.22124 Y15.5473 F600
G38.2 Z-1 F100
G0 Z2
G1 X86.90948 Y15.5473 F600
G38.2 Z-1 F100
G0 Z2
G1 X76.59772 Y15.5473 F600
G38.2 Z-1 F100
G0 Z2
G1 X66.28596 Y15.5473 F600
G38.2 Z-1 F100
G0 Z2
G1 X55.9742 Y15.5473 F600
G38.2 Z-1 F100
G0 Z2
G1 X45.66244 Y15.5473 F600
G38.2 Z-1 F100
G0 Z2
G1 X35.35068 Y15.5473 F600
G38.2 Z-1 F100
G0 Z2
G1 X25.03892 Y15.5473 F600
G38.2 Z-1 F100
G0 Z2
G1 X14.72716 Y15.5473 F600
G38.2 Z-1 F100
G0 Z2
G1 X4.4154 Y15.5473 F600
G38.2 Z-1 F100
G0 Z2
G1 X4.4154 Y26.3432 F600
G38.2 Z-1 F100
G0 Z2
G1 X14.72716 Y26.3432 F600
G38.2 Z-1 F100
G0 Z2
G1 X25.03892 Y26.3432 F600
G38.2 Z-1 F100
G0 Z2
G1 X35.35068 Y26.3432 F600
G38.2 Z-1 F100
G0 Z2
G1 X45.66244 Y26.3432 F600
G38.2 Z-1 F100
G0 Z2
G1 X55.9742 Y26.3432 F600
G38.2 Z-1 F100
G0 Z2
G1 X66.28596 Y26.3432 F600
G38.2 Z-1 F100
G0 Z2
G1 X76.59772 Y26.3432 F600
G38.2 Z-1 F100
G0 Z2
G1 X86.90948 Y26.3432 F600
G38.2 Z-1 F100
G0 Z2
G1 X97.22124 Y26.3432 F600
G38.2 Z-1 F100
G0 Z2
G1 X107.533 Y26.3432 F600
G38.2 Z-1 F100
G0 Z2
G1 X117.84476 Y26.3432 F600
G38.2 Z-1 F100
G0 Z2
G1 X128.15652 Y26.3432 F600
G38.2 Z-1 F100
G0 Z2
G1 X138.46828 Y26.3432 F600
G38.2 Z-1 F100
G0 Z2
G1 X148.78004 Y26.3432 F600
G38.2 Z-1 F100
G0 Z2
G1 X159.0918 Y26.3432 F600
G38.2 Z-1 F100
G0 Z2
G1 X169.40356 Y26.3432 F600
G38.2 Z-1 F100
G0 Z2
G1 X169.40356 Y37.1391 F600
G38.2 Z-1 F100
G0 Z2
G1 X159.0918 Y37.1391 F600
G38.2 Z-1 F100
G0 Z2
G1 X148.78004 Y37.1391 F600
G38.2 Z-1 F100
G0 Z2
G1 X138.46828 Y37.1391 F600
G38.2 Z-1 F100
G0 Z2
G1 X128.15652 Y37.1391 F600
G38.2 Z-1 F100
G0 Z2
G1 X117.84476 Y37.1391 F600
G38.2 Z-1 F100
G0 Z2
G1 X107.533 Y37.1391 F600
G38.2 Z-1 F100
G0 Z2
G1 X97.22124 Y37.1391 F600
G38.2 Z-1 F100
G0 Z2
G1 X86.90948 Y37.1391 F600
G38.2 Z-1 F100
G0 Z2
G1 X76.59772 Y37.1391 F600
G38.2 Z-1 F100
G0 Z2
G1 X66.28596 Y37.1391 F600
G38.2 Z-1 F100
G0 Z2
G1 X55.9742 Y37.1391 F600
G38.2 Z-1 F100
G0 Z2
G1 X45.66244 Y37.1391 F600
G38.2 Z-1 F100
G0 Z2
G1 X35.35068 Y37.1391 F600
G38.2 Z-1 F100
G0 Z2
G1 X25.03892 Y37.1391 F600
G38.2 Z-1 F100
G0 Z2
G1 X14.72716 Y37.1391 F600
G38.2 Z-1 F100
G0 Z2
G1 X4.4154 Y37.1391 F600
G38.2 Z-1 F100
G0 Z2
G1 X4.4154 Y47.935 F600
G38.2 Z-1 F100
G0 Z2
G1 X14.72716 Y47.935 F600
G38.2 Z-1 F100
G0 Z2
G1 X25.03892 Y47.935 F600
G38.2 Z-1 F100
G0 Z2
G1 X35.35068 Y47.935 F600
G38.2 Z-1 F100
G0 Z2
G1 X45.66244 Y47.935 F600
G38.2 Z-1 F100
G0 Z2
G1 X55.9742 Y47.935 F600
G38.2 Z-1 F100
G0 Z2
G1 X66.28596 Y47.935 F600
G38.2 Z-1 F100
G0 Z2
G1 X76.59772 Y47.935 F600
G38.2 Z-1 F100
G0 Z2
G1 X86.90948 Y47.935 F600
G38.2 Z-1 F100
G0 Z2
G1 X97.22124 Y47.935 F600
G38.2 Z-1 F100
G0 Z2
G1 X107.533 Y47.935 F600
G38.2 Z-1 F100
G0 Z2
G1 X117.84476 Y47.935 F600
G38.2 Z-1 F100
G0 Z2
G1 X128.15652 Y47.935 F600
G38.2 Z-1 F100
G0 Z2
G1 X138.46828 Y47.935 F600
G38.2 Z-1 F100
G0 Z2
G1 X148.78004 Y47.935 F600
G38.2 Z-1 F100
G0 Z2
G1 X159.0918 Y47.935 F600
G38.2 Z-1 F100
G0 Z2
G1 X169.40356 Y47.935 F600
G38.2 Z-1 F100
G0 Z2
G1 X169.40356 Y58.7309 F600
G38.2 Z-1 F100
G0 Z2
G1 X159.0918 Y58.7309 F600
G38.2 Z-1 F100
G0 Z2
G1 X148.78004 Y58.7309 F600
G38.2 Z-1 F100
G0 Z2
G1 X138.46828 Y58.7309 F600
G38.2 Z-1 F100
G0 Z2
G1 X128.15652 Y58.7309 F600
G38.2 Z-1 F100
G0 Z2
G1 X117.84476 Y58.7309 F600
G38.2 Z-1 F100
G0 Z2
G1 X107.533 Y58.7309 F600
G38.2 Z-1 F100
G0 Z2
G1 X97.22124 Y58.7309 F600
G38.2 Z-1 F100
G0 Z2
G1 X86.90948 Y58.7309 F600
G38.2 Z-1 F100
G0 Z2
G1 X76.59772 Y58.7309 F600
G38.2 Z-1 F100
G0 Z2
G1 X66.28596 Y58.7309 F600
G38.2 Z-1 F100
G0 Z2
G1 X55.9742 Y58.7309 F600
G38.2 Z-1 F100
G0 Z2
G1 X45.66244 Y58.7309 F600
G38.2 Z-1 F100
G0 Z2
G1 X35.35068 Y58.7309 F600
G38.2 Z-1 F100
G0 Z2
G1 X25.03892 Y58.7309 F600
G38.2 Z-1 F100
G0 Z2
G1 X14.72716 Y58.7309 F600
G38.2 Z-1 F100
G0 Z2
G1 X4.4154 Y58.7309 F600
G38.2 Z-1 F100
G0 Z2
G1 X4.4154 Y69.5268 F600
G38.2 Z-1 F100
G0 Z2
G1 X14.72716 Y69.5268 F600
G38.2 Z-1 F100
G0 Z2
G1 X25.03892 Y69.5268 F600
G38.2 Z-1 F100
G0 Z2
G1 X35.35068 Y69.5268 F600
G38.2 Z-1 F100
G0 Z2
G1 X45.66244 Y69.5268 F600
G38.2 Z-1 F100
G0 Z2
G1 X55.9742 Y69.5268 F600
G38.2 Z-1 F100
G0 Z2
G1 X66.28596 Y69.5268 F600
G38.2 Z-1 F100
G0 Z2
G1 X76.59772 Y69.5268 F600
G38.2 Z-1 F100
G0 Z2
G1 X86.90948 Y69.5268 F600
G38.2 Z-1 F100
G0 Z2
G1 X97.22124 Y69.5268 F600
G38.2 Z-1 F100
G0 Z2
G1 X107.533 Y69.5268 F600
G38.2 Z-1 F100
G0 Z2
G1 X117.84476 Y69.5268 F600
G38.2 Z-1 F100
G0 Z2
G1 X128.15652 Y69.5268 F600
G38.2 Z-1 F100
G0 Z2
G1 X138.46828 Y69.5268 F600
G38.2 Z-1 F100
G0 Z2
G1 X148.78004 Y69.5268 F600
G38.2 Z-1 F100
G0 Z2
G1 X159.0918 Y69.5268 F600
G38.2 Z-1 F100
G0 Z2
G1 X169.40356 Y69.5268 F600
G38.2 Z-1 F100
G0 Z2
G1 X169.40356 Y80.3227 F600
G38.2 Z-1 F100
G0 Z2
G1 X159.0918 Y80.3227 F600
G38.2 Z-1 F100
G0 Z2
G1 X148.78004 Y80.3227 F600
G38.2 Z-1 F100
G0 Z2
G1 X138.46828 Y80.3227 F600
G38.2 Z-1 F100
G0 Z2
G1 X128.15652 Y80.3227 F600
G38.2 Z-1 F100
G0 Z2
G1 X117.84476 Y80.3227 F600
G38.2 Z-1 F100
G0 Z2
G1 X107.533 Y80.3227 F600
G38.2 Z-1 F100
G0 Z2
G1 X97.22124 Y80.3227 F600
G38.2 Z-1 F100
G0 Z2
G1 X86.90948 Y80.3227 F600
G38.2 Z-1 F100
G0 Z2
G1 X76.59772 Y80.3227 F600
G38.2 Z-1 F100
G0 Z2
G1 X66.28596 Y80.3227 F600
G38.2 Z-1 F100
G0 Z2
G1 X55.9742 Y80.3227 F600
G38.2 Z-1 F100
G0 Z2
G1 X45.66244 Y80.3227 F600
G38.2 Z-1 F100
G0 Z2
G1 X35.35068 Y80.3227 F600
G38.2 Z-1 F100
G0 Z2
G1 X25.03892 Y80.3227 F600
G38.2 Z-1 F100
G0 Z2
G1 X14.72716 Y80.3227 F600
G38.2 Z-1 F100
G0 Z2
G1 X4.4154 Y80.3227 F600
G38.2 Z-1 F100
G0 Z2
G1 X4.4154 Y91.1186 F600
G38.2 Z-1 F100
G0 Z2
G1 X14.72716 Y91.1186 F600
G38.2 Z-1 F100
G0 Z2
G1 X25.03892 Y91.1186 F600
G38.2 Z-1 F100
G0 Z2
G1 X35.35068 Y91.1186 F600
G38.2 Z-1 F100
G0 Z2
G1 X45.66244 Y91.1186 F600
G38.2 Z-1 F100
G0 Z2
G1 X55.9742 Y91.1186 F600
G38.2 Z-1 F100
G0 Z2
G1 X66.28596 Y91.1186 F600
G38.2 Z-1 F100
G0 Z2
G1 X76.59772 Y91.1186 F600
G38.2 Z-1 F100
G0 Z2
G1 X86.90948 Y91.1186 F600
G38.2 Z-1 F100
G0 Z2
G1 X97.22124 Y91.1186 F600
G38.2 Z-1 F100
G0 Z2
G1 X107.533 Y91.1186 F600
G38.2 Z-1 F100
G0 Z2
G1 X117.84476 Y91.1186 F600
G38.2 Z-1 F100
G0 Z2
G1 X128.15652 Y91.1186 F600
G38.2 Z-1 F100
G0 Z2
G1 X138.46828 Y91.1186 F600
G38.2 Z-1 F100
G0 Z2
G1 X148.78004 Y91.1186 F600
G38.2 Z-1 F100
G0 Z2
G1 X159.0918 Y91.1186 F600
G38.2 Z-1 F100
G0 Z2
G1 X169.40356 Y91.1186 F600
G38.2 Z-1 F100
G0 Z2
G1 X169.40356 Y101.9145 F600
G38.2 Z-1 F100
G0 Z2
G1 X159.0918 Y101.9145 F600
G38.2 Z-1 F100
G0 Z2
G1 X148.78004 Y101.9145 F600
G38.2 Z-1 F100
G0 Z2
G1 X138.46828 Y101.9145 F600
G38.2 Z-1 F100
G0 Z2
G1 X128.15652 Y101.9145 F600
G38.2 Z-1 F100
G0 Z2
G1 X117.84476 Y101.9145 F600
G38.2 Z-1 F100
G0 Z2
G1 X107.533 Y101.9145 F600
G38.2 Z-1 F100
G0 Z2
G1 X97.22124 Y101.9145 F600
G38.2 Z-1 F100
G0 Z2
G1 X86.90948 Y101.9145 F600
G38.2 Z-1 F100
G0 Z2
G1 X76.59772 Y101.9145 F600
G38.2 Z-1 F100
G0 Z2
G1 X66.28596 Y101.9145 F600
G38.2 Z-1 F100
G0 Z2
G1 X55.9742 Y101.9145 F600
G38.2 Z-1 F100
G0 Z2
G1 X45.66244 Y101.9145 F600
G38.2 Z-1 F100
G0 Z2
G1 X35.35068 Y101.9145 F600
G38.2 Z-1 F100
G0 Z2
G1 X25.03892 Y101.9145 F600
G38.2 Z-1 F100
G0 Z2
G1 X14.72716 Y101.9145 F600
G38.2 Z-1 F100
G0 Z2
G1 X4.4154 Y101.9145 F600
G38.2 Z-1 F100
G0 Z2
(PROBECLOSE)
G0 X4.4154 Y4.7514 Z25
M0 (Detach any clips used for probing)
M30
