(G-CODE GENERATED BY FLATCAM v8.994 - www.flatcam.org - Version Date: 2020/11/7)

(Name: preamp-board-v4-Edge_Cuts.gbr_iso_combined_cnc)
(Type: G-code from Geometry)
(Units: MM)

(Created on Monday, 10 May 2021 at 11:23)

(This preprocessor is the default preprocessor used by FlatCAM.)
(It is made to work with MACH3 compatible motion controllers.)

(TOOL DIAMETER: 0.1 mm)
(Feedrate_XY: 120.0 mm/min)
(Feedrate_Z: 60.0 mm/min)
(Feedrate rapids 1500.0 mm/min)

(Z_Cut: -0.0 mm)
(Z_Move: 2.0 mm)
(Z Start: None mm)
(Z End: 15.0 mm)
(X,Y End: None mm)
(Steps per circle: 64)
(Preprocessor Geometry: default)

(X range:   -0.0750 ...  101.6750  mm)
(Y range:   -0.0750 ...   69.9250  mm)

(Spindle Speed: 0.0 RPM)
G21
G90
G94

G01 F120.00

M5
G00 Z15.0000
G00 X0.0000 Y0.0000
T1
M6    
(MSG, Change to Tool Dia = 0.1000)
M0
G00 Z15.0000
S10000
M03
G01 F60
G00 X-0.0750 Y-0.0025
G01 F60.00
G01 Z-0.09
G01 F60
G01 X-0.0745 Y-0.0086
G01 X-0.0733 Y-0.0158
G01 X-0.0714 Y-0.0229
G01 X-0.0688 Y-0.0298
G01 X-0.0656 Y-0.0364
G01 X-0.0617 Y-0.0427
G01 X-0.0572 Y-0.0485
G01 X-0.0522 Y-0.0539
G01 X-0.0476 Y-0.0580
G01 X-0.0417 Y-0.0624
G01 X-0.0354 Y-0.0662
G01 X-0.0287 Y-0.0693
G01 X-0.0218 Y-0.0718
G01 X-0.0146 Y-0.0736
G01 X-0.0074 Y-0.0747
G01 X0.0000 Y-0.0750
G01 X101.6000 Y-0.0750
G01 X101.6061 Y-0.0748
G01 X101.6122 Y-0.0740
G01 X101.6218 Y-0.0718
G01 X101.6276 Y-0.0698
G01 X101.6332 Y-0.0673
G01 X101.6427 Y-0.0617
G01 X101.6494 Y-0.0564
G01 X101.6564 Y-0.0494
G01 X101.6617 Y-0.0427
G01 X101.6662 Y-0.0354
G01 X101.6698 Y-0.0276
G01 X101.6730 Y-0.0170
G01 X101.6745 Y-0.0086
G01 X101.6750 Y0.0000
G01 X101.6750 Y69.8500
G01 X101.6748 Y69.8561
G01 X101.6740 Y69.8622
G01 X101.6718 Y69.8718
G01 X101.6698 Y69.8776
G01 X101.6673 Y69.8832
G01 X101.6617 Y69.8927
G01 X101.6564 Y69.8994
G01 X101.6494 Y69.9064
G01 X101.6427 Y69.9117
G01 X101.6354 Y69.9162
G01 X101.6276 Y69.9198
G01 X101.6170 Y69.9230
G01 X101.6086 Y69.9245
G01 X101.6000 Y69.9250
G01 X0.0000 Y69.9250
G01 X-0.0061 Y69.9248
G01 X-0.0122 Y69.9240
G01 X-0.0218 Y69.9218
G01 X-0.0276 Y69.9198
G01 X-0.0332 Y69.9173
G01 X-0.0427 Y69.9117
G01 X-0.0494 Y69.9064
G01 X-0.0564 Y69.8994
G01 X-0.0617 Y69.8927
G01 X-0.0662 Y69.8854
G01 X-0.0698 Y69.8776
G01 X-0.0730 Y69.8670
G01 X-0.0745 Y69.8586
G01 X-0.0750 Y69.8500
G01 X-0.0750 Y-0.0025
G00 Z2.0000
G00 X0.0750 Y0.0750
G01 F60.00
G01 Z-0.09
G01 F60
G01 X101.5250 Y0.0750
G01 X101.5250 Y69.7750
G01 X0.0750 Y69.7750
G01 X0.0750 Y0.0750
G00 Z2.0000
G00 X8.8556 Y13.9602
G01 F60.00
G01 Z-0.09
G01 F60
G01 X8.8567 Y13.9542
G01 X8.8582 Y13.9482
G01 X8.8607 Y13.9413
G01 X8.8633 Y13.9357
G01 X8.8670 Y13.9294
G01 X8.8705 Y13.9243
G01 X8.8778 Y13.9161
G01 X8.8824 Y13.9120
G01 X8.8883 Y13.9076
G01 X8.8946 Y13.9038
G01 X8.9002 Y13.9012
G01 X8.9071 Y13.8986
G01 X8.9130 Y13.8970
G01 X8.9239 Y13.8952
G01 X8.9300 Y13.8950
G01 X9.6919 Y13.8950
G01 X9.6970 Y13.7968
G01 X9.7223 Y13.6278
G01 X9.7637 Y13.4633
G01 X9.8219 Y13.3012
G01 X9.8946 Y13.1479
G01 X9.9826 Y13.0014
G01 X10.0845 Y12.8642
G01 X10.1993 Y12.7376
G01 X10.3261 Y12.6229
G01 X10.4614 Y12.5226
G01 X10.6079 Y12.4346
G01 X10.7612 Y12.3619
G01 X10.9233 Y12.3037
G01 X11.0878 Y12.2623
G01 X11.2568 Y12.2370
G01 X11.3550 Y12.2319
G01 X11.3550 Y11.4700
G01 X11.3553 Y11.4626
G01 X11.3564 Y11.4554
G01 X11.3582 Y11.4482
G01 X11.3607 Y11.4413
G01 X11.3633 Y11.4357
G01 X11.3670 Y11.4294
G01 X11.3705 Y11.4243
G01 X11.3787 Y11.4153
G01 X11.3834 Y11.4112
G01 X11.3894 Y11.4070
G01 X11.3957 Y11.4033
G01 X11.4024 Y11.4002
G01 X11.4082 Y11.3982
G01 X11.4154 Y11.3964
G01 X11.4226 Y11.3953
G01 X11.4300 Y11.3950
G01 X11.4374 Y11.3953
G01 X11.4446 Y11.3964
G01 X11.4518 Y11.3982
G01 X11.4576 Y11.4002
G01 X11.4643 Y11.4033
G01 X11.4706 Y11.4070
G01 X11.4766 Y11.4112
G01 X11.4813 Y11.4153
G01 X11.4895 Y11.4243
G01 X11.4930 Y11.4294
G01 X11.4967 Y11.4357
G01 X11.4993 Y11.4413
G01 X11.5018 Y11.4482
G01 X11.5036 Y11.4554
G01 X11.5047 Y11.4626
G01 X11.5050 Y11.4700
G01 X11.5050 Y12.2319
G01 X11.6032 Y12.2370
G01 X11.7722 Y12.2623
G01 X11.9367 Y12.3037
G01 X12.0988 Y12.3619
G01 X12.2521 Y12.4346
G01 X12.3986 Y12.5226
G01 X12.5358 Y12.6245
G01 X12.6624 Y12.7393
G01 X12.7771 Y12.8661
G01 X12.8774 Y13.0014
G01 X12.9654 Y13.1479
G01 X13.0381 Y13.3012
G01 X13.0963 Y13.4633
G01 X13.1377 Y13.6278
G01 X13.1630 Y13.7968
G01 X13.1681 Y13.8950
G01 X13.9300 Y13.8950
G01 X13.9374 Y13.8953
G01 X13.9446 Y13.8964
G01 X13.9518 Y13.8982
G01 X13.9587 Y13.9007
G01 X13.9643 Y13.9033
G01 X13.9706 Y13.9070
G01 X13.9757 Y13.9105
G01 X13.9847 Y13.9187
G01 X13.9888 Y13.9234
G01 X13.9930 Y13.9294
G01 X13.9967 Y13.9357
G01 X13.9998 Y13.9424
G01 X14.0018 Y13.9482
G01 X14.0036 Y13.9554
G01 X14.0047 Y13.9626
G01 X14.0050 Y13.9700
G01 X14.0047 Y13.9774
G01 X14.0036 Y13.9846
G01 X14.0018 Y13.9918
G01 X13.9998 Y13.9976
G01 X13.9967 Y14.0043
G01 X13.9930 Y14.0106
G01 X13.9888 Y14.0166
G01 X13.9847 Y14.0213
G01 X13.9757 Y14.0295
G01 X13.9706 Y14.0330
G01 X13.9643 Y14.0367
G01 X13.9587 Y14.0393
G01 X13.9518 Y14.0418
G01 X13.9446 Y14.0436
G01 X13.9374 Y14.0447
G01 X13.9300 Y14.0450
G01 X13.1681 Y14.0450
G01 X13.1630 Y14.1432
G01 X13.1377 Y14.3122
G01 X13.0963 Y14.4767
G01 X13.0381 Y14.6388
G01 X12.9654 Y14.7921
G01 X12.8774 Y14.9386
G01 X12.7755 Y15.0758
G01 X12.6607 Y15.2024
G01 X12.5339 Y15.3171
G01 X12.3986 Y15.4174
G01 X12.2521 Y15.5054
G01 X12.0988 Y15.5781
G01 X11.9367 Y15.6363
G01 X11.7722 Y15.6777
G01 X11.6032 Y15.7030
G01 X11.5050 Y15.7081
G01 X11.5050 Y16.4700
G01 X11.5047 Y16.4774
G01 X11.5036 Y16.4846
G01 X11.5018 Y16.4918
G01 X11.4993 Y16.4987
G01 X11.4967 Y16.5043
G01 X11.4930 Y16.5106
G01 X11.4895 Y16.5157
G01 X11.4813 Y16.5247
G01 X11.4766 Y16.5288
G01 X11.4706 Y16.5330
G01 X11.4643 Y16.5367
G01 X11.4576 Y16.5398
G01 X11.4518 Y16.5418
G01 X11.4446 Y16.5436
G01 X11.4374 Y16.5447
G01 X11.4300 Y16.5450
G01 X11.4226 Y16.5447
G01 X11.4154 Y16.5436
G01 X11.4082 Y16.5418
G01 X11.4024 Y16.5398
G01 X11.3957 Y16.5367
G01 X11.3894 Y16.5330
G01 X11.3834 Y16.5288
G01 X11.3787 Y16.5247
G01 X11.3705 Y16.5157
G01 X11.3670 Y16.5106
G01 X11.3633 Y16.5043
G01 X11.3607 Y16.4987
G01 X11.3582 Y16.4918
G01 X11.3564 Y16.4846
G01 X11.3553 Y16.4774
G01 X11.3550 Y16.4700
G01 X11.3550 Y15.7081
G01 X11.2568 Y15.7030
G01 X11.0878 Y15.6777
G01 X10.9233 Y15.6363
G01 X10.7612 Y15.5781
G01 X10.6079 Y15.5054
G01 X10.4614 Y15.4174
G01 X10.3242 Y15.3155
G01 X10.1976 Y15.2007
G01 X10.0829 Y15.0739
G01 X9.9826 Y14.9386
G01 X9.8946 Y14.7921
G01 X9.8219 Y14.6388
G01 X9.7637 Y14.4767
G01 X9.7223 Y14.3122
G01 X9.6970 Y14.1432
G01 X9.6919 Y14.0450
G01 X8.9300 Y14.0450
G01 X8.9226 Y14.0447
G01 X8.9154 Y14.0436
G01 X8.9082 Y14.0418
G01 X8.9013 Y14.0393
G01 X8.8946 Y14.0362
G01 X8.8883 Y14.0324
G01 X8.8824 Y14.0280
G01 X8.8770 Y14.0230
G01 X8.8712 Y14.0166
G01 X8.8670 Y14.0106
G01 X8.8633 Y14.0043
G01 X8.8602 Y13.9976
G01 X8.8579 Y13.9906
G01 X8.8562 Y13.9834
G01 X8.8552 Y13.9761
G01 X8.8550 Y13.9688
G01 X8.8556 Y13.9602
G00 Z2.0000
G00 X9.8421 Y14.0450
G01 F60.00
G01 Z-0.09
G01 F60
G01 X11.3550 Y14.0450
G01 X11.3550 Y15.5579
G01 X11.2740 Y15.5539
G01 X11.1195 Y15.5310
G01 X10.9680 Y15.4930
G01 X10.8209 Y15.4404
G01 X10.6797 Y15.3736
G01 X10.5458 Y15.2933
G01 X10.4203 Y15.2003
G01 X10.3046 Y15.0954
G01 X10.1997 Y14.9797
G01 X10.1067 Y14.8542
G01 X10.0264 Y14.7203
G01 X9.9596 Y14.5791
G01 X9.9070 Y14.4320
G01 X9.8690 Y14.2805
G01 X9.8461 Y14.1260
G01 X9.8421 Y14.0450
G00 Z2.0000
G00 X11.5050 Y14.0450
G01 F60.00
G01 Z-0.09
G01 F60
G01 X13.0179 Y14.0450
G01 X13.0139 Y14.1260
G01 X12.9910 Y14.2805
G01 X12.9530 Y14.4320
G01 X12.9004 Y14.5791
G01 X12.8336 Y14.7203
G01 X12.7533 Y14.8542
G01 X12.6603 Y14.9797
G01 X12.5554 Y15.0954
G01 X12.4397 Y15.2003
G01 X12.3142 Y15.2933
G01 X12.1803 Y15.3736
G01 X12.0391 Y15.4404
G01 X11.8920 Y15.4930
G01 X11.7405 Y15.5310
G01 X11.5860 Y15.5539
G01 X11.5050 Y15.5579
G01 X11.5050 Y14.0450
G00 Z2.0000
G00 X11.5050 Y12.3821
G01 F60.00
G01 Z-0.09
G01 F60
G01 X11.5860 Y12.3861
G01 X11.7405 Y12.4090
G01 X11.8920 Y12.4470
G01 X12.0391 Y12.4996
G01 X12.1803 Y12.5664
G01 X12.3142 Y12.6467
G01 X12.4397 Y12.7397
G01 X12.5554 Y12.8446
G01 X12.6603 Y12.9603
G01 X12.7533 Y13.0858
G01 X12.8336 Y13.2197
G01 X12.9004 Y13.3609
G01 X12.9530 Y13.5080
G01 X12.9910 Y13.6595
G01 X13.0139 Y13.8140
G01 X13.0179 Y13.8950
G01 X11.5050 Y13.8950
G01 X11.5050 Y12.3821
G00 Z2.0000
G00 X11.3550 Y12.3821
G01 F60.00
G01 Z-0.09
G01 F60
G01 X11.3550 Y13.8950
G01 X9.8421 Y13.8950
G01 X9.8461 Y13.8140
G01 X9.8690 Y13.6595
G01 X9.9070 Y13.5080
G01 X9.9596 Y13.3609
G01 X10.0264 Y13.2197
G01 X10.1067 Y13.0858
G01 X10.1997 Y12.9603
G01 X10.3046 Y12.8446
G01 X10.4203 Y12.7397
G01 X10.5458 Y12.6467
G01 X10.6797 Y12.5664
G01 X10.8209 Y12.4996
G01 X10.9680 Y12.4470
G01 X11.1195 Y12.4090
G01 X11.2740 Y12.3861
G01 X11.3550 Y12.3821
G00 Z2.0000
G00 X8.9650 Y56.8321
G01 F60.00
G01 Z-0.09
G01 F60
G01 X9.0460 Y56.8361
G01 X9.2005 Y56.8590
G01 X9.3520 Y56.8970
G01 X9.4991 Y56.9496
G01 X9.6403 Y57.0164
G01 X9.7742 Y57.0967
G01 X9.8997 Y57.1897
G01 X10.0154 Y57.2946
G01 X10.1203 Y57.4103
G01 X10.2133 Y57.5358
G01 X10.2936 Y57.6697
G01 X10.3604 Y57.8109
G01 X10.4130 Y57.9580
G01 X10.4510 Y58.1095
G01 X10.4739 Y58.2640
G01 X10.4779 Y58.3450
G01 X8.9650 Y58.3450
G01 X8.9650 Y56.8321
G00 Z2.0000
G00 X8.8150 Y56.8321
G01 F60.00
G01 Z-0.09
G01 F60
G01 X8.8150 Y58.3450
G01 X7.3021 Y58.3450
G01 X7.3061 Y58.2640
G01 X7.3290 Y58.1095
G01 X7.3670 Y57.9580
G01 X7.4196 Y57.8109
G01 X7.4864 Y57.6697
G01 X7.5667 Y57.5358
G01 X7.6597 Y57.4103
G01 X7.7646 Y57.2946
G01 X7.8803 Y57.1897
G01 X8.0058 Y57.0967
G01 X8.1397 Y57.0164
G01 X8.2809 Y56.9496
G01 X8.4280 Y56.8970
G01 X8.5795 Y56.8590
G01 X8.7340 Y56.8361
G01 X8.8150 Y56.8321
G00 Z2.0000
G00 X8.9650 Y58.4950
G01 F60.00
G01 Z-0.09
G01 F60
G01 X10.4779 Y58.4950
G01 X10.4739 Y58.5760
G01 X10.4510 Y58.7305
G01 X10.4130 Y58.8820
G01 X10.3604 Y59.0291
G01 X10.2936 Y59.1703
G01 X10.2133 Y59.3042
G01 X10.1203 Y59.4297
G01 X10.0154 Y59.5454
G01 X9.8997 Y59.6503
G01 X9.7742 Y59.7433
G01 X9.6403 Y59.8236
G01 X9.4991 Y59.8904
G01 X9.3520 Y59.9430
G01 X9.2005 Y59.9810
G01 X9.0460 Y60.0039
G01 X8.9650 Y60.0079
G01 X8.9650 Y58.4950
G00 Z2.0000
G00 X7.3021 Y58.4950
G01 F60.00
G01 Z-0.09
G01 F60
G01 X8.8150 Y58.4950
G01 X8.8150 Y60.0079
G01 X8.7340 Y60.0039
G01 X8.5795 Y59.9810
G01 X8.4280 Y59.9430
G01 X8.2809 Y59.8904
G01 X8.1397 Y59.8236
G01 X8.0058 Y59.7433
G01 X7.8803 Y59.6503
G01 X7.7646 Y59.5454
G01 X7.6597 Y59.4297
G01 X7.5667 Y59.3042
G01 X7.4864 Y59.1703
G01 X7.4196 Y59.0291
G01 X7.3670 Y58.8820
G01 X7.3290 Y58.7305
G01 X7.3061 Y58.5760
G01 X7.3021 Y58.4950
G00 Z2.0000
G00 X6.3156 Y58.4102
G01 F60.00
G01 Z-0.09
G01 F60
G01 X6.3167 Y58.4042
G01 X6.3182 Y58.3982
G01 X6.3207 Y58.3913
G01 X6.3233 Y58.3857
G01 X6.3270 Y58.3794
G01 X6.3305 Y58.3743
G01 X6.3378 Y58.3661
G01 X6.3424 Y58.3620
G01 X6.3483 Y58.3576
G01 X6.3546 Y58.3538
G01 X6.3602 Y58.3512
G01 X6.3671 Y58.3486
G01 X6.3730 Y58.3470
G01 X6.3839 Y58.3452
G01 X6.3900 Y58.3450
G01 X7.1519 Y58.3450
G01 X7.1570 Y58.2468
G01 X7.1823 Y58.0778
G01 X7.2237 Y57.9133
G01 X7.2819 Y57.7512
G01 X7.3546 Y57.5979
G01 X7.4426 Y57.4514
G01 X7.5445 Y57.3142
G01 X7.6593 Y57.1876
G01 X7.7861 Y57.0729
G01 X7.9214 Y56.9726
G01 X8.0679 Y56.8846
G01 X8.2212 Y56.8119
G01 X8.3833 Y56.7537
G01 X8.5478 Y56.7123
G01 X8.7168 Y56.6870
G01 X8.8150 Y56.6819
G01 X8.8150 Y55.9200
G01 X8.8153 Y55.9126
G01 X8.8164 Y55.9054
G01 X8.8182 Y55.8982
G01 X8.8207 Y55.8913
G01 X8.8233 Y55.8857
G01 X8.8270 Y55.8794
G01 X8.8305 Y55.8743
G01 X8.8387 Y55.8653
G01 X8.8434 Y55.8612
G01 X8.8494 Y55.8570
G01 X8.8557 Y55.8533
G01 X8.8624 Y55.8502
G01 X8.8682 Y55.8482
G01 X8.8754 Y55.8464
G01 X8.8826 Y55.8453
G01 X8.8900 Y55.8450
G01 X8.8974 Y55.8453
G01 X8.9046 Y55.8464
G01 X8.9118 Y55.8482
G01 X8.9176 Y55.8502
G01 X8.9243 Y55.8533
G01 X8.9306 Y55.8570
G01 X8.9366 Y55.8612
G01 X8.9413 Y55.8653
G01 X8.9495 Y55.8743
G01 X8.9530 Y55.8794
G01 X8.9567 Y55.8857
G01 X8.9593 Y55.8913
G01 X8.9618 Y55.8982
G01 X8.9636 Y55.9054
G01 X8.9647 Y55.9126
G01 X8.9650 Y55.9200
G01 X8.9650 Y56.6819
G01 X9.0632 Y56.6870
G01 X9.2322 Y56.7123
G01 X9.3967 Y56.7537
G01 X9.5588 Y56.8119
G01 X9.7121 Y56.8846
G01 X9.8586 Y56.9726
G01 X9.9958 Y57.0745
G01 X10.1224 Y57.1893
G01 X10.2371 Y57.3161
G01 X10.3374 Y57.4514
G01 X10.4254 Y57.5979
G01 X10.4981 Y57.7512
G01 X10.5563 Y57.9133
G01 X10.5977 Y58.0778
G01 X10.6230 Y58.2468
G01 X10.6281 Y58.3450
G01 X11.3900 Y58.3450
G01 X11.3974 Y58.3453
G01 X11.4046 Y58.3464
G01 X11.4118 Y58.3482
G01 X11.4187 Y58.3507
G01 X11.4243 Y58.3533
G01 X11.4306 Y58.3570
G01 X11.4357 Y58.3605
G01 X11.4447 Y58.3687
G01 X11.4488 Y58.3734
G01 X11.4530 Y58.3794
G01 X11.4567 Y58.3857
G01 X11.4598 Y58.3924
G01 X11.4618 Y58.3982
G01 X11.4636 Y58.4054
G01 X11.4647 Y58.4126
G01 X11.4650 Y58.4200
G01 X11.4647 Y58.4274
G01 X11.4636 Y58.4346
G01 X11.4618 Y58.4418
G01 X11.4598 Y58.4476
G01 X11.4567 Y58.4543
G01 X11.4530 Y58.4606
G01 X11.4488 Y58.4666
G01 X11.4447 Y58.4713
G01 X11.4357 Y58.4795
G01 X11.4306 Y58.4830
G01 X11.4243 Y58.4867
G01 X11.4187 Y58.4893
G01 X11.4118 Y58.4918
G01 X11.4046 Y58.4936
G01 X11.3974 Y58.4947
G01 X11.3900 Y58.4950
G01 X10.6281 Y58.4950
G01 X10.6230 Y58.5932
G01 X10.5977 Y58.7622
G01 X10.5563 Y58.9267
G01 X10.4981 Y59.0888
G01 X10.4254 Y59.2421
G01 X10.3374 Y59.3886
G01 X10.2355 Y59.5258
G01 X10.1207 Y59.6524
G01 X9.9939 Y59.7671
G01 X9.8586 Y59.8674
G01 X9.7121 Y59.9554
G01 X9.5588 Y60.0281
G01 X9.3967 Y60.0863
G01 X9.2322 Y60.1277
G01 X9.0632 Y60.1530
G01 X8.9650 Y60.1581
G01 X8.9650 Y60.9200
G01 X8.9647 Y60.9274
G01 X8.9636 Y60.9346
G01 X8.9618 Y60.9418
G01 X8.9593 Y60.9487
G01 X8.9567 Y60.9543
G01 X8.9530 Y60.9606
G01 X8.9495 Y60.9657
G01 X8.9413 Y60.9747
G01 X8.9366 Y60.9788
G01 X8.9306 Y60.9830
G01 X8.9243 Y60.9867
G01 X8.9176 Y60.9898
G01 X8.9118 Y60.9918
G01 X8.9046 Y60.9936
G01 X8.8974 Y60.9947
G01 X8.8900 Y60.9950
G01 X8.8826 Y60.9947
G01 X8.8754 Y60.9936
G01 X8.8682 Y60.9918
G01 X8.8624 Y60.9898
G01 X8.8557 Y60.9867
G01 X8.8494 Y60.9830
G01 X8.8434 Y60.9788
G01 X8.8387 Y60.9747
G01 X8.8305 Y60.9657
G01 X8.8270 Y60.9606
G01 X8.8233 Y60.9543
G01 X8.8207 Y60.9487
G01 X8.8182 Y60.9418
G01 X8.8164 Y60.9346
G01 X8.8153 Y60.9274
G01 X8.8150 Y60.9200
G01 X8.8150 Y60.1581
G01 X8.7168 Y60.1530
G01 X8.5478 Y60.1277
G01 X8.3833 Y60.0863
G01 X8.2212 Y60.0281
G01 X8.0679 Y59.9554
G01 X7.9214 Y59.8674
G01 X7.7842 Y59.7655
G01 X7.6576 Y59.6507
G01 X7.5429 Y59.5239
G01 X7.4426 Y59.3886
G01 X7.3546 Y59.2421
G01 X7.2819 Y59.0888
G01 X7.2237 Y58.9267
G01 X7.1823 Y58.7622
G01 X7.1570 Y58.5932
G01 X7.1519 Y58.4950
G01 X6.3900 Y58.4950
G01 X6.3826 Y58.4947
G01 X6.3754 Y58.4936
G01 X6.3682 Y58.4918
G01 X6.3613 Y58.4893
G01 X6.3546 Y58.4862
G01 X6.3483 Y58.4824
G01 X6.3424 Y58.4780
G01 X6.3370 Y58.4730
G01 X6.3312 Y58.4666
G01 X6.3270 Y58.4606
G01 X6.3233 Y58.4543
G01 X6.3202 Y58.4476
G01 X6.3179 Y58.4406
G01 X6.3162 Y58.4334
G01 X6.3152 Y58.4261
G01 X6.3150 Y58.4188
G01 X6.3156 Y58.4102
G00 Z2.0000
G00 X87.5956 Y54.6002
G01 F60.00
G01 Z-0.09
G01 F60
G01 X87.5967 Y54.5942
G01 X87.5982 Y54.5882
G01 X87.6007 Y54.5813
G01 X87.6033 Y54.5757
G01 X87.6070 Y54.5694
G01 X87.6105 Y54.5643
G01 X87.6178 Y54.5561
G01 X87.6224 Y54.5520
G01 X87.6283 Y54.5476
G01 X87.6346 Y54.5438
G01 X87.6402 Y54.5412
G01 X87.6471 Y54.5386
G01 X87.6530 Y54.5370
G01 X87.6639 Y54.5352
G01 X87.6700 Y54.5350
G01 X88.4319 Y54.5350
G01 X88.4370 Y54.4368
G01 X88.4623 Y54.2678
G01 X88.5037 Y54.1033
G01 X88.5619 Y53.9412
G01 X88.6346 Y53.7879
G01 X88.7226 Y53.6414
G01 X88.8245 Y53.5042
G01 X88.9393 Y53.3776
G01 X89.0661 Y53.2629
G01 X89.2014 Y53.1626
G01 X89.3479 Y53.0746
G01 X89.5012 Y53.0019
G01 X89.6633 Y52.9437
G01 X89.8278 Y52.9023
G01 X89.9968 Y52.8770
G01 X90.0950 Y52.8719
G01 X90.0950 Y52.1100
G01 X90.0953 Y52.1026
G01 X90.0964 Y52.0954
G01 X90.0982 Y52.0882
G01 X90.1007 Y52.0813
G01 X90.1033 Y52.0757
G01 X90.1070 Y52.0694
G01 X90.1105 Y52.0643
G01 X90.1187 Y52.0553
G01 X90.1234 Y52.0512
G01 X90.1294 Y52.0470
G01 X90.1357 Y52.0433
G01 X90.1424 Y52.0402
G01 X90.1482 Y52.0382
G01 X90.1554 Y52.0364
G01 X90.1626 Y52.0353
G01 X90.1700 Y52.0350
G01 X90.1774 Y52.0353
G01 X90.1846 Y52.0364
G01 X90.1918 Y52.0382
G01 X90.1976 Y52.0402
G01 X90.2043 Y52.0433
G01 X90.2106 Y52.0470
G01 X90.2166 Y52.0512
G01 X90.2213 Y52.0553
G01 X90.2295 Y52.0643
G01 X90.2330 Y52.0694
G01 X90.2367 Y52.0757
G01 X90.2393 Y52.0813
G01 X90.2418 Y52.0882
G01 X90.2436 Y52.0954
G01 X90.2447 Y52.1026
G01 X90.2450 Y52.1100
G01 X90.2450 Y52.8719
G01 X90.3432 Y52.8770
G01 X90.5122 Y52.9023
G01 X90.6767 Y52.9437
G01 X90.8388 Y53.0019
G01 X90.9921 Y53.0746
G01 X91.1386 Y53.1626
G01 X91.2758 Y53.2645
G01 X91.4024 Y53.3793
G01 X91.5171 Y53.5061
G01 X91.6174 Y53.6414
G01 X91.7054 Y53.7879
G01 X91.7781 Y53.9412
G01 X91.8363 Y54.1033
G01 X91.8777 Y54.2678
G01 X91.9030 Y54.4368
G01 X91.9081 Y54.5350
G01 X92.6700 Y54.5350
G01 X92.6774 Y54.5353
G01 X92.6846 Y54.5364
G01 X92.6918 Y54.5382
G01 X92.6987 Y54.5407
G01 X92.7043 Y54.5433
G01 X92.7106 Y54.5470
G01 X92.7157 Y54.5505
G01 X92.7247 Y54.5587
G01 X92.7288 Y54.5634
G01 X92.7330 Y54.5694
G01 X92.7367 Y54.5757
G01 X92.7398 Y54.5824
G01 X92.7418 Y54.5882
G01 X92.7436 Y54.5954
G01 X92.7447 Y54.6026
G01 X92.7450 Y54.6100
G01 X92.7447 Y54.6174
G01 X92.7436 Y54.6246
G01 X92.7418 Y54.6318
G01 X92.7398 Y54.6376
G01 X92.7367 Y54.6443
G01 X92.7330 Y54.6506
G01 X92.7288 Y54.6566
G01 X92.7247 Y54.6613
G01 X92.7157 Y54.6695
G01 X92.7106 Y54.6730
G01 X92.7043 Y54.6767
G01 X92.6987 Y54.6793
G01 X92.6918 Y54.6818
G01 X92.6846 Y54.6836
G01 X92.6774 Y54.6847
G01 X92.6700 Y54.6850
G01 X91.9081 Y54.6850
G01 X91.9030 Y54.7832
G01 X91.8777 Y54.9522
G01 X91.8363 Y55.1167
G01 X91.7781 Y55.2788
G01 X91.7054 Y55.4321
G01 X91.6174 Y55.5786
G01 X91.5155 Y55.7158
G01 X91.4007 Y55.8424
G01 X91.2739 Y55.9571
G01 X91.1386 Y56.0574
G01 X90.9921 Y56.1454
G01 X90.8388 Y56.2181
G01 X90.6767 Y56.2763
G01 X90.5122 Y56.3177
G01 X90.3432 Y56.3430
G01 X90.2450 Y56.3481
G01 X90.2450 Y57.1100
G01 X90.2447 Y57.1174
G01 X90.2436 Y57.1246
G01 X90.2418 Y57.1318
G01 X90.2393 Y57.1387
G01 X90.2367 Y57.1443
G01 X90.2330 Y57.1506
G01 X90.2295 Y57.1557
G01 X90.2213 Y57.1647
G01 X90.2166 Y57.1688
G01 X90.2106 Y57.1730
G01 X90.2043 Y57.1767
G01 X90.1976 Y57.1798
G01 X90.1918 Y57.1818
G01 X90.1846 Y57.1836
G01 X90.1774 Y57.1847
G01 X90.1700 Y57.1850
G01 X90.1626 Y57.1847
G01 X90.1554 Y57.1836
G01 X90.1482 Y57.1818
G01 X90.1424 Y57.1798
G01 X90.1357 Y57.1767
G01 X90.1294 Y57.1730
G01 X90.1234 Y57.1688
G01 X90.1187 Y57.1647
G01 X90.1105 Y57.1557
G01 X90.1070 Y57.1506
G01 X90.1033 Y57.1443
G01 X90.1007 Y57.1387
G01 X90.0982 Y57.1318
G01 X90.0964 Y57.1246
G01 X90.0953 Y57.1174
G01 X90.0950 Y57.1100
G01 X90.0950 Y56.3481
G01 X89.9968 Y56.3430
G01 X89.8278 Y56.3177
G01 X89.6633 Y56.2763
G01 X89.5012 Y56.2181
G01 X89.3479 Y56.1454
G01 X89.2014 Y56.0574
G01 X89.0642 Y55.9555
G01 X88.9376 Y55.8407
G01 X88.8229 Y55.7139
G01 X88.7226 Y55.5786
G01 X88.6346 Y55.4321
G01 X88.5619 Y55.2788
G01 X88.5037 Y55.1167
G01 X88.4623 Y54.9522
G01 X88.4370 Y54.7832
G01 X88.4319 Y54.6850
G01 X87.6700 Y54.6850
G01 X87.6626 Y54.6847
G01 X87.6554 Y54.6836
G01 X87.6482 Y54.6818
G01 X87.6413 Y54.6793
G01 X87.6346 Y54.6762
G01 X87.6283 Y54.6724
G01 X87.6224 Y54.6680
G01 X87.6170 Y54.6630
G01 X87.6112 Y54.6566
G01 X87.6070 Y54.6506
G01 X87.6033 Y54.6443
G01 X87.6002 Y54.6376
G01 X87.5979 Y54.6306
G01 X87.5962 Y54.6234
G01 X87.5952 Y54.6161
G01 X87.5950 Y54.6088
G01 X87.5956 Y54.6002
G00 Z2.0000
G00 X88.5821 Y54.6850
G01 F60.00
G01 Z-0.09
G01 F60
G01 X90.0950 Y54.6850
G01 X90.0950 Y56.1979
G01 X90.0140 Y56.1939
G01 X89.8595 Y56.1710
G01 X89.7080 Y56.1330
G01 X89.5609 Y56.0804
G01 X89.4197 Y56.0136
G01 X89.2858 Y55.9333
G01 X89.1603 Y55.8403
G01 X89.0446 Y55.7354
G01 X88.9397 Y55.6197
G01 X88.8467 Y55.4942
G01 X88.7664 Y55.3603
G01 X88.6996 Y55.2191
G01 X88.6470 Y55.0720
G01 X88.6090 Y54.9205
G01 X88.5861 Y54.7660
G01 X88.5821 Y54.6850
G00 Z2.0000
G00 X90.2450 Y54.6850
G01 F60.00
G01 Z-0.09
G01 F60
G01 X91.7579 Y54.6850
G01 X91.7539 Y54.7660
G01 X91.7310 Y54.9205
G01 X91.6930 Y55.0720
G01 X91.6404 Y55.2191
G01 X91.5736 Y55.3603
G01 X91.4933 Y55.4942
G01 X91.4003 Y55.6197
G01 X91.2954 Y55.7354
G01 X91.1797 Y55.8403
G01 X91.0542 Y55.9333
G01 X90.9203 Y56.0136
G01 X90.7791 Y56.0804
G01 X90.6320 Y56.1330
G01 X90.4805 Y56.1710
G01 X90.3260 Y56.1939
G01 X90.2450 Y56.1979
G01 X90.2450 Y54.6850
G00 Z2.0000
G00 X90.2450 Y53.0221
G01 F60.00
G01 Z-0.09
G01 F60
G01 X90.3260 Y53.0261
G01 X90.4805 Y53.0490
G01 X90.6320 Y53.0870
G01 X90.7791 Y53.1396
G01 X90.9203 Y53.2064
G01 X91.0542 Y53.2867
G01 X91.1797 Y53.3797
G01 X91.2954 Y53.4846
G01 X91.4003 Y53.6003
G01 X91.4933 Y53.7258
G01 X91.5736 Y53.8597
G01 X91.6404 Y54.0009
G01 X91.6930 Y54.1480
G01 X91.7310 Y54.2995
G01 X91.7539 Y54.4540
G01 X91.7579 Y54.5350
G01 X90.2450 Y54.5350
G01 X90.2450 Y53.0221
G00 Z2.0000
G00 X90.0950 Y53.0221
G01 F60.00
G01 Z-0.09
G01 F60
G01 X90.0950 Y54.5350
G01 X88.5821 Y54.5350
G01 X88.5861 Y54.4540
G01 X88.6090 Y54.2995
G01 X88.6470 Y54.1480
G01 X88.6996 Y54.0009
G01 X88.7664 Y53.8597
G01 X88.8467 Y53.7258
G01 X88.9397 Y53.6003
G01 X89.0446 Y53.4846
G01 X89.1603 Y53.3797
G01 X89.2858 Y53.2867
G01 X89.4197 Y53.2064
G01 X89.5609 Y53.1396
G01 X89.7080 Y53.0870
G01 X89.8595 Y53.0490
G01 X90.0140 Y53.0261
G01 X90.0950 Y53.0221
G00 Z2.0000
G00 X90.2450 Y11.5050
G01 F60.00
G01 Z-0.09
G01 F60
G01 X91.7579 Y11.5050
G01 X91.7539 Y11.5860
G01 X91.7310 Y11.7405
G01 X91.6930 Y11.8920
G01 X91.6404 Y12.0391
G01 X91.5736 Y12.1803
G01 X91.4933 Y12.3142
G01 X91.4003 Y12.4397
G01 X91.2954 Y12.5554
G01 X91.1797 Y12.6603
G01 X91.0542 Y12.7533
G01 X90.9203 Y12.8336
G01 X90.7791 Y12.9004
G01 X90.6320 Y12.9530
G01 X90.4805 Y12.9910
G01 X90.3260 Y13.0139
G01 X90.2450 Y13.0179
G01 X90.2450 Y11.5050
G00 Z2.0000
G00 X88.5821 Y11.5050
G01 F60.00
G01 Z-0.09
G01 F60
G01 X90.0950 Y11.5050
G01 X90.0950 Y13.0179
G01 X90.0140 Y13.0139
G01 X89.8595 Y12.9910
G01 X89.7080 Y12.9530
G01 X89.5609 Y12.9004
G01 X89.4197 Y12.8336
G01 X89.2858 Y12.7533
G01 X89.1603 Y12.6603
G01 X89.0446 Y12.5554
G01 X88.9397 Y12.4397
G01 X88.8467 Y12.3142
G01 X88.7664 Y12.1803
G01 X88.6996 Y12.0391
G01 X88.6470 Y11.8920
G01 X88.6090 Y11.7405
G01 X88.5861 Y11.5860
G01 X88.5821 Y11.5050
G00 Z2.0000
G00 X87.5956 Y11.4202
G01 F60.00
G01 Z-0.09
G01 F60
G01 X87.5967 Y11.4142
G01 X87.5982 Y11.4082
G01 X87.6007 Y11.4013
G01 X87.6033 Y11.3957
G01 X87.6070 Y11.3894
G01 X87.6105 Y11.3843
G01 X87.6178 Y11.3761
G01 X87.6224 Y11.3720
G01 X87.6283 Y11.3676
G01 X87.6346 Y11.3638
G01 X87.6402 Y11.3612
G01 X87.6471 Y11.3586
G01 X87.6530 Y11.3570
G01 X87.6639 Y11.3552
G01 X87.6700 Y11.3550
G01 X88.4319 Y11.3550
G01 X88.4370 Y11.2568
G01 X88.4623 Y11.0878
G01 X88.5037 Y10.9233
G01 X88.5619 Y10.7612
G01 X88.6346 Y10.6079
G01 X88.7226 Y10.4614
G01 X88.8245 Y10.3242
G01 X88.9393 Y10.1976
G01 X89.0661 Y10.0829
G01 X89.2014 Y9.9826
G01 X89.3479 Y9.8946
G01 X89.5012 Y9.8219
G01 X89.6633 Y9.7637
G01 X89.8278 Y9.7223
G01 X89.9968 Y9.6970
G01 X90.0950 Y9.6919
G01 X90.0950 Y8.9300
G01 X90.0953 Y8.9226
G01 X90.0964 Y8.9154
G01 X90.0982 Y8.9082
G01 X90.1007 Y8.9013
G01 X90.1033 Y8.8957
G01 X90.1070 Y8.8894
G01 X90.1105 Y8.8843
G01 X90.1187 Y8.8753
G01 X90.1234 Y8.8712
G01 X90.1294 Y8.8670
G01 X90.1357 Y8.8633
G01 X90.1424 Y8.8602
G01 X90.1482 Y8.8582
G01 X90.1554 Y8.8564
G01 X90.1626 Y8.8553
G01 X90.1700 Y8.8550
G01 X90.1774 Y8.8553
G01 X90.1846 Y8.8564
G01 X90.1918 Y8.8582
G01 X90.1976 Y8.8602
G01 X90.2043 Y8.8633
G01 X90.2106 Y8.8670
G01 X90.2166 Y8.8712
G01 X90.2213 Y8.8753
G01 X90.2295 Y8.8843
G01 X90.2330 Y8.8894
G01 X90.2367 Y8.8957
G01 X90.2393 Y8.9013
G01 X90.2418 Y8.9082
G01 X90.2436 Y8.9154
G01 X90.2447 Y8.9226
G01 X90.2450 Y8.9300
G01 X90.2450 Y9.6919
G01 X90.3432 Y9.6970
G01 X90.5122 Y9.7223
G01 X90.6767 Y9.7637
G01 X90.8388 Y9.8219
G01 X90.9921 Y9.8946
G01 X91.1386 Y9.9826
G01 X91.2758 Y10.0845
G01 X91.4024 Y10.1993
G01 X91.5171 Y10.3261
G01 X91.6174 Y10.4614
G01 X91.7054 Y10.6079
G01 X91.7781 Y10.7612
G01 X91.8363 Y10.9233
G01 X91.8777 Y11.0878
G01 X91.9030 Y11.2568
G01 X91.9081 Y11.3550
G01 X92.6700 Y11.3550
G01 X92.6774 Y11.3553
G01 X92.6846 Y11.3564
G01 X92.6918 Y11.3582
G01 X92.6987 Y11.3607
G01 X92.7043 Y11.3633
G01 X92.7106 Y11.3670
G01 X92.7157 Y11.3705
G01 X92.7247 Y11.3787
G01 X92.7288 Y11.3834
G01 X92.7330 Y11.3894
G01 X92.7367 Y11.3957
G01 X92.7398 Y11.4024
G01 X92.7418 Y11.4082
G01 X92.7436 Y11.4154
G01 X92.7447 Y11.4226
G01 X92.7450 Y11.4300
G01 X92.7447 Y11.4374
G01 X92.7436 Y11.4446
G01 X92.7418 Y11.4518
G01 X92.7398 Y11.4576
G01 X92.7367 Y11.4643
G01 X92.7330 Y11.4706
G01 X92.7288 Y11.4766
G01 X92.7247 Y11.4813
G01 X92.7157 Y11.4895
G01 X92.7106 Y11.4930
G01 X92.7043 Y11.4967
G01 X92.6987 Y11.4993
G01 X92.6918 Y11.5018
G01 X92.6846 Y11.5036
G01 X92.6774 Y11.5047
G01 X92.6700 Y11.5050
G01 X91.9081 Y11.5050
G01 X91.9030 Y11.6032
G01 X91.8777 Y11.7722
G01 X91.8363 Y11.9367
G01 X91.7781 Y12.0988
G01 X91.7054 Y12.2521
G01 X91.6174 Y12.3986
G01 X91.5155 Y12.5358
G01 X91.4007 Y12.6624
G01 X91.2739 Y12.7771
G01 X91.1386 Y12.8774
G01 X90.9921 Y12.9654
G01 X90.8388 Y13.0381
G01 X90.6767 Y13.0963
G01 X90.5122 Y13.1377
G01 X90.3432 Y13.1630
G01 X90.2450 Y13.1681
G01 X90.2450 Y13.9300
G01 X90.2447 Y13.9374
G01 X90.2436 Y13.9446
G01 X90.2418 Y13.9518
G01 X90.2393 Y13.9587
G01 X90.2367 Y13.9643
G01 X90.2330 Y13.9706
G01 X90.2295 Y13.9757
G01 X90.2213 Y13.9847
G01 X90.2166 Y13.9888
G01 X90.2106 Y13.9930
G01 X90.2043 Y13.9967
G01 X90.1976 Y13.9998
G01 X90.1918 Y14.0018
G01 X90.1846 Y14.0036
G01 X90.1774 Y14.0047
G01 X90.1700 Y14.0050
G01 X90.1626 Y14.0047
G01 X90.1554 Y14.0036
G01 X90.1482 Y14.0018
G01 X90.1424 Y13.9998
G01 X90.1357 Y13.9967
G01 X90.1294 Y13.9930
G01 X90.1234 Y13.9888
G01 X90.1187 Y13.9847
G01 X90.1105 Y13.9757
G01 X90.1070 Y13.9706
G01 X90.1033 Y13.9643
G01 X90.1007 Y13.9587
G01 X90.0982 Y13.9518
G01 X90.0964 Y13.9446
G01 X90.0953 Y13.9374
G01 X90.0950 Y13.9300
G01 X90.0950 Y13.1681
G01 X89.9968 Y13.1630
G01 X89.8278 Y13.1377
G01 X89.6633 Y13.0963
G01 X89.5012 Y13.0381
G01 X89.3479 Y12.9654
G01 X89.2014 Y12.8774
G01 X89.0642 Y12.7755
G01 X88.9376 Y12.6607
G01 X88.8229 Y12.5339
G01 X88.7226 Y12.3986
G01 X88.6346 Y12.2521
G01 X88.5619 Y12.0988
G01 X88.5037 Y11.9367
G01 X88.4623 Y11.7722
G01 X88.4370 Y11.6032
G01 X88.4319 Y11.5050
G01 X87.6700 Y11.5050
G01 X87.6626 Y11.5047
G01 X87.6554 Y11.5036
G01 X87.6482 Y11.5018
G01 X87.6413 Y11.4993
G01 X87.6346 Y11.4962
G01 X87.6283 Y11.4924
G01 X87.6224 Y11.4880
G01 X87.6170 Y11.4830
G01 X87.6112 Y11.4766
G01 X87.6070 Y11.4706
G01 X87.6033 Y11.4643
G01 X87.6002 Y11.4576
G01 X87.5979 Y11.4506
G01 X87.5962 Y11.4434
G01 X87.5952 Y11.4361
G01 X87.5950 Y11.4288
G01 X87.5956 Y11.4202
G00 Z2.0000
G00 X90.0950 Y9.8421
G01 F60.00
G01 Z-0.09
G01 F60
G01 X90.0950 Y11.3550
G01 X88.5821 Y11.3550
G01 X88.5861 Y11.2740
G01 X88.6090 Y11.1195
G01 X88.6470 Y10.9680
G01 X88.6996 Y10.8209
G01 X88.7664 Y10.6797
G01 X88.8467 Y10.5458
G01 X88.9397 Y10.4203
G01 X89.0446 Y10.3046
G01 X89.1603 Y10.1997
G01 X89.2858 Y10.1067
G01 X89.4197 Y10.0264
G01 X89.5609 Y9.9596
G01 X89.7080 Y9.9070
G01 X89.8595 Y9.8690
G01 X90.0140 Y9.8461
G01 X90.0950 Y9.8421
G00 Z2.0000
G00 X90.2450 Y9.8421
G01 F60.00
G01 Z-0.09
G01 F60
G01 X90.3260 Y9.8461
G01 X90.4805 Y9.8690
G01 X90.6320 Y9.9070
G01 X90.7791 Y9.9596
G01 X90.9203 Y10.0264
G01 X91.0542 Y10.1067
G01 X91.1797 Y10.1997
G01 X91.2954 Y10.3046
G01 X91.4003 Y10.4203
G01 X91.4933 Y10.5458
G01 X91.5736 Y10.6797
G01 X91.6404 Y10.8209
G01 X91.6930 Y10.9680
G01 X91.7310 Y11.1195
G01 X91.7539 Y11.2740
G01 X91.7579 Y11.3550
G01 X90.2450 Y11.3550
G01 X90.2450 Y9.8421
G00 Z2.0000
M05
G00 Z2.0000
G00 Z15.00


