(Block-name: Header)
(Block-expand: 0)
(Block-enable: 1)
(G-CODE GENERATED BY FLATCAM v8.994 - www.flatcam.org - Version Date: 2020/11/7)

(Name: preamp-board-v4-B_Cu.gbr_iso_combined_2_cnc)
(Type: G-code from Geometry)
(Units: MM)

(Created on Wednesday, 12 May 2021 at 11:25)

(This preprocessor is the default preprocessor used by FlatCAM.)
(It is made to work with MACH3 compatible motion controllers.)

(TOOL DIAMETER: 0.1 mm)
(Feedrate_XY: 60.0 mm/min)
(Feedrate_Z: 60.0 mm/min)
(Feedrate rapids 1500.0 mm/min)

(Z_Cut: -0.2 mm)
(DepthPerCut: 0.06 mm <=>4 passes)
(Z_Move: 2.0 mm)
(Z Start: None mm)
(Z End: 20.0 mm)
(X,Y End: 0.0000, 0.0000 mm)
(Steps per circle: 64)
(Preprocessor Geometry: default)

(X range:   10.7550 ...   91.7200  mm)
(Y range:    4.8000 ...   66.3200  mm)

(Spindle Speed: 0.0 RPM)
G21
G90
G94

G01 F60.00

M5
G00 Z20.0000
(Block-name: block)
(Block-expand: 1)
(Block-enable: 1)
G00 X0.0000 Y0.0000
T1
M6    
(MSG, Change to Tool Dia = 0.1000)
M0
G00 Z20.0000

M03
G01 F60.00
G00 X11.4325 Y35.0299
G01 F60.00
G01 Z-0.0600
G01 F60.00
G01 X11.3638 Y35.0267
G01 X11.2983 Y35.0170
G01 X11.2341 Y35.0009
G01 X11.1717 Y34.9786
G01 X11.1118 Y34.9503
G01 X11.0550 Y34.9162
G01 X11.0018 Y34.8768
G01 X10.9527 Y34.8323
G01 X10.9082 Y34.7832
G01 X10.8688 Y34.7300
G01 X10.8347 Y34.6732
G01 X10.8064 Y34.6133
G01 X10.7841 Y34.5509
G01 X10.7680 Y34.4867
G01 X10.7583 Y34.4212
G01 X10.7550 Y34.3550
G01 X10.7550 Y31.6050
G01 X10.7583 Y31.5388
G01 X10.7680 Y31.4733
G01 X10.7841 Y31.4091
G01 X10.8064 Y31.3467
G01 X10.8347 Y31.2868
G01 X10.8674 Y31.2321
G01 X10.9098 Y31.1749
G01 X10.9527 Y31.1277
G01 X11.0018 Y31.0832
G01 X11.0550 Y31.0438
G01 X11.1118 Y31.0097
G01 X11.1717 Y30.9814
G01 X11.2317 Y30.9598
G01 X11.3007 Y30.9426
G01 X11.3638 Y30.9333
G01 X11.4300 Y30.9300
G01 X11.4962 Y30.9333
G01 X11.5617 Y30.9430
G01 X11.6259 Y30.9591
G01 X11.6883 Y30.9814
G01 X11.7482 Y31.0097
G01 X11.8050 Y31.0438
G01 X11.8582 Y31.0832
G01 X11.9073 Y31.1277
G01 X11.9518 Y31.1768
G01 X11.9912 Y31.2300
G01 X12.0253 Y31.2868
G01 X12.0536 Y31.3467
G01 X12.0759 Y31.4091
G01 X12.0920 Y31.4733
G01 X12.1017 Y31.5388
G01 X12.1050 Y31.6050
G01 X12.1050 Y34.3550
G01 X12.1017 Y34.4212
G01 X12.0920 Y34.4867
G01 X12.0759 Y34.5509
G01 X12.0536 Y34.6133
G01 X12.0253 Y34.6732
G01 X11.9926 Y34.7279
G01 X11.9502 Y34.7851
G01 X11.9073 Y34.8323
G01 X11.8582 Y34.8768
G01 X11.8050 Y34.9162
G01 X11.7503 Y34.9491
G01 X11.6860 Y34.9795
G01 X11.6259 Y35.0009
G01 X11.5617 Y35.0170
G01 X11.4962 Y35.0267
G01 X11.4325 Y35.0299
G00 X11.4325 Y35.0299
G01 F60.00
G01 Z-0.1200
G01 F60.00
G01 X11.3638 Y35.0267
G01 X11.2983 Y35.0170
G01 X11.2341 Y35.0009
G01 X11.1717 Y34.9786
G01 X11.1118 Y34.9503
G01 X11.0550 Y34.9162
G01 X11.0018 Y34.8768
G01 X10.9527 Y34.8323
G01 X10.9082 Y34.7832
G01 X10.8688 Y34.7300
G01 X10.8347 Y34.6732
G01 X10.8064 Y34.6133
G01 X10.7841 Y34.5509
G01 X10.7680 Y34.4867
G01 X10.7583 Y34.4212
G01 X10.7550 Y34.3550
G01 X10.7550 Y31.6050
G01 X10.7583 Y31.5388
G01 X10.7680 Y31.4733
G01 X10.7841 Y31.4091
G01 X10.8064 Y31.3467
G01 X10.8347 Y31.2868
G01 X10.8674 Y31.2321
G01 X10.9098 Y31.1749
G01 X10.9527 Y31.1277
G01 X11.0018 Y31.0832
G01 X11.0550 Y31.0438
G01 X11.1118 Y31.0097
G01 X11.1717 Y30.9814
G01 X11.2317 Y30.9598
G01 X11.3007 Y30.9426
G01 X11.3638 Y30.9333
G01 X11.4300 Y30.9300
G01 X11.4962 Y30.9333
G01 X11.5617 Y30.9430
G01 X11.6259 Y30.9591
G01 X11.6883 Y30.9814
G01 X11.7482 Y31.0097
G01 X11.8050 Y31.0438
G01 X11.8582 Y31.0832
G01 X11.9073 Y31.1277
G01 X11.9518 Y31.1768
G01 X11.9912 Y31.2300
G01 X12.0253 Y31.2868
G01 X12.0536 Y31.3467
G01 X12.0759 Y31.4091
G01 X12.0920 Y31.4733
G01 X12.1017 Y31.5388
G01 X12.1050 Y31.6050
G01 X12.1050 Y34.3550
G01 X12.1017 Y34.4212
G01 X12.0920 Y34.4867
G01 X12.0759 Y34.5509
G01 X12.0536 Y34.6133
G01 X12.0253 Y34.6732
G01 X11.9926 Y34.7279
G01 X11.9502 Y34.7851
G01 X11.9073 Y34.8323
G01 X11.8582 Y34.8768
G01 X11.8050 Y34.9162
G01 X11.7503 Y34.9491
G01 X11.6860 Y34.9795
G01 X11.6259 Y35.0009
G01 X11.5617 Y35.0170
G01 X11.4962 Y35.0267
G01 X11.4325 Y35.0299
G00 X11.4325 Y35.0299
G01 F60.00
G01 Z-0.1800
G01 F60.00
G01 X11.3638 Y35.0267
G01 X11.2983 Y35.0170
G01 X11.2341 Y35.0009
G01 X11.1717 Y34.9786
G01 X11.1118 Y34.9503
G01 X11.0550 Y34.9162
G01 X11.0018 Y34.8768
G01 X10.9527 Y34.8323
G01 X10.9082 Y34.7832
G01 X10.8688 Y34.7300
G01 X10.8347 Y34.6732
G01 X10.8064 Y34.6133
G01 X10.7841 Y34.5509
G01 X10.7680 Y34.4867
G01 X10.7583 Y34.4212
G01 X10.7550 Y34.3550
G01 X10.7550 Y31.6050
G01 X10.7583 Y31.5388
G01 X10.7680 Y31.4733
G01 X10.7841 Y31.4091
G01 X10.8064 Y31.3467
G01 X10.8347 Y31.2868
G01 X10.8674 Y31.2321
G01 X10.9098 Y31.1749
G01 X10.9527 Y31.1277
G01 X11.0018 Y31.0832
G01 X11.0550 Y31.0438
G01 X11.1118 Y31.0097
G01 X11.1717 Y30.9814
G01 X11.2317 Y30.9598
G01 X11.3007 Y30.9426
G01 X11.3638 Y30.9333
G01 X11.4300 Y30.9300
G01 X11.4962 Y30.9333
G01 X11.5617 Y30.9430
G01 X11.6259 Y30.9591
G01 X11.6883 Y30.9814
G01 X11.7482 Y31.0097
G01 X11.8050 Y31.0438
G01 X11.8582 Y31.0832
G01 X11.9073 Y31.1277
G01 X11.9518 Y31.1768
G01 X11.9912 Y31.2300
G01 X12.0253 Y31.2868
G01 X12.0536 Y31.3467
G01 X12.0759 Y31.4091
G01 X12.0920 Y31.4733
G01 X12.1017 Y31.5388
G01 X12.1050 Y31.6050
G01 X12.1050 Y34.3550
G01 X12.1017 Y34.4212
G01 X12.0920 Y34.4867
G01 X12.0759 Y34.5509
G01 X12.0536 Y34.6133
G01 X12.0253 Y34.6732
G01 X11.9926 Y34.7279
G01 X11.9502 Y34.7851
G01 X11.9073 Y34.8323
G01 X11.8582 Y34.8768
G01 X11.8050 Y34.9162
G01 X11.7503 Y34.9491
G01 X11.6860 Y34.9795
G01 X11.6259 Y35.0009
G01 X11.5617 Y35.0170
G01 X11.4962 Y35.0267
G01 X11.4325 Y35.0299
G00 X11.4325 Y35.0299
G01 F60.00
G01 Z-0.2000
G01 F60.00
G01 X11.3638 Y35.0267
G01 X11.2983 Y35.0170
G01 X11.2341 Y35.0009
G01 X11.1717 Y34.9786
G01 X11.1118 Y34.9503
G01 X11.0550 Y34.9162
G01 X11.0018 Y34.8768
G01 X10.9527 Y34.8323
G01 X10.9082 Y34.7832
G01 X10.8688 Y34.7300
G01 X10.8347 Y34.6732
G01 X10.8064 Y34.6133
G01 X10.7841 Y34.5509
G01 X10.7680 Y34.4867
G01 X10.7583 Y34.4212
G01 X10.7550 Y34.3550
G01 X10.7550 Y31.6050
G01 X10.7583 Y31.5388
G01 X10.7680 Y31.4733
G01 X10.7841 Y31.4091
G01 X10.8064 Y31.3467
G01 X10.8347 Y31.2868
G01 X10.8674 Y31.2321
G01 X10.9098 Y31.1749
G01 X10.9527 Y31.1277
G01 X11.0018 Y31.0832
G01 X11.0550 Y31.0438
G01 X11.1118 Y31.0097
G01 X11.1717 Y30.9814
G01 X11.2317 Y30.9598
G01 X11.3007 Y30.9426
G01 X11.3638 Y30.9333
G01 X11.4300 Y30.9300
G01 X11.4962 Y30.9333
G01 X11.5617 Y30.9430
G01 X11.6259 Y30.9591
G01 X11.6883 Y30.9814
G01 X11.7482 Y31.0097
G01 X11.8050 Y31.0438
G01 X11.8582 Y31.0832
G01 X11.9073 Y31.1277
G01 X11.9518 Y31.1768
G01 X11.9912 Y31.2300
G01 X12.0253 Y31.2868
G01 X12.0536 Y31.3467
G01 X12.0759 Y31.4091
G01 X12.0920 Y31.4733
G01 X12.1017 Y31.5388
G01 X12.1050 Y31.6050
G01 X12.1050 Y34.3550
G01 X12.1017 Y34.4212
G01 X12.0920 Y34.4867
G01 X12.0759 Y34.5509
G01 X12.0536 Y34.6133
G01 X12.0253 Y34.6732
G01 X11.9926 Y34.7279
G01 X11.9502 Y34.7851
G01 X11.9073 Y34.8323
G01 X11.8582 Y34.8768
G01 X11.8050 Y34.9162
G01 X11.7503 Y34.9491
G01 X11.6860 Y34.9795
G01 X11.6259 Y35.0009
G01 X11.5617 Y35.0170
G01 X11.4962 Y35.0267
G01 X11.4325 Y35.0299
G00 Z2.0000
(Block-name: block)
(Block-expand: 0)
(Block-enable: 1)
G00 X11.8765 Y36.2597
G01 F60.00
G01 Z-0.0600
G01 F60.00
G01 X12.4781 Y36.2597
G01 X31.8319 Y16.9059
G01 X31.8719 Y16.8697
G01 X31.9153 Y16.8375
G01 X31.9616 Y16.8097
G01 X32.0116 Y16.7862
G01 X32.0613 Y16.7684
G01 X32.1137 Y16.7553
G01 X32.1671 Y16.7474
G01 X32.2210 Y16.7447
G01 X43.6820 Y16.7447
G01 X43.7384 Y16.7477
G01 X43.7893 Y16.7553
G01 X43.8417 Y16.7684
G01 X43.8948 Y16.7876
G01 X43.9414 Y16.8097
G01 X43.9856 Y16.8362
G01 X44.0311 Y16.8697
G01 X44.0711 Y16.9059
G01 X49.1011 Y21.9359
G01 X49.1373 Y21.9759
G01 X49.1695 Y22.0193
G01 X49.1973 Y22.0656
G01 X49.2208 Y22.1156
G01 X49.2386 Y22.1653
G01 X49.2517 Y22.2177
G01 X49.2596 Y22.2711
G01 X49.2623 Y22.3250
G01 X49.2623 Y33.6410
G01 X49.2596 Y33.6949
G01 X49.2514 Y33.7495
G01 X49.2386 Y33.8007
G01 X49.2212 Y33.8493
G01 X49.1973 Y33.9004
G01 X49.1695 Y33.9467
G01 X49.1389 Y33.9881
G01 X49.1011 Y34.0301
G01 X45.9121 Y37.2191
G01 X45.8721 Y37.2553
G01 X45.8287 Y37.2875
G01 X45.7824 Y37.3153
G01 X45.7324 Y37.3388
G01 X45.6827 Y37.3566
G01 X45.6303 Y37.3697
G01 X45.5769 Y37.3776
G01 X45.5230 Y37.3803
G01 X41.9100 Y37.3803
G01 X41.7100 Y37.3800
G01 X41.6561 Y37.3774
G01 X41.6027 Y37.3694
G01 X41.5503 Y37.3563
G01 X41.4995 Y37.3381
G01 X41.4529 Y37.3162
G01 X41.4024 Y37.2859
G01 X41.3611 Y37.2552
G01 X41.3211 Y37.2189
G01 X41.2848 Y37.1789
G01 X41.2541 Y37.1376
G01 X41.2238 Y37.0871
G01 X41.2019 Y37.0405
G01 X41.1837 Y36.9897
G01 X41.1706 Y36.9373
G01 X41.1628 Y36.8851
G01 X41.1600 Y36.8300
G01 X41.1626 Y36.7761
G01 X41.1706 Y36.7227
G01 X41.1837 Y36.6703
G01 X41.2019 Y36.6195
G01 X41.2249 Y36.5707
G01 X41.2527 Y36.5244
G01 X41.2848 Y36.4811
G01 X41.3211 Y36.4411
G01 X41.3611 Y36.4048
G01 X41.4044 Y36.3727
G01 X41.4507 Y36.3449
G01 X41.4995 Y36.3219
G01 X41.5503 Y36.3037
G01 X41.6027 Y36.2906
G01 X41.6537 Y36.2829
G01 X41.7088 Y36.2800
G01 X41.9100 Y36.2797
G01 X45.2951 Y36.2797
G01 X48.1617 Y33.4131
G01 X48.1617 Y22.5529
G01 X43.4541 Y17.8453
G01 X32.4489 Y17.8453
G01 X13.0942 Y37.1999
G01 X13.0551 Y37.2353
G01 X13.0137 Y37.2661
G01 X12.9654 Y37.2953
G01 X12.9166 Y37.3184
G01 X12.8681 Y37.3358
G01 X12.8121 Y37.3499
G01 X12.7599 Y37.3576
G01 X12.7072 Y37.3602
G01 X12.1050 Y37.3603
G01 X12.1050 Y39.5150
G01 X12.1014 Y39.5836
G01 X12.0920 Y39.6467
G01 X12.0766 Y39.7086
G01 X12.0536 Y39.7733
G01 X12.0264 Y39.8310
G01 X11.9898 Y39.8920
G01 X11.9518 Y39.9432
G01 X11.9073 Y39.9923
G01 X11.8582 Y40.0368
G01 X11.8050 Y40.0762
G01 X11.7482 Y40.1103
G01 X11.6883 Y40.1386
G01 X11.6259 Y40.1609
G01 X11.5641 Y40.1765
G01 X11.4937 Y40.1869
G01 X11.4300 Y40.1900
G01 X11.3626 Y40.1866
G01 X11.2983 Y40.1770
G01 X11.2364 Y40.1616
G01 X11.1694 Y40.1376
G01 X11.1118 Y40.1103
G01 X11.0550 Y40.0762
G01 X11.0018 Y40.0368
G01 X10.9545 Y39.9940
G01 X10.9067 Y39.9413
G01 X10.8688 Y39.8900
G01 X10.8347 Y39.8332
G01 X10.8064 Y39.7733
G01 X10.7848 Y39.7133
G01 X10.7677 Y39.6455
G01 X10.7583 Y39.5812
G01 X10.7550 Y39.5150
G01 X10.7550 Y36.7650
G01 X10.7584 Y36.6976
G01 X10.7680 Y36.6333
G01 X10.7834 Y36.5714
G01 X10.8064 Y36.5067
G01 X10.8359 Y36.4447
G01 X10.8688 Y36.3900
G01 X10.9067 Y36.3387
G01 X10.9527 Y36.2877
G01 X11.0037 Y36.2417
G01 X11.0550 Y36.2038
G01 X11.1097 Y36.1709
G01 X11.1728 Y36.1409
G01 X11.2341 Y36.1191
G01 X11.2959 Y36.1035
G01 X11.3638 Y36.0933
G01 X11.4325 Y36.0901
G01 X11.4962 Y36.0933
G01 X11.5605 Y36.1027
G01 X11.6283 Y36.1198
G01 X11.6883 Y36.1414
G01 X11.7471 Y36.1691
G01 X11.8060 Y36.2045
G01 X11.8573 Y36.2425
G01 X11.8765 Y36.2597
G00 X11.8765 Y36.2597
G01 F60.00
G01 Z-0.1200
G01 F60.00
G01 X12.4781 Y36.2597
G01 X31.8319 Y16.9059
G01 X31.8719 Y16.8697
G01 X31.9153 Y16.8375
G01 X31.9616 Y16.8097
G01 X32.0116 Y16.7862
G01 X32.0613 Y16.7684
G01 X32.1137 Y16.7553
G01 X32.1671 Y16.7474
G01 X32.2210 Y16.7447
G01 X43.6820 Y16.7447
G01 X43.7384 Y16.7477
G01 X43.7893 Y16.7553
G01 X43.8417 Y16.7684
G01 X43.8948 Y16.7876
G01 X43.9414 Y16.8097
G01 X43.9856 Y16.8362
G01 X44.0311 Y16.8697
G01 X44.0711 Y16.9059
G01 X49.1011 Y21.9359
G01 X49.1373 Y21.9759
G01 X49.1695 Y22.0193
G01 X49.1973 Y22.0656
G01 X49.2208 Y22.1156
G01 X49.2386 Y22.1653
G01 X49.2517 Y22.2177
G01 X49.2596 Y22.2711
G01 X49.2623 Y22.3250
G01 X49.2623 Y33.6410
G01 X49.2596 Y33.6949
G01 X49.2514 Y33.7495
G01 X49.2386 Y33.8007
G01 X49.2212 Y33.8493
G01 X49.1973 Y33.9004
G01 X49.1695 Y33.9467
G01 X49.1389 Y33.9881
G01 X49.1011 Y34.0301
G01 X45.9121 Y37.2191
G01 X45.8721 Y37.2553
G01 X45.8287 Y37.2875
G01 X45.7824 Y37.3153
G01 X45.7324 Y37.3388
G01 X45.6827 Y37.3566
G01 X45.6303 Y37.3697
G01 X45.5769 Y37.3776
G01 X45.5230 Y37.3803
G01 X41.9100 Y37.3803
G01 X41.7100 Y37.3800
G01 X41.6561 Y37.3774
G01 X41.6027 Y37.3694
G01 X41.5503 Y37.3563
G01 X41.4995 Y37.3381
G01 X41.4529 Y37.3162
G01 X41.4024 Y37.2859
G01 X41.3611 Y37.2552
G01 X41.3211 Y37.2189
G01 X41.2848 Y37.1789
G01 X41.2541 Y37.1376
G01 X41.2238 Y37.0871
G01 X41.2019 Y37.0405
G01 X41.1837 Y36.9897
G01 X41.1706 Y36.9373
G01 X41.1628 Y36.8851
G01 X41.1600 Y36.8300
G01 X41.1626 Y36.7761
G01 X41.1706 Y36.7227
G01 X41.1837 Y36.6703
G01 X41.2019 Y36.6195
G01 X41.2249 Y36.5707
G01 X41.2527 Y36.5244
G01 X41.2848 Y36.4811
G01 X41.3211 Y36.4411
G01 X41.3611 Y36.4048
G01 X41.4044 Y36.3727
G01 X41.4507 Y36.3449
G01 X41.4995 Y36.3219
G01 X41.5503 Y36.3037
G01 X41.6027 Y36.2906
G01 X41.6537 Y36.2829
G01 X41.7088 Y36.2800
G01 X41.9100 Y36.2797
G01 X45.2951 Y36.2797
G01 X48.1617 Y33.4131
G01 X48.1617 Y22.5529
G01 X43.4541 Y17.8453
G01 X32.4489 Y17.8453
G01 X13.0942 Y37.1999
G01 X13.0551 Y37.2353
G01 X13.0137 Y37.2661
G01 X12.9654 Y37.2953
G01 X12.9166 Y37.3184
G01 X12.8681 Y37.3358
G01 X12.8121 Y37.3499
G01 X12.7599 Y37.3576
G01 X12.7072 Y37.3602
G01 X12.1050 Y37.3603
G01 X12.1050 Y39.5150
G01 X12.1014 Y39.5836
G01 X12.0920 Y39.6467
G01 X12.0766 Y39.7086
G01 X12.0536 Y39.7733
G01 X12.0264 Y39.8310
G01 X11.9898 Y39.8920
G01 X11.9518 Y39.9432
G01 X11.9073 Y39.9923
G01 X11.8582 Y40.0368
G01 X11.8050 Y40.0762
G01 X11.7482 Y40.1103
G01 X11.6883 Y40.1386
G01 X11.6259 Y40.1609
G01 X11.5641 Y40.1765
G01 X11.4937 Y40.1869
G01 X11.4300 Y40.1900
G01 X11.3626 Y40.1866
G01 X11.2983 Y40.1770
G01 X11.2364 Y40.1616
G01 X11.1694 Y40.1376
G01 X11.1118 Y40.1103
G01 X11.0550 Y40.0762
G01 X11.0018 Y40.0368
G01 X10.9545 Y39.9940
G01 X10.9067 Y39.9413
G01 X10.8688 Y39.8900
G01 X10.8347 Y39.8332
G01 X10.8064 Y39.7733
G01 X10.7848 Y39.7133
G01 X10.7677 Y39.6455
G01 X10.7583 Y39.5812
G01 X10.7550 Y39.5150
G01 X10.7550 Y36.7650
G01 X10.7584 Y36.6976
G01 X10.7680 Y36.6333
G01 X10.7834 Y36.5714
G01 X10.8064 Y36.5067
G01 X10.8359 Y36.4447
G01 X10.8688 Y36.3900
G01 X10.9067 Y36.3387
G01 X10.9527 Y36.2877
G01 X11.0037 Y36.2417
G01 X11.0550 Y36.2038
G01 X11.1097 Y36.1709
G01 X11.1728 Y36.1409
G01 X11.2341 Y36.1191
G01 X11.2959 Y36.1035
G01 X11.3638 Y36.0933
G01 X11.4325 Y36.0901
G01 X11.4962 Y36.0933
G01 X11.5605 Y36.1027
G01 X11.6283 Y36.1198
G01 X11.6883 Y36.1414
G01 X11.7471 Y36.1691
G01 X11.8060 Y36.2045
G01 X11.8573 Y36.2425
G01 X11.8765 Y36.2597
G00 X11.8765 Y36.2597
G01 F60.00
G01 Z-0.1800
G01 F60.00
G01 X12.4781 Y36.2597
G01 X31.8319 Y16.9059
G01 X31.8719 Y16.8697
G01 X31.9153 Y16.8375
G01 X31.9616 Y16.8097
G01 X32.0116 Y16.7862
G01 X32.0613 Y16.7684
G01 X32.1137 Y16.7553
G01 X32.1671 Y16.7474
G01 X32.2210 Y16.7447
G01 X43.6820 Y16.7447
G01 X43.7384 Y16.7477
G01 X43.7893 Y16.7553
G01 X43.8417 Y16.7684
G01 X43.8948 Y16.7876
G01 X43.9414 Y16.8097
G01 X43.9856 Y16.8362
G01 X44.0311 Y16.8697
G01 X44.0711 Y16.9059
G01 X49.1011 Y21.9359
G01 X49.1373 Y21.9759
G01 X49.1695 Y22.0193
G01 X49.1973 Y22.0656
G01 X49.2208 Y22.1156
G01 X49.2386 Y22.1653
G01 X49.2517 Y22.2177
G01 X49.2596 Y22.2711
G01 X49.2623 Y22.3250
G01 X49.2623 Y33.6410
G01 X49.2596 Y33.6949
G01 X49.2514 Y33.7495
G01 X49.2386 Y33.8007
G01 X49.2212 Y33.8493
G01 X49.1973 Y33.9004
G01 X49.1695 Y33.9467
G01 X49.1389 Y33.9881
G01 X49.1011 Y34.0301
G01 X45.9121 Y37.2191
G01 X45.8721 Y37.2553
G01 X45.8287 Y37.2875
G01 X45.7824 Y37.3153
G01 X45.7324 Y37.3388
G01 X45.6827 Y37.3566
G01 X45.6303 Y37.3697
G01 X45.5769 Y37.3776
G01 X45.5230 Y37.3803
G01 X41.9100 Y37.3803
G01 X41.7100 Y37.3800
G01 X41.6561 Y37.3774
G01 X41.6027 Y37.3694
G01 X41.5503 Y37.3563
G01 X41.4995 Y37.3381
G01 X41.4529 Y37.3162
G01 X41.4024 Y37.2859
G01 X41.3611 Y37.2552
G01 X41.3211 Y37.2189
G01 X41.2848 Y37.1789
G01 X41.2541 Y37.1376
G01 X41.2238 Y37.0871
G01 X41.2019 Y37.0405
G01 X41.1837 Y36.9897
G01 X41.1706 Y36.9373
G01 X41.1628 Y36.8851
G01 X41.1600 Y36.8300
G01 X41.1626 Y36.7761
G01 X41.1706 Y36.7227
G01 X41.1837 Y36.6703
G01 X41.2019 Y36.6195
G01 X41.2249 Y36.5707
G01 X41.2527 Y36.5244
G01 X41.2848 Y36.4811
G01 X41.3211 Y36.4411
G01 X41.3611 Y36.4048
G01 X41.4044 Y36.3727
G01 X41.4507 Y36.3449
G01 X41.4995 Y36.3219
G01 X41.5503 Y36.3037
G01 X41.6027 Y36.2906
G01 X41.6537 Y36.2829
G01 X41.7088 Y36.2800
G01 X41.9100 Y36.2797
G01 X45.2951 Y36.2797
G01 X48.1617 Y33.4131
G01 X48.1617 Y22.5529
G01 X43.4541 Y17.8453
G01 X32.4489 Y17.8453
G01 X13.0942 Y37.1999
G01 X13.0551 Y37.2353
G01 X13.0137 Y37.2661
G01 X12.9654 Y37.2953
G01 X12.9166 Y37.3184
G01 X12.8681 Y37.3358
G01 X12.8121 Y37.3499
G01 X12.7599 Y37.3576
G01 X12.7072 Y37.3602
G01 X12.1050 Y37.3603
G01 X12.1050 Y39.5150
G01 X12.1014 Y39.5836
G01 X12.0920 Y39.6467
G01 X12.0766 Y39.7086
G01 X12.0536 Y39.7733
G01 X12.0264 Y39.8310
G01 X11.9898 Y39.8920
G01 X11.9518 Y39.9432
G01 X11.9073 Y39.9923
G01 X11.8582 Y40.0368
G01 X11.8050 Y40.0762
G01 X11.7482 Y40.1103
G01 X11.6883 Y40.1386
G01 X11.6259 Y40.1609
G01 X11.5641 Y40.1765
G01 X11.4937 Y40.1869
G01 X11.4300 Y40.1900
G01 X11.3626 Y40.1866
G01 X11.2983 Y40.1770
G01 X11.2364 Y40.1616
G01 X11.1694 Y40.1376
G01 X11.1118 Y40.1103
G01 X11.0550 Y40.0762
G01 X11.0018 Y40.0368
G01 X10.9545 Y39.9940
G01 X10.9067 Y39.9413
G01 X10.8688 Y39.8900
G01 X10.8347 Y39.8332
G01 X10.8064 Y39.7733
G01 X10.7848 Y39.7133
G01 X10.7677 Y39.6455
G01 X10.7583 Y39.5812
G01 X10.7550 Y39.5150
G01 X10.7550 Y36.7650
G01 X10.7584 Y36.6976
G01 X10.7680 Y36.6333
G01 X10.7834 Y36.5714
G01 X10.8064 Y36.5067
G01 X10.8359 Y36.4447
G01 X10.8688 Y36.3900
G01 X10.9067 Y36.3387
G01 X10.9527 Y36.2877
G01 X11.0037 Y36.2417
G01 X11.0550 Y36.2038
G01 X11.1097 Y36.1709
G01 X11.1728 Y36.1409
G01 X11.2341 Y36.1191
G01 X11.2959 Y36.1035
G01 X11.3638 Y36.0933
G01 X11.4325 Y36.0901
G01 X11.4962 Y36.0933
G01 X11.5605 Y36.1027
G01 X11.6283 Y36.1198
G01 X11.6883 Y36.1414
G01 X11.7471 Y36.1691
G01 X11.8060 Y36.2045
G01 X11.8573 Y36.2425
G01 X11.8765 Y36.2597
G00 X11.8765 Y36.2597
G01 F60.00
G01 Z-0.2000
G01 F60.00
G01 X12.4781 Y36.2597
G01 X31.8319 Y16.9059
G01 X31.8719 Y16.8697
G01 X31.9153 Y16.8375
G01 X31.9616 Y16.8097
G01 X32.0116 Y16.7862
G01 X32.0613 Y16.7684
G01 X32.1137 Y16.7553
G01 X32.1671 Y16.7474
G01 X32.2210 Y16.7447
G01 X43.6820 Y16.7447
G01 X43.7384 Y16.7477
G01 X43.7893 Y16.7553
G01 X43.8417 Y16.7684
G01 X43.8948 Y16.7876
G01 X43.9414 Y16.8097
G01 X43.9856 Y16.8362
G01 X44.0311 Y16.8697
G01 X44.0711 Y16.9059
G01 X49.1011 Y21.9359
G01 X49.1373 Y21.9759
G01 X49.1695 Y22.0193
G01 X49.1973 Y22.0656
G01 X49.2208 Y22.1156
G01 X49.2386 Y22.1653
G01 X49.2517 Y22.2177
G01 X49.2596 Y22.2711
G01 X49.2623 Y22.3250
G01 X49.2623 Y33.6410
G01 X49.2596 Y33.6949
G01 X49.2514 Y33.7495
G01 X49.2386 Y33.8007
G01 X49.2212 Y33.8493
G01 X49.1973 Y33.9004
G01 X49.1695 Y33.9467
G01 X49.1389 Y33.9881
G01 X49.1011 Y34.0301
G01 X45.9121 Y37.2191
G01 X45.8721 Y37.2553
G01 X45.8287 Y37.2875
G01 X45.7824 Y37.3153
G01 X45.7324 Y37.3388
G01 X45.6827 Y37.3566
G01 X45.6303 Y37.3697
G01 X45.5769 Y37.3776
G01 X45.5230 Y37.3803
G01 X41.9100 Y37.3803
G01 X41.7100 Y37.3800
G01 X41.6561 Y37.3774
G01 X41.6027 Y37.3694
G01 X41.5503 Y37.3563
G01 X41.4995 Y37.3381
G01 X41.4529 Y37.3162
G01 X41.4024 Y37.2859
G01 X41.3611 Y37.2552
G01 X41.3211 Y37.2189
G01 X41.2848 Y37.1789
G01 X41.2541 Y37.1376
G01 X41.2238 Y37.0871
G01 X41.2019 Y37.0405
G01 X41.1837 Y36.9897
G01 X41.1706 Y36.9373
G01 X41.1628 Y36.8851
G01 X41.1600 Y36.8300
G01 X41.1626 Y36.7761
G01 X41.1706 Y36.7227
G01 X41.1837 Y36.6703
G01 X41.2019 Y36.6195
G01 X41.2249 Y36.5707
G01 X41.2527 Y36.5244
G01 X41.2848 Y36.4811
G01 X41.3211 Y36.4411
G01 X41.3611 Y36.4048
G01 X41.4044 Y36.3727
G01 X41.4507 Y36.3449
G01 X41.4995 Y36.3219
G01 X41.5503 Y36.3037
G01 X41.6027 Y36.2906
G01 X41.6537 Y36.2829
G01 X41.7088 Y36.2800
G01 X41.9100 Y36.2797
G01 X45.2951 Y36.2797
G01 X48.1617 Y33.4131
G01 X48.1617 Y22.5529
G01 X43.4541 Y17.8453
G01 X32.4489 Y17.8453
G01 X13.0942 Y37.1999
G01 X13.0551 Y37.2353
G01 X13.0137 Y37.2661
G01 X12.9654 Y37.2953
G01 X12.9166 Y37.3184
G01 X12.8681 Y37.3358
G01 X12.8121 Y37.3499
G01 X12.7599 Y37.3576
G01 X12.7072 Y37.3602
G01 X12.1050 Y37.3603
G01 X12.1050 Y39.5150
G01 X12.1014 Y39.5836
G01 X12.0920 Y39.6467
G01 X12.0766 Y39.7086
G01 X12.0536 Y39.7733
G01 X12.0264 Y39.8310
G01 X11.9898 Y39.8920
G01 X11.9518 Y39.9432
G01 X11.9073 Y39.9923
G01 X11.8582 Y40.0368
G01 X11.8050 Y40.0762
G01 X11.7482 Y40.1103
G01 X11.6883 Y40.1386
G01 X11.6259 Y40.1609
G01 X11.5641 Y40.1765
G01 X11.4937 Y40.1869
G01 X11.4300 Y40.1900
G01 X11.3626 Y40.1866
G01 X11.2983 Y40.1770
G01 X11.2364 Y40.1616
G01 X11.1694 Y40.1376
G01 X11.1118 Y40.1103
G01 X11.0550 Y40.0762
G01 X11.0018 Y40.0368
G01 X10.9545 Y39.9940
G01 X10.9067 Y39.9413
G01 X10.8688 Y39.8900
G01 X10.8347 Y39.8332
G01 X10.8064 Y39.7733
G01 X10.7848 Y39.7133
G01 X10.7677 Y39.6455
G01 X10.7583 Y39.5812
G01 X10.7550 Y39.5150
G01 X10.7550 Y36.7650
G01 X10.7584 Y36.6976
G01 X10.7680 Y36.6333
G01 X10.7834 Y36.5714
G01 X10.8064 Y36.5067
G01 X10.8359 Y36.4447
G01 X10.8688 Y36.3900
G01 X10.9067 Y36.3387
G01 X10.9527 Y36.2877
G01 X11.0037 Y36.2417
G01 X11.0550 Y36.2038
G01 X11.1097 Y36.1709
G01 X11.1728 Y36.1409
G01 X11.2341 Y36.1191
G01 X11.2959 Y36.1035
G01 X11.3638 Y36.0933
G01 X11.4325 Y36.0901
G01 X11.4962 Y36.0933
G01 X11.5605 Y36.1027
G01 X11.6283 Y36.1198
G01 X11.6883 Y36.1414
G01 X11.7471 Y36.1691
G01 X11.8060 Y36.2045
G01 X11.8573 Y36.2425
G01 X11.8765 Y36.2597
G00 Z2.0000
(Block-name: block)
(Block-expand: 0)
(Block-enable: 1)
G00 X22.8625 Y35.0299
G01 F60.00
G01 Z-0.0600
G01 F60.00
G01 X22.7938 Y35.0267
G01 X22.7283 Y35.0170
G01 X22.6641 Y35.0009
G01 X22.6017 Y34.9786
G01 X22.5418 Y34.9503
G01 X22.4850 Y34.9162
G01 X22.4318 Y34.8768
G01 X22.3827 Y34.8323
G01 X22.3382 Y34.7832
G01 X22.2988 Y34.7300
G01 X22.2647 Y34.6732
G01 X22.2364 Y34.6133
G01 X22.2141 Y34.5509
G01 X22.1980 Y34.4867
G01 X22.1883 Y34.4212
G01 X22.1850 Y34.3550
G01 X22.1850 Y31.6050
G01 X22.1883 Y31.5388
G01 X22.1980 Y31.4733
G01 X22.2141 Y31.4091
G01 X22.2364 Y31.3467
G01 X22.2647 Y31.2868
G01 X22.2974 Y31.2321
G01 X22.3398 Y31.1749
G01 X22.3827 Y31.1277
G01 X22.4318 Y31.0832
G01 X22.4850 Y31.0438
G01 X22.5418 Y31.0097
G01 X22.6017 Y30.9814
G01 X22.6617 Y30.9598
G01 X22.7307 Y30.9426
G01 X22.7938 Y30.9333
G01 X22.8600 Y30.9300
G01 X22.9262 Y30.9333
G01 X22.9917 Y30.9430
G01 X23.0559 Y30.9591
G01 X23.1183 Y30.9814
G01 X23.1782 Y31.0097
G01 X23.2350 Y31.0438
G01 X23.2882 Y31.0832
G01 X23.3373 Y31.1277
G01 X23.3818 Y31.1768
G01 X23.4212 Y31.2300
G01 X23.4553 Y31.2868
G01 X23.4836 Y31.3467
G01 X23.5059 Y31.4091
G01 X23.5220 Y31.4733
G01 X23.5317 Y31.5388
G01 X23.5350 Y31.6050
G01 X23.5350 Y34.3550
G01 X23.5317 Y34.4212
G01 X23.5220 Y34.4867
G01 X23.5059 Y34.5509
G01 X23.4836 Y34.6133
G01 X23.4553 Y34.6732
G01 X23.4226 Y34.7279
G01 X23.3802 Y34.7851
G01 X23.3373 Y34.8323
G01 X23.2882 Y34.8768
G01 X23.2350 Y34.9162
G01 X23.1803 Y34.9491
G01 X23.1160 Y34.9795
G01 X23.0559 Y35.0009
G01 X22.9917 Y35.0170
G01 X22.9262 Y35.0267
G01 X22.8625 Y35.0299
G00 X22.8625 Y35.0299
G01 F60.00
G01 Z-0.1200
G01 F60.00
G01 X22.7938 Y35.0267
G01 X22.7283 Y35.0170
G01 X22.6641 Y35.0009
G01 X22.6017 Y34.9786
G01 X22.5418 Y34.9503
G01 X22.4850 Y34.9162
G01 X22.4318 Y34.8768
G01 X22.3827 Y34.8323
G01 X22.3382 Y34.7832
G01 X22.2988 Y34.7300
G01 X22.2647 Y34.6732
G01 X22.2364 Y34.6133
G01 X22.2141 Y34.5509
G01 X22.1980 Y34.4867
G01 X22.1883 Y34.4212
G01 X22.1850 Y34.3550
G01 X22.1850 Y31.6050
G01 X22.1883 Y31.5388
G01 X22.1980 Y31.4733
G01 X22.2141 Y31.4091
G01 X22.2364 Y31.3467
G01 X22.2647 Y31.2868
G01 X22.2974 Y31.2321
G01 X22.3398 Y31.1749
G01 X22.3827 Y31.1277
G01 X22.4318 Y31.0832
G01 X22.4850 Y31.0438
G01 X22.5418 Y31.0097
G01 X22.6017 Y30.9814
G01 X22.6617 Y30.9598
G01 X22.7307 Y30.9426
G01 X22.7938 Y30.9333
G01 X22.8600 Y30.9300
G01 X22.9262 Y30.9333
G01 X22.9917 Y30.9430
G01 X23.0559 Y30.9591
G01 X23.1183 Y30.9814
G01 X23.1782 Y31.0097
G01 X23.2350 Y31.0438
G01 X23.2882 Y31.0832
G01 X23.3373 Y31.1277
G01 X23.3818 Y31.1768
G01 X23.4212 Y31.2300
G01 X23.4553 Y31.2868
G01 X23.4836 Y31.3467
G01 X23.5059 Y31.4091
G01 X23.5220 Y31.4733
G01 X23.5317 Y31.5388
G01 X23.5350 Y31.6050
G01 X23.5350 Y34.3550
G01 X23.5317 Y34.4212
G01 X23.5220 Y34.4867
G01 X23.5059 Y34.5509
G01 X23.4836 Y34.6133
G01 X23.4553 Y34.6732
G01 X23.4226 Y34.7279
G01 X23.3802 Y34.7851
G01 X23.3373 Y34.8323
G01 X23.2882 Y34.8768
G01 X23.2350 Y34.9162
G01 X23.1803 Y34.9491
G01 X23.1160 Y34.9795
G01 X23.0559 Y35.0009
G01 X22.9917 Y35.0170
G01 X22.9262 Y35.0267
G01 X22.8625 Y35.0299
G00 X22.8625 Y35.0299
G01 F60.00
G01 Z-0.1800
G01 F60.00
G01 X22.7938 Y35.0267
G01 X22.7283 Y35.0170
G01 X22.6641 Y35.0009
G01 X22.6017 Y34.9786
G01 X22.5418 Y34.9503
G01 X22.4850 Y34.9162
G01 X22.4318 Y34.8768
G01 X22.3827 Y34.8323
G01 X22.3382 Y34.7832
G01 X22.2988 Y34.7300
G01 X22.2647 Y34.6732
G01 X22.2364 Y34.6133
G01 X22.2141 Y34.5509
G01 X22.1980 Y34.4867
G01 X22.1883 Y34.4212
G01 X22.1850 Y34.3550
G01 X22.1850 Y31.6050
G01 X22.1883 Y31.5388
G01 X22.1980 Y31.4733
G01 X22.2141 Y31.4091
G01 X22.2364 Y31.3467
G01 X22.2647 Y31.2868
G01 X22.2974 Y31.2321
G01 X22.3398 Y31.1749
G01 X22.3827 Y31.1277
G01 X22.4318 Y31.0832
G01 X22.4850 Y31.0438
G01 X22.5418 Y31.0097
G01 X22.6017 Y30.9814
G01 X22.6617 Y30.9598
G01 X22.7307 Y30.9426
G01 X22.7938 Y30.9333
G01 X22.8600 Y30.9300
G01 X22.9262 Y30.9333
G01 X22.9917 Y30.9430
G01 X23.0559 Y30.9591
G01 X23.1183 Y30.9814
G01 X23.1782 Y31.0097
G01 X23.2350 Y31.0438
G01 X23.2882 Y31.0832
G01 X23.3373 Y31.1277
G01 X23.3818 Y31.1768
G01 X23.4212 Y31.2300
G01 X23.4553 Y31.2868
G01 X23.4836 Y31.3467
G01 X23.5059 Y31.4091
G01 X23.5220 Y31.4733
G01 X23.5317 Y31.5388
G01 X23.5350 Y31.6050
G01 X23.5350 Y34.3550
G01 X23.5317 Y34.4212
G01 X23.5220 Y34.4867
G01 X23.5059 Y34.5509
G01 X23.4836 Y34.6133
G01 X23.4553 Y34.6732
G01 X23.4226 Y34.7279
G01 X23.3802 Y34.7851
G01 X23.3373 Y34.8323
G01 X23.2882 Y34.8768
G01 X23.2350 Y34.9162
G01 X23.1803 Y34.9491
G01 X23.1160 Y34.9795
G01 X23.0559 Y35.0009
G01 X22.9917 Y35.0170
G01 X22.9262 Y35.0267
G01 X22.8625 Y35.0299
G00 X22.8625 Y35.0299
G01 F60.00
G01 Z-0.2000
G01 F60.00
G01 X22.7938 Y35.0267
G01 X22.7283 Y35.0170
G01 X22.6641 Y35.0009
G01 X22.6017 Y34.9786
G01 X22.5418 Y34.9503
G01 X22.4850 Y34.9162
G01 X22.4318 Y34.8768
G01 X22.3827 Y34.8323
G01 X22.3382 Y34.7832
G01 X22.2988 Y34.7300
G01 X22.2647 Y34.6732
G01 X22.2364 Y34.6133
G01 X22.2141 Y34.5509
G01 X22.1980 Y34.4867
G01 X22.1883 Y34.4212
G01 X22.1850 Y34.3550
G01 X22.1850 Y31.6050
G01 X22.1883 Y31.5388
G01 X22.1980 Y31.4733
G01 X22.2141 Y31.4091
G01 X22.2364 Y31.3467
G01 X22.2647 Y31.2868
G01 X22.2974 Y31.2321
G01 X22.3398 Y31.1749
G01 X22.3827 Y31.1277
G01 X22.4318 Y31.0832
G01 X22.4850 Y31.0438
G01 X22.5418 Y31.0097
G01 X22.6017 Y30.9814
G01 X22.6617 Y30.9598
G01 X22.7307 Y30.9426
G01 X22.7938 Y30.9333
G01 X22.8600 Y30.9300
G01 X22.9262 Y30.9333
G01 X22.9917 Y30.9430
G01 X23.0559 Y30.9591
G01 X23.1183 Y30.9814
G01 X23.1782 Y31.0097
G01 X23.2350 Y31.0438
G01 X23.2882 Y31.0832
G01 X23.3373 Y31.1277
G01 X23.3818 Y31.1768
G01 X23.4212 Y31.2300
G01 X23.4553 Y31.2868
G01 X23.4836 Y31.3467
G01 X23.5059 Y31.4091
G01 X23.5220 Y31.4733
G01 X23.5317 Y31.5388
G01 X23.5350 Y31.6050
G01 X23.5350 Y34.3550
G01 X23.5317 Y34.4212
G01 X23.5220 Y34.4867
G01 X23.5059 Y34.5509
G01 X23.4836 Y34.6133
G01 X23.4553 Y34.6732
G01 X23.4226 Y34.7279
G01 X23.3802 Y34.7851
G01 X23.3373 Y34.8323
G01 X23.2882 Y34.8768
G01 X23.2350 Y34.9162
G01 X23.1803 Y34.9491
G01 X23.1160 Y34.9795
G01 X23.0559 Y35.0009
G01 X22.9917 Y35.0170
G01 X22.9262 Y35.0267
G01 X22.8625 Y35.0299
G00 Z2.0000
(Block-name: block)
(Block-expand: 0)
(Block-enable: 1)
G00 X22.8625 Y40.1899
G01 F60.00
G01 Z-0.0600
G01 F60.00
G01 X22.7938 Y40.1867
G01 X22.7283 Y40.1770
G01 X22.6641 Y40.1609
G01 X22.6017 Y40.1386
G01 X22.5418 Y40.1103
G01 X22.4850 Y40.0762
G01 X22.4318 Y40.0368
G01 X22.3827 Y39.9923
G01 X22.3382 Y39.9432
G01 X22.2988 Y39.8900
G01 X22.2647 Y39.8332
G01 X22.2364 Y39.7733
G01 X22.2141 Y39.7109
G01 X22.1980 Y39.6467
G01 X22.1883 Y39.5812
G01 X22.1850 Y39.5150
G01 X22.1850 Y36.7650
G01 X22.1883 Y36.6988
G01 X22.1980 Y36.6333
G01 X22.2141 Y36.5691
G01 X22.2364 Y36.5067
G01 X22.2647 Y36.4468
G01 X22.2974 Y36.3921
G01 X22.3398 Y36.3349
G01 X22.3827 Y36.2877
G01 X22.4318 Y36.2432
G01 X22.4850 Y36.2038
G01 X22.5418 Y36.1697
G01 X22.6017 Y36.1414
G01 X22.6617 Y36.1198
G01 X22.7307 Y36.1026
G01 X22.7938 Y36.0933
G01 X22.8600 Y36.0900
G01 X22.9262 Y36.0933
G01 X22.9917 Y36.1030
G01 X23.0559 Y36.1191
G01 X23.1183 Y36.1414
G01 X23.1782 Y36.1697
G01 X23.2350 Y36.2038
G01 X23.2882 Y36.2432
G01 X23.3373 Y36.2877
G01 X23.3818 Y36.3368
G01 X23.4212 Y36.3900
G01 X23.4553 Y36.4468
G01 X23.4836 Y36.5067
G01 X23.5059 Y36.5691
G01 X23.5220 Y36.6333
G01 X23.5317 Y36.6988
G01 X23.5350 Y36.7650
G01 X23.5350 Y39.5150
G01 X23.5317 Y39.5812
G01 X23.5220 Y39.6467
G01 X23.5059 Y39.7109
G01 X23.4836 Y39.7733
G01 X23.4553 Y39.8332
G01 X23.4226 Y39.8879
G01 X23.3802 Y39.9451
G01 X23.3373 Y39.9923
G01 X23.2882 Y40.0368
G01 X23.2350 Y40.0762
G01 X23.1803 Y40.1091
G01 X23.1160 Y40.1395
G01 X23.0559 Y40.1609
G01 X22.9917 Y40.1770
G01 X22.9262 Y40.1867
G01 X22.8625 Y40.1899
G00 X22.8625 Y40.1899
G01 F60.00
G01 Z-0.1200
G01 F60.00
G01 X22.7938 Y40.1867
G01 X22.7283 Y40.1770
G01 X22.6641 Y40.1609
G01 X22.6017 Y40.1386
G01 X22.5418 Y40.1103
G01 X22.4850 Y40.0762
G01 X22.4318 Y40.0368
G01 X22.3827 Y39.9923
G01 X22.3382 Y39.9432
G01 X22.2988 Y39.8900
G01 X22.2647 Y39.8332
G01 X22.2364 Y39.7733
G01 X22.2141 Y39.7109
G01 X22.1980 Y39.6467
G01 X22.1883 Y39.5812
G01 X22.1850 Y39.5150
G01 X22.1850 Y36.7650
G01 X22.1883 Y36.6988
G01 X22.1980 Y36.6333
G01 X22.2141 Y36.5691
G01 X22.2364 Y36.5067
G01 X22.2647 Y36.4468
G01 X22.2974 Y36.3921
G01 X22.3398 Y36.3349
G01 X22.3827 Y36.2877
G01 X22.4318 Y36.2432
G01 X22.4850 Y36.2038
G01 X22.5418 Y36.1697
G01 X22.6017 Y36.1414
G01 X22.6617 Y36.1198
G01 X22.7307 Y36.1026
G01 X22.7938 Y36.0933
G01 X22.8600 Y36.0900
G01 X22.9262 Y36.0933
G01 X22.9917 Y36.1030
G01 X23.0559 Y36.1191
G01 X23.1183 Y36.1414
G01 X23.1782 Y36.1697
G01 X23.2350 Y36.2038
G01 X23.2882 Y36.2432
G01 X23.3373 Y36.2877
G01 X23.3818 Y36.3368
G01 X23.4212 Y36.3900
G01 X23.4553 Y36.4468
G01 X23.4836 Y36.5067
G01 X23.5059 Y36.5691
G01 X23.5220 Y36.6333
G01 X23.5317 Y36.6988
G01 X23.5350 Y36.7650
G01 X23.5350 Y39.5150
G01 X23.5317 Y39.5812
G01 X23.5220 Y39.6467
G01 X23.5059 Y39.7109
G01 X23.4836 Y39.7733
G01 X23.4553 Y39.8332
G01 X23.4226 Y39.8879
G01 X23.3802 Y39.9451
G01 X23.3373 Y39.9923
G01 X23.2882 Y40.0368
G01 X23.2350 Y40.0762
G01 X23.1803 Y40.1091
G01 X23.1160 Y40.1395
G01 X23.0559 Y40.1609
G01 X22.9917 Y40.1770
G01 X22.9262 Y40.1867
G01 X22.8625 Y40.1899
G00 X22.8625 Y40.1899
G01 F60.00
G01 Z-0.1800
G01 F60.00
G01 X22.7938 Y40.1867
G01 X22.7283 Y40.1770
G01 X22.6641 Y40.1609
G01 X22.6017 Y40.1386
G01 X22.5418 Y40.1103
G01 X22.4850 Y40.0762
G01 X22.4318 Y40.0368
G01 X22.3827 Y39.9923
G01 X22.3382 Y39.9432
G01 X22.2988 Y39.8900
G01 X22.2647 Y39.8332
G01 X22.2364 Y39.7733
G01 X22.2141 Y39.7109
G01 X22.1980 Y39.6467
G01 X22.1883 Y39.5812
G01 X22.1850 Y39.5150
G01 X22.1850 Y36.7650
G01 X22.1883 Y36.6988
G01 X22.1980 Y36.6333
G01 X22.2141 Y36.5691
G01 X22.2364 Y36.5067
G01 X22.2647 Y36.4468
G01 X22.2974 Y36.3921
G01 X22.3398 Y36.3349
G01 X22.3827 Y36.2877
G01 X22.4318 Y36.2432
G01 X22.4850 Y36.2038
G01 X22.5418 Y36.1697
G01 X22.6017 Y36.1414
G01 X22.6617 Y36.1198
G01 X22.7307 Y36.1026
G01 X22.7938 Y36.0933
G01 X22.8600 Y36.0900
G01 X22.9262 Y36.0933
G01 X22.9917 Y36.1030
G01 X23.0559 Y36.1191
G01 X23.1183 Y36.1414
G01 X23.1782 Y36.1697
G01 X23.2350 Y36.2038
G01 X23.2882 Y36.2432
G01 X23.3373 Y36.2877
G01 X23.3818 Y36.3368
G01 X23.4212 Y36.3900
G01 X23.4553 Y36.4468
G01 X23.4836 Y36.5067
G01 X23.5059 Y36.5691
G01 X23.5220 Y36.6333
G01 X23.5317 Y36.6988
G01 X23.5350 Y36.7650
G01 X23.5350 Y39.5150
G01 X23.5317 Y39.5812
G01 X23.5220 Y39.6467
G01 X23.5059 Y39.7109
G01 X23.4836 Y39.7733
G01 X23.4553 Y39.8332
G01 X23.4226 Y39.8879
G01 X23.3802 Y39.9451
G01 X23.3373 Y39.9923
G01 X23.2882 Y40.0368
G01 X23.2350 Y40.0762
G01 X23.1803 Y40.1091
G01 X23.1160 Y40.1395
G01 X23.0559 Y40.1609
G01 X22.9917 Y40.1770
G01 X22.9262 Y40.1867
G01 X22.8625 Y40.1899
G00 X22.8625 Y40.1899
G01 F60.00
G01 Z-0.2000
G01 F60.00
G01 X22.7938 Y40.1867
G01 X22.7283 Y40.1770
G01 X22.6641 Y40.1609
G01 X22.6017 Y40.1386
G01 X22.5418 Y40.1103
G01 X22.4850 Y40.0762
G01 X22.4318 Y40.0368
G01 X22.3827 Y39.9923
G01 X22.3382 Y39.9432
G01 X22.2988 Y39.8900
G01 X22.2647 Y39.8332
G01 X22.2364 Y39.7733
G01 X22.2141 Y39.7109
G01 X22.1980 Y39.6467
G01 X22.1883 Y39.5812
G01 X22.1850 Y39.5150
G01 X22.1850 Y36.7650
G01 X22.1883 Y36.6988
G01 X22.1980 Y36.6333
G01 X22.2141 Y36.5691
G01 X22.2364 Y36.5067
G01 X22.2647 Y36.4468
G01 X22.2974 Y36.3921
G01 X22.3398 Y36.3349
G01 X22.3827 Y36.2877
G01 X22.4318 Y36.2432
G01 X22.4850 Y36.2038
G01 X22.5418 Y36.1697
G01 X22.6017 Y36.1414
G01 X22.6617 Y36.1198
G01 X22.7307 Y36.1026
G01 X22.7938 Y36.0933
G01 X22.8600 Y36.0900
G01 X22.9262 Y36.0933
G01 X22.9917 Y36.1030
G01 X23.0559 Y36.1191
G01 X23.1183 Y36.1414
G01 X23.1782 Y36.1697
G01 X23.2350 Y36.2038
G01 X23.2882 Y36.2432
G01 X23.3373 Y36.2877
G01 X23.3818 Y36.3368
G01 X23.4212 Y36.3900
G01 X23.4553 Y36.4468
G01 X23.4836 Y36.5067
G01 X23.5059 Y36.5691
G01 X23.5220 Y36.6333
G01 X23.5317 Y36.6988
G01 X23.5350 Y36.7650
G01 X23.5350 Y39.5150
G01 X23.5317 Y39.5812
G01 X23.5220 Y39.6467
G01 X23.5059 Y39.7109
G01 X23.4836 Y39.7733
G01 X23.4553 Y39.8332
G01 X23.4226 Y39.8879
G01 X23.3802 Y39.9451
G01 X23.3373 Y39.9923
G01 X23.2882 Y40.0368
G01 X23.2350 Y40.0762
G01 X23.1803 Y40.1091
G01 X23.1160 Y40.1395
G01 X23.0559 Y40.1609
G01 X22.9917 Y40.1770
G01 X22.9262 Y40.1867
G01 X22.8625 Y40.1899
G00 Z2.0000
(Block-name: block)
(Block-expand: 0)
(Block-enable: 1)
G00 X36.5700 Y39.9200
G01 F60.00
G01 Z-0.0600
G01 F60.00
G01 X36.5161 Y39.9174
G01 X36.4651 Y39.9099
G01 X36.4080 Y39.8955
G01 X36.3595 Y39.8781
G01 X36.3107 Y39.8551
G01 X36.2644 Y39.8273
G01 X36.2211 Y39.7952
G01 X36.1811 Y39.7589
G01 X36.1464 Y39.7208
G01 X36.1114 Y39.6735
G01 X36.0849 Y39.6293
G01 X36.0619 Y39.5805
G01 X36.0437 Y39.5297
G01 X36.0311 Y39.4797
G01 X36.0225 Y39.4215
G01 X36.0200 Y39.3700
G01 X36.0226 Y39.3161
G01 X36.0306 Y39.2627
G01 X36.0430 Y39.2127
G01 X36.0629 Y39.1573
G01 X36.0849 Y39.1107
G01 X36.1127 Y39.0644
G01 X36.1448 Y39.0211
G01 X36.1794 Y38.9829
G01 X36.2230 Y38.9433
G01 X36.2644 Y38.9127
G01 X36.3118 Y38.8844
G01 X36.3618 Y38.8610
G01 X36.4103 Y38.8437
G01 X36.4603 Y38.8311
G01 X36.5161 Y38.8226
G01 X36.5688 Y38.8200
G01 X38.8197 Y38.8200
G01 X38.8197 Y37.3800
G01 X36.5700 Y37.3800
G01 X36.5161 Y37.3774
G01 X36.4651 Y37.3699
G01 X36.4080 Y37.3555
G01 X36.3573 Y37.3371
G01 X36.3107 Y37.3151
G01 X36.2665 Y37.2886
G01 X36.2211 Y37.2552
G01 X36.1794 Y37.2171
G01 X36.1448 Y37.1789
G01 X36.1141 Y37.1376
G01 X36.0849 Y37.0893
G01 X36.0610 Y37.0382
G01 X36.0437 Y36.9897
G01 X36.0311 Y36.9397
G01 X36.0226 Y36.8839
G01 X36.0201 Y36.8275
G01 X36.0226 Y36.7761
G01 X36.0301 Y36.7251
G01 X36.0437 Y36.6703
G01 X36.0619 Y36.6195
G01 X36.0862 Y36.5686
G01 X36.1127 Y36.5244
G01 X36.1433 Y36.4830
G01 X36.1802 Y36.4420
G01 X36.2211 Y36.4048
G01 X36.2644 Y36.3727
G01 X36.3107 Y36.3449
G01 X36.3595 Y36.3219
G01 X36.4103 Y36.3037
G01 X36.4627 Y36.2906
G01 X36.5161 Y36.2826
G01 X36.5700 Y36.2800
G01 X39.3700 Y36.2797
G01 X39.5725 Y36.2801
G01 X39.6239 Y36.2826
G01 X39.6773 Y36.2906
G01 X39.7297 Y36.3037
G01 X39.7805 Y36.3219
G01 X39.8293 Y36.3449
G01 X39.8756 Y36.3727
G01 X39.9189 Y36.4048
G01 X39.9580 Y36.4402
G01 X39.9952 Y36.4811
G01 X40.0273 Y36.5244
G01 X40.0551 Y36.5707
G01 X40.0781 Y36.6195
G01 X40.0963 Y36.6703
G01 X40.1094 Y36.7227
G01 X40.1174 Y36.7761
G01 X40.1200 Y36.8300
G01 X40.1174 Y36.8839
G01 X40.1094 Y36.9373
G01 X40.0963 Y36.9897
G01 X40.0771 Y37.0427
G01 X40.0538 Y37.0914
G01 X40.0273 Y37.1356
G01 X39.9967 Y37.1770
G01 X39.9589 Y37.2189
G01 X39.9203 Y37.2540
G01 X39.9203 Y38.9460
G01 X39.9589 Y38.9811
G01 X39.9967 Y39.0230
G01 X40.0286 Y39.0665
G01 X40.0551 Y39.1107
G01 X40.0771 Y39.1573
G01 X40.0963 Y39.2103
G01 X40.1094 Y39.2627
G01 X40.1174 Y39.3161
G01 X40.1200 Y39.3688
G01 X40.1174 Y39.4239
G01 X40.1094 Y39.4773
G01 X40.0963 Y39.5297
G01 X40.0781 Y39.5805
G01 X40.0551 Y39.6293
G01 X40.0273 Y39.6756
G01 X39.9952 Y39.7189
G01 X39.9598 Y39.7580
G01 X39.9189 Y39.7952
G01 X39.8756 Y39.8273
G01 X39.8293 Y39.8551
G01 X39.7805 Y39.8781
G01 X39.7297 Y39.8963
G01 X39.6773 Y39.9094
G01 X39.6239 Y39.9174
G01 X39.5725 Y39.9199
G01 X39.3700 Y39.9203
G01 X36.5700 Y39.9200
G00 X36.5700 Y39.9200
G01 F60.00
G01 Z-0.1200
G01 F60.00
G01 X36.5161 Y39.9174
G01 X36.4651 Y39.9099
G01 X36.4080 Y39.8955
G01 X36.3595 Y39.8781
G01 X36.3107 Y39.8551
G01 X36.2644 Y39.8273
G01 X36.2211 Y39.7952
G01 X36.1811 Y39.7589
G01 X36.1464 Y39.7208
G01 X36.1114 Y39.6735
G01 X36.0849 Y39.6293
G01 X36.0619 Y39.5805
G01 X36.0437 Y39.5297
G01 X36.0311 Y39.4797
G01 X36.0225 Y39.4215
G01 X36.0200 Y39.3700
G01 X36.0226 Y39.3161
G01 X36.0306 Y39.2627
G01 X36.0430 Y39.2127
G01 X36.0629 Y39.1573
G01 X36.0849 Y39.1107
G01 X36.1127 Y39.0644
G01 X36.1448 Y39.0211
G01 X36.1794 Y38.9829
G01 X36.2230 Y38.9433
G01 X36.2644 Y38.9127
G01 X36.3118 Y38.8844
G01 X36.3618 Y38.8610
G01 X36.4103 Y38.8437
G01 X36.4603 Y38.8311
G01 X36.5161 Y38.8226
G01 X36.5688 Y38.8200
G01 X38.8197 Y38.8200
G01 X38.8197 Y37.3800
G01 X36.5700 Y37.3800
G01 X36.5161 Y37.3774
G01 X36.4651 Y37.3699
G01 X36.4080 Y37.3555
G01 X36.3573 Y37.3371
G01 X36.3107 Y37.3151
G01 X36.2665 Y37.2886
G01 X36.2211 Y37.2552
G01 X36.1794 Y37.2171
G01 X36.1448 Y37.1789
G01 X36.1141 Y37.1376
G01 X36.0849 Y37.0893
G01 X36.0610 Y37.0382
G01 X36.0437 Y36.9897
G01 X36.0311 Y36.9397
G01 X36.0226 Y36.8839
G01 X36.0201 Y36.8275
G01 X36.0226 Y36.7761
G01 X36.0301 Y36.7251
G01 X36.0437 Y36.6703
G01 X36.0619 Y36.6195
G01 X36.0862 Y36.5686
G01 X36.1127 Y36.5244
G01 X36.1433 Y36.4830
G01 X36.1802 Y36.4420
G01 X36.2211 Y36.4048
G01 X36.2644 Y36.3727
G01 X36.3107 Y36.3449
G01 X36.3595 Y36.3219
G01 X36.4103 Y36.3037
G01 X36.4627 Y36.2906
G01 X36.5161 Y36.2826
G01 X36.5700 Y36.2800
G01 X39.3700 Y36.2797
G01 X39.5725 Y36.2801
G01 X39.6239 Y36.2826
G01 X39.6773 Y36.2906
G01 X39.7297 Y36.3037
G01 X39.7805 Y36.3219
G01 X39.8293 Y36.3449
G01 X39.8756 Y36.3727
G01 X39.9189 Y36.4048
G01 X39.9580 Y36.4402
G01 X39.9952 Y36.4811
G01 X40.0273 Y36.5244
G01 X40.0551 Y36.5707
G01 X40.0781 Y36.6195
G01 X40.0963 Y36.6703
G01 X40.1094 Y36.7227
G01 X40.1174 Y36.7761
G01 X40.1200 Y36.8300
G01 X40.1174 Y36.8839
G01 X40.1094 Y36.9373
G01 X40.0963 Y36.9897
G01 X40.0771 Y37.0427
G01 X40.0538 Y37.0914
G01 X40.0273 Y37.1356
G01 X39.9967 Y37.1770
G01 X39.9589 Y37.2189
G01 X39.9203 Y37.2540
G01 X39.9203 Y38.9460
G01 X39.9589 Y38.9811
G01 X39.9967 Y39.0230
G01 X40.0286 Y39.0665
G01 X40.0551 Y39.1107
G01 X40.0771 Y39.1573
G01 X40.0963 Y39.2103
G01 X40.1094 Y39.2627
G01 X40.1174 Y39.3161
G01 X40.1200 Y39.3688
G01 X40.1174 Y39.4239
G01 X40.1094 Y39.4773
G01 X40.0963 Y39.5297
G01 X40.0781 Y39.5805
G01 X40.0551 Y39.6293
G01 X40.0273 Y39.6756
G01 X39.9952 Y39.7189
G01 X39.9598 Y39.7580
G01 X39.9189 Y39.7952
G01 X39.8756 Y39.8273
G01 X39.8293 Y39.8551
G01 X39.7805 Y39.8781
G01 X39.7297 Y39.8963
G01 X39.6773 Y39.9094
G01 X39.6239 Y39.9174
G01 X39.5725 Y39.9199
G01 X39.3700 Y39.9203
G01 X36.5700 Y39.9200
G00 X36.5700 Y39.9200
G01 F60.00
G01 Z-0.1800
G01 F60.00
G01 X36.5161 Y39.9174
G01 X36.4651 Y39.9099
G01 X36.4080 Y39.8955
G01 X36.3595 Y39.8781
G01 X36.3107 Y39.8551
G01 X36.2644 Y39.8273
G01 X36.2211 Y39.7952
G01 X36.1811 Y39.7589
G01 X36.1464 Y39.7208
G01 X36.1114 Y39.6735
G01 X36.0849 Y39.6293
G01 X36.0619 Y39.5805
G01 X36.0437 Y39.5297
G01 X36.0311 Y39.4797
G01 X36.0225 Y39.4215
G01 X36.0200 Y39.3700
G01 X36.0226 Y39.3161
G01 X36.0306 Y39.2627
G01 X36.0430 Y39.2127
G01 X36.0629 Y39.1573
G01 X36.0849 Y39.1107
G01 X36.1127 Y39.0644
G01 X36.1448 Y39.0211
G01 X36.1794 Y38.9829
G01 X36.2230 Y38.9433
G01 X36.2644 Y38.9127
G01 X36.3118 Y38.8844
G01 X36.3618 Y38.8610
G01 X36.4103 Y38.8437
G01 X36.4603 Y38.8311
G01 X36.5161 Y38.8226
G01 X36.5688 Y38.8200
G01 X38.8197 Y38.8200
G01 X38.8197 Y37.3800
G01 X36.5700 Y37.3800
G01 X36.5161 Y37.3774
G01 X36.4651 Y37.3699
G01 X36.4080 Y37.3555
G01 X36.3573 Y37.3371
G01 X36.3107 Y37.3151
G01 X36.2665 Y37.2886
G01 X36.2211 Y37.2552
G01 X36.1794 Y37.2171
G01 X36.1448 Y37.1789
G01 X36.1141 Y37.1376
G01 X36.0849 Y37.0893
G01 X36.0610 Y37.0382
G01 X36.0437 Y36.9897
G01 X36.0311 Y36.9397
G01 X36.0226 Y36.8839
G01 X36.0201 Y36.8275
G01 X36.0226 Y36.7761
G01 X36.0301 Y36.7251
G01 X36.0437 Y36.6703
G01 X36.0619 Y36.6195
G01 X36.0862 Y36.5686
G01 X36.1127 Y36.5244
G01 X36.1433 Y36.4830
G01 X36.1802 Y36.4420
G01 X36.2211 Y36.4048
G01 X36.2644 Y36.3727
G01 X36.3107 Y36.3449
G01 X36.3595 Y36.3219
G01 X36.4103 Y36.3037
G01 X36.4627 Y36.2906
G01 X36.5161 Y36.2826
G01 X36.5700 Y36.2800
G01 X39.3700 Y36.2797
G01 X39.5725 Y36.2801
G01 X39.6239 Y36.2826
G01 X39.6773 Y36.2906
G01 X39.7297 Y36.3037
G01 X39.7805 Y36.3219
G01 X39.8293 Y36.3449
G01 X39.8756 Y36.3727
G01 X39.9189 Y36.4048
G01 X39.9580 Y36.4402
G01 X39.9952 Y36.4811
G01 X40.0273 Y36.5244
G01 X40.0551 Y36.5707
G01 X40.0781 Y36.6195
G01 X40.0963 Y36.6703
G01 X40.1094 Y36.7227
G01 X40.1174 Y36.7761
G01 X40.1200 Y36.8300
G01 X40.1174 Y36.8839
G01 X40.1094 Y36.9373
G01 X40.0963 Y36.9897
G01 X40.0771 Y37.0427
G01 X40.0538 Y37.0914
G01 X40.0273 Y37.1356
G01 X39.9967 Y37.1770
G01 X39.9589 Y37.2189
G01 X39.9203 Y37.2540
G01 X39.9203 Y38.9460
G01 X39.9589 Y38.9811
G01 X39.9967 Y39.0230
G01 X40.0286 Y39.0665
G01 X40.0551 Y39.1107
G01 X40.0771 Y39.1573
G01 X40.0963 Y39.2103
G01 X40.1094 Y39.2627
G01 X40.1174 Y39.3161
G01 X40.1200 Y39.3688
G01 X40.1174 Y39.4239
G01 X40.1094 Y39.4773
G01 X40.0963 Y39.5297
G01 X40.0781 Y39.5805
G01 X40.0551 Y39.6293
G01 X40.0273 Y39.6756
G01 X39.9952 Y39.7189
G01 X39.9598 Y39.7580
G01 X39.9189 Y39.7952
G01 X39.8756 Y39.8273
G01 X39.8293 Y39.8551
G01 X39.7805 Y39.8781
G01 X39.7297 Y39.8963
G01 X39.6773 Y39.9094
G01 X39.6239 Y39.9174
G01 X39.5725 Y39.9199
G01 X39.3700 Y39.9203
G01 X36.5700 Y39.9200
G00 X36.5700 Y39.9200
G01 F60.00
G01 Z-0.2000
G01 F60.00
G01 X36.5161 Y39.9174
G01 X36.4651 Y39.9099
G01 X36.4080 Y39.8955
G01 X36.3595 Y39.8781
G01 X36.3107 Y39.8551
G01 X36.2644 Y39.8273
G01 X36.2211 Y39.7952
G01 X36.1811 Y39.7589
G01 X36.1464 Y39.7208
G01 X36.1114 Y39.6735
G01 X36.0849 Y39.6293
G01 X36.0619 Y39.5805
G01 X36.0437 Y39.5297
G01 X36.0311 Y39.4797
G01 X36.0225 Y39.4215
G01 X36.0200 Y39.3700
G01 X36.0226 Y39.3161
G01 X36.0306 Y39.2627
G01 X36.0430 Y39.2127
G01 X36.0629 Y39.1573
G01 X36.0849 Y39.1107
G01 X36.1127 Y39.0644
G01 X36.1448 Y39.0211
G01 X36.1794 Y38.9829
G01 X36.2230 Y38.9433
G01 X36.2644 Y38.9127
G01 X36.3118 Y38.8844
G01 X36.3618 Y38.8610
G01 X36.4103 Y38.8437
G01 X36.4603 Y38.8311
G01 X36.5161 Y38.8226
G01 X36.5688 Y38.8200
G01 X38.8197 Y38.8200
G01 X38.8197 Y37.3800
G01 X36.5700 Y37.3800
G01 X36.5161 Y37.3774
G01 X36.4651 Y37.3699
G01 X36.4080 Y37.3555
G01 X36.3573 Y37.3371
G01 X36.3107 Y37.3151
G01 X36.2665 Y37.2886
G01 X36.2211 Y37.2552
G01 X36.1794 Y37.2171
G01 X36.1448 Y37.1789
G01 X36.1141 Y37.1376
G01 X36.0849 Y37.0893
G01 X36.0610 Y37.0382
G01 X36.0437 Y36.9897
G01 X36.0311 Y36.9397
G01 X36.0226 Y36.8839
G01 X36.0201 Y36.8275
G01 X36.0226 Y36.7761
G01 X36.0301 Y36.7251
G01 X36.0437 Y36.6703
G01 X36.0619 Y36.6195
G01 X36.0862 Y36.5686
G01 X36.1127 Y36.5244
G01 X36.1433 Y36.4830
G01 X36.1802 Y36.4420
G01 X36.2211 Y36.4048
G01 X36.2644 Y36.3727
G01 X36.3107 Y36.3449
G01 X36.3595 Y36.3219
G01 X36.4103 Y36.3037
G01 X36.4627 Y36.2906
G01 X36.5161 Y36.2826
G01 X36.5700 Y36.2800
G01 X39.3700 Y36.2797
G01 X39.5725 Y36.2801
G01 X39.6239 Y36.2826
G01 X39.6773 Y36.2906
G01 X39.7297 Y36.3037
G01 X39.7805 Y36.3219
G01 X39.8293 Y36.3449
G01 X39.8756 Y36.3727
G01 X39.9189 Y36.4048
G01 X39.9580 Y36.4402
G01 X39.9952 Y36.4811
G01 X40.0273 Y36.5244
G01 X40.0551 Y36.5707
G01 X40.0781 Y36.6195
G01 X40.0963 Y36.6703
G01 X40.1094 Y36.7227
G01 X40.1174 Y36.7761
G01 X40.1200 Y36.8300
G01 X40.1174 Y36.8839
G01 X40.1094 Y36.9373
G01 X40.0963 Y36.9897
G01 X40.0771 Y37.0427
G01 X40.0538 Y37.0914
G01 X40.0273 Y37.1356
G01 X39.9967 Y37.1770
G01 X39.9589 Y37.2189
G01 X39.9203 Y37.2540
G01 X39.9203 Y38.9460
G01 X39.9589 Y38.9811
G01 X39.9967 Y39.0230
G01 X40.0286 Y39.0665
G01 X40.0551 Y39.1107
G01 X40.0771 Y39.1573
G01 X40.0963 Y39.2103
G01 X40.1094 Y39.2627
G01 X40.1174 Y39.3161
G01 X40.1200 Y39.3688
G01 X40.1174 Y39.4239
G01 X40.1094 Y39.4773
G01 X40.0963 Y39.5297
G01 X40.0781 Y39.5805
G01 X40.0551 Y39.6293
G01 X40.0273 Y39.6756
G01 X39.9952 Y39.7189
G01 X39.9598 Y39.7580
G01 X39.9189 Y39.7952
G01 X39.8756 Y39.8273
G01 X39.8293 Y39.8551
G01 X39.7805 Y39.8781
G01 X39.7297 Y39.8963
G01 X39.6773 Y39.9094
G01 X39.6239 Y39.9174
G01 X39.5725 Y39.9199
G01 X39.3700 Y39.9203
G01 X36.5700 Y39.9200
G00 Z2.0000
(Block-name: block)
(Block-expand: 0)
(Block-enable: 1)
G00 X36.5700 Y45.0000
G01 F60.00
G01 Z-0.0600
G01 F60.00
G01 X36.5161 Y44.9974
G01 X36.4627 Y44.9894
G01 X36.4103 Y44.9763
G01 X36.3618 Y44.9590
G01 X36.3107 Y44.9351
G01 X36.2665 Y44.9086
G01 X36.2192 Y44.8736
G01 X36.1811 Y44.8389
G01 X36.1448 Y44.7989
G01 X36.1127 Y44.7556
G01 X36.0849 Y44.7093
G01 X36.0619 Y44.6605
G01 X36.0437 Y44.6097
G01 X36.0306 Y44.5573
G01 X36.0226 Y44.5039
G01 X36.0200 Y44.4500
G01 X36.0226 Y44.3961
G01 X36.0306 Y44.3427
G01 X36.0437 Y44.2903
G01 X36.0619 Y44.2395
G01 X36.0849 Y44.1907
G01 X36.1127 Y44.1444
G01 X36.1433 Y44.1030
G01 X36.1829 Y44.0594
G01 X36.2211 Y44.0248
G01 X36.2665 Y43.9914
G01 X36.3107 Y43.9649
G01 X36.3595 Y43.9419
G01 X36.4103 Y43.9237
G01 X36.4639 Y43.9103
G01 X36.5161 Y43.9026
G01 X36.5700 Y43.9000
G01 X39.5700 Y43.9000
G01 X39.6251 Y43.9028
G01 X39.6773 Y43.9106
G01 X39.7273 Y43.9230
G01 X39.7827 Y43.9429
G01 X39.8293 Y43.9649
G01 X39.8756 Y43.9927
G01 X39.9189 Y44.0248
G01 X39.9571 Y44.0594
G01 X39.9967 Y44.1030
G01 X40.0273 Y44.1444
G01 X40.0551 Y44.1907
G01 X40.0781 Y44.2395
G01 X40.0955 Y44.2880
G01 X40.1097 Y44.3439
G01 X40.1174 Y44.3961
G01 X40.1200 Y44.4500
G01 X40.1174 Y44.5039
G01 X40.1094 Y44.5573
G01 X40.0963 Y44.6097
G01 X40.0781 Y44.6605
G01 X40.0551 Y44.7093
G01 X40.0273 Y44.7556
G01 X39.9952 Y44.7989
G01 X39.9589 Y44.8389
G01 X39.9189 Y44.8752
G01 X39.8756 Y44.9073
G01 X39.8293 Y44.9351
G01 X39.7805 Y44.9581
G01 X39.7297 Y44.9763
G01 X39.6761 Y44.9897
G01 X39.6239 Y44.9974
G01 X39.5700 Y45.0000
G01 X36.5700 Y45.0000
G00 X36.5700 Y45.0000
G01 F60.00
G01 Z-0.1200
G01 F60.00
G01 X36.5161 Y44.9974
G01 X36.4627 Y44.9894
G01 X36.4103 Y44.9763
G01 X36.3618 Y44.9590
G01 X36.3107 Y44.9351
G01 X36.2665 Y44.9086
G01 X36.2192 Y44.8736
G01 X36.1811 Y44.8389
G01 X36.1448 Y44.7989
G01 X36.1127 Y44.7556
G01 X36.0849 Y44.7093
G01 X36.0619 Y44.6605
G01 X36.0437 Y44.6097
G01 X36.0306 Y44.5573
G01 X36.0226 Y44.5039
G01 X36.0200 Y44.4500
G01 X36.0226 Y44.3961
G01 X36.0306 Y44.3427
G01 X36.0437 Y44.2903
G01 X36.0619 Y44.2395
G01 X36.0849 Y44.1907
G01 X36.1127 Y44.1444
G01 X36.1433 Y44.1030
G01 X36.1829 Y44.0594
G01 X36.2211 Y44.0248
G01 X36.2665 Y43.9914
G01 X36.3107 Y43.9649
G01 X36.3595 Y43.9419
G01 X36.4103 Y43.9237
G01 X36.4639 Y43.9103
G01 X36.5161 Y43.9026
G01 X36.5700 Y43.9000
G01 X39.5700 Y43.9000
G01 X39.6251 Y43.9028
G01 X39.6773 Y43.9106
G01 X39.7273 Y43.9230
G01 X39.7827 Y43.9429
G01 X39.8293 Y43.9649
G01 X39.8756 Y43.9927
G01 X39.9189 Y44.0248
G01 X39.9571 Y44.0594
G01 X39.9967 Y44.1030
G01 X40.0273 Y44.1444
G01 X40.0551 Y44.1907
G01 X40.0781 Y44.2395
G01 X40.0955 Y44.2880
G01 X40.1097 Y44.3439
G01 X40.1174 Y44.3961
G01 X40.1200 Y44.4500
G01 X40.1174 Y44.5039
G01 X40.1094 Y44.5573
G01 X40.0963 Y44.6097
G01 X40.0781 Y44.6605
G01 X40.0551 Y44.7093
G01 X40.0273 Y44.7556
G01 X39.9952 Y44.7989
G01 X39.9589 Y44.8389
G01 X39.9189 Y44.8752
G01 X39.8756 Y44.9073
G01 X39.8293 Y44.9351
G01 X39.7805 Y44.9581
G01 X39.7297 Y44.9763
G01 X39.6761 Y44.9897
G01 X39.6239 Y44.9974
G01 X39.5700 Y45.0000
G01 X36.5700 Y45.0000
G00 X36.5700 Y45.0000
G01 F60.00
G01 Z-0.1800
G01 F60.00
G01 X36.5161 Y44.9974
G01 X36.4627 Y44.9894
G01 X36.4103 Y44.9763
G01 X36.3618 Y44.9590
G01 X36.3107 Y44.9351
G01 X36.2665 Y44.9086
G01 X36.2192 Y44.8736
G01 X36.1811 Y44.8389
G01 X36.1448 Y44.7989
G01 X36.1127 Y44.7556
G01 X36.0849 Y44.7093
G01 X36.0619 Y44.6605
G01 X36.0437 Y44.6097
G01 X36.0306 Y44.5573
G01 X36.0226 Y44.5039
G01 X36.0200 Y44.4500
G01 X36.0226 Y44.3961
G01 X36.0306 Y44.3427
G01 X36.0437 Y44.2903
G01 X36.0619 Y44.2395
G01 X36.0849 Y44.1907
G01 X36.1127 Y44.1444
G01 X36.1433 Y44.1030
G01 X36.1829 Y44.0594
G01 X36.2211 Y44.0248
G01 X36.2665 Y43.9914
G01 X36.3107 Y43.9649
G01 X36.3595 Y43.9419
G01 X36.4103 Y43.9237
G01 X36.4639 Y43.9103
G01 X36.5161 Y43.9026
G01 X36.5700 Y43.9000
G01 X39.5700 Y43.9000
G01 X39.6251 Y43.9028
G01 X39.6773 Y43.9106
G01 X39.7273 Y43.9230
G01 X39.7827 Y43.9429
G01 X39.8293 Y43.9649
G01 X39.8756 Y43.9927
G01 X39.9189 Y44.0248
G01 X39.9571 Y44.0594
G01 X39.9967 Y44.1030
G01 X40.0273 Y44.1444
G01 X40.0551 Y44.1907
G01 X40.0781 Y44.2395
G01 X40.0955 Y44.2880
G01 X40.1097 Y44.3439
G01 X40.1174 Y44.3961
G01 X40.1200 Y44.4500
G01 X40.1174 Y44.5039
G01 X40.1094 Y44.5573
G01 X40.0963 Y44.6097
G01 X40.0781 Y44.6605
G01 X40.0551 Y44.7093
G01 X40.0273 Y44.7556
G01 X39.9952 Y44.7989
G01 X39.9589 Y44.8389
G01 X39.9189 Y44.8752
G01 X39.8756 Y44.9073
G01 X39.8293 Y44.9351
G01 X39.7805 Y44.9581
G01 X39.7297 Y44.9763
G01 X39.6761 Y44.9897
G01 X39.6239 Y44.9974
G01 X39.5700 Y45.0000
G01 X36.5700 Y45.0000
G00 X36.5700 Y45.0000
G01 F60.00
G01 Z-0.2000
G01 F60.00
G01 X36.5161 Y44.9974
G01 X36.4627 Y44.9894
G01 X36.4103 Y44.9763
G01 X36.3618 Y44.9590
G01 X36.3107 Y44.9351
G01 X36.2665 Y44.9086
G01 X36.2192 Y44.8736
G01 X36.1811 Y44.8389
G01 X36.1448 Y44.7989
G01 X36.1127 Y44.7556
G01 X36.0849 Y44.7093
G01 X36.0619 Y44.6605
G01 X36.0437 Y44.6097
G01 X36.0306 Y44.5573
G01 X36.0226 Y44.5039
G01 X36.0200 Y44.4500
G01 X36.0226 Y44.3961
G01 X36.0306 Y44.3427
G01 X36.0437 Y44.2903
G01 X36.0619 Y44.2395
G01 X36.0849 Y44.1907
G01 X36.1127 Y44.1444
G01 X36.1433 Y44.1030
G01 X36.1829 Y44.0594
G01 X36.2211 Y44.0248
G01 X36.2665 Y43.9914
G01 X36.3107 Y43.9649
G01 X36.3595 Y43.9419
G01 X36.4103 Y43.9237
G01 X36.4639 Y43.9103
G01 X36.5161 Y43.9026
G01 X36.5700 Y43.9000
G01 X39.5700 Y43.9000
G01 X39.6251 Y43.9028
G01 X39.6773 Y43.9106
G01 X39.7273 Y43.9230
G01 X39.7827 Y43.9429
G01 X39.8293 Y43.9649
G01 X39.8756 Y43.9927
G01 X39.9189 Y44.0248
G01 X39.9571 Y44.0594
G01 X39.9967 Y44.1030
G01 X40.0273 Y44.1444
G01 X40.0551 Y44.1907
G01 X40.0781 Y44.2395
G01 X40.0955 Y44.2880
G01 X40.1097 Y44.3439
G01 X40.1174 Y44.3961
G01 X40.1200 Y44.4500
G01 X40.1174 Y44.5039
G01 X40.1094 Y44.5573
G01 X40.0963 Y44.6097
G01 X40.0781 Y44.6605
G01 X40.0551 Y44.7093
G01 X40.0273 Y44.7556
G01 X39.9952 Y44.7989
G01 X39.9589 Y44.8389
G01 X39.9189 Y44.8752
G01 X39.8756 Y44.9073
G01 X39.8293 Y44.9351
G01 X39.7805 Y44.9581
G01 X39.7297 Y44.9763
G01 X39.6761 Y44.9897
G01 X39.6239 Y44.9974
G01 X39.5700 Y45.0000
G01 X36.5700 Y45.0000
G00 Z2.0000
(Block-name: block)
(Block-expand: 0)
(Block-enable: 1)
G00 X36.5700 Y47.5400
G01 F60.00
G01 Z-0.0600
G01 F60.00
G01 X36.5161 Y47.5374
G01 X36.4627 Y47.5294
G01 X36.4103 Y47.5163
G01 X36.3618 Y47.4990
G01 X36.3107 Y47.4751
G01 X36.2665 Y47.4486
G01 X36.2192 Y47.4136
G01 X36.1811 Y47.3789
G01 X36.1448 Y47.3389
G01 X36.1127 Y47.2956
G01 X36.0849 Y47.2493
G01 X36.0619 Y47.2005
G01 X36.0437 Y47.1497
G01 X36.0306 Y47.0973
G01 X36.0226 Y47.0439
G01 X36.0200 Y46.9900
G01 X36.0226 Y46.9361
G01 X36.0306 Y46.8827
G01 X36.0437 Y46.8303
G01 X36.0619 Y46.7795
G01 X36.0849 Y46.7307
G01 X36.1127 Y46.6844
G01 X36.1433 Y46.6430
G01 X36.1811 Y46.6011
G01 X36.2192 Y46.5664
G01 X36.2665 Y46.5314
G01 X36.3107 Y46.5049
G01 X36.3595 Y46.4819
G01 X36.4103 Y46.4637
G01 X36.4639 Y46.4503
G01 X36.5161 Y46.4426
G01 X36.5700 Y46.4400
G01 X39.5700 Y46.4400
G01 X39.6251 Y46.4428
G01 X39.6773 Y46.4506
G01 X39.7273 Y46.4630
G01 X39.7827 Y46.4829
G01 X39.8293 Y46.5049
G01 X39.8756 Y46.5327
G01 X39.9189 Y46.5648
G01 X39.9571 Y46.5994
G01 X39.9967 Y46.6430
G01 X40.0273 Y46.6844
G01 X40.0551 Y46.7307
G01 X40.0781 Y46.7795
G01 X40.0955 Y46.8280
G01 X40.1097 Y46.8839
G01 X40.1174 Y46.9361
G01 X40.1200 Y46.9900
G01 X40.1174 Y47.0439
G01 X40.1094 Y47.0973
G01 X40.0963 Y47.1497
G01 X40.0781 Y47.2005
G01 X40.0551 Y47.2493
G01 X40.0273 Y47.2956
G01 X39.9952 Y47.3389
G01 X39.9589 Y47.3789
G01 X39.9189 Y47.4152
G01 X39.8756 Y47.4473
G01 X39.8293 Y47.4751
G01 X39.7805 Y47.4981
G01 X39.7297 Y47.5163
G01 X39.6761 Y47.5297
G01 X39.6239 Y47.5374
G01 X39.5700 Y47.5400
G01 X36.5700 Y47.5400
G00 X36.5700 Y47.5400
G01 F60.00
G01 Z-0.1200
G01 F60.00
G01 X36.5161 Y47.5374
G01 X36.4627 Y47.5294
G01 X36.4103 Y47.5163
G01 X36.3618 Y47.4990
G01 X36.3107 Y47.4751
G01 X36.2665 Y47.4486
G01 X36.2192 Y47.4136
G01 X36.1811 Y47.3789
G01 X36.1448 Y47.3389
G01 X36.1127 Y47.2956
G01 X36.0849 Y47.2493
G01 X36.0619 Y47.2005
G01 X36.0437 Y47.1497
G01 X36.0306 Y47.0973
G01 X36.0226 Y47.0439
G01 X36.0200 Y46.9900
G01 X36.0226 Y46.9361
G01 X36.0306 Y46.8827
G01 X36.0437 Y46.8303
G01 X36.0619 Y46.7795
G01 X36.0849 Y46.7307
G01 X36.1127 Y46.6844
G01 X36.1433 Y46.6430
G01 X36.1811 Y46.6011
G01 X36.2192 Y46.5664
G01 X36.2665 Y46.5314
G01 X36.3107 Y46.5049
G01 X36.3595 Y46.4819
G01 X36.4103 Y46.4637
G01 X36.4639 Y46.4503
G01 X36.5161 Y46.4426
G01 X36.5700 Y46.4400
G01 X39.5700 Y46.4400
G01 X39.6251 Y46.4428
G01 X39.6773 Y46.4506
G01 X39.7273 Y46.4630
G01 X39.7827 Y46.4829
G01 X39.8293 Y46.5049
G01 X39.8756 Y46.5327
G01 X39.9189 Y46.5648
G01 X39.9571 Y46.5994
G01 X39.9967 Y46.6430
G01 X40.0273 Y46.6844
G01 X40.0551 Y46.7307
G01 X40.0781 Y46.7795
G01 X40.0955 Y46.8280
G01 X40.1097 Y46.8839
G01 X40.1174 Y46.9361
G01 X40.1200 Y46.9900
G01 X40.1174 Y47.0439
G01 X40.1094 Y47.0973
G01 X40.0963 Y47.1497
G01 X40.0781 Y47.2005
G01 X40.0551 Y47.2493
G01 X40.0273 Y47.2956
G01 X39.9952 Y47.3389
G01 X39.9589 Y47.3789
G01 X39.9189 Y47.4152
G01 X39.8756 Y47.4473
G01 X39.8293 Y47.4751
G01 X39.7805 Y47.4981
G01 X39.7297 Y47.5163
G01 X39.6761 Y47.5297
G01 X39.6239 Y47.5374
G01 X39.5700 Y47.5400
G01 X36.5700 Y47.5400
G00 X36.5700 Y47.5400
G01 F60.00
G01 Z-0.1800
G01 F60.00
G01 X36.5161 Y47.5374
G01 X36.4627 Y47.5294
G01 X36.4103 Y47.5163
G01 X36.3618 Y47.4990
G01 X36.3107 Y47.4751
G01 X36.2665 Y47.4486
G01 X36.2192 Y47.4136
G01 X36.1811 Y47.3789
G01 X36.1448 Y47.3389
G01 X36.1127 Y47.2956
G01 X36.0849 Y47.2493
G01 X36.0619 Y47.2005
G01 X36.0437 Y47.1497
G01 X36.0306 Y47.0973
G01 X36.0226 Y47.0439
G01 X36.0200 Y46.9900
G01 X36.0226 Y46.9361
G01 X36.0306 Y46.8827
G01 X36.0437 Y46.8303
G01 X36.0619 Y46.7795
G01 X36.0849 Y46.7307
G01 X36.1127 Y46.6844
G01 X36.1433 Y46.6430
G01 X36.1811 Y46.6011
G01 X36.2192 Y46.5664
G01 X36.2665 Y46.5314
G01 X36.3107 Y46.5049
G01 X36.3595 Y46.4819
G01 X36.4103 Y46.4637
G01 X36.4639 Y46.4503
G01 X36.5161 Y46.4426
G01 X36.5700 Y46.4400
G01 X39.5700 Y46.4400
G01 X39.6251 Y46.4428
G01 X39.6773 Y46.4506
G01 X39.7273 Y46.4630
G01 X39.7827 Y46.4829
G01 X39.8293 Y46.5049
G01 X39.8756 Y46.5327
G01 X39.9189 Y46.5648
G01 X39.9571 Y46.5994
G01 X39.9967 Y46.6430
G01 X40.0273 Y46.6844
G01 X40.0551 Y46.7307
G01 X40.0781 Y46.7795
G01 X40.0955 Y46.8280
G01 X40.1097 Y46.8839
G01 X40.1174 Y46.9361
G01 X40.1200 Y46.9900
G01 X40.1174 Y47.0439
G01 X40.1094 Y47.0973
G01 X40.0963 Y47.1497
G01 X40.0781 Y47.2005
G01 X40.0551 Y47.2493
G01 X40.0273 Y47.2956
G01 X39.9952 Y47.3389
G01 X39.9589 Y47.3789
G01 X39.9189 Y47.4152
G01 X39.8756 Y47.4473
G01 X39.8293 Y47.4751
G01 X39.7805 Y47.4981
G01 X39.7297 Y47.5163
G01 X39.6761 Y47.5297
G01 X39.6239 Y47.5374
G01 X39.5700 Y47.5400
G01 X36.5700 Y47.5400
G00 X36.5700 Y47.5400
G01 F60.00
G01 Z-0.2000
G01 F60.00
G01 X36.5161 Y47.5374
G01 X36.4627 Y47.5294
G01 X36.4103 Y47.5163
G01 X36.3618 Y47.4990
G01 X36.3107 Y47.4751
G01 X36.2665 Y47.4486
G01 X36.2192 Y47.4136
G01 X36.1811 Y47.3789
G01 X36.1448 Y47.3389
G01 X36.1127 Y47.2956
G01 X36.0849 Y47.2493
G01 X36.0619 Y47.2005
G01 X36.0437 Y47.1497
G01 X36.0306 Y47.0973
G01 X36.0226 Y47.0439
G01 X36.0200 Y46.9900
G01 X36.0226 Y46.9361
G01 X36.0306 Y46.8827
G01 X36.0437 Y46.8303
G01 X36.0619 Y46.7795
G01 X36.0849 Y46.7307
G01 X36.1127 Y46.6844
G01 X36.1433 Y46.6430
G01 X36.1811 Y46.6011
G01 X36.2192 Y46.5664
G01 X36.2665 Y46.5314
G01 X36.3107 Y46.5049
G01 X36.3595 Y46.4819
G01 X36.4103 Y46.4637
G01 X36.4639 Y46.4503
G01 X36.5161 Y46.4426
G01 X36.5700 Y46.4400
G01 X39.5700 Y46.4400
G01 X39.6251 Y46.4428
G01 X39.6773 Y46.4506
G01 X39.7273 Y46.4630
G01 X39.7827 Y46.4829
G01 X39.8293 Y46.5049
G01 X39.8756 Y46.5327
G01 X39.9189 Y46.5648
G01 X39.9571 Y46.5994
G01 X39.9967 Y46.6430
G01 X40.0273 Y46.6844
G01 X40.0551 Y46.7307
G01 X40.0781 Y46.7795
G01 X40.0955 Y46.8280
G01 X40.1097 Y46.8839
G01 X40.1174 Y46.9361
G01 X40.1200 Y46.9900
G01 X40.1174 Y47.0439
G01 X40.1094 Y47.0973
G01 X40.0963 Y47.1497
G01 X40.0781 Y47.2005
G01 X40.0551 Y47.2493
G01 X40.0273 Y47.2956
G01 X39.9952 Y47.3389
G01 X39.9589 Y47.3789
G01 X39.9189 Y47.4152
G01 X39.8756 Y47.4473
G01 X39.8293 Y47.4751
G01 X39.7805 Y47.4981
G01 X39.7297 Y47.5163
G01 X39.6761 Y47.5297
G01 X39.6239 Y47.5374
G01 X39.5700 Y47.5400
G01 X36.5700 Y47.5400
G00 Z2.0000
(Block-name: block)
(Block-expand: 0)
(Block-enable: 1)
G00 X41.7100 Y47.5400
G01 F60.00
G01 Z-0.0600
G01 F60.00
G01 X41.6561 Y47.5374
G01 X41.6027 Y47.5294
G01 X41.5503 Y47.5163
G01 X41.5018 Y47.4990
G01 X41.4507 Y47.4751
G01 X41.4065 Y47.4486
G01 X41.3592 Y47.4136
G01 X41.3211 Y47.3789
G01 X41.2848 Y47.3389
G01 X41.2527 Y47.2956
G01 X41.2249 Y47.2493
G01 X41.2019 Y47.2005
G01 X41.1837 Y47.1497
G01 X41.1706 Y47.0973
G01 X41.1626 Y47.0439
G01 X41.1600 Y46.9900
G01 X41.1626 Y46.9361
G01 X41.1706 Y46.8827
G01 X41.1830 Y46.8327
G01 X41.2029 Y46.7773
G01 X41.2249 Y46.7307
G01 X41.2541 Y46.6824
G01 X41.2848 Y46.6411
G01 X41.3211 Y46.6011
G01 X41.3611 Y46.5648
G01 X41.4044 Y46.5327
G01 X41.4507 Y46.5049
G01 X41.4995 Y46.4819
G01 X41.5503 Y46.4637
G01 X41.6015 Y46.4508
G01 X41.6561 Y46.4426
G01 X41.7100 Y46.4400
G01 X46.6021 Y46.4397
G01 X61.6150 Y31.4268
G01 X61.6150 Y28.8550
G01 X61.6180 Y28.7947
G01 X61.6264 Y28.7374
G01 X61.6423 Y28.6741
G01 X61.6628 Y28.6174
G01 X61.6876 Y28.5651
G01 X61.7173 Y28.5154
G01 X61.7546 Y28.4648
G01 X61.7969 Y28.4184
G01 X61.8398 Y28.3796
G01 X61.8863 Y28.3451
G01 X61.9401 Y28.3126
G01 X61.9969 Y28.2859
G01 X62.0515 Y28.2665
G01 X62.1076 Y28.2524
G01 X62.1697 Y28.2430
G01 X62.2325 Y28.2401
G01 X62.2903 Y28.2430
G01 X62.3476 Y28.2514
G01 X62.4085 Y28.2665
G01 X62.4676 Y28.2878
G01 X62.5199 Y28.3126
G01 X62.5696 Y28.3423
G01 X62.6202 Y28.3796
G01 X62.6666 Y28.4219
G01 X62.7054 Y28.4648
G01 X62.7414 Y28.5133
G01 X62.7724 Y28.5651
G01 X62.7982 Y28.6196
G01 X62.8185 Y28.6765
G01 X62.8332 Y28.7350
G01 X62.8420 Y28.7947
G01 X62.8450 Y28.8550
G01 X62.8449 Y31.7275
G01 X62.8420 Y31.7853
G01 X62.8332 Y31.8450
G01 X62.8185 Y31.9035
G01 X62.7991 Y31.9581
G01 X62.7712 Y32.0170
G01 X62.7414 Y32.0667
G01 X62.7054 Y32.1152
G01 X62.6649 Y32.1599
G01 X62.6202 Y32.2004
G01 X62.5717 Y32.2364
G01 X62.5188 Y32.2679
G01 X62.4654 Y32.2932
G01 X62.4073 Y32.3139
G01 X62.3488 Y32.3284
G01 X62.2915 Y32.3369
G01 X62.2596 Y32.3386
G01 X47.2173 Y47.3808
G01 X47.1791 Y47.4153
G01 X47.1357 Y47.4475
G01 X47.0894 Y47.4753
G01 X47.0406 Y47.4984
G01 X46.9897 Y47.5166
G01 X46.9373 Y47.5297
G01 X46.8839 Y47.5376
G01 X46.8312 Y47.5402
G01 X41.7100 Y47.5400
G00 X41.7100 Y47.5400
G01 F60.00
G01 Z-0.1200
G01 F60.00
G01 X41.6561 Y47.5374
G01 X41.6027 Y47.5294
G01 X41.5503 Y47.5163
G01 X41.5018 Y47.4990
G01 X41.4507 Y47.4751
G01 X41.4065 Y47.4486
G01 X41.3592 Y47.4136
G01 X41.3211 Y47.3789
G01 X41.2848 Y47.3389
G01 X41.2527 Y47.2956
G01 X41.2249 Y47.2493
G01 X41.2019 Y47.2005
G01 X41.1837 Y47.1497
G01 X41.1706 Y47.0973
G01 X41.1626 Y47.0439
G01 X41.1600 Y46.9900
G01 X41.1626 Y46.9361
G01 X41.1706 Y46.8827
G01 X41.1830 Y46.8327
G01 X41.2029 Y46.7773
G01 X41.2249 Y46.7307
G01 X41.2541 Y46.6824
G01 X41.2848 Y46.6411
G01 X41.3211 Y46.6011
G01 X41.3611 Y46.5648
G01 X41.4044 Y46.5327
G01 X41.4507 Y46.5049
G01 X41.4995 Y46.4819
G01 X41.5503 Y46.4637
G01 X41.6015 Y46.4508
G01 X41.6561 Y46.4426
G01 X41.7100 Y46.4400
G01 X46.6021 Y46.4397
G01 X61.6150 Y31.4268
G01 X61.6150 Y28.8550
G01 X61.6180 Y28.7947
G01 X61.6264 Y28.7374
G01 X61.6423 Y28.6741
G01 X61.6628 Y28.6174
G01 X61.6876 Y28.5651
G01 X61.7173 Y28.5154
G01 X61.7546 Y28.4648
G01 X61.7969 Y28.4184
G01 X61.8398 Y28.3796
G01 X61.8863 Y28.3451
G01 X61.9401 Y28.3126
G01 X61.9969 Y28.2859
G01 X62.0515 Y28.2665
G01 X62.1076 Y28.2524
G01 X62.1697 Y28.2430
G01 X62.2325 Y28.2401
G01 X62.2903 Y28.2430
G01 X62.3476 Y28.2514
G01 X62.4085 Y28.2665
G01 X62.4676 Y28.2878
G01 X62.5199 Y28.3126
G01 X62.5696 Y28.3423
G01 X62.6202 Y28.3796
G01 X62.6666 Y28.4219
G01 X62.7054 Y28.4648
G01 X62.7414 Y28.5133
G01 X62.7724 Y28.5651
G01 X62.7982 Y28.6196
G01 X62.8185 Y28.6765
G01 X62.8332 Y28.7350
G01 X62.8420 Y28.7947
G01 X62.8450 Y28.8550
G01 X62.8449 Y31.7275
G01 X62.8420 Y31.7853
G01 X62.8332 Y31.8450
G01 X62.8185 Y31.9035
G01 X62.7991 Y31.9581
G01 X62.7712 Y32.0170
G01 X62.7414 Y32.0667
G01 X62.7054 Y32.1152
G01 X62.6649 Y32.1599
G01 X62.6202 Y32.2004
G01 X62.5717 Y32.2364
G01 X62.5188 Y32.2679
G01 X62.4654 Y32.2932
G01 X62.4073 Y32.3139
G01 X62.3488 Y32.3284
G01 X62.2915 Y32.3369
G01 X62.2596 Y32.3386
G01 X47.2173 Y47.3808
G01 X47.1791 Y47.4153
G01 X47.1357 Y47.4475
G01 X47.0894 Y47.4753
G01 X47.0406 Y47.4984
G01 X46.9897 Y47.5166
G01 X46.9373 Y47.5297
G01 X46.8839 Y47.5376
G01 X46.8312 Y47.5402
G01 X41.7100 Y47.5400
G00 X41.7100 Y47.5400
G01 F60.00
G01 Z-0.1800
G01 F60.00
G01 X41.6561 Y47.5374
G01 X41.6027 Y47.5294
G01 X41.5503 Y47.5163
G01 X41.5018 Y47.4990
G01 X41.4507 Y47.4751
G01 X41.4065 Y47.4486
G01 X41.3592 Y47.4136
G01 X41.3211 Y47.3789
G01 X41.2848 Y47.3389
G01 X41.2527 Y47.2956
G01 X41.2249 Y47.2493
G01 X41.2019 Y47.2005
G01 X41.1837 Y47.1497
G01 X41.1706 Y47.0973
G01 X41.1626 Y47.0439
G01 X41.1600 Y46.9900
G01 X41.1626 Y46.9361
G01 X41.1706 Y46.8827
G01 X41.1830 Y46.8327
G01 X41.2029 Y46.7773
G01 X41.2249 Y46.7307
G01 X41.2541 Y46.6824
G01 X41.2848 Y46.6411
G01 X41.3211 Y46.6011
G01 X41.3611 Y46.5648
G01 X41.4044 Y46.5327
G01 X41.4507 Y46.5049
G01 X41.4995 Y46.4819
G01 X41.5503 Y46.4637
G01 X41.6015 Y46.4508
G01 X41.6561 Y46.4426
G01 X41.7100 Y46.4400
G01 X46.6021 Y46.4397
G01 X61.6150 Y31.4268
G01 X61.6150 Y28.8550
G01 X61.6180 Y28.7947
G01 X61.6264 Y28.7374
G01 X61.6423 Y28.6741
G01 X61.6628 Y28.6174
G01 X61.6876 Y28.5651
G01 X61.7173 Y28.5154
G01 X61.7546 Y28.4648
G01 X61.7969 Y28.4184
G01 X61.8398 Y28.3796
G01 X61.8863 Y28.3451
G01 X61.9401 Y28.3126
G01 X61.9969 Y28.2859
G01 X62.0515 Y28.2665
G01 X62.1076 Y28.2524
G01 X62.1697 Y28.2430
G01 X62.2325 Y28.2401
G01 X62.2903 Y28.2430
G01 X62.3476 Y28.2514
G01 X62.4085 Y28.2665
G01 X62.4676 Y28.2878
G01 X62.5199 Y28.3126
G01 X62.5696 Y28.3423
G01 X62.6202 Y28.3796
G01 X62.6666 Y28.4219
G01 X62.7054 Y28.4648
G01 X62.7414 Y28.5133
G01 X62.7724 Y28.5651
G01 X62.7982 Y28.6196
G01 X62.8185 Y28.6765
G01 X62.8332 Y28.7350
G01 X62.8420 Y28.7947
G01 X62.8450 Y28.8550
G01 X62.8449 Y31.7275
G01 X62.8420 Y31.7853
G01 X62.8332 Y31.8450
G01 X62.8185 Y31.9035
G01 X62.7991 Y31.9581
G01 X62.7712 Y32.0170
G01 X62.7414 Y32.0667
G01 X62.7054 Y32.1152
G01 X62.6649 Y32.1599
G01 X62.6202 Y32.2004
G01 X62.5717 Y32.2364
G01 X62.5188 Y32.2679
G01 X62.4654 Y32.2932
G01 X62.4073 Y32.3139
G01 X62.3488 Y32.3284
G01 X62.2915 Y32.3369
G01 X62.2596 Y32.3386
G01 X47.2173 Y47.3808
G01 X47.1791 Y47.4153
G01 X47.1357 Y47.4475
G01 X47.0894 Y47.4753
G01 X47.0406 Y47.4984
G01 X46.9897 Y47.5166
G01 X46.9373 Y47.5297
G01 X46.8839 Y47.5376
G01 X46.8312 Y47.5402
G01 X41.7100 Y47.5400
G00 X41.7100 Y47.5400
G01 F60.00
G01 Z-0.2000
G01 F60.00
G01 X41.6561 Y47.5374
G01 X41.6027 Y47.5294
G01 X41.5503 Y47.5163
G01 X41.5018 Y47.4990
G01 X41.4507 Y47.4751
G01 X41.4065 Y47.4486
G01 X41.3592 Y47.4136
G01 X41.3211 Y47.3789
G01 X41.2848 Y47.3389
G01 X41.2527 Y47.2956
G01 X41.2249 Y47.2493
G01 X41.2019 Y47.2005
G01 X41.1837 Y47.1497
G01 X41.1706 Y47.0973
G01 X41.1626 Y47.0439
G01 X41.1600 Y46.9900
G01 X41.1626 Y46.9361
G01 X41.1706 Y46.8827
G01 X41.1830 Y46.8327
G01 X41.2029 Y46.7773
G01 X41.2249 Y46.7307
G01 X41.2541 Y46.6824
G01 X41.2848 Y46.6411
G01 X41.3211 Y46.6011
G01 X41.3611 Y46.5648
G01 X41.4044 Y46.5327
G01 X41.4507 Y46.5049
G01 X41.4995 Y46.4819
G01 X41.5503 Y46.4637
G01 X41.6015 Y46.4508
G01 X41.6561 Y46.4426
G01 X41.7100 Y46.4400
G01 X46.6021 Y46.4397
G01 X61.6150 Y31.4268
G01 X61.6150 Y28.8550
G01 X61.6180 Y28.7947
G01 X61.6264 Y28.7374
G01 X61.6423 Y28.6741
G01 X61.6628 Y28.6174
G01 X61.6876 Y28.5651
G01 X61.7173 Y28.5154
G01 X61.7546 Y28.4648
G01 X61.7969 Y28.4184
G01 X61.8398 Y28.3796
G01 X61.8863 Y28.3451
G01 X61.9401 Y28.3126
G01 X61.9969 Y28.2859
G01 X62.0515 Y28.2665
G01 X62.1076 Y28.2524
G01 X62.1697 Y28.2430
G01 X62.2325 Y28.2401
G01 X62.2903 Y28.2430
G01 X62.3476 Y28.2514
G01 X62.4085 Y28.2665
G01 X62.4676 Y28.2878
G01 X62.5199 Y28.3126
G01 X62.5696 Y28.3423
G01 X62.6202 Y28.3796
G01 X62.6666 Y28.4219
G01 X62.7054 Y28.4648
G01 X62.7414 Y28.5133
G01 X62.7724 Y28.5651
G01 X62.7982 Y28.6196
G01 X62.8185 Y28.6765
G01 X62.8332 Y28.7350
G01 X62.8420 Y28.7947
G01 X62.8450 Y28.8550
G01 X62.8449 Y31.7275
G01 X62.8420 Y31.7853
G01 X62.8332 Y31.8450
G01 X62.8185 Y31.9035
G01 X62.7991 Y31.9581
G01 X62.7712 Y32.0170
G01 X62.7414 Y32.0667
G01 X62.7054 Y32.1152
G01 X62.6649 Y32.1599
G01 X62.6202 Y32.2004
G01 X62.5717 Y32.2364
G01 X62.5188 Y32.2679
G01 X62.4654 Y32.2932
G01 X62.4073 Y32.3139
G01 X62.3488 Y32.3284
G01 X62.2915 Y32.3369
G01 X62.2596 Y32.3386
G01 X47.2173 Y47.3808
G01 X47.1791 Y47.4153
G01 X47.1357 Y47.4475
G01 X47.0894 Y47.4753
G01 X47.0406 Y47.4984
G01 X46.9897 Y47.5166
G01 X46.9373 Y47.5297
G01 X46.8839 Y47.5376
G01 X46.8312 Y47.5402
G01 X41.7100 Y47.5400
G00 Z2.0000
(Block-name: block)
(Block-expand: 0)
(Block-enable: 1)
G00 X41.7100 Y45.0000
G01 F60.00
G01 Z-0.0600
G01 F60.00
G01 X41.6561 Y44.9974
G01 X41.6027 Y44.9894
G01 X41.5503 Y44.9763
G01 X41.5018 Y44.9590
G01 X41.4507 Y44.9351
G01 X41.4065 Y44.9086
G01 X41.3592 Y44.8736
G01 X41.3211 Y44.8389
G01 X41.2848 Y44.7989
G01 X41.2527 Y44.7556
G01 X41.2249 Y44.7093
G01 X41.2019 Y44.6605
G01 X41.1837 Y44.6097
G01 X41.1706 Y44.5573
G01 X41.1626 Y44.5039
G01 X41.1600 Y44.4500
G01 X41.1626 Y44.3961
G01 X41.1706 Y44.3427
G01 X41.1837 Y44.2903
G01 X41.2019 Y44.2395
G01 X41.2249 Y44.1907
G01 X41.2527 Y44.1444
G01 X41.2833 Y44.1030
G01 X41.3229 Y44.0594
G01 X41.3611 Y44.0248
G01 X41.4065 Y43.9914
G01 X41.4507 Y43.9649
G01 X41.4995 Y43.9419
G01 X41.5503 Y43.9237
G01 X41.6039 Y43.9103
G01 X41.6561 Y43.9026
G01 X41.7100 Y43.9000
G01 X44.7100 Y43.9000
G01 X44.7651 Y43.9028
G01 X44.8173 Y43.9106
G01 X44.8673 Y43.9230
G01 X44.9227 Y43.9429
G01 X44.9693 Y43.9649
G01 X45.0156 Y43.9927
G01 X45.0589 Y44.0248
G01 X45.0971 Y44.0594
G01 X45.1367 Y44.1030
G01 X45.1673 Y44.1444
G01 X45.1951 Y44.1907
G01 X45.2181 Y44.2395
G01 X45.2355 Y44.2880
G01 X45.2497 Y44.3439
G01 X45.2574 Y44.3961
G01 X45.2600 Y44.4500
G01 X45.2574 Y44.5039
G01 X45.2494 Y44.5573
G01 X45.2363 Y44.6097
G01 X45.2181 Y44.6605
G01 X45.1951 Y44.7093
G01 X45.1673 Y44.7556
G01 X45.1352 Y44.7989
G01 X45.0989 Y44.8389
G01 X45.0589 Y44.8752
G01 X45.0156 Y44.9073
G01 X44.9693 Y44.9351
G01 X44.9205 Y44.9581
G01 X44.8697 Y44.9763
G01 X44.8161 Y44.9897
G01 X44.7639 Y44.9974
G01 X44.7100 Y45.0000
G01 X41.7100 Y45.0000
G00 X41.7100 Y45.0000
G01 F60.00
G01 Z-0.1200
G01 F60.00
G01 X41.6561 Y44.9974
G01 X41.6027 Y44.9894
G01 X41.5503 Y44.9763
G01 X41.5018 Y44.9590
G01 X41.4507 Y44.9351
G01 X41.4065 Y44.9086
G01 X41.3592 Y44.8736
G01 X41.3211 Y44.8389
G01 X41.2848 Y44.7989
G01 X41.2527 Y44.7556
G01 X41.2249 Y44.7093
G01 X41.2019 Y44.6605
G01 X41.1837 Y44.6097
G01 X41.1706 Y44.5573
G01 X41.1626 Y44.5039
G01 X41.1600 Y44.4500
G01 X41.1626 Y44.3961
G01 X41.1706 Y44.3427
G01 X41.1837 Y44.2903
G01 X41.2019 Y44.2395
G01 X41.2249 Y44.1907
G01 X41.2527 Y44.1444
G01 X41.2833 Y44.1030
G01 X41.3229 Y44.0594
G01 X41.3611 Y44.0248
G01 X41.4065 Y43.9914
G01 X41.4507 Y43.9649
G01 X41.4995 Y43.9419
G01 X41.5503 Y43.9237
G01 X41.6039 Y43.9103
G01 X41.6561 Y43.9026
G01 X41.7100 Y43.9000
G01 X44.7100 Y43.9000
G01 X44.7651 Y43.9028
G01 X44.8173 Y43.9106
G01 X44.8673 Y43.9230
G01 X44.9227 Y43.9429
G01 X44.9693 Y43.9649
G01 X45.0156 Y43.9927
G01 X45.0589 Y44.0248
G01 X45.0971 Y44.0594
G01 X45.1367 Y44.1030
G01 X45.1673 Y44.1444
G01 X45.1951 Y44.1907
G01 X45.2181 Y44.2395
G01 X45.2355 Y44.2880
G01 X45.2497 Y44.3439
G01 X45.2574 Y44.3961
G01 X45.2600 Y44.4500
G01 X45.2574 Y44.5039
G01 X45.2494 Y44.5573
G01 X45.2363 Y44.6097
G01 X45.2181 Y44.6605
G01 X45.1951 Y44.7093
G01 X45.1673 Y44.7556
G01 X45.1352 Y44.7989
G01 X45.0989 Y44.8389
G01 X45.0589 Y44.8752
G01 X45.0156 Y44.9073
G01 X44.9693 Y44.9351
G01 X44.9205 Y44.9581
G01 X44.8697 Y44.9763
G01 X44.8161 Y44.9897
G01 X44.7639 Y44.9974
G01 X44.7100 Y45.0000
G01 X41.7100 Y45.0000
G00 X41.7100 Y45.0000
G01 F60.00
G01 Z-0.1800
G01 F60.00
G01 X41.6561 Y44.9974
G01 X41.6027 Y44.9894
G01 X41.5503 Y44.9763
G01 X41.5018 Y44.9590
G01 X41.4507 Y44.9351
G01 X41.4065 Y44.9086
G01 X41.3592 Y44.8736
G01 X41.3211 Y44.8389
G01 X41.2848 Y44.7989
G01 X41.2527 Y44.7556
G01 X41.2249 Y44.7093
G01 X41.2019 Y44.6605
G01 X41.1837 Y44.6097
G01 X41.1706 Y44.5573
G01 X41.1626 Y44.5039
G01 X41.1600 Y44.4500
G01 X41.1626 Y44.3961
G01 X41.1706 Y44.3427
G01 X41.1837 Y44.2903
G01 X41.2019 Y44.2395
G01 X41.2249 Y44.1907
G01 X41.2527 Y44.1444
G01 X41.2833 Y44.1030
G01 X41.3229 Y44.0594
G01 X41.3611 Y44.0248
G01 X41.4065 Y43.9914
G01 X41.4507 Y43.9649
G01 X41.4995 Y43.9419
G01 X41.5503 Y43.9237
G01 X41.6039 Y43.9103
G01 X41.6561 Y43.9026
G01 X41.7100 Y43.9000
G01 X44.7100 Y43.9000
G01 X44.7651 Y43.9028
G01 X44.8173 Y43.9106
G01 X44.8673 Y43.9230
G01 X44.9227 Y43.9429
G01 X44.9693 Y43.9649
G01 X45.0156 Y43.9927
G01 X45.0589 Y44.0248
G01 X45.0971 Y44.0594
G01 X45.1367 Y44.1030
G01 X45.1673 Y44.1444
G01 X45.1951 Y44.1907
G01 X45.2181 Y44.2395
G01 X45.2355 Y44.2880
G01 X45.2497 Y44.3439
G01 X45.2574 Y44.3961
G01 X45.2600 Y44.4500
G01 X45.2574 Y44.5039
G01 X45.2494 Y44.5573
G01 X45.2363 Y44.6097
G01 X45.2181 Y44.6605
G01 X45.1951 Y44.7093
G01 X45.1673 Y44.7556
G01 X45.1352 Y44.7989
G01 X45.0989 Y44.8389
G01 X45.0589 Y44.8752
G01 X45.0156 Y44.9073
G01 X44.9693 Y44.9351
G01 X44.9205 Y44.9581
G01 X44.8697 Y44.9763
G01 X44.8161 Y44.9897
G01 X44.7639 Y44.9974
G01 X44.7100 Y45.0000
G01 X41.7100 Y45.0000
G00 X41.7100 Y45.0000
G01 F60.00
G01 Z-0.2000
G01 F60.00
G01 X41.6561 Y44.9974
G01 X41.6027 Y44.9894
G01 X41.5503 Y44.9763
G01 X41.5018 Y44.9590
G01 X41.4507 Y44.9351
G01 X41.4065 Y44.9086
G01 X41.3592 Y44.8736
G01 X41.3211 Y44.8389
G01 X41.2848 Y44.7989
G01 X41.2527 Y44.7556
G01 X41.2249 Y44.7093
G01 X41.2019 Y44.6605
G01 X41.1837 Y44.6097
G01 X41.1706 Y44.5573
G01 X41.1626 Y44.5039
G01 X41.1600 Y44.4500
G01 X41.1626 Y44.3961
G01 X41.1706 Y44.3427
G01 X41.1837 Y44.2903
G01 X41.2019 Y44.2395
G01 X41.2249 Y44.1907
G01 X41.2527 Y44.1444
G01 X41.2833 Y44.1030
G01 X41.3229 Y44.0594
G01 X41.3611 Y44.0248
G01 X41.4065 Y43.9914
G01 X41.4507 Y43.9649
G01 X41.4995 Y43.9419
G01 X41.5503 Y43.9237
G01 X41.6039 Y43.9103
G01 X41.6561 Y43.9026
G01 X41.7100 Y43.9000
G01 X44.7100 Y43.9000
G01 X44.7651 Y43.9028
G01 X44.8173 Y43.9106
G01 X44.8673 Y43.9230
G01 X44.9227 Y43.9429
G01 X44.9693 Y43.9649
G01 X45.0156 Y43.9927
G01 X45.0589 Y44.0248
G01 X45.0971 Y44.0594
G01 X45.1367 Y44.1030
G01 X45.1673 Y44.1444
G01 X45.1951 Y44.1907
G01 X45.2181 Y44.2395
G01 X45.2355 Y44.2880
G01 X45.2497 Y44.3439
G01 X45.2574 Y44.3961
G01 X45.2600 Y44.4500
G01 X45.2574 Y44.5039
G01 X45.2494 Y44.5573
G01 X45.2363 Y44.6097
G01 X45.2181 Y44.6605
G01 X45.1951 Y44.7093
G01 X45.1673 Y44.7556
G01 X45.1352 Y44.7989
G01 X45.0989 Y44.8389
G01 X45.0589 Y44.8752
G01 X45.0156 Y44.9073
G01 X44.9693 Y44.9351
G01 X44.9205 Y44.9581
G01 X44.8697 Y44.9763
G01 X44.8161 Y44.9897
G01 X44.7639 Y44.9974
G01 X44.7100 Y45.0000
G01 X41.7100 Y45.0000
G00 Z2.0000
(Block-name: block)
(Block-expand: 0)
(Block-enable: 1)
G00 X41.7100 Y42.4600
G01 F60.00
G01 Z-0.0600
G01 F60.00
G01 X41.6561 Y42.4574
G01 X41.6027 Y42.4494
G01 X41.5503 Y42.4363
G01 X41.5018 Y42.4190
G01 X41.4507 Y42.3951
G01 X41.4065 Y42.3686
G01 X41.3592 Y42.3336
G01 X41.3211 Y42.2989
G01 X41.2848 Y42.2589
G01 X41.2527 Y42.2156
G01 X41.2249 Y42.1693
G01 X41.2019 Y42.1205
G01 X41.1837 Y42.0697
G01 X41.1706 Y42.0173
G01 X41.1626 Y41.9639
G01 X41.1600 Y41.9100
G01 X41.1626 Y41.8561
G01 X41.1706 Y41.8027
G01 X41.1837 Y41.7503
G01 X41.2019 Y41.6995
G01 X41.2249 Y41.6507
G01 X41.2527 Y41.6044
G01 X41.2833 Y41.5630
G01 X41.3211 Y41.5211
G01 X41.3592 Y41.4864
G01 X41.4065 Y41.4514
G01 X41.4507 Y41.4249
G01 X41.4995 Y41.4019
G01 X41.5503 Y41.3837
G01 X41.6039 Y41.3703
G01 X41.6561 Y41.3626
G01 X41.7100 Y41.3600
G01 X44.7100 Y41.3600
G01 X44.7651 Y41.3628
G01 X44.8173 Y41.3706
G01 X44.8673 Y41.3830
G01 X44.9227 Y41.4029
G01 X44.9693 Y41.4249
G01 X45.0156 Y41.4527
G01 X45.0589 Y41.4848
G01 X45.0971 Y41.5194
G01 X45.1367 Y41.5630
G01 X45.1673 Y41.6044
G01 X45.1951 Y41.6507
G01 X45.2181 Y41.6995
G01 X45.2355 Y41.7480
G01 X45.2497 Y41.8039
G01 X45.2574 Y41.8561
G01 X45.2600 Y41.9100
G01 X45.2574 Y41.9639
G01 X45.2494 Y42.0173
G01 X45.2363 Y42.0697
G01 X45.2181 Y42.1205
G01 X45.1951 Y42.1693
G01 X45.1673 Y42.2156
G01 X45.1352 Y42.2589
G01 X45.0989 Y42.2989
G01 X45.0589 Y42.3352
G01 X45.0156 Y42.3673
G01 X44.9693 Y42.3951
G01 X44.9205 Y42.4181
G01 X44.8697 Y42.4363
G01 X44.8161 Y42.4497
G01 X44.7639 Y42.4574
G01 X44.7100 Y42.4600
G01 X41.7100 Y42.4600
G00 X41.7100 Y42.4600
G01 F60.00
G01 Z-0.1200
G01 F60.00
G01 X41.6561 Y42.4574
G01 X41.6027 Y42.4494
G01 X41.5503 Y42.4363
G01 X41.5018 Y42.4190
G01 X41.4507 Y42.3951
G01 X41.4065 Y42.3686
G01 X41.3592 Y42.3336
G01 X41.3211 Y42.2989
G01 X41.2848 Y42.2589
G01 X41.2527 Y42.2156
G01 X41.2249 Y42.1693
G01 X41.2019 Y42.1205
G01 X41.1837 Y42.0697
G01 X41.1706 Y42.0173
G01 X41.1626 Y41.9639
G01 X41.1600 Y41.9100
G01 X41.1626 Y41.8561
G01 X41.1706 Y41.8027
G01 X41.1837 Y41.7503
G01 X41.2019 Y41.6995
G01 X41.2249 Y41.6507
G01 X41.2527 Y41.6044
G01 X41.2833 Y41.5630
G01 X41.3211 Y41.5211
G01 X41.3592 Y41.4864
G01 X41.4065 Y41.4514
G01 X41.4507 Y41.4249
G01 X41.4995 Y41.4019
G01 X41.5503 Y41.3837
G01 X41.6039 Y41.3703
G01 X41.6561 Y41.3626
G01 X41.7100 Y41.3600
G01 X44.7100 Y41.3600
G01 X44.7651 Y41.3628
G01 X44.8173 Y41.3706
G01 X44.8673 Y41.3830
G01 X44.9227 Y41.4029
G01 X44.9693 Y41.4249
G01 X45.0156 Y41.4527
G01 X45.0589 Y41.4848
G01 X45.0971 Y41.5194
G01 X45.1367 Y41.5630
G01 X45.1673 Y41.6044
G01 X45.1951 Y41.6507
G01 X45.2181 Y41.6995
G01 X45.2355 Y41.7480
G01 X45.2497 Y41.8039
G01 X45.2574 Y41.8561
G01 X45.2600 Y41.9100
G01 X45.2574 Y41.9639
G01 X45.2494 Y42.0173
G01 X45.2363 Y42.0697
G01 X45.2181 Y42.1205
G01 X45.1951 Y42.1693
G01 X45.1673 Y42.2156
G01 X45.1352 Y42.2589
G01 X45.0989 Y42.2989
G01 X45.0589 Y42.3352
G01 X45.0156 Y42.3673
G01 X44.9693 Y42.3951
G01 X44.9205 Y42.4181
G01 X44.8697 Y42.4363
G01 X44.8161 Y42.4497
G01 X44.7639 Y42.4574
G01 X44.7100 Y42.4600
G01 X41.7100 Y42.4600
G00 X41.7100 Y42.4600
G01 F60.00
G01 Z-0.1800
G01 F60.00
G01 X41.6561 Y42.4574
G01 X41.6027 Y42.4494
G01 X41.5503 Y42.4363
G01 X41.5018 Y42.4190
G01 X41.4507 Y42.3951
G01 X41.4065 Y42.3686
G01 X41.3592 Y42.3336
G01 X41.3211 Y42.2989
G01 X41.2848 Y42.2589
G01 X41.2527 Y42.2156
G01 X41.2249 Y42.1693
G01 X41.2019 Y42.1205
G01 X41.1837 Y42.0697
G01 X41.1706 Y42.0173
G01 X41.1626 Y41.9639
G01 X41.1600 Y41.9100
G01 X41.1626 Y41.8561
G01 X41.1706 Y41.8027
G01 X41.1837 Y41.7503
G01 X41.2019 Y41.6995
G01 X41.2249 Y41.6507
G01 X41.2527 Y41.6044
G01 X41.2833 Y41.5630
G01 X41.3211 Y41.5211
G01 X41.3592 Y41.4864
G01 X41.4065 Y41.4514
G01 X41.4507 Y41.4249
G01 X41.4995 Y41.4019
G01 X41.5503 Y41.3837
G01 X41.6039 Y41.3703
G01 X41.6561 Y41.3626
G01 X41.7100 Y41.3600
G01 X44.7100 Y41.3600
G01 X44.7651 Y41.3628
G01 X44.8173 Y41.3706
G01 X44.8673 Y41.3830
G01 X44.9227 Y41.4029
G01 X44.9693 Y41.4249
G01 X45.0156 Y41.4527
G01 X45.0589 Y41.4848
G01 X45.0971 Y41.5194
G01 X45.1367 Y41.5630
G01 X45.1673 Y41.6044
G01 X45.1951 Y41.6507
G01 X45.2181 Y41.6995
G01 X45.2355 Y41.7480
G01 X45.2497 Y41.8039
G01 X45.2574 Y41.8561
G01 X45.2600 Y41.9100
G01 X45.2574 Y41.9639
G01 X45.2494 Y42.0173
G01 X45.2363 Y42.0697
G01 X45.2181 Y42.1205
G01 X45.1951 Y42.1693
G01 X45.1673 Y42.2156
G01 X45.1352 Y42.2589
G01 X45.0989 Y42.2989
G01 X45.0589 Y42.3352
G01 X45.0156 Y42.3673
G01 X44.9693 Y42.3951
G01 X44.9205 Y42.4181
G01 X44.8697 Y42.4363
G01 X44.8161 Y42.4497
G01 X44.7639 Y42.4574
G01 X44.7100 Y42.4600
G01 X41.7100 Y42.4600
G00 X41.7100 Y42.4600
G01 F60.00
G01 Z-0.2000
G01 F60.00
G01 X41.6561 Y42.4574
G01 X41.6027 Y42.4494
G01 X41.5503 Y42.4363
G01 X41.5018 Y42.4190
G01 X41.4507 Y42.3951
G01 X41.4065 Y42.3686
G01 X41.3592 Y42.3336
G01 X41.3211 Y42.2989
G01 X41.2848 Y42.2589
G01 X41.2527 Y42.2156
G01 X41.2249 Y42.1693
G01 X41.2019 Y42.1205
G01 X41.1837 Y42.0697
G01 X41.1706 Y42.0173
G01 X41.1626 Y41.9639
G01 X41.1600 Y41.9100
G01 X41.1626 Y41.8561
G01 X41.1706 Y41.8027
G01 X41.1837 Y41.7503
G01 X41.2019 Y41.6995
G01 X41.2249 Y41.6507
G01 X41.2527 Y41.6044
G01 X41.2833 Y41.5630
G01 X41.3211 Y41.5211
G01 X41.3592 Y41.4864
G01 X41.4065 Y41.4514
G01 X41.4507 Y41.4249
G01 X41.4995 Y41.4019
G01 X41.5503 Y41.3837
G01 X41.6039 Y41.3703
G01 X41.6561 Y41.3626
G01 X41.7100 Y41.3600
G01 X44.7100 Y41.3600
G01 X44.7651 Y41.3628
G01 X44.8173 Y41.3706
G01 X44.8673 Y41.3830
G01 X44.9227 Y41.4029
G01 X44.9693 Y41.4249
G01 X45.0156 Y41.4527
G01 X45.0589 Y41.4848
G01 X45.0971 Y41.5194
G01 X45.1367 Y41.5630
G01 X45.1673 Y41.6044
G01 X45.1951 Y41.6507
G01 X45.2181 Y41.6995
G01 X45.2355 Y41.7480
G01 X45.2497 Y41.8039
G01 X45.2574 Y41.8561
G01 X45.2600 Y41.9100
G01 X45.2574 Y41.9639
G01 X45.2494 Y42.0173
G01 X45.2363 Y42.0697
G01 X45.2181 Y42.1205
G01 X45.1951 Y42.1693
G01 X45.1673 Y42.2156
G01 X45.1352 Y42.2589
G01 X45.0989 Y42.2989
G01 X45.0589 Y42.3352
G01 X45.0156 Y42.3673
G01 X44.9693 Y42.3951
G01 X44.9205 Y42.4181
G01 X44.8697 Y42.4363
G01 X44.8161 Y42.4497
G01 X44.7639 Y42.4574
G01 X44.7100 Y42.4600
G01 X41.7100 Y42.4600
G00 Z2.0000
(Block-name: block)
(Block-expand: 0)
(Block-enable: 1)
G00 X41.7100 Y39.9200
G01 F60.00
G01 Z-0.0600
G01 F60.00
G01 X41.6561 Y39.9174
G01 X41.6027 Y39.9094
G01 X41.5503 Y39.8963
G01 X41.5018 Y39.8790
G01 X41.4507 Y39.8551
G01 X41.4065 Y39.8286
G01 X41.3592 Y39.7936
G01 X41.3211 Y39.7589
G01 X41.2848 Y39.7189
G01 X41.2527 Y39.6756
G01 X41.2249 Y39.6293
G01 X41.2019 Y39.5805
G01 X41.1837 Y39.5297
G01 X41.1706 Y39.4773
G01 X41.1626 Y39.4239
G01 X41.1600 Y39.3700
G01 X41.1626 Y39.3161
G01 X41.1706 Y39.2627
G01 X41.1830 Y39.2127
G01 X41.2029 Y39.1573
G01 X41.2249 Y39.1107
G01 X41.2541 Y39.0624
G01 X41.2848 Y39.0211
G01 X41.3211 Y38.9811
G01 X41.3611 Y38.9448
G01 X41.4044 Y38.9127
G01 X41.4507 Y38.8849
G01 X41.4995 Y38.8619
G01 X41.5503 Y38.8437
G01 X41.6015 Y38.8308
G01 X41.6561 Y38.8226
G01 X41.7100 Y38.8200
G01 X46.4831 Y38.8197
G01 X61.6797 Y23.6231
G01 X61.6797 Y18.9850
G01 X61.0288 Y18.9850
G01 X60.8781 Y18.9775
G01 X60.7264 Y18.9550
G01 X60.5777 Y18.9175
G01 X60.4368 Y18.8670
G01 X60.3015 Y18.8031
G01 X60.1689 Y18.7238
G01 X60.0458 Y18.6324
G01 X59.9323 Y18.5292
G01 X59.8318 Y18.4183
G01 X59.7426 Y18.2981
G01 X59.6630 Y18.1657
G01 X59.5971 Y18.0259
G01 X59.5467 Y17.8849
G01 X59.5103 Y17.7398
G01 X59.4875 Y17.5869
G01 X59.4801 Y17.4325
G01 X59.4875 Y17.2831
G01 X59.5096 Y17.1338
G01 X59.5475 Y16.9827
G01 X59.5980 Y16.8418
G01 X59.6630 Y16.7043
G01 X59.7426 Y16.5719
G01 X59.8318 Y16.4517
G01 X59.9323 Y16.3408
G01 X60.0486 Y16.2353
G01 X60.1689 Y16.1462
G01 X60.2972 Y16.0692
G01 X60.4368 Y16.0030
G01 X60.5824 Y15.9511
G01 X60.7276 Y15.9148
G01 X60.8756 Y15.8928
G01 X61.0288 Y15.8850
G01 X62.0300 Y15.8850
G01 X62.1831 Y15.8926
G01 X62.3324 Y15.9148
G01 X62.4776 Y15.9511
G01 X62.6232 Y16.0030
G01 X62.7607 Y16.0680
G01 X62.8891 Y16.1449
G01 X63.0152 Y16.2384
G01 X63.1260 Y16.3390
G01 X63.2297 Y16.4536
G01 X63.3188 Y16.5739
G01 X63.3958 Y16.7022
G01 X63.4610 Y16.8396
G01 X63.5133 Y16.9851
G01 X63.5502 Y17.1326
G01 X63.5725 Y17.2831
G01 X63.5799 Y17.4375
G01 X63.5725 Y17.5869
G01 X63.5506 Y17.7350
G01 X63.5139 Y17.8826
G01 X63.4620 Y18.0282
G01 X63.3958 Y18.1678
G01 X63.3188 Y18.2961
G01 X63.2297 Y18.4164
G01 X63.1260 Y18.5310
G01 X63.0114 Y18.6347
G01 X62.8911 Y18.7238
G01 X62.7803 Y18.7903
G01 X62.7802 Y23.8522
G01 X62.7776 Y23.9049
G01 X62.7697 Y23.9583
G01 X62.7566 Y24.0107
G01 X62.7392 Y24.0593
G01 X62.7141 Y24.1125
G01 X62.6875 Y24.1567
G01 X62.6537 Y24.2019
G01 X62.6191 Y24.2401
G01 X47.1001 Y39.7591
G01 X47.0581 Y39.7969
G01 X47.0167 Y39.8275
G01 X46.9704 Y39.8553
G01 X46.9216 Y39.8784
G01 X46.8731 Y39.8958
G01 X46.8159 Y39.9101
G01 X46.7649 Y39.9176
G01 X46.7122 Y39.9202
G01 X41.7100 Y39.9200
G00 X41.7100 Y39.9200
G01 F60.00
G01 Z-0.1200
G01 F60.00
G01 X41.6561 Y39.9174
G01 X41.6027 Y39.9094
G01 X41.5503 Y39.8963
G01 X41.5018 Y39.8790
G01 X41.4507 Y39.8551
G01 X41.4065 Y39.8286
G01 X41.3592 Y39.7936
G01 X41.3211 Y39.7589
G01 X41.2848 Y39.7189
G01 X41.2527 Y39.6756
G01 X41.2249 Y39.6293
G01 X41.2019 Y39.5805
G01 X41.1837 Y39.5297
G01 X41.1706 Y39.4773
G01 X41.1626 Y39.4239
G01 X41.1600 Y39.3700
G01 X41.1626 Y39.3161
G01 X41.1706 Y39.2627
G01 X41.1830 Y39.2127
G01 X41.2029 Y39.1573
G01 X41.2249 Y39.1107
G01 X41.2541 Y39.0624
G01 X41.2848 Y39.0211
G01 X41.3211 Y38.9811
G01 X41.3611 Y38.9448
G01 X41.4044 Y38.9127
G01 X41.4507 Y38.8849
G01 X41.4995 Y38.8619
G01 X41.5503 Y38.8437
G01 X41.6015 Y38.8308
G01 X41.6561 Y38.8226
G01 X41.7100 Y38.8200
G01 X46.4831 Y38.8197
G01 X61.6797 Y23.6231
G01 X61.6797 Y18.9850
G01 X61.0288 Y18.9850
G01 X60.8781 Y18.9775
G01 X60.7264 Y18.9550
G01 X60.5777 Y18.9175
G01 X60.4368 Y18.8670
G01 X60.3015 Y18.8031
G01 X60.1689 Y18.7238
G01 X60.0458 Y18.6324
G01 X59.9323 Y18.5292
G01 X59.8318 Y18.4183
G01 X59.7426 Y18.2981
G01 X59.6630 Y18.1657
G01 X59.5971 Y18.0259
G01 X59.5467 Y17.8849
G01 X59.5103 Y17.7398
G01 X59.4875 Y17.5869
G01 X59.4801 Y17.4325
G01 X59.4875 Y17.2831
G01 X59.5096 Y17.1338
G01 X59.5475 Y16.9827
G01 X59.5980 Y16.8418
G01 X59.6630 Y16.7043
G01 X59.7426 Y16.5719
G01 X59.8318 Y16.4517
G01 X59.9323 Y16.3408
G01 X60.0486 Y16.2353
G01 X60.1689 Y16.1462
G01 X60.2972 Y16.0692
G01 X60.4368 Y16.0030
G01 X60.5824 Y15.9511
G01 X60.7276 Y15.9148
G01 X60.8756 Y15.8928
G01 X61.0288 Y15.8850
G01 X62.0300 Y15.8850
G01 X62.1831 Y15.8926
G01 X62.3324 Y15.9148
G01 X62.4776 Y15.9511
G01 X62.6232 Y16.0030
G01 X62.7607 Y16.0680
G01 X62.8891 Y16.1449
G01 X63.0152 Y16.2384
G01 X63.1260 Y16.3390
G01 X63.2297 Y16.4536
G01 X63.3188 Y16.5739
G01 X63.3958 Y16.7022
G01 X63.4610 Y16.8396
G01 X63.5133 Y16.9851
G01 X63.5502 Y17.1326
G01 X63.5725 Y17.2831
G01 X63.5799 Y17.4375
G01 X63.5725 Y17.5869
G01 X63.5506 Y17.7350
G01 X63.5139 Y17.8826
G01 X63.4620 Y18.0282
G01 X63.3958 Y18.1678
G01 X63.3188 Y18.2961
G01 X63.2297 Y18.4164
G01 X63.1260 Y18.5310
G01 X63.0114 Y18.6347
G01 X62.8911 Y18.7238
G01 X62.7803 Y18.7903
G01 X62.7802 Y23.8522
G01 X62.7776 Y23.9049
G01 X62.7697 Y23.9583
G01 X62.7566 Y24.0107
G01 X62.7392 Y24.0593
G01 X62.7141 Y24.1125
G01 X62.6875 Y24.1567
G01 X62.6537 Y24.2019
G01 X62.6191 Y24.2401
G01 X47.1001 Y39.7591
G01 X47.0581 Y39.7969
G01 X47.0167 Y39.8275
G01 X46.9704 Y39.8553
G01 X46.9216 Y39.8784
G01 X46.8731 Y39.8958
G01 X46.8159 Y39.9101
G01 X46.7649 Y39.9176
G01 X46.7122 Y39.9202
G01 X41.7100 Y39.9200
G00 X41.7100 Y39.9200
G01 F60.00
G01 Z-0.1800
G01 F60.00
G01 X41.6561 Y39.9174
G01 X41.6027 Y39.9094
G01 X41.5503 Y39.8963
G01 X41.5018 Y39.8790
G01 X41.4507 Y39.8551
G01 X41.4065 Y39.8286
G01 X41.3592 Y39.7936
G01 X41.3211 Y39.7589
G01 X41.2848 Y39.7189
G01 X41.2527 Y39.6756
G01 X41.2249 Y39.6293
G01 X41.2019 Y39.5805
G01 X41.1837 Y39.5297
G01 X41.1706 Y39.4773
G01 X41.1626 Y39.4239
G01 X41.1600 Y39.3700
G01 X41.1626 Y39.3161
G01 X41.1706 Y39.2627
G01 X41.1830 Y39.2127
G01 X41.2029 Y39.1573
G01 X41.2249 Y39.1107
G01 X41.2541 Y39.0624
G01 X41.2848 Y39.0211
G01 X41.3211 Y38.9811
G01 X41.3611 Y38.9448
G01 X41.4044 Y38.9127
G01 X41.4507 Y38.8849
G01 X41.4995 Y38.8619
G01 X41.5503 Y38.8437
G01 X41.6015 Y38.8308
G01 X41.6561 Y38.8226
G01 X41.7100 Y38.8200
G01 X46.4831 Y38.8197
G01 X61.6797 Y23.6231
G01 X61.6797 Y18.9850
G01 X61.0288 Y18.9850
G01 X60.8781 Y18.9775
G01 X60.7264 Y18.9550
G01 X60.5777 Y18.9175
G01 X60.4368 Y18.8670
G01 X60.3015 Y18.8031
G01 X60.1689 Y18.7238
G01 X60.0458 Y18.6324
G01 X59.9323 Y18.5292
G01 X59.8318 Y18.4183
G01 X59.7426 Y18.2981
G01 X59.6630 Y18.1657
G01 X59.5971 Y18.0259
G01 X59.5467 Y17.8849
G01 X59.5103 Y17.7398
G01 X59.4875 Y17.5869
G01 X59.4801 Y17.4325
G01 X59.4875 Y17.2831
G01 X59.5096 Y17.1338
G01 X59.5475 Y16.9827
G01 X59.5980 Y16.8418
G01 X59.6630 Y16.7043
G01 X59.7426 Y16.5719
G01 X59.8318 Y16.4517
G01 X59.9323 Y16.3408
G01 X60.0486 Y16.2353
G01 X60.1689 Y16.1462
G01 X60.2972 Y16.0692
G01 X60.4368 Y16.0030
G01 X60.5824 Y15.9511
G01 X60.7276 Y15.9148
G01 X60.8756 Y15.8928
G01 X61.0288 Y15.8850
G01 X62.0300 Y15.8850
G01 X62.1831 Y15.8926
G01 X62.3324 Y15.9148
G01 X62.4776 Y15.9511
G01 X62.6232 Y16.0030
G01 X62.7607 Y16.0680
G01 X62.8891 Y16.1449
G01 X63.0152 Y16.2384
G01 X63.1260 Y16.3390
G01 X63.2297 Y16.4536
G01 X63.3188 Y16.5739
G01 X63.3958 Y16.7022
G01 X63.4610 Y16.8396
G01 X63.5133 Y16.9851
G01 X63.5502 Y17.1326
G01 X63.5725 Y17.2831
G01 X63.5799 Y17.4375
G01 X63.5725 Y17.5869
G01 X63.5506 Y17.7350
G01 X63.5139 Y17.8826
G01 X63.4620 Y18.0282
G01 X63.3958 Y18.1678
G01 X63.3188 Y18.2961
G01 X63.2297 Y18.4164
G01 X63.1260 Y18.5310
G01 X63.0114 Y18.6347
G01 X62.8911 Y18.7238
G01 X62.7803 Y18.7903
G01 X62.7802 Y23.8522
G01 X62.7776 Y23.9049
G01 X62.7697 Y23.9583
G01 X62.7566 Y24.0107
G01 X62.7392 Y24.0593
G01 X62.7141 Y24.1125
G01 X62.6875 Y24.1567
G01 X62.6537 Y24.2019
G01 X62.6191 Y24.2401
G01 X47.1001 Y39.7591
G01 X47.0581 Y39.7969
G01 X47.0167 Y39.8275
G01 X46.9704 Y39.8553
G01 X46.9216 Y39.8784
G01 X46.8731 Y39.8958
G01 X46.8159 Y39.9101
G01 X46.7649 Y39.9176
G01 X46.7122 Y39.9202
G01 X41.7100 Y39.9200
G00 X41.7100 Y39.9200
G01 F60.00
G01 Z-0.2000
G01 F60.00
G01 X41.6561 Y39.9174
G01 X41.6027 Y39.9094
G01 X41.5503 Y39.8963
G01 X41.5018 Y39.8790
G01 X41.4507 Y39.8551
G01 X41.4065 Y39.8286
G01 X41.3592 Y39.7936
G01 X41.3211 Y39.7589
G01 X41.2848 Y39.7189
G01 X41.2527 Y39.6756
G01 X41.2249 Y39.6293
G01 X41.2019 Y39.5805
G01 X41.1837 Y39.5297
G01 X41.1706 Y39.4773
G01 X41.1626 Y39.4239
G01 X41.1600 Y39.3700
G01 X41.1626 Y39.3161
G01 X41.1706 Y39.2627
G01 X41.1830 Y39.2127
G01 X41.2029 Y39.1573
G01 X41.2249 Y39.1107
G01 X41.2541 Y39.0624
G01 X41.2848 Y39.0211
G01 X41.3211 Y38.9811
G01 X41.3611 Y38.9448
G01 X41.4044 Y38.9127
G01 X41.4507 Y38.8849
G01 X41.4995 Y38.8619
G01 X41.5503 Y38.8437
G01 X41.6015 Y38.8308
G01 X41.6561 Y38.8226
G01 X41.7100 Y38.8200
G01 X46.4831 Y38.8197
G01 X61.6797 Y23.6231
G01 X61.6797 Y18.9850
G01 X61.0288 Y18.9850
G01 X60.8781 Y18.9775
G01 X60.7264 Y18.9550
G01 X60.5777 Y18.9175
G01 X60.4368 Y18.8670
G01 X60.3015 Y18.8031
G01 X60.1689 Y18.7238
G01 X60.0458 Y18.6324
G01 X59.9323 Y18.5292
G01 X59.8318 Y18.4183
G01 X59.7426 Y18.2981
G01 X59.6630 Y18.1657
G01 X59.5971 Y18.0259
G01 X59.5467 Y17.8849
G01 X59.5103 Y17.7398
G01 X59.4875 Y17.5869
G01 X59.4801 Y17.4325
G01 X59.4875 Y17.2831
G01 X59.5096 Y17.1338
G01 X59.5475 Y16.9827
G01 X59.5980 Y16.8418
G01 X59.6630 Y16.7043
G01 X59.7426 Y16.5719
G01 X59.8318 Y16.4517
G01 X59.9323 Y16.3408
G01 X60.0486 Y16.2353
G01 X60.1689 Y16.1462
G01 X60.2972 Y16.0692
G01 X60.4368 Y16.0030
G01 X60.5824 Y15.9511
G01 X60.7276 Y15.9148
G01 X60.8756 Y15.8928
G01 X61.0288 Y15.8850
G01 X62.0300 Y15.8850
G01 X62.1831 Y15.8926
G01 X62.3324 Y15.9148
G01 X62.4776 Y15.9511
G01 X62.6232 Y16.0030
G01 X62.7607 Y16.0680
G01 X62.8891 Y16.1449
G01 X63.0152 Y16.2384
G01 X63.1260 Y16.3390
G01 X63.2297 Y16.4536
G01 X63.3188 Y16.5739
G01 X63.3958 Y16.7022
G01 X63.4610 Y16.8396
G01 X63.5133 Y16.9851
G01 X63.5502 Y17.1326
G01 X63.5725 Y17.2831
G01 X63.5799 Y17.4375
G01 X63.5725 Y17.5869
G01 X63.5506 Y17.7350
G01 X63.5139 Y17.8826
G01 X63.4620 Y18.0282
G01 X63.3958 Y18.1678
G01 X63.3188 Y18.2961
G01 X63.2297 Y18.4164
G01 X63.1260 Y18.5310
G01 X63.0114 Y18.6347
G01 X62.8911 Y18.7238
G01 X62.7803 Y18.7903
G01 X62.7802 Y23.8522
G01 X62.7776 Y23.9049
G01 X62.7697 Y23.9583
G01 X62.7566 Y24.0107
G01 X62.7392 Y24.0593
G01 X62.7141 Y24.1125
G01 X62.6875 Y24.1567
G01 X62.6537 Y24.2019
G01 X62.6191 Y24.2401
G01 X47.1001 Y39.7591
G01 X47.0581 Y39.7969
G01 X47.0167 Y39.8275
G01 X46.9704 Y39.8553
G01 X46.9216 Y39.8784
G01 X46.8731 Y39.8958
G01 X46.8159 Y39.9101
G01 X46.7649 Y39.9176
G01 X46.7122 Y39.9202
G01 X41.7100 Y39.9200
G00 Z2.0000
(Block-name: block)
(Block-expand: 0)
(Block-enable: 1)
G00 X41.7100 Y34.8400
G01 F60.00
G01 Z-0.0600
G01 F60.00
G01 X41.6561 Y34.8374
G01 X41.6027 Y34.8294
G01 X41.5503 Y34.8163
G01 X41.5018 Y34.7990
G01 X41.4486 Y34.7738
G01 X41.4044 Y34.7473
G01 X41.3592 Y34.7136
G01 X41.3211 Y34.6789
G01 X41.2848 Y34.6389
G01 X41.2527 Y34.5956
G01 X41.2249 Y34.5493
G01 X41.2019 Y34.5005
G01 X41.1837 Y34.4497
G01 X41.1706 Y34.3973
G01 X41.1626 Y34.3439
G01 X41.1600 Y34.2900
G01 X41.1626 Y34.2361
G01 X41.1706 Y34.1827
G01 X41.1837 Y34.1303
G01 X41.2019 Y34.0795
G01 X41.2249 Y34.0307
G01 X41.2527 Y33.9844
G01 X41.2833 Y33.9430
G01 X41.3229 Y33.8994
G01 X41.3611 Y33.8648
G01 X41.4065 Y33.8314
G01 X41.4507 Y33.8049
G01 X41.4995 Y33.7819
G01 X41.5503 Y33.7637
G01 X41.6039 Y33.7503
G01 X41.6561 Y33.7426
G01 X41.7100 Y33.7400
G01 X44.7100 Y33.7400
G01 X44.7651 Y33.7428
G01 X44.8173 Y33.7506
G01 X44.8673 Y33.7630
G01 X44.9227 Y33.7829
G01 X44.9693 Y33.8049
G01 X45.0156 Y33.8327
G01 X45.0589 Y33.8648
G01 X45.0971 Y33.8994
G01 X45.1367 Y33.9430
G01 X45.1673 Y33.9844
G01 X45.1951 Y34.0307
G01 X45.2181 Y34.0795
G01 X45.2355 Y34.1280
G01 X45.2497 Y34.1839
G01 X45.2574 Y34.2361
G01 X45.2600 Y34.2900
G01 X45.2574 Y34.3439
G01 X45.2494 Y34.3973
G01 X45.2363 Y34.4497
G01 X45.2181 Y34.5005
G01 X45.1951 Y34.5493
G01 X45.1673 Y34.5956
G01 X45.1352 Y34.6389
G01 X45.0989 Y34.6789
G01 X45.0589 Y34.7152
G01 X45.0156 Y34.7473
G01 X44.9693 Y34.7751
G01 X44.9205 Y34.7981
G01 X44.8697 Y34.8163
G01 X44.8161 Y34.8297
G01 X44.7639 Y34.8374
G01 X44.7100 Y34.8400
G01 X41.7100 Y34.8400
G00 X41.7100 Y34.8400
G01 F60.00
G01 Z-0.1200
G01 F60.00
G01 X41.6561 Y34.8374
G01 X41.6027 Y34.8294
G01 X41.5503 Y34.8163
G01 X41.5018 Y34.7990
G01 X41.4486 Y34.7738
G01 X41.4044 Y34.7473
G01 X41.3592 Y34.7136
G01 X41.3211 Y34.6789
G01 X41.2848 Y34.6389
G01 X41.2527 Y34.5956
G01 X41.2249 Y34.5493
G01 X41.2019 Y34.5005
G01 X41.1837 Y34.4497
G01 X41.1706 Y34.3973
G01 X41.1626 Y34.3439
G01 X41.1600 Y34.2900
G01 X41.1626 Y34.2361
G01 X41.1706 Y34.1827
G01 X41.1837 Y34.1303
G01 X41.2019 Y34.0795
G01 X41.2249 Y34.0307
G01 X41.2527 Y33.9844
G01 X41.2833 Y33.9430
G01 X41.3229 Y33.8994
G01 X41.3611 Y33.8648
G01 X41.4065 Y33.8314
G01 X41.4507 Y33.8049
G01 X41.4995 Y33.7819
G01 X41.5503 Y33.7637
G01 X41.6039 Y33.7503
G01 X41.6561 Y33.7426
G01 X41.7100 Y33.7400
G01 X44.7100 Y33.7400
G01 X44.7651 Y33.7428
G01 X44.8173 Y33.7506
G01 X44.8673 Y33.7630
G01 X44.9227 Y33.7829
G01 X44.9693 Y33.8049
G01 X45.0156 Y33.8327
G01 X45.0589 Y33.8648
G01 X45.0971 Y33.8994
G01 X45.1367 Y33.9430
G01 X45.1673 Y33.9844
G01 X45.1951 Y34.0307
G01 X45.2181 Y34.0795
G01 X45.2355 Y34.1280
G01 X45.2497 Y34.1839
G01 X45.2574 Y34.2361
G01 X45.2600 Y34.2900
G01 X45.2574 Y34.3439
G01 X45.2494 Y34.3973
G01 X45.2363 Y34.4497
G01 X45.2181 Y34.5005
G01 X45.1951 Y34.5493
G01 X45.1673 Y34.5956
G01 X45.1352 Y34.6389
G01 X45.0989 Y34.6789
G01 X45.0589 Y34.7152
G01 X45.0156 Y34.7473
G01 X44.9693 Y34.7751
G01 X44.9205 Y34.7981
G01 X44.8697 Y34.8163
G01 X44.8161 Y34.8297
G01 X44.7639 Y34.8374
G01 X44.7100 Y34.8400
G01 X41.7100 Y34.8400
G00 X41.7100 Y34.8400
G01 F60.00
G01 Z-0.1800
G01 F60.00
G01 X41.6561 Y34.8374
G01 X41.6027 Y34.8294
G01 X41.5503 Y34.8163
G01 X41.5018 Y34.7990
G01 X41.4486 Y34.7738
G01 X41.4044 Y34.7473
G01 X41.3592 Y34.7136
G01 X41.3211 Y34.6789
G01 X41.2848 Y34.6389
G01 X41.2527 Y34.5956
G01 X41.2249 Y34.5493
G01 X41.2019 Y34.5005
G01 X41.1837 Y34.4497
G01 X41.1706 Y34.3973
G01 X41.1626 Y34.3439
G01 X41.1600 Y34.2900
G01 X41.1626 Y34.2361
G01 X41.1706 Y34.1827
G01 X41.1837 Y34.1303
G01 X41.2019 Y34.0795
G01 X41.2249 Y34.0307
G01 X41.2527 Y33.9844
G01 X41.2833 Y33.9430
G01 X41.3229 Y33.8994
G01 X41.3611 Y33.8648
G01 X41.4065 Y33.8314
G01 X41.4507 Y33.8049
G01 X41.4995 Y33.7819
G01 X41.5503 Y33.7637
G01 X41.6039 Y33.7503
G01 X41.6561 Y33.7426
G01 X41.7100 Y33.7400
G01 X44.7100 Y33.7400
G01 X44.7651 Y33.7428
G01 X44.8173 Y33.7506
G01 X44.8673 Y33.7630
G01 X44.9227 Y33.7829
G01 X44.9693 Y33.8049
G01 X45.0156 Y33.8327
G01 X45.0589 Y33.8648
G01 X45.0971 Y33.8994
G01 X45.1367 Y33.9430
G01 X45.1673 Y33.9844
G01 X45.1951 Y34.0307
G01 X45.2181 Y34.0795
G01 X45.2355 Y34.1280
G01 X45.2497 Y34.1839
G01 X45.2574 Y34.2361
G01 X45.2600 Y34.2900
G01 X45.2574 Y34.3439
G01 X45.2494 Y34.3973
G01 X45.2363 Y34.4497
G01 X45.2181 Y34.5005
G01 X45.1951 Y34.5493
G01 X45.1673 Y34.5956
G01 X45.1352 Y34.6389
G01 X45.0989 Y34.6789
G01 X45.0589 Y34.7152
G01 X45.0156 Y34.7473
G01 X44.9693 Y34.7751
G01 X44.9205 Y34.7981
G01 X44.8697 Y34.8163
G01 X44.8161 Y34.8297
G01 X44.7639 Y34.8374
G01 X44.7100 Y34.8400
G01 X41.7100 Y34.8400
G00 X41.7100 Y34.8400
G01 F60.00
G01 Z-0.2000
G01 F60.00
G01 X41.6561 Y34.8374
G01 X41.6027 Y34.8294
G01 X41.5503 Y34.8163
G01 X41.5018 Y34.7990
G01 X41.4486 Y34.7738
G01 X41.4044 Y34.7473
G01 X41.3592 Y34.7136
G01 X41.3211 Y34.6789
G01 X41.2848 Y34.6389
G01 X41.2527 Y34.5956
G01 X41.2249 Y34.5493
G01 X41.2019 Y34.5005
G01 X41.1837 Y34.4497
G01 X41.1706 Y34.3973
G01 X41.1626 Y34.3439
G01 X41.1600 Y34.2900
G01 X41.1626 Y34.2361
G01 X41.1706 Y34.1827
G01 X41.1837 Y34.1303
G01 X41.2019 Y34.0795
G01 X41.2249 Y34.0307
G01 X41.2527 Y33.9844
G01 X41.2833 Y33.9430
G01 X41.3229 Y33.8994
G01 X41.3611 Y33.8648
G01 X41.4065 Y33.8314
G01 X41.4507 Y33.8049
G01 X41.4995 Y33.7819
G01 X41.5503 Y33.7637
G01 X41.6039 Y33.7503
G01 X41.6561 Y33.7426
G01 X41.7100 Y33.7400
G01 X44.7100 Y33.7400
G01 X44.7651 Y33.7428
G01 X44.8173 Y33.7506
G01 X44.8673 Y33.7630
G01 X44.9227 Y33.7829
G01 X44.9693 Y33.8049
G01 X45.0156 Y33.8327
G01 X45.0589 Y33.8648
G01 X45.0971 Y33.8994
G01 X45.1367 Y33.9430
G01 X45.1673 Y33.9844
G01 X45.1951 Y34.0307
G01 X45.2181 Y34.0795
G01 X45.2355 Y34.1280
G01 X45.2497 Y34.1839
G01 X45.2574 Y34.2361
G01 X45.2600 Y34.2900
G01 X45.2574 Y34.3439
G01 X45.2494 Y34.3973
G01 X45.2363 Y34.4497
G01 X45.2181 Y34.5005
G01 X45.1951 Y34.5493
G01 X45.1673 Y34.5956
G01 X45.1352 Y34.6389
G01 X45.0989 Y34.6789
G01 X45.0589 Y34.7152
G01 X45.0156 Y34.7473
G01 X44.9693 Y34.7751
G01 X44.9205 Y34.7981
G01 X44.8697 Y34.8163
G01 X44.8161 Y34.8297
G01 X44.7639 Y34.8374
G01 X44.7100 Y34.8400
G01 X41.7100 Y34.8400
G00 Z2.0000
(Block-name: block)
(Block-expand: 0)
(Block-enable: 1)
G00 X41.7100 Y29.7600
G01 F60.00
G01 Z-0.0600
G01 F60.00
G01 X41.6561 Y29.7574
G01 X41.6027 Y29.7494
G01 X41.5503 Y29.7363
G01 X41.5018 Y29.7190
G01 X41.4486 Y29.6938
G01 X41.4044 Y29.6673
G01 X41.3592 Y29.6336
G01 X41.3211 Y29.5989
G01 X41.2848 Y29.5589
G01 X41.2527 Y29.5156
G01 X41.2249 Y29.4693
G01 X41.2019 Y29.4205
G01 X41.1837 Y29.3697
G01 X41.1706 Y29.3173
G01 X41.1626 Y29.2639
G01 X41.1600 Y29.2100
G01 X41.1626 Y29.1561
G01 X41.1706 Y29.1027
G01 X41.1837 Y29.0503
G01 X41.2019 Y28.9995
G01 X41.2249 Y28.9507
G01 X41.2527 Y28.9044
G01 X41.2833 Y28.8630
G01 X41.3229 Y28.8194
G01 X41.3611 Y28.7848
G01 X41.4065 Y28.7514
G01 X41.4507 Y28.7249
G01 X41.4995 Y28.7019
G01 X41.5503 Y28.6837
G01 X41.6039 Y28.6703
G01 X41.6561 Y28.6626
G01 X41.7100 Y28.6600
G01 X44.7100 Y28.6600
G01 X44.7651 Y28.6628
G01 X44.8173 Y28.6706
G01 X44.8673 Y28.6830
G01 X44.9227 Y28.7029
G01 X44.9693 Y28.7249
G01 X45.0156 Y28.7527
G01 X45.0589 Y28.7848
G01 X45.0971 Y28.8194
G01 X45.1367 Y28.8630
G01 X45.1673 Y28.9044
G01 X45.1951 Y28.9507
G01 X45.2181 Y28.9995
G01 X45.2355 Y29.0480
G01 X45.2497 Y29.1039
G01 X45.2574 Y29.1561
G01 X45.2600 Y29.2100
G01 X45.2574 Y29.2639
G01 X45.2494 Y29.3173
G01 X45.2363 Y29.3697
G01 X45.2181 Y29.4205
G01 X45.1951 Y29.4693
G01 X45.1673 Y29.5156
G01 X45.1352 Y29.5589
G01 X45.0989 Y29.5989
G01 X45.0589 Y29.6352
G01 X45.0156 Y29.6673
G01 X44.9693 Y29.6951
G01 X44.9205 Y29.7181
G01 X44.8697 Y29.7363
G01 X44.8161 Y29.7497
G01 X44.7639 Y29.7574
G01 X44.7100 Y29.7600
G01 X41.7100 Y29.7600
G00 X41.7100 Y29.7600
G01 F60.00
G01 Z-0.1200
G01 F60.00
G01 X41.6561 Y29.7574
G01 X41.6027 Y29.7494
G01 X41.5503 Y29.7363
G01 X41.5018 Y29.7190
G01 X41.4486 Y29.6938
G01 X41.4044 Y29.6673
G01 X41.3592 Y29.6336
G01 X41.3211 Y29.5989
G01 X41.2848 Y29.5589
G01 X41.2527 Y29.5156
G01 X41.2249 Y29.4693
G01 X41.2019 Y29.4205
G01 X41.1837 Y29.3697
