(G-CODE GENERATED BY FLATCAM v8.994 - www.flatcam.org - Version Date: 2020/11/7)

(Name: preamp-board-v4-F_Cu.gbr_iso_combined_1_cnc)
(Type: G-code from Geometry)
(Units: MM)

(Created on Wednesday, 12 May 2021 at 11:26)

(This preprocessor is the default preprocessor used by FlatCAM.)
(It is made to work with MACH3 compatible motion controllers.)

(TOOL DIAMETER: 0.1 mm)
(Feedrate_XY: 120.0 mm/min)
(Feedrate_Z: 60.0 mm/min)
(Feedrate rapids 1500.0 mm/min)

(Z_Cut: -0.2 mm)
(DepthPerCut: 0.06 mm <=>4 passes)
(Z_Move: 2.0 mm)
(Z Start: None mm)
(Z End: 20.0 mm)
(X,Y End: 0.0000, 0.0000 mm)
(Steps per circle: 64)
(Preprocessor Geometry: default)

(X range:   10.7550 ...   91.7200  mm)
(Y range:    3.5300 ...   65.8679  mm)

(Spindle Speed: 1000.0 RPM)
G21
G90
G94

G01 F120.00

M5
G00 Z15.0000
G00 X0.0000 Y0.0000
T1
M6    
(MSG, Change to Tool Dia = 0.1000)
M0
G00 Z15.0000

M03 S1000.0
G01 F120.00
G00 X11.4325 Y29.6601
G01 F60.00
G01 Z-0.0600
G01 F120.00
G01 X11.4962 Y29.6633
G01 X11.5617 Y29.6730
G01 X11.6259 Y29.6891
G01 X11.6860 Y29.7105
G01 X11.7503 Y29.7409
G01 X11.8050 Y29.7738
G01 X11.8582 Y29.8132
G01 X11.9073 Y29.8577
G01 X11.9502 Y29.9049
G01 X11.9926 Y29.9621
G01 X12.0253 Y30.0168
G01 X12.0536 Y30.0767
G01 X12.0759 Y30.1391
G01 X12.0920 Y30.2033
G01 X12.1017 Y30.2688
G01 X12.1050 Y30.3350
G01 X12.1050 Y33.0850
G01 X12.1017 Y33.1512
G01 X12.0920 Y33.2167
G01 X12.0759 Y33.2809
G01 X12.0536 Y33.3433
G01 X12.0253 Y33.4032
G01 X11.9912 Y33.4600
G01 X11.9518 Y33.5132
G01 X11.9073 Y33.5623
G01 X11.8582 Y33.6068
G01 X11.8050 Y33.6462
G01 X11.7482 Y33.6803
G01 X11.6883 Y33.7086
G01 X11.6259 Y33.7309
G01 X11.5617 Y33.7470
G01 X11.4962 Y33.7567
G01 X11.4300 Y33.7600
G01 X11.3638 Y33.7567
G01 X11.3007 Y33.7474
G01 X11.2317 Y33.7302
G01 X11.1717 Y33.7086
G01 X11.1118 Y33.6803
G01 X11.0550 Y33.6462
G01 X11.0018 Y33.6068
G01 X10.9527 Y33.5623
G01 X10.9098 Y33.5151
G01 X10.8674 Y33.4579
G01 X10.8347 Y33.4032
G01 X10.8064 Y33.3433
G01 X10.7841 Y33.2809
G01 X10.7680 Y33.2167
G01 X10.7583 Y33.1512
G01 X10.7550 Y33.0850
G01 X10.7550 Y30.3350
G01 X10.7583 Y30.2688
G01 X10.7680 Y30.2033
G01 X10.7841 Y30.1391
G01 X10.8064 Y30.0767
G01 X10.8347 Y30.0168
G01 X10.8688 Y29.9600
G01 X10.9082 Y29.9068
G01 X10.9527 Y29.8577
G01 X11.0018 Y29.8132
G01 X11.0550 Y29.7738
G01 X11.1118 Y29.7397
G01 X11.1717 Y29.7114
G01 X11.2341 Y29.6891
G01 X11.2983 Y29.6730
G01 X11.3638 Y29.6633
G01 X11.4325 Y29.6601
G00 X11.4325 Y29.6601
G01 F60.00
G01 Z-0.1200
G01 F120.00
G01 X11.4962 Y29.6633
G01 X11.5617 Y29.6730
G01 X11.6259 Y29.6891
G01 X11.6860 Y29.7105
G01 X11.7503 Y29.7409
G01 X11.8050 Y29.7738
G01 X11.8582 Y29.8132
G01 X11.9073 Y29.8577
G01 X11.9502 Y29.9049
G01 X11.9926 Y29.9621
G01 X12.0253 Y30.0168
G01 X12.0536 Y30.0767
G01 X12.0759 Y30.1391
G01 X12.0920 Y30.2033
G01 X12.1017 Y30.2688
G01 X12.1050 Y30.3350
G01 X12.1050 Y33.0850
G01 X12.1017 Y33.1512
G01 X12.0920 Y33.2167
G01 X12.0759 Y33.2809
G01 X12.0536 Y33.3433
G01 X12.0253 Y33.4032
G01 X11.9912 Y33.4600
G01 X11.9518 Y33.5132
G01 X11.9073 Y33.5623
G01 X11.8582 Y33.6068
G01 X11.8050 Y33.6462
G01 X11.7482 Y33.6803
G01 X11.6883 Y33.7086
G01 X11.6259 Y33.7309
G01 X11.5617 Y33.7470
G01 X11.4962 Y33.7567
G01 X11.4300 Y33.7600
G01 X11.3638 Y33.7567
G01 X11.3007 Y33.7474
G01 X11.2317 Y33.7302
G01 X11.1717 Y33.7086
G01 X11.1118 Y33.6803
G01 X11.0550 Y33.6462
G01 X11.0018 Y33.6068
G01 X10.9527 Y33.5623
G01 X10.9098 Y33.5151
G01 X10.8674 Y33.4579
G01 X10.8347 Y33.4032
G01 X10.8064 Y33.3433
G01 X10.7841 Y33.2809
G01 X10.7680 Y33.2167
G01 X10.7583 Y33.1512
G01 X10.7550 Y33.0850
G01 X10.7550 Y30.3350
G01 X10.7583 Y30.2688
G01 X10.7680 Y30.2033
G01 X10.7841 Y30.1391
G01 X10.8064 Y30.0767
G01 X10.8347 Y30.0168
G01 X10.8688 Y29.9600
G01 X10.9082 Y29.9068
G01 X10.9527 Y29.8577
G01 X11.0018 Y29.8132
G01 X11.0550 Y29.7738
G01 X11.1118 Y29.7397
G01 X11.1717 Y29.7114
G01 X11.2341 Y29.6891
G01 X11.2983 Y29.6730
G01 X11.3638 Y29.6633
G01 X11.4325 Y29.6601
G00 X11.4325 Y29.6601
G01 F60.00
G01 Z-0.1800
G01 F120.00
G01 X11.4962 Y29.6633
G01 X11.5617 Y29.6730
G01 X11.6259 Y29.6891
G01 X11.6860 Y29.7105
G01 X11.7503 Y29.7409
G01 X11.8050 Y29.7738
G01 X11.8582 Y29.8132
G01 X11.9073 Y29.8577
G01 X11.9502 Y29.9049
G01 X11.9926 Y29.9621
G01 X12.0253 Y30.0168
G01 X12.0536 Y30.0767
G01 X12.0759 Y30.1391
G01 X12.0920 Y30.2033
G01 X12.1017 Y30.2688
G01 X12.1050 Y30.3350
G01 X12.1050 Y33.0850
G01 X12.1017 Y33.1512
G01 X12.0920 Y33.2167
G01 X12.0759 Y33.2809
G01 X12.0536 Y33.3433
G01 X12.0253 Y33.4032
G01 X11.9912 Y33.4600
G01 X11.9518 Y33.5132
G01 X11.9073 Y33.5623
G01 X11.8582 Y33.6068
G01 X11.8050 Y33.6462
G01 X11.7482 Y33.6803
G01 X11.6883 Y33.7086
G01 X11.6259 Y33.7309
G01 X11.5617 Y33.7470
G01 X11.4962 Y33.7567
G01 X11.4300 Y33.7600
G01 X11.3638 Y33.7567
G01 X11.3007 Y33.7474
G01 X11.2317 Y33.7302
G01 X11.1717 Y33.7086
G01 X11.1118 Y33.6803
G01 X11.0550 Y33.6462
G01 X11.0018 Y33.6068
G01 X10.9527 Y33.5623
G01 X10.9098 Y33.5151
G01 X10.8674 Y33.4579
G01 X10.8347 Y33.4032
G01 X10.8064 Y33.3433
G01 X10.7841 Y33.2809
G01 X10.7680 Y33.2167
G01 X10.7583 Y33.1512
G01 X10.7550 Y33.0850
G01 X10.7550 Y30.3350
G01 X10.7583 Y30.2688
G01 X10.7680 Y30.2033
G01 X10.7841 Y30.1391
G01 X10.8064 Y30.0767
G01 X10.8347 Y30.0168
G01 X10.8688 Y29.9600
G01 X10.9082 Y29.9068
G01 X10.9527 Y29.8577
G01 X11.0018 Y29.8132
G01 X11.0550 Y29.7738
G01 X11.1118 Y29.7397
G01 X11.1717 Y29.7114
G01 X11.2341 Y29.6891
G01 X11.2983 Y29.6730
G01 X11.3638 Y29.6633
G01 X11.4325 Y29.6601
G00 X11.4325 Y29.6601
G01 F60.00
G01 Z-0.2000
G01 F120.00
G01 X11.4962 Y29.6633
G01 X11.5617 Y29.6730
G01 X11.6259 Y29.6891
G01 X11.6860 Y29.7105
G01 X11.7503 Y29.7409
G01 X11.8050 Y29.7738
G01 X11.8582 Y29.8132
G01 X11.9073 Y29.8577
G01 X11.9502 Y29.9049
G01 X11.9926 Y29.9621
G01 X12.0253 Y30.0168
G01 X12.0536 Y30.0767
G01 X12.0759 Y30.1391
G01 X12.0920 Y30.2033
G01 X12.1017 Y30.2688
G01 X12.1050 Y30.3350
G01 X12.1050 Y33.0850
G01 X12.1017 Y33.1512
G01 X12.0920 Y33.2167
G01 X12.0759 Y33.2809
G01 X12.0536 Y33.3433
G01 X12.0253 Y33.4032
G01 X11.9912 Y33.4600
G01 X11.9518 Y33.5132
G01 X11.9073 Y33.5623
G01 X11.8582 Y33.6068
G01 X11.8050 Y33.6462
G01 X11.7482 Y33.6803
G01 X11.6883 Y33.7086
G01 X11.6259 Y33.7309
G01 X11.5617 Y33.7470
G01 X11.4962 Y33.7567
G01 X11.4300 Y33.7600
G01 X11.3638 Y33.7567
G01 X11.3007 Y33.7474
G01 X11.2317 Y33.7302
G01 X11.1717 Y33.7086
G01 X11.1118 Y33.6803
G01 X11.0550 Y33.6462
G01 X11.0018 Y33.6068
G01 X10.9527 Y33.5623
G01 X10.9098 Y33.5151
G01 X10.8674 Y33.4579
G01 X10.8347 Y33.4032
G01 X10.8064 Y33.3433
G01 X10.7841 Y33.2809
G01 X10.7680 Y33.2167
G01 X10.7583 Y33.1512
G01 X10.7550 Y33.0850
G01 X10.7550 Y30.3350
G01 X10.7583 Y30.2688
G01 X10.7680 Y30.2033
G01 X10.7841 Y30.1391
G01 X10.8064 Y30.0767
G01 X10.8347 Y30.0168
G01 X10.8688 Y29.9600
G01 X10.9082 Y29.9068
G01 X10.9527 Y29.8577
G01 X11.0018 Y29.8132
G01 X11.0550 Y29.7738
G01 X11.1118 Y29.7397
G01 X11.1717 Y29.7114
G01 X11.2341 Y29.6891
G01 X11.2983 Y29.6730
G01 X11.3638 Y29.6633
G01 X11.4325 Y29.6601
G00 Z2.0000
G00 X10.8797 Y38.6349
G01 F60.00
G01 Z-0.0600
G01 F120.00
G01 X10.8681 Y38.6190
G01 X10.8341 Y38.5621
G01 X10.8064 Y38.5033
G01 X10.7844 Y38.4421
G01 X10.7676 Y38.3743
G01 X10.7583 Y38.3112
G01 X10.7550 Y38.2462
G01 X10.7550 Y35.4950
G01 X10.7583 Y35.4288
G01 X10.7677 Y35.3645
G01 X10.7841 Y35.2991
G01 X10.8064 Y35.2367
G01 X10.8347 Y35.1768
G01 X10.8688 Y35.1200
G01 X10.9082 Y35.0668
G01 X10.9527 Y35.0177
G01 X11.0018 Y34.9732
G01 X11.0550 Y34.9338
G01 X11.1118 Y34.8997
G01 X11.1717 Y34.8714
G01 X11.2341 Y34.8491
G01 X11.2983 Y34.8330
G01 X11.3638 Y34.8233
G01 X11.4300 Y34.8200
G01 X11.4962 Y34.8233
G01 X11.5605 Y34.8327
G01 X11.6259 Y34.8491
G01 X11.6860 Y34.8705
G01 X11.7503 Y34.9009
G01 X11.8050 Y34.9338
G01 X11.8582 Y34.9732
G01 X11.9073 Y35.0177
G01 X11.9502 Y35.0649
G01 X11.9926 Y35.1221
G01 X12.0253 Y35.1768
G01 X12.0536 Y35.2367
G01 X12.0759 Y35.2991
G01 X12.0915 Y35.3609
G01 X12.1019 Y35.4301
G01 X12.1050 Y35.4950
G01 X12.1050 Y38.2462
G01 X12.1017 Y38.3112
G01 X12.0924 Y38.3743
G01 X12.0756 Y38.4421
G01 X12.0536 Y38.5033
G01 X12.0259 Y38.5621
G01 X11.9919 Y38.6190
G01 X11.9803 Y38.6349
G01 X11.9803 Y40.1431
G01 X17.0069 Y45.1697
G01 X39.3700 Y45.1697
G01 X39.9253 Y45.1701
G01 X39.9412 Y45.1708
G01 X39.9592 Y45.1734
G01 X39.9769 Y45.1775
G01 X39.9942 Y45.1833
G01 X40.0108 Y45.1907
G01 X40.0267 Y45.1995
G01 X40.0417 Y45.2098
G01 X40.0540 Y45.2199
G01 X40.0678 Y45.2334
G01 X40.0788 Y45.2465
G01 X40.0917 Y45.2653
G01 X40.0993 Y45.2792
G01 X40.1067 Y45.2958
G01 X40.1125 Y45.3131
G01 X40.1166 Y45.3308
G01 X40.1192 Y45.3488
G01 X40.1200 Y45.3670
G01 X40.1200 Y46.0730
G01 X40.1188 Y46.0947
G01 X40.1162 Y46.1114
G01 X40.1122 Y46.1278
G01 X40.1040 Y46.1506
G01 X40.0967 Y46.1659
G01 X40.0868 Y46.1824
G01 X40.0753 Y46.1980
G01 X40.0640 Y46.2105
G01 X40.0460 Y46.2268
G01 X40.0324 Y46.2368
G01 X40.0159 Y46.2467
G01 X39.9984 Y46.2550
G01 X39.9825 Y46.2607
G01 X39.9590 Y46.2666
G01 X39.9423 Y46.2691
G01 X39.9230 Y46.2700
G01 X16.7790 Y46.2703
G01 X16.7226 Y46.2673
G01 X16.6717 Y46.2597
G01 X16.6216 Y46.2472
G01 X16.5684 Y46.2284
G01 X16.5175 Y46.2041
G01 X16.4733 Y46.1775
G01 X16.4319 Y46.1469
G01 X16.3899 Y46.1091
G01 X11.0409 Y40.7601
G01 X11.0031 Y40.7181
G01 X10.9725 Y40.6767
G01 X10.9459 Y40.6325
G01 X10.9216 Y40.5816
G01 X10.9034 Y40.5307
G01 X10.8909 Y40.4807
G01 X10.8822 Y40.4225
G01 X10.8797 Y40.3710
G01 X10.8797 Y38.6349
G00 X10.8797 Y38.6349
G01 F60.00
G01 Z-0.1200
G01 F120.00
G01 X10.8681 Y38.6190
G01 X10.8341 Y38.5621
G01 X10.8064 Y38.5033
G01 X10.7844 Y38.4421
G01 X10.7676 Y38.3743
G01 X10.7583 Y38.3112
G01 X10.7550 Y38.2462
G01 X10.7550 Y35.4950
G01 X10.7583 Y35.4288
G01 X10.7677 Y35.3645
G01 X10.7841 Y35.2991
G01 X10.8064 Y35.2367
G01 X10.8347 Y35.1768
G01 X10.8688 Y35.1200
G01 X10.9082 Y35.0668
G01 X10.9527 Y35.0177
G01 X11.0018 Y34.9732
G01 X11.0550 Y34.9338
G01 X11.1118 Y34.8997
G01 X11.1717 Y34.8714
G01 X11.2341 Y34.8491
G01 X11.2983 Y34.8330
G01 X11.3638 Y34.8233
G01 X11.4300 Y34.8200
G01 X11.4962 Y34.8233
G01 X11.5605 Y34.8327
G01 X11.6259 Y34.8491
G01 X11.6860 Y34.8705
G01 X11.7503 Y34.9009
G01 X11.8050 Y34.9338
G01 X11.8582 Y34.9732
G01 X11.9073 Y35.0177
G01 X11.9502 Y35.0649
G01 X11.9926 Y35.1221
G01 X12.0253 Y35.1768
G01 X12.0536 Y35.2367
G01 X12.0759 Y35.2991
G01 X12.0915 Y35.3609
G01 X12.1019 Y35.4301
G01 X12.1050 Y35.4950
G01 X12.1050 Y38.2462
G01 X12.1017 Y38.3112
G01 X12.0924 Y38.3743
G01 X12.0756 Y38.4421
G01 X12.0536 Y38.5033
G01 X12.0259 Y38.5621
G01 X11.9919 Y38.6190
G01 X11.9803 Y38.6349
G01 X11.9803 Y40.1431
G01 X17.0069 Y45.1697
G01 X39.3700 Y45.1697
G01 X39.9253 Y45.1701
G01 X39.9412 Y45.1708
G01 X39.9592 Y45.1734
G01 X39.9769 Y45.1775
G01 X39.9942 Y45.1833
G01 X40.0108 Y45.1907
G01 X40.0267 Y45.1995
G01 X40.0417 Y45.2098
G01 X40.0540 Y45.2199
G01 X40.0678 Y45.2334
G01 X40.0788 Y45.2465
G01 X40.0917 Y45.2653
G01 X40.0993 Y45.2792
G01 X40.1067 Y45.2958
G01 X40.1125 Y45.3131
G01 X40.1166 Y45.3308
G01 X40.1192 Y45.3488
G01 X40.1200 Y45.3670
G01 X40.1200 Y46.0730
G01 X40.1188 Y46.0947
G01 X40.1162 Y46.1114
G01 X40.1122 Y46.1278
G01 X40.1040 Y46.1506
G01 X40.0967 Y46.1659
G01 X40.0868 Y46.1824
G01 X40.0753 Y46.1980
G01 X40.0640 Y46.2105
G01 X40.0460 Y46.2268
G01 X40.0324 Y46.2368
G01 X40.0159 Y46.2467
G01 X39.9984 Y46.2550
G01 X39.9825 Y46.2607
G01 X39.9590 Y46.2666
G01 X39.9423 Y46.2691
G01 X39.9230 Y46.2700
G01 X16.7790 Y46.2703
G01 X16.7226 Y46.2673
G01 X16.6717 Y46.2597
G01 X16.6216 Y46.2472
G01 X16.5684 Y46.2284
G01 X16.5175 Y46.2041
G01 X16.4733 Y46.1775
G01 X16.4319 Y46.1469
G01 X16.3899 Y46.1091
G01 X11.0409 Y40.7601
G01 X11.0031 Y40.7181
G01 X10.9725 Y40.6767
G01 X10.9459 Y40.6325
G01 X10.9216 Y40.5816
G01 X10.9034 Y40.5307
G01 X10.8909 Y40.4807
G01 X10.8822 Y40.4225
G01 X10.8797 Y40.3710
G01 X10.8797 Y38.6349
G00 X10.8797 Y38.6349
G01 F60.00
G01 Z-0.1800
G01 F120.00
G01 X10.8681 Y38.6190
G01 X10.8341 Y38.5621
G01 X10.8064 Y38.5033
G01 X10.7844 Y38.4421
G01 X10.7676 Y38.3743
G01 X10.7583 Y38.3112
G01 X10.7550 Y38.2462
G01 X10.7550 Y35.4950
G01 X10.7583 Y35.4288
G01 X10.7677 Y35.3645
G01 X10.7841 Y35.2991
G01 X10.8064 Y35.2367
G01 X10.8347 Y35.1768
G01 X10.8688 Y35.1200
G01 X10.9082 Y35.0668
G01 X10.9527 Y35.0177
G01 X11.0018 Y34.9732
G01 X11.0550 Y34.9338
G01 X11.1118 Y34.8997
G01 X11.1717 Y34.8714
G01 X11.2341 Y34.8491
G01 X11.2983 Y34.8330
G01 X11.3638 Y34.8233
G01 X11.4300 Y34.8200
G01 X11.4962 Y34.8233
G01 X11.5605 Y34.8327
G01 X11.6259 Y34.8491
G01 X11.6860 Y34.8705
G01 X11.7503 Y34.9009
G01 X11.8050 Y34.9338
G01 X11.8582 Y34.9732
G01 X11.9073 Y35.0177
G01 X11.9502 Y35.0649
G01 X11.9926 Y35.1221
G01 X12.0253 Y35.1768
G01 X12.0536 Y35.2367
G01 X12.0759 Y35.2991
G01 X12.0915 Y35.3609
G01 X12.1019 Y35.4301
G01 X12.1050 Y35.4950
G01 X12.1050 Y38.2462
G01 X12.1017 Y38.3112
G01 X12.0924 Y38.3743
G01 X12.0756 Y38.4421
G01 X12.0536 Y38.5033
G01 X12.0259 Y38.5621
G01 X11.9919 Y38.6190
G01 X11.9803 Y38.6349
G01 X11.9803 Y40.1431
G01 X17.0069 Y45.1697
G01 X39.3700 Y45.1697
G01 X39.9253 Y45.1701
G01 X39.9412 Y45.1708
G01 X39.9592 Y45.1734
G01 X39.9769 Y45.1775
G01 X39.9942 Y45.1833
G01 X40.0108 Y45.1907
G01 X40.0267 Y45.1995
G01 X40.0417 Y45.2098
G01 X40.0540 Y45.2199
G01 X40.0678 Y45.2334
G01 X40.0788 Y45.2465
G01 X40.0917 Y45.2653
G01 X40.0993 Y45.2792
G01 X40.1067 Y45.2958
G01 X40.1125 Y45.3131
G01 X40.1166 Y45.3308
G01 X40.1192 Y45.3488
G01 X40.1200 Y45.3670
G01 X40.1200 Y46.0730
G01 X40.1188 Y46.0947
G01 X40.1162 Y46.1114
G01 X40.1122 Y46.1278
G01 X40.1040 Y46.1506
G01 X40.0967 Y46.1659
G01 X40.0868 Y46.1824
G01 X40.0753 Y46.1980
G01 X40.0640 Y46.2105
G01 X40.0460 Y46.2268
G01 X40.0324 Y46.2368
G01 X40.0159 Y46.2467
G01 X39.9984 Y46.2550
G01 X39.9825 Y46.2607
G01 X39.9590 Y46.2666
G01 X39.9423 Y46.2691
G01 X39.9230 Y46.2700
G01 X16.7790 Y46.2703
G01 X16.7226 Y46.2673
G01 X16.6717 Y46.2597
G01 X16.6216 Y46.2472
G01 X16.5684 Y46.2284
G01 X16.5175 Y46.2041
G01 X16.4733 Y46.1775
G01 X16.4319 Y46.1469
G01 X16.3899 Y46.1091
G01 X11.0409 Y40.7601
G01 X11.0031 Y40.7181
G01 X10.9725 Y40.6767
G01 X10.9459 Y40.6325
G01 X10.9216 Y40.5816
G01 X10.9034 Y40.5307
G01 X10.8909 Y40.4807
G01 X10.8822 Y40.4225
G01 X10.8797 Y40.3710
G01 X10.8797 Y38.6349
G00 X10.8797 Y38.6349
G01 F60.00
G01 Z-0.2000
G01 F120.00
G01 X10.8681 Y38.6190
G01 X10.8341 Y38.5621
G01 X10.8064 Y38.5033
G01 X10.7844 Y38.4421
G01 X10.7676 Y38.3743
G01 X10.7583 Y38.3112
G01 X10.7550 Y38.2462
G01 X10.7550 Y35.4950
G01 X10.7583 Y35.4288
G01 X10.7677 Y35.3645
G01 X10.7841 Y35.2991
G01 X10.8064 Y35.2367
G01 X10.8347 Y35.1768
G01 X10.8688 Y35.1200
G01 X10.9082 Y35.0668
G01 X10.9527 Y35.0177
G01 X11.0018 Y34.9732
G01 X11.0550 Y34.9338
G01 X11.1118 Y34.8997
G01 X11.1717 Y34.8714
G01 X11.2341 Y34.8491
G01 X11.2983 Y34.8330
G01 X11.3638 Y34.8233
G01 X11.4300 Y34.8200
G01 X11.4962 Y34.8233
G01 X11.5605 Y34.8327
G01 X11.6259 Y34.8491
G01 X11.6860 Y34.8705
G01 X11.7503 Y34.9009
G01 X11.8050 Y34.9338
G01 X11.8582 Y34.9732
G01 X11.9073 Y35.0177
G01 X11.9502 Y35.0649
G01 X11.9926 Y35.1221
G01 X12.0253 Y35.1768
G01 X12.0536 Y35.2367
G01 X12.0759 Y35.2991
G01 X12.0915 Y35.3609
G01 X12.1019 Y35.4301
G01 X12.1050 Y35.4950
G01 X12.1050 Y38.2462
G01 X12.1017 Y38.3112
G01 X12.0924 Y38.3743
G01 X12.0756 Y38.4421
G01 X12.0536 Y38.5033
G01 X12.0259 Y38.5621
G01 X11.9919 Y38.6190
G01 X11.9803 Y38.6349
G01 X11.9803 Y40.1431
G01 X17.0069 Y45.1697
G01 X39.3700 Y45.1697
G01 X39.9253 Y45.1701
G01 X39.9412 Y45.1708
G01 X39.9592 Y45.1734
G01 X39.9769 Y45.1775
G01 X39.9942 Y45.1833
G01 X40.0108 Y45.1907
G01 X40.0267 Y45.1995
G01 X40.0417 Y45.2098
G01 X40.0540 Y45.2199
G01 X40.0678 Y45.2334
G01 X40.0788 Y45.2465
G01 X40.0917 Y45.2653
G01 X40.0993 Y45.2792
G01 X40.1067 Y45.2958
G01 X40.1125 Y45.3131
G01 X40.1166 Y45.3308
G01 X40.1192 Y45.3488
G01 X40.1200 Y45.3670
G01 X40.1200 Y46.0730
G01 X40.1188 Y46.0947
G01 X40.1162 Y46.1114
G01 X40.1122 Y46.1278
G01 X40.1040 Y46.1506
G01 X40.0967 Y46.1659
G01 X40.0868 Y46.1824
G01 X40.0753 Y46.1980
G01 X40.0640 Y46.2105
G01 X40.0460 Y46.2268
G01 X40.0324 Y46.2368
G01 X40.0159 Y46.2467
G01 X39.9984 Y46.2550
G01 X39.9825 Y46.2607
G01 X39.9590 Y46.2666
G01 X39.9423 Y46.2691
G01 X39.9230 Y46.2700
G01 X16.7790 Y46.2703
G01 X16.7226 Y46.2673
G01 X16.6717 Y46.2597
G01 X16.6216 Y46.2472
G01 X16.5684 Y46.2284
G01 X16.5175 Y46.2041
G01 X16.4733 Y46.1775
G01 X16.4319 Y46.1469
G01 X16.3899 Y46.1091
G01 X11.0409 Y40.7601
G01 X11.0031 Y40.7181
G01 X10.9725 Y40.6767
G01 X10.9459 Y40.6325
G01 X10.9216 Y40.5816
G01 X10.9034 Y40.5307
G01 X10.8909 Y40.4807
G01 X10.8822 Y40.4225
G01 X10.8797 Y40.3710
G01 X10.8797 Y38.6349
G00 Z2.0000
G00 X23.3286 Y35.0097
G01 F60.00
G01 Z-0.0600
G01 F120.00
G01 X39.3700 Y35.0097
G01 X39.5712 Y35.0100
G01 X39.6239 Y35.0126
G01 X39.6773 Y35.0206
G01 X39.7297 Y35.0337
G01 X39.7805 Y35.0519
G01 X39.8293 Y35.0749
G01 X39.8756 Y35.1027
G01 X39.9189 Y35.1348
G01 X39.9589 Y35.1711
G01 X39.9952 Y35.2111
G01 X40.0273 Y35.2544
G01 X40.0551 Y35.3007
G01 X40.0781 Y35.3495
G01 X40.0963 Y35.4003
G01 X40.1094 Y35.4527
G01 X40.1174 Y35.5061
G01 X40.1200 Y35.5612
G01 X40.1174 Y35.6139
G01 X40.1094 Y35.6673
G01 X40.0963 Y35.7197
G01 X40.0781 Y35.7705
G01 X40.0551 Y35.8193
G01 X40.0273 Y35.8656
G01 X39.9952 Y35.9089
G01 X39.9589 Y35.9489
G01 X39.9189 Y35.9852
G01 X39.8756 Y36.0173
G01 X39.8293 Y36.0451
G01 X39.7805 Y36.0681
G01 X39.7297 Y36.0863
G01 X39.6773 Y36.0994
G01 X39.6239 Y36.1074
G01 X39.5712 Y36.1100
G01 X39.3700 Y36.1103
G01 X23.5350 Y36.1103
G01 X23.5350 Y38.2462
G01 X23.5314 Y38.3136
G01 X23.5220 Y38.3767
G01 X23.5063 Y38.4398
G01 X23.4836 Y38.5033
G01 X23.4564 Y38.5610
G01 X23.4198 Y38.6220
G01 X23.3818 Y38.6732
G01 X23.3373 Y38.7223
G01 X23.2882 Y38.7668
G01 X23.2350 Y38.8062
G01 X23.1782 Y38.8403
G01 X23.1183 Y38.8686
G01 X23.0559 Y38.8909
G01 X22.9941 Y38.9065
G01 X22.9237 Y38.9169
G01 X22.8600 Y38.9200
G01 X22.7914 Y38.9164
G01 X22.7283 Y38.9070
G01 X22.6641 Y38.8909
G01 X22.6017 Y38.8686
G01 X22.5440 Y38.8414
G01 X22.4830 Y38.8048
G01 X22.4318 Y38.7668
G01 X22.3845 Y38.7240
G01 X22.3367 Y38.6713
G01 X22.2988 Y38.6200
G01 X22.2647 Y38.5632
G01 X22.2364 Y38.5033
G01 X22.2148 Y38.4433
G01 X22.1977 Y38.3755
G01 X22.1883 Y38.3112
G01 X22.1850 Y38.2450
G01 X22.1850 Y35.4950
G01 X22.1886 Y35.4264
G01 X22.1980 Y35.3633
G01 X22.2134 Y35.3014
G01 X22.2364 Y35.2367
G01 X22.2659 Y35.1747
G01 X22.2988 Y35.1200
G01 X22.3367 Y35.0687
G01 X22.3827 Y35.0177
G01 X22.4337 Y34.9717
G01 X22.4850 Y34.9338
G01 X22.5397 Y34.9009
G01 X22.6040 Y34.8705
G01 X22.6641 Y34.8491
G01 X22.7259 Y34.8335
G01 X22.7938 Y34.8233
G01 X22.8600 Y34.8200
G01 X22.9237 Y34.8231
G01 X22.9917 Y34.8330
G01 X23.0559 Y34.8491
G01 X23.1160 Y34.8705
G01 X23.1782 Y34.8997
G01 X23.2370 Y34.9352
G01 X23.2882 Y34.9732
G01 X23.3286 Y35.0097
G00 X23.3286 Y35.0097
G01 F60.00
G01 Z-0.1200
G01 F120.00
G01 X39.3700 Y35.0097
G01 X39.5712 Y35.0100
G01 X39.6239 Y35.0126
G01 X39.6773 Y35.0206
G01 X39.7297 Y35.0337
G01 X39.7805 Y35.0519
G01 X39.8293 Y35.0749
G01 X39.8756 Y35.1027
G01 X39.9189 Y35.1348
G01 X39.9589 Y35.1711
G01 X39.9952 Y35.2111
G01 X40.0273 Y35.2544
G01 X40.0551 Y35.3007
G01 X40.0781 Y35.3495
G01 X40.0963 Y35.4003
G01 X40.1094 Y35.4527
G01 X40.1174 Y35.5061
G01 X40.1200 Y35.5612
G01 X40.1174 Y35.6139
G01 X40.1094 Y35.6673
G01 X40.0963 Y35.7197
G01 X40.0781 Y35.7705
G01 X40.0551 Y35.8193
G01 X40.0273 Y35.8656
G01 X39.9952 Y35.9089
G01 X39.9589 Y35.9489
G01 X39.9189 Y35.9852
G01 X39.8756 Y36.0173
G01 X39.8293 Y36.0451
G01 X39.7805 Y36.0681
G01 X39.7297 Y36.0863
G01 X39.6773 Y36.0994
G01 X39.6239 Y36.1074
G01 X39.5712 Y36.1100
G01 X39.3700 Y36.1103
G01 X23.5350 Y36.1103
G01 X23.5350 Y38.2462
G01 X23.5314 Y38.3136
G01 X23.5220 Y38.3767
G01 X23.5063 Y38.4398
G01 X23.4836 Y38.5033
G01 X23.4564 Y38.5610
G01 X23.4198 Y38.6220
G01 X23.3818 Y38.6732
G01 X23.3373 Y38.7223
G01 X23.2882 Y38.7668
G01 X23.2350 Y38.8062
G01 X23.1782 Y38.8403
G01 X23.1183 Y38.8686
G01 X23.0559 Y38.8909
G01 X22.9941 Y38.9065
G01 X22.9237 Y38.9169
G01 X22.8600 Y38.9200
G01 X22.7914 Y38.9164
G01 X22.7283 Y38.9070
G01 X22.6641 Y38.8909
G01 X22.6017 Y38.8686
G01 X22.5440 Y38.8414
G01 X22.4830 Y38.8048
G01 X22.4318 Y38.7668
G01 X22.3845 Y38.7240
G01 X22.3367 Y38.6713
G01 X22.2988 Y38.6200
G01 X22.2647 Y38.5632
G01 X22.2364 Y38.5033
G01 X22.2148 Y38.4433
G01 X22.1977 Y38.3755
G01 X22.1883 Y38.3112
G01 X22.1850 Y38.2450
G01 X22.1850 Y35.4950
G01 X22.1886 Y35.4264
G01 X22.1980 Y35.3633
G01 X22.2134 Y35.3014
G01 X22.2364 Y35.2367
G01 X22.2659 Y35.1747
G01 X22.2988 Y35.1200
G01 X22.3367 Y35.0687
G01 X22.3827 Y35.0177
G01 X22.4337 Y34.9717
G01 X22.4850 Y34.9338
G01 X22.5397 Y34.9009
G01 X22.6040 Y34.8705
G01 X22.6641 Y34.8491
G01 X22.7259 Y34.8335
G01 X22.7938 Y34.8233
G01 X22.8600 Y34.8200
G01 X22.9237 Y34.8231
G01 X22.9917 Y34.8330
G01 X23.0559 Y34.8491
G01 X23.1160 Y34.8705
G01 X23.1782 Y34.8997
G01 X23.2370 Y34.9352
G01 X23.2882 Y34.9732
G01 X23.3286 Y35.0097
G00 X23.3286 Y35.0097
G01 F60.00
G01 Z-0.1800
G01 F120.00
G01 X39.3700 Y35.0097
G01 X39.5712 Y35.0100
G01 X39.6239 Y35.0126
G01 X39.6773 Y35.0206
G01 X39.7297 Y35.0337
G01 X39.7805 Y35.0519
G01 X39.8293 Y35.0749
G01 X39.8756 Y35.1027
G01 X39.9189 Y35.1348
G01 X39.9589 Y35.1711
G01 X39.9952 Y35.2111
G01 X40.0273 Y35.2544
G01 X40.0551 Y35.3007
G01 X40.0781 Y35.3495
G01 X40.0963 Y35.4003
G01 X40.1094 Y35.4527
G01 X40.1174 Y35.5061
G01 X40.1200 Y35.5612
G01 X40.1174 Y35.6139
G01 X40.1094 Y35.6673
G01 X40.0963 Y35.7197
G01 X40.0781 Y35.7705
G01 X40.0551 Y35.8193
G01 X40.0273 Y35.8656
G01 X39.9952 Y35.9089
G01 X39.9589 Y35.9489
G01 X39.9189 Y35.9852
G01 X39.8756 Y36.0173
G01 X39.8293 Y36.0451
G01 X39.7805 Y36.0681
G01 X39.7297 Y36.0863
G01 X39.6773 Y36.0994
G01 X39.6239 Y36.1074
G01 X39.5712 Y36.1100
G01 X39.3700 Y36.1103
G01 X23.5350 Y36.1103
G01 X23.5350 Y38.2462
G01 X23.5314 Y38.3136
G01 X23.5220 Y38.3767
G01 X23.5063 Y38.4398
G01 X23.4836 Y38.5033
G01 X23.4564 Y38.5610
G01 X23.4198 Y38.6220
G01 X23.3818 Y38.6732
G01 X23.3373 Y38.7223
G01 X23.2882 Y38.7668
G01 X23.2350 Y38.8062
G01 X23.1782 Y38.8403
G01 X23.1183 Y38.8686
G01 X23.0559 Y38.8909
G01 X22.9941 Y38.9065
G01 X22.9237 Y38.9169
G01 X22.8600 Y38.9200
G01 X22.7914 Y38.9164
G01 X22.7283 Y38.9070
G01 X22.6641 Y38.8909
G01 X22.6017 Y38.8686
G01 X22.5440 Y38.8414
G01 X22.4830 Y38.8048
G01 X22.4318 Y38.7668
G01 X22.3845 Y38.7240
G01 X22.3367 Y38.6713
G01 X22.2988 Y38.6200
G01 X22.2647 Y38.5632
G01 X22.2364 Y38.5033
G01 X22.2148 Y38.4433
G01 X22.1977 Y38.3755
G01 X22.1883 Y38.3112
G01 X22.1850 Y38.2450
G01 X22.1850 Y35.4950
G01 X22.1886 Y35.4264
G01 X22.1980 Y35.3633
G01 X22.2134 Y35.3014
G01 X22.2364 Y35.2367
G01 X22.2659 Y35.1747
G01 X22.2988 Y35.1200
G01 X22.3367 Y35.0687
G01 X22.3827 Y35.0177
G01 X22.4337 Y34.9717
G01 X22.4850 Y34.9338
G01 X22.5397 Y34.9009
G01 X22.6040 Y34.8705
G01 X22.6641 Y34.8491
G01 X22.7259 Y34.8335
G01 X22.7938 Y34.8233
G01 X22.8600 Y34.8200
G01 X22.9237 Y34.8231
G01 X22.9917 Y34.8330
G01 X23.0559 Y34.8491
G01 X23.1160 Y34.8705
G01 X23.1782 Y34.8997
G01 X23.2370 Y34.9352
G01 X23.2882 Y34.9732
G01 X23.3286 Y35.0097
G00 X23.3286 Y35.0097
G01 F60.00
G01 Z-0.2000
G01 F120.00
G01 X39.3700 Y35.0097
G01 X39.5712 Y35.0100
G01 X39.6239 Y35.0126
G01 X39.6773 Y35.0206
G01 X39.7297 Y35.0337
G01 X39.7805 Y35.0519
G01 X39.8293 Y35.0749
G01 X39.8756 Y35.1027
G01 X39.9189 Y35.1348
G01 X39.9589 Y35.1711
G01 X39.9952 Y35.2111
G01 X40.0273 Y35.2544
G01 X40.0551 Y35.3007
G01 X40.0781 Y35.3495
G01 X40.0963 Y35.4003
G01 X40.1094 Y35.4527
G01 X40.1174 Y35.5061
G01 X40.1200 Y35.5612
G01 X40.1174 Y35.6139
G01 X40.1094 Y35.6673
G01 X40.0963 Y35.7197
G01 X40.0781 Y35.7705
G01 X40.0551 Y35.8193
G01 X40.0273 Y35.8656
G01 X39.9952 Y35.9089
G01 X39.9589 Y35.9489
G01 X39.9189 Y35.9852
G01 X39.8756 Y36.0173
G01 X39.8293 Y36.0451
G01 X39.7805 Y36.0681
G01 X39.7297 Y36.0863
G01 X39.6773 Y36.0994
G01 X39.6239 Y36.1074
G01 X39.5712 Y36.1100
G01 X39.3700 Y36.1103
G01 X23.5350 Y36.1103
G01 X23.5350 Y38.2462
G01 X23.5314 Y38.3136
G01 X23.5220 Y38.3767
G01 X23.5063 Y38.4398
G01 X23.4836 Y38.5033
G01 X23.4564 Y38.5610
G01 X23.4198 Y38.6220
G01 X23.3818 Y38.6732
G01 X23.3373 Y38.7223
G01 X23.2882 Y38.7668
G01 X23.2350 Y38.8062
G01 X23.1782 Y38.8403
G01 X23.1183 Y38.8686
G01 X23.0559 Y38.8909
G01 X22.9941 Y38.9065
G01 X22.9237 Y38.9169
G01 X22.8600 Y38.9200
G01 X22.7914 Y38.9164
G01 X22.7283 Y38.9070
G01 X22.6641 Y38.8909
G01 X22.6017 Y38.8686
G01 X22.5440 Y38.8414
G01 X22.4830 Y38.8048
G01 X22.4318 Y38.7668
G01 X22.3845 Y38.7240
G01 X22.3367 Y38.6713
G01 X22.2988 Y38.6200
G01 X22.2647 Y38.5632
G01 X22.2364 Y38.5033
G01 X22.2148 Y38.4433
G01 X22.1977 Y38.3755
G01 X22.1883 Y38.3112
G01 X22.1850 Y38.2450
G01 X22.1850 Y35.4950
G01 X22.1886 Y35.4264
G01 X22.1980 Y35.3633
G01 X22.2134 Y35.3014
G01 X22.2364 Y35.2367
G01 X22.2659 Y35.1747
G01 X22.2988 Y35.1200
G01 X22.3367 Y35.0687
G01 X22.3827 Y35.0177
G01 X22.4337 Y34.9717
G01 X22.4850 Y34.9338
G01 X22.5397 Y34.9009
G01 X22.6040 Y34.8705
G01 X22.6641 Y34.8491
G01 X22.7259 Y34.8335
G01 X22.7938 Y34.8233
G01 X22.8600 Y34.8200
G01 X22.9237 Y34.8231
G01 X22.9917 Y34.8330
G01 X23.0559 Y34.8491
G01 X23.1160 Y34.8705
G01 X23.1782 Y34.8997
G01 X23.2370 Y34.9352
G01 X23.2882 Y34.9732
G01 X23.3286 Y35.0097
G00 Z2.0000
G00 X22.3098 Y28.2065
G01 F60.00
G01 Z-0.0600
G01 F120.00
G01 X22.3124 Y28.1551
G01 X22.3203 Y28.1017
G01 X22.3334 Y28.0493
G01 X22.3516 Y27.9984
G01 X22.3747 Y27.9496
G01 X22.4025 Y27.9033
G01 X22.4347 Y27.8599
G01 X22.4709 Y27.8199
G01 X37.8369 Y12.4539
G01 X37.8769 Y12.4177
G01 X37.9203 Y12.3855
G01 X37.9666 Y12.3577
G01 X38.0166 Y12.3342
G01 X38.0663 Y12.3164
G01 X38.1187 Y12.3033
G01 X38.1721 Y12.2954
G01 X38.2260 Y12.2927
G01 X63.1350 Y12.2927
G01 X63.1877 Y12.2953
G01 X63.2423 Y12.3033
G01 X63.2924 Y12.3158
G01 X63.3478 Y12.3356
G01 X63.3944 Y12.3577
G01 X63.4407 Y12.3855
G01 X63.4841 Y12.4177
G01 X63.5232 Y12.4531
G01 X65.6069 Y14.5368
G01 X65.6439 Y14.5779
G01 X65.6745 Y14.6193
G01 X65.7011 Y14.6635
G01 X65.7254 Y14.7144
G01 X65.7436 Y14.7653
G01 X65.7571 Y14.8201
G01 X65.7646 Y14.8711
G01 X65.7673 Y14.9250
G01 X65.7673 Y24.9687
G01 X67.3100 Y24.9687
G01 X67.3664 Y24.9717
G01 X67.4197 Y24.9799
G01 X67.4697 Y24.9924
G01 X67.5183 Y25.0098
G01 X67.5694 Y25.0337
G01 X67.6157 Y25.0615
G01 X67.6609 Y25.0953
G01 X67.6991 Y25.1299
G01 X67.7337 Y25.1681
G01 X67.7675 Y25.2133
G01 X67.7964 Y25.2618
G01 X67.8184 Y25.3084
G01 X67.8366 Y25.3593
G01 X67.8497 Y25.4117
G01 X67.8578 Y25.4675
G01 X67.8603 Y25.5190
G01 X67.8603 Y27.3116
G01 X67.8782 Y27.3496
G01 X67.8977 Y27.4041
G01 X67.9129 Y27.4638
G01 X67.9220 Y27.5247
G01 X67.9250 Y27.5850
G01 X67.9250 Y30.4562
G01 X67.9220 Y30.5153
G01 X67.9126 Y30.5774
G01 X67.8977 Y30.6359
G01 X67.8782 Y30.6904
G01 X67.8603 Y30.7284
G01 X67.8603 Y30.9611
G01 X69.3109 Y32.4117
G01 X85.7291 Y32.4117
G01 X86.7808 Y31.3601
G01 X86.8199 Y31.3247
G01 X86.8633 Y31.2925
G01 X86.9096 Y31.2647
G01 X86.9573 Y31.2421
G01 X87.0093 Y31.2234
G01 X87.0617 Y31.2103
G01 X87.1151 Y31.2024
G01 X87.1678 Y31.1998
G01 X88.8147 Y31.1997
G01 X88.8812 Y31.0889
G01 X88.9703 Y30.9686
G01 X89.0740 Y30.8540
G01 X89.1886 Y30.7503
G01 X89.3089 Y30.6612
G01 X89.4372 Y30.5842
G01 X89.5768 Y30.5180
G01 X89.7224 Y30.4661
G01 X89.8676 Y30.4298
G01 X90.0156 Y30.4078
G01 X90.1712 Y30.4000
G01 X90.3219 Y30.4075
G01 X90.4700 Y30.4294
G01 X90.6199 Y30.4667
G01 X90.7654 Y30.5190
G01 X90.9007 Y30.5830
G01 X91.0291 Y30.6599
G01 X91.1533 Y30.7518
G01 X91.2677 Y30.8558
G01 X91.3682 Y30.9667
G01 X91.4574 Y31.0869
G01 X91.5364 Y31.2183
G01 X91.6020 Y31.3568
G01 X91.6533 Y31.5001
G01 X91.6902 Y31.6476
G01 X91.7125 Y31.7981
G01 X91.7200 Y31.9500
G01 X91.7200 Y32.9500
G01 X91.7126 Y33.1007
G01 X91.6902 Y33.2524
G01 X91.6533 Y33.3999
G01 X91.6020 Y33.5432
G01 X91.5381 Y33.6785
G01 X91.4574 Y33.8131
G01 X91.3682 Y33.9333
G01 X91.2642 Y34.0477
G01 X91.1533 Y34.1482
G01 X91.0311 Y34.2388
G01 X90.9007 Y34.3170
G01 X90.7632 Y34.3820
G01 X90.6199 Y34.4333
G01 X90.4724 Y34.4702
G01 X90.3219 Y34.4925
G01 X90.1712 Y34.5000
G01 X90.0181 Y34.4925
G01 X89.8652 Y34.4697
G01 X89.7201 Y34.4333
G01 X89.5791 Y34.3829
G01 X89.4393 Y34.3170
G01 X89.3089 Y34.2388
G01 X89.1848 Y34.1466
G01 X89.0740 Y34.0460
G01 X88.9734 Y33.9352
G01 X88.8819 Y33.8121
G01 X88.8030 Y33.6807
G01 X88.7380 Y33.5432
G01 X88.6867 Y33.3999
G01 X88.6496 Y33.2512
G01 X88.6275 Y33.1019
G01 X88.6200 Y32.9512
G01 X88.6200 Y32.3003
G01 X87.3969 Y32.3003
G01 X86.3461 Y33.3511
G01 X86.3070 Y33.3866
G01 X86.2606 Y33.4208
G01 X86.2164 Y33.4473
G01 X86.1676 Y33.4704
G01 X86.1167 Y33.4886
G01 X86.0667 Y33.5011
G01 X86.0085 Y33.5098
G01 X85.9570 Y33.5123
G01 X69.0830 Y33.5123
G01 X69.0266 Y33.5093
G01 X68.9757 Y33.5017
G01 X68.9244 Y33.4889
G01 X68.8724 Y33.4704
G01 X68.8215 Y33.4461
G01 X68.7773 Y33.4195
G01 X68.7359 Y33.3889
G01 X68.6939 Y33.3511
G01 X66.9201 Y31.5772
G01 X66.8831 Y31.5361
G01 X66.8525 Y31.4947
G01 X66.8259 Y31.4505
G01 X66.8016 Y31.3996
G01 X66.7834 Y31.3487
G01 X66.7699 Y31.2939
G01 X66.7624 Y31.2429
G01 X66.7598 Y31.1915
G01 X66.7597 Y30.7284
G01 X66.7418 Y30.6904
G01 X66.7223 Y30.6359
G01 X66.7071 Y30.5762
G01 X66.6980 Y30.5153
G01 X66.6950 Y30.4550
G01 X66.6950 Y27.5838
G01 X66.6980 Y27.5247
G01 X66.7074 Y27.4626
G01 X66.7223 Y27.4041
G01 X66.7418 Y27.3496
G01 X66.7597 Y27.3116
G01 X66.7597 Y26.0693
G01 X61.4909 Y26.0693
G01 X59.2302 Y28.3299
G01 X59.1911 Y28.3653
G01 X59.1477 Y28.3975
G01 X59.1014 Y28.4253
G01 X59.0548 Y28.4474
G01 X58.9994 Y28.4672
G01 X58.9493 Y28.4797
G01 X58.8947 Y28.4877
G01 X58.8420 Y28.4903
G01 X41.9100 Y28.4903
G01 X41.7088 Y28.4900
G01 X41.6537 Y28.4871
G01 X41.6027 Y28.4794
G01 X41.5527 Y28.4670
G01 X41.4995 Y28.4481
G01 X41.4507 Y28.4251
G01 X41.4044 Y28.3973
G01 X41.3592 Y28.3636
G01 X41.3211 Y28.3289
G01 X41.2864 Y28.2908
G01 X41.2527 Y28.2456
G01 X41.2238 Y28.1971
G01 X41.2019 Y28.1505
G01 X41.1845 Y28.1020
G01 X41.1706 Y28.0473
G01 X41.1625 Y27.9915
G01 X41.1600 Y27.9400
G01 X41.1625 Y27.8885
G01 X41.1706 Y27.8327
G01 X41.1845 Y27.7780
G01 X41.2019 Y27.7295
G01 X41.2238 Y27.6829
G01 X41.2527 Y27.6344
G01 X41.2864 Y27.5892
G01 X41.3211 Y27.5511
G01 X41.3592 Y27.5164
G01 X41.4044 Y27.4827
G01 X41.4529 Y27.4538
G01 X41.4995 Y27.4319
G01 X41.5480 Y27.4145
G01 X41.6027 Y27.4006
G01 X41.6585 Y27.3925
G01 X41.7100 Y27.3900
G01 X41.9100 Y27.3897
G01 X58.6141 Y27.3897
G01 X60.8748 Y25.1291
G01 X60.9139 Y25.0937
G01 X60.9573 Y25.0615
G01 X61.0036 Y25.0337
G01 X61.0524 Y25.0106
G01 X61.1033 Y24.9924
G01 X61.1557 Y24.9793
G01 X61.2091 Y24.9714
G01 X61.2630 Y24.9687
G01 X64.6667 Y24.9687
G01 X64.6667 Y15.1529
G01 X62.9071 Y13.3933
G01 X38.4539 Y13.3933
G01 X23.4103 Y28.4369
G01 X23.4103 Y29.9451
G01 X23.4219 Y29.9610
G01 X23.4559 Y30.0179
G01 X23.4836 Y30.0767
G01 X23.5056 Y30.1379
G01 X23.5224 Y30.2057
G01 X23.5317 Y30.2688
G01 X23.5350 Y30.3338
G01 X23.5350 Y33.0850
G01 X23.5317 Y33.1512
G01 X23.5220 Y33.2167
G01 X23.5059 Y33.2809
G01 X23.4836 Y33.3433
G01 X23.4564 Y33.4010
G01 X23.4198 Y33.4620
G01 X23.3818 Y33.5132
G01 X23.3373 Y33.5623
G01 X23.2882 Y33.6068
G01 X23.2370 Y33.6448
G01 X23.1760 Y33.6814
G01 X23.1183 Y33.7086
G01 X23.0559 Y33.7309
G01 X22.9917 Y33.7470
G01 X22.9274 Y33.7566
G01 X22.8600 Y33.7600
G01 X22.7938 Y33.7567
G01 X22.7283 Y33.7470
G01 X22.6641 Y33.7309
G01 X22.6017 Y33.7086
G01 X22.5418 Y33.6803
G01 X22.4850 Y33.6462
G01 X22.4318 Y33.6068
G01 X22.3827 Y33.5623
G01 X22.3382 Y33.5132
G01 X22.2988 Y33.4600
G01 X22.2647 Y33.4032
G01 X22.2364 Y33.3433
G01 X22.2141 Y33.2809
G01 X22.1980 Y33.2167
G01 X22.1884 Y33.1524
G01 X22.1850 Y33.0850
G01 X22.1850 Y30.3338
G01 X22.1883 Y30.2688
G01 X22.1976 Y30.2057
G01 X22.2144 Y30.1379
G01 X22.2364 Y30.0767
G01 X22.2641 Y30.0179
G01 X22.2981 Y29.9610
G01 X22.3097 Y29.9451
G01 X22.3098 Y28.2065
G00 X22.3098 Y28.2065
G01 F60.00
G01 Z-0.1200
G01 F120.00
G01 X22.3124 Y28.1551
G01 X22.3203 Y28.1017
G01 X22.3334 Y28.0493
G01 X22.3516 Y27.9984
G01 X22.3747 Y27.9496
G01 X22.4025 Y27.9033
G01 X22.4347 Y27.8599
G01 X22.4709 Y27.8199
G01 X37.8369 Y12.4539
G01 X37.8769 Y12.4177
G01 X37.9203 Y12.3855
G01 X37.9666 Y12.3577
G01 X38.0166 Y12.3342
G01 X38.0663 Y12.3164
G01 X38.1187 Y12.3033
G01 X38.1721 Y12.2954
G01 X38.2260 Y12.2927
G01 X63.1350 Y12.2927
G01 X63.1877 Y12.2953
G01 X63.2423 Y12.3033
G01 X63.2924 Y12.3158
G01 X63.3478 Y12.3356
G01 X63.3944 Y12.3577
G01 X63.4407 Y12.3855
G01 X63.4841 Y12.4177
G01 X63.5232 Y12.4531
G01 X65.6069 Y14.5368
G01 X65.6439 Y14.5779
G01 X65.6745 Y14.6193
G01 X65.7011 Y14.6635
G01 X65.7254 Y14.7144
G01 X65.7436 Y14.7653
G01 X65.7571 Y14.8201
G01 X65.7646 Y14.8711
G01 X65.7673 Y14.9250
G01 X65.7673 Y24.9687
G01 X67.3100 Y24.9687
G01 X67.3664 Y24.9717
G01 X67.4197 Y24.9799
G01 X67.4697 Y24.9924
G01 X67.5183 Y25.0098
G01 X67.5694 Y25.0337
G01 X67.6157 Y25.0615
G01 X67.6609 Y25.0953
G01 X67.6991 Y25.1299
G01 X67.7337 Y25.1681
G01 X67.7675 Y25.2133
G01 X67.7964 Y25.2618
G01 X67.8184 Y25.3084
G01 X67.8366 Y25.3593
G01 X67.8497 Y25.4117
G01 X67.8578 Y25.4675
G01 X67.8603 Y25.5190
G01 X67.8603 Y27.3116
G01 X67.8782 Y27.3496
G01 X67.8977 Y27.4041
G01 X67.9129 Y27.4638
G01 X67.9220 Y27.5247
G01 X67.9250 Y27.5850
G01 X67.9250 Y30.4562
G01 X67.9220 Y30.5153
G01 X67.9126 Y30.5774
G01 X67.8977 Y30.6359
G01 X67.8782 Y30.6904
G01 X67.8603 Y30.7284
G01 X67.8603 Y30.9611
G01 X69.3109 Y32.4117
G01 X85.7291 Y32.4117
G01 X86.7808 Y31.3601
G01 X86.8199 Y31.3247
G01 X86.8633 Y31.2925
G01 X86.9096 Y31.2647
G01 X86.9573 Y31.2421
G01 X87.0093 Y31.2234
G01 X87.0617 Y31.2103
G01 X87.1151 Y31.2024
G01 X87.1678 Y31.1998
G01 X88.8147 Y31.1997
G01 X88.8812 Y31.0889
G01 X88.9703 Y30.9686
G01 X89.0740 Y30.8540
G01 X89.1886 Y30.7503
G01 X89.3089 Y30.6612
G01 X89.4372 Y30.5842
G01 X89.5768 Y30.5180
G01 X89.7224 Y30.4661
G01 X89.8676 Y30.4298
G01 X90.0156 Y30.4078
G01 X90.1712 Y30.4000
G01 X90.3219 Y30.4075
G01 X90.4700 Y30.4294
G01 X90.6199 Y30.4667
G01 X90.7654 Y30.5190
G01 X90.9007 Y30.5830
G01 X91.0291 Y30.6599
G01 X91.1533 Y30.7518
G01 X91.2677 Y30.8558
G01 X91.3682 Y30.9667
G01 X91.4574 Y31.0869
G01 X91.5364 Y31.2183
G01 X91.6020 Y31.3568
G01 X91.6533 Y31.5001
G01 X91.6902 Y31.6476
G01 X91.7125 Y31.7981
G01 X91.7200 Y31.9500
G01 X91.7200 Y32.9500
G01 X91.7126 Y33.1007
G01 X91.6902 Y33.2524
G01 X91.6533 Y33.3999
G01 X91.6020 Y33.5432
G01 X91.5381 Y33.6785
G01 X91.4574 Y33.8131
G01 X91.3682 Y33.9333
G01 X91.2642 Y34.0477
G01 X91.1533 Y34.1482
G01 X91.0311 Y34.2388
G01 X90.9007 Y34.3170
G01 X90.7632 Y34.3820
G01 X90.6199 Y34.4333
G01 X90.4724 Y34.4702
G01 X90.3219 Y34.4925
G01 X90.1712 Y34.5000
G01 X90.0181 Y34.4925
G01 X89.8652 Y34.4697
G01 X89.7201 Y34.4333
G01 X89.5791 Y34.3829
G01 X89.4393 Y34.3170
G01 X89.3089 Y34.2388
G01 X89.1848 Y34.1466
G01 X89.0740 Y34.0460
G01 X88.9734 Y33.9352
G01 X88.8819 Y33.8121
G01 X88.8030 Y33.6807
G01 X88.7380 Y33.5432
G01 X88.6867 Y33.3999
G01 X88.6496 Y33.2512
G01 X88.6275 Y33.1019
G01 X88.6200 Y32.9512
G01 X88.6200 Y32.3003
G01 X87.3969 Y32.3003
G01 X86.3461 Y33.3511
G01 X86.3070 Y33.3866
G01 X86.2606 Y33.4208
G01 X86.2164 Y33.4473
G01 X86.1676 Y33.4704
G01 X86.1167 Y33.4886
G01 X86.0667 Y33.5011
G01 X86.0085 Y33.5098
G01 X85.9570 Y33.5123
G01 X69.0830 Y33.5123
G01 X69.0266 Y33.5093
G01 X68.9757 Y33.5017
G01 X68.9244 Y33.4889
G01 X68.8724 Y33.4704
G01 X68.8215 Y33.4461
G01 X68.7773 Y33.4195
G01 X68.7359 Y33.3889
G01 X68.6939 Y33.3511
G01 X66.9201 Y31.5772
G01 X66.8831 Y31.5361
G01 X66.8525 Y31.4947
G01 X66.8259 Y31.4505
G01 X66.8016 Y31.3996
G01 X66.7834 Y31.3487
G01 X66.7699 Y31.2939
G01 X66.7624 Y31.2429
G01 X66.7598 Y31.1915
G01 X66.7597 Y30.7284
G01 X66.7418 Y30.6904
G01 X66.7223 Y30.6359
G01 X66.7071 Y30.5762
G01 X66.6980 Y30.5153
G01 X66.6950 Y30.4550
G01 X66.6950 Y27.5838
G01 X66.6980 Y27.5247
G01 X66.7074 Y27.4626
G01 X66.7223 Y27.4041
G01 X66.7418 Y27.3496
G01 X66.7597 Y27.3116
G01 X66.7597 Y26.0693
G01 X61.4909 Y26.0693
G01 X59.2302 Y28.3299
G01 X59.1911 Y28.3653
G01 X59.1477 Y28.3975
G01 X59.1014 Y28.4253
G01 X59.0548 Y28.4474
G01 X58.9994 Y28.4672
G01 X58.9493 Y28.4797
G01 X58.8947 Y28.4877
G01 X58.8420 Y28.4903
G01 X41.9100 Y28.4903
G01 X41.7088 Y28.4900
G01 X41.6537 Y28.4871
G01 X41.6027 Y28.4794
G01 X41.5527 Y28.4670
G01 X41.4995 Y28.4481
G01 X41.4507 Y28.4251
G01 X41.4044 Y28.3973
G01 X41.3592 Y28.3636
G01 X41.3211 Y28.3289
G01 X41.2864 Y28.2908
G01 X41.2527 Y28.2456
G01 X41.2238 Y28.1971
G01 X41.2019 Y28.1505
G01 X41.1845 Y28.1020
G01 X41.1706 Y28.0473
G01 X41.1625 Y27.9915
G01 X41.1600 Y27.9400
G01 X41.1625 Y27.8885
G01 X41.1706 Y27.8327
G01 X41.1845 Y27.7780
G01 X41.2019 Y27.7295
G01 X41.2238 Y27.6829
G01 X41.2527 Y27.6344
G01 X41.2864 Y27.5892
G01 X41.3211 Y27.5511
G01 X41.3592 Y27.5164
G01 X41.4044 Y27.4827
G01 X41.4529 Y27.4538
G01 X41.4995 Y27.4319
G01 X41.5480 Y27.4145
G01 X41.6027 Y27.4006
G01 X41.6585 Y27.3925
G01 X41.7100 Y27.3900
G01 X41.9100 Y27.3897
G01 X58.6141 Y27.3897
G01 X60.8748 Y25.1291
G01 X60.9139 Y25.0937
G01 X60.9573 Y25.0615
G01 X61.0036 Y25.0337
G01 X61.0524 Y25.0106
G01 X61.1033 Y24.9924
G01 X61.1557 Y24.9793
G01 X61.2091 Y24.9714
G01 X61.2630 Y24.9687
G01 X64.6667 Y24.9687
G01 X64.6667 Y15.1529
G01 X62.9071 Y13.3933
G01 X38.4539 Y13.3933
G01 X23.4103 Y28.4369
G01 X23.4103 Y29.9451
G01 X23.4219 Y29.9610
G01 X23.4559 Y30.0179
G01 X23.4836 Y30.0767
G01 X23.5056 Y30.1379
G01 X23.5224 Y30.2057
G01 X23.5317 Y30.2688
G01 X23.5350 Y30.3338
G01 X23.5350 Y33.0850
G01 X23.5317 Y33.1512
G01 X23.5220 Y33.2167
G01 X23.5059 Y33.2809
G01 X23.4836 Y33.3433
G01 X23.4564 Y33.4010
G01 X23.4198 Y33.4620
G01 X23.3818 Y33.5132
G01 X23.3373 Y33.5623
G01 X23.2882 Y33.6068
G01 X23.2370 Y33.6448
G01 X23.1760 Y33.6814
G01 X23.1183 Y33.7086
G01 X23.0559 Y33.7309
G01 X22.9917 Y33.7470
G01 X22.9274 Y33.7566
G01 X22.8600 Y33.7600
G01 X22.7938 Y33.7567
G01 X22.7283 Y33.7470
G01 X22.6641 Y33.7309
G01 X22.6017 Y33.7086
G01 X22.5418 Y33.6803
G01 X22.4850 Y33.6462
G01 X22.4318 Y33.6068
G01 X22.3827 Y33.5623
G01 X22.3382 Y33.5132
G01 X22.2988 Y33.4600
G01 X22.2647 Y33.4032
G01 X22.2364 Y33.3433
G01 X22.2141 Y33.2809
G01 X22.1980 Y33.2167
G01 X22.1884 Y33.1524
G01 X22.1850 Y33.0850
G01 X22.1850 Y30.3338
G01 X22.1883 Y30.2688
G01 X22.1976 Y30.2057
G01 X22.2144 Y30.1379
G01 X22.2364 Y30.0767
G01 X22.2641 Y30.0179
G01 X22.2981 Y29.9610
G01 X22.3097 Y29.9451
G01 X22.3098 Y28.2065
G00 X22.3098 Y28.2065
G01 F60.00
G01 Z-0.1800
G01 F120.00
G01 X22.3124 Y28.1551
G01 X22.3203 Y28.1017
G01 X22.3334 Y28.0493
G01 X22.3516 Y27.9984
G01 X22.3747 Y27.9496
G01 X22.4025 Y27.9033
G01 X22.4347 Y27.8599
G01 X22.4709 Y27.8199
G01 X37.8369 Y12.4539
G01 X37.8769 Y12.4177
G01 X37.9203 Y12.3855
G01 X37.9666 Y12.3577
G01 X38.0166 Y12.3342
G01 X38.0663 Y12.3164
G01 X38.1187 Y12.3033
G01 X38.1721 Y12.2954
G01 X38.2260 Y12.2927
G01 X63.1350 Y12.2927
G01 X63.1877 Y12.2953
G01 X63.2423 Y12.3033
G01 X63.2924 Y12.3158
G01 X63.3478 Y12.3356
G01 X63.3944 Y12.3577
G01 X63.4407 Y12.3855
G01 X63.4841 Y12.4177
G01 X63.5232 Y12.4531
G01 X65.6069 Y14.5368
G01 X65.6439 Y14.5779
G01 X65.6745 Y14.6193
G01 X65.7011 Y14.6635
G01 X65.7254 Y14.7144
G01 X65.7436 Y14.7653
G01 X65.7571 Y14.8201
G01 X65.7646 Y14.8711
G01 X65.7673 Y14.9250
G01 X65.7673 Y24.9687
G01 X67.3100 Y24.9687
G01 X67.3664 Y24.9717
G01 X67.4197 Y24.9799
G01 X67.4697 Y24.9924
G01 X67.5183 Y25.0098
G01 X67.5694 Y25.0337
G01 X67.6157 Y25.0615
G01 X67.6609 Y25.0953
G01 X67.6991 Y25.1299
G01 X67.7337 Y25.1681
G01 X67.7675 Y25.2133
G01 X67.7964 Y25.2618
G01 X67.8184 Y25.3084
G01 X67.8366 Y25.3593
G01 X67.8497 Y25.4117
G01 X67.8578 Y25.4675
G01 X67.8603 Y25.5190
G01 X67.8603 Y27.3116
G01 X67.8782 Y27.3496
G01 X67.8977 Y27.4041
G01 X67.9129 Y27.4638
G01 X67.9220 Y27.5247
G01 X67.9250 Y27.5850
G01 X67.9250 Y30.4562
G01 X67.9220 Y30.5153
G01 X67.9126 Y30.5774
G01 X67.8977 Y30.6359
G01 X67.8782 Y30.6904
G01 X67.8603 Y30.7284
G01 X67.8603 Y30.9611
G01 X69.3109 Y32.4117
G01 X85.7291 Y32.4117
G01 X86.7808 Y31.3601
G01 X86.8199 Y31.3247
G01 X86.8633 Y31.2925
G01 X86.9096 Y31.2647
G01 X86.9573 Y31.2421
G01 X87.0093 Y31.2234
G01 X87.0617 Y31.2103
G01 X87.1151 Y31.2024
G01 X87.1678 Y31.1998
G01 X88.8147 Y31.1997
G01 X88.8812 Y31.0889
G01 X88.9703 Y30.9686
G01 X89.0740 Y30.8540
G01 X89.1886 Y30.7503
G01 X89.3089 Y30.6612
G01 X89.4372 Y30.5842
G01 X89.5768 Y30.5180
G01 X89.7224 Y30.4661
G01 X89.8676 Y30.4298
G01 X90.0156 Y30.4078
G01 X90.1712 Y30.4000
G01 X90.3219 Y30.4075
G01 X90.4700 Y30.4294
G01 X90.6199 Y30.4667
G01 X90.7654 Y30.5190
G01 X90.9007 Y30.5830
G01 X91.0291 Y30.6599
G01 X91.1533 Y30.7518
G01 X91.2677 Y30.8558
G01 X91.3682 Y30.9667
G01 X91.4574 Y31.0869
G01 X91.5364 Y31.2183
G01 X91.6020 Y31.3568
G01 X91.6533 Y31.5001
G01 X91.6902 Y31.6476
G01 X91.7125 Y31.7981
G01 X91.7200 Y31.9500
G01 X91.7200 Y32.9500
G01 X91.7126 Y33.1007
G01 X91.6902 Y33.2524
G01 X91.6533 Y33.3999
G01 X91.6020 Y33.5432
G01 X91.5381 Y33.6785
G01 X91.4574 Y33.8131
G01 X91.3682 Y33.9333
G01 X91.2642 Y34.0477
G01 X91.1533 Y34.1482
G01 X91.0311 Y34.2388
G01 X90.9007 Y34.3170
G01 X90.7632 Y34.3820
G01 X90.6199 Y34.4333
G01 X90.4724 Y34.4702
G01 X90.3219 Y34.4925
G01 X90.1712 Y34.5000
G01 X90.0181 Y34.4925
G01 X89.8652 Y34.4697
G01 X89.7201 Y34.4333
G01 X89.5791 Y34.3829
G01 X89.4393 Y34.3170
G01 X89.3089 Y34.2388
G01 X89.1848 Y34.1466
G01 X89.0740 Y34.0460
G01 X88.9734 Y33.9352
G01 X88.8819 Y33.8121
G01 X88.8030 Y33.6807
G01 X88.7380 Y33.5432
G01 X88.6867 Y33.3999
G01 X88.6496 Y33.2512
G01 X88.6275 Y33.1019
G01 X88.6200 Y32.9512
G01 X88.6200 Y32.3003
G01 X87.3969 Y32.3003
G01 X86.3461 Y33.3511
G01 X86.3070 Y33.3866
G01 X86.2606 Y33.4208
G01 X86.2164 Y33.4473
G01 X86.1676 Y33.4704
G01 X86.1167 Y33.4886
G01 X86.0667 Y33.5011
G01 X86.0085 Y33.5098
G01 X85.9570 Y33.5123
G01 X69.0830 Y33.5123
G01 X69.0266 Y33.5093
G01 X68.9757 Y33.5017
G01 X68.9244 Y33.4889
G01 X68.8724 Y33.4704
G01 X68.8215 Y33.4461
G01 X68.7773 Y33.4195
G01 X68.7359 Y33.3889
G01 X68.6939 Y33.3511
G01 X66.9201 Y31.5772
G01 X66.8831 Y31.5361
G01 X66.8525 Y31.4947
G01 X66.8259 Y31.4505
G01 X66.8016 Y31.3996
G01 X66.7834 Y31.3487
G01 X66.7699 Y31.2939
G01 X66.7624 Y31.2429
G01 X66.7598 Y31.1915
G01 X66.7597 Y30.7284
G01 X66.7418 Y30.6904
G01 X66.7223 Y30.6359
G01 X66.7071 Y30.5762
G01 X66.6980 Y30.5153
G01 X66.6950 Y30.4550
G01 X66.6950 Y27.5838
G01 X66.6980 Y27.5247
G01 X66.7074 Y27.4626
G01 X66.7223 Y27.4041
G01 X66.7418 Y27.3496
G01 X66.7597 Y27.3116
G01 X66.7597 Y26.0693
G01 X61.4909 Y26.0693
G01 X59.2302 Y28.3299
G01 X59.1911 Y28.3653
G01 X59.1477 Y28.3975
G01 X59.1014 Y28.4253
G01 X59.0548 Y28.4474
G01 X58.9994 Y28.4672
G01 X58.9493 Y28.4797
G01 X58.8947 Y28.4877
G01 X58.8420 Y28.4903
G01 X41.9100 Y28.4903
G01 X41.7088 Y28.4900
G01 X41.6537 Y28.4871
G01 X41.6027 Y28.4794
G01 X41.5527 Y28.4670
G01 X41.4995 Y28.4481
G01 X41.4507 Y28.4251
G01 X41.4044 Y28.3973
G01 X41.3592 Y28.3636
G01 X41.3211 Y28.3289
G01 X41.2864 Y28.2908
G01 X41.2527 Y28.2456
G01 X41.2238 Y28.1971
G01 X41.2019 Y28.1505
G01 X41.1845 Y28.1020
G01 X41.1706 Y28.0473
G01 X41.1625 Y27.9915
G01 X41.1600 Y27.9400
G01 X41.1625 Y27.8885
G01 X41.1706 Y27.8327
G01 X41.1845 Y27.7780
G01 X41.2019 Y27.7295
G01 X41.2238 Y27.6829
G01 X41.2527 Y27.6344
G01 X41.2864 Y27.5892
G01 X41.3211 Y27.5511
G01 X41.3592 Y27.5164
G01 X41.4044 Y27.4827
G01 X41.4529 Y27.4538
G01 X41.4995 Y27.4319
G01 X41.5480 Y27.4145
G01 X41.6027 Y27.4006
G01 X41.6585 Y27.3925
G01 X41.7100 Y27.3900
G01 X41.9100 Y27.3897
G01 X58.6141 Y27.3897
G01 X60.8748 Y25.1291
G01 X60.9139 Y25.0937
G01 X60.9573 Y25.0615
G01 X61.0036 Y25.0337
G01 X61.0524 Y25.0106
G01 X61.1033 Y24.9924
G01 X61.1557 Y24.9793
G01 X61.2091 Y24.9714
G01 X61.2630 Y24.9687
G01 X64.6667 Y24.9687
G01 X64.6667 Y15.1529
G01 X62.9071 Y13.3933
G01 X38.4539 Y13.3933
G01 X23.4103 Y28.4369
G01 X23.4103 Y29.9451
G01 X23.4219 Y29.9610
G01 X23.4559 Y30.0179
G01 X23.4836 Y30.0767
G01 X23.5056 Y30.1379
G01 X23.5224 Y30.2057
G01 X23.5317 Y30.2688
G01 X23.5350 Y30.3338
G01 X23.5350 Y33.0850
G01 X23.5317 Y33.1512
G01 X23.5220 Y33.2167
G01 X23.5059 Y33.2809
G01 X23.4836 Y33.3433
G01 X23.4564 Y33.4010
G01 X23.4198 Y33.4620
G01 X23.3818 Y33.5132
G01 X23.3373 Y33.5623
G01 X23.2882 Y33.6068
G01 X23.2370 Y33.6448
G01 X23.1760 Y33.6814
G01 X23.1183 Y33.7086
G01 X23.0559 Y33.7309
G01 X22.9917 Y33.7470
G01 X22.9274 Y33.7566
G01 X22.8600 Y33.7600
G01 X22.7938 Y33.7567
G01 X22.7283 Y33.7470
G01 X22.6641 Y33.7309
G01 X22.6017 Y33.7086
G01 X22.5418 Y33.6803
G01 X22.4850 Y33.6462
G01 X22.4318 Y33.6068
G01 X22.3827 Y33.5623
G01 X22.3382 Y33.5132
G01 X22.2988 Y33.4600
G01 X22.2647 Y33.4032
G01 X22.2364 Y33.3433
G01 X22.2141 Y33.2809
G01 X22.1980 Y33.2167
G01 X22.1884 Y33.1524
G01 X22.1850 Y33.0850
G01 X22.1850 Y30.3338
G01 X22.1883 Y30.2688
G01 X22.1976 Y30.2057
G01 X22.2144 Y30.1379
G01 X22.2364 Y30.0767
G01 X22.2641 Y30.0179
G01 X22.2981 Y29.9610
G01 X22.3097 Y29.9451
G01 X22.3098 Y28.2065
G00 X22.3098 Y28.2065
G01 F60.00
G01 Z-0.2000
G01 F120.00
G01 X22.3124 Y28.1551
G01 X22.3203 Y28.1017
G01 X22.3334 Y28.0493
G01 X22.3516 Y27.9984
G01 X22.3747 Y27.9496
G01 X22.4025 Y27.9033
G01 X22.4347 Y27.8599
G01 X22.4709 Y27.8199
G01 X37.8369 Y12.4539
G01 X37.8769 Y12.4177
G01 X37.9203 Y12.3855
G01 X37.9666 Y12.3577
G01 X38.0166 Y12.3342
G01 X38.0663 Y12.3164
G01 X38.1187 Y12.3033
G01 X38.1721 Y12.2954
G01 X38.2260 Y12.2927
G01 X63.1350 Y12.2927
G01 X63.1877 Y12.2953
G01 X63.2423 Y12.3033
G01 X63.2924 Y12.3158
G01 X63.3478 Y12.3356
G01 X63.3944 Y12.3577
G01 X63.4407 Y12.3855
G01 X63.4841 Y12.4177
G01 X63.5232 Y12.4531
G01 X65.6069 Y14.5368
G01 X65.6439 Y14.5779
G01 X65.6745 Y14.6193
G01 X65.7011 Y14.6635
G01 X65.7254 Y14.7144
G01 X65.7436 Y14.7653
G01 X65.7571 Y14.8201
G01 X65.7646 Y14.8711
G01 X65.7673 Y14.9250
G01 X65.7673 Y24.9687
G01 X67.3100 Y24.9687
G01 X67.3664 Y24.9717
G01 X67.4197 Y24.9799
G01 X67.4697 Y24.9924
G01 X67.5183 Y25.0098
G01 X67.5694 Y25.0337
G01 X67.6157 Y25.0615
G01 X67.6609 Y25.0953
G01 X67.6991 Y25.1299
G01 X67.7337 Y25.1681
G01 X67.7675 Y25.2133
G01 X67.7964 Y25.2618
G01 X67.8184 Y25.3084
G01 X67.8366 Y25.3593
G01 X67.8497 Y25.4117
G01 X67.8578 Y25.4675
G01 X67.8603 Y25.5190
G01 X67.8603 Y27.3116
G01 X67.8782 Y27.3496
G01 X67.8977 Y27.4041
G01 X67.9129 Y27.4638
G01 X67.9220 Y27.5247
G01 X67.9250 Y27.5850
G01 X67.9250 Y30.4562
G01 X67.9220 Y30.5153
G01 X67.9126 Y30.5774
G01 X67.8977 Y30.6359
G01 X67.8782 Y30.6904
G01 X67.8603 Y30.7284
G01 X67.8603 Y30.9611
G01 X69.3109 Y32.4117
G01 X85.7291 Y32.4117
G01 X86.7808 Y31.3601
G01 X86.8199 Y31.3247
G01 X86.8633 Y31.2925
G01 X86.9096 Y31.2647
G01 X86.9573 Y31.2421
G01 X87.0093 Y31.2234
G01 X87.0617 Y31.2103
G01 X87.1151 Y31.2024
G01 X87.1678 Y31.1998
G01 X88.8147 Y31.1997
G01 X88.8812 Y31.0889
G01 X88.9703 Y30.9686
G01 X89.0740 Y30.8540
G01 X89.1886 Y30.7503
G01 X89.3089 Y30.6612
G01 X89.4372 Y30.5842
G01 X89.5768 Y30.5180
G01 X89.7224 Y30.4661
G01 X89.8676 Y30.4298
G01 X90.0156 Y30.4078
G01 X90.1712 Y30.4000
G01 X90.3219 Y30.4075
G01 X90.4700 Y30.4294
G01 X90.6199 Y30.4667
G01 X90.7654 Y30.5190
G01 X90.9007 Y30.5830
G01 X91.0291 Y30.6599
G01 X91.1533 Y30.7518
G01 X91.2677 Y30.8558
G01 X91.3682 Y30.9667
G01 X91.4574 Y31.0869
G01 X91.5364 Y31.2183
G01 X91.6020 Y31.3568
G01 X91.6533 Y31.5001
G01 X91.6902 Y31.6476
G01 X91.7125 Y31.7981
G01 X91.7200 Y31.9500
G01 X91.7200 Y32.9500
G01 X91.7126 Y33.1007
G01 X91.6902 Y33.2524
G01 X91.6533 Y33.3999
G01 X91.6020 Y33.5432
G01 X91.5381 Y33.6785
G01 X91.4574 Y33.8131
G01 X91.3682 Y33.9333
G01 X91.2642 Y34.0477
G01 X91.1533 Y34.1482
G01 X91.0311 Y34.2388
G01 X90.9007 Y34.3170
G01 X90.7632 Y34.3820
G01 X90.6199 Y34.4333
G01 X90.4724 Y34.4702
G01 X90.3219 Y34.4925
G01 X90.1712 Y34.5000
G01 X90.0181 Y34.4925
G01 X89.8652 Y34.4697
G01 X89.7201 Y34.4333
G01 X89.5791 Y34.3829
G01 X89.4393 Y34.3170
G01 X89.3089 Y34.2388
G01 X89.1848 Y34.1466
G01 X89.0740 Y34.0460
G01 X88.9734 Y33.9352
G01 X88.8819 Y33.8121
G01 X88.8030 Y33.6807
G01 X88.7380 Y33.5432
G01 X88.6867 Y33.3999
G01 X88.6496 Y33.2512
G01 X88.6275 Y33.1019
G01 X88.6200 Y32.9512
G01 X88.6200 Y32.3003
G01 X87.3969 Y32.3003
G01 X86.3461 Y33.3511
G01 X86.3070 Y33.3866
G01 X86.2606 Y33.4208
G01 X86.2164 Y33.4473
G01 X86.1676 Y33.4704
G01 X86.1167 Y33.4886
G01 X86.0667 Y33.5011
G01 X86.0085 Y33.5098
G01 X85.9570 Y33.5123
G01 X69.0830 Y33.5123
G01 X69.0266 Y33.5093
G01 X68.9757 Y33.5017
G01 X68.9244 Y33.4889
G01 X68.8724 Y33.4704
G01 X68.8215 Y33.4461
G01 X68.7773 Y33.4195
G01 X68.7359 Y33.3889
G01 X68.6939 Y33.3511
G01 X66.9201 Y31.5772
G01 X66.8831 Y31.5361
G01 X66.8525 Y31.4947
G01 X66.8259 Y31.4505
G01 X66.8016 Y31.3996
G01 X66.7834 Y31.3487
G01 X66.7699 Y31.2939
G01 X66.7624 Y31.2429
G01 X66.7598 Y31.1915
G01 X66.7597 Y30.7284
G01 X66.7418 Y30.6904
G01 X66.7223 Y30.6359
G01 X66.7071 Y30.5762
G01 X66.6980 Y30.5153
G01 X66.6950 Y30.4550
G01 X66.6950 Y27.5838
G01 X66.6980 Y27.5247
G01 X66.7074 Y27.4626
G01 X66.7223 Y27.4041
G01 X66.7418 Y27.3496
G01 X66.7597 Y27.3116
G01 X66.7597 Y26.0693
G01 X61.4909 Y26.0693
G01 X59.2302 Y28.3299
G01 X59.1911 Y28.3653
G01 X59.1477 Y28.3975
G01 X59.1014 Y28.4253
G01 X59.0548 Y28.4474
G01 X58.9994 Y28.4672
G01 X58.9493 Y28.4797
G01 X58.8947 Y28.4877
G01 X58.8420 Y28.4903
G01 X41.9100 Y28.4903
G01 X41.7088 Y28.4900
G01 X41.6537 Y28.4871
G01 X41.6027 Y28.4794
G01 X41.5527 Y28.4670
G01 X41.4995 Y28.4481
G01 X41.4507 Y28.4251
G01 X41.4044 Y28.3973
G01 X41.3592 Y28.3636
G01 X41.3211 Y28.3289
G01 X41.2864 Y28.2908
G01 X41.2527 Y28.2456
G01 X41.2238 Y28.1971
G01 X41.2019 Y28.1505
G01 X41.1845 Y28.1020
G01 X41.1706 Y28.0473
G01 X41.1625 Y27.9915
G01 X41.1600 Y27.9400
G01 X41.1625 Y27.8885
G01 X41.1706 Y27.8327
G01 X41.1845 Y27.7780
G01 X41.2019 Y27.7295
G01 X41.2238 Y27.6829
G01 X41.2527 Y27.6344
G01 X41.2864 Y27.5892
G01 X41.3211 Y27.5511
G01 X41.3592 Y27.5164
G01 X41.4044 Y27.4827
G01 X41.4529 Y27.4538
G01 X41.4995 Y27.4319
G01 X41.5480 Y27.4145
G01 X41.6027 Y27.4006
G01 X41.6585 Y27.3925
G01 X41.7100 Y27.3900
G01 X41.9100 Y27.3897
G01 X58.6141 Y27.3897
G01 X60.8748 Y25.1291
G01 X60.9139 Y25.0937
G01 X60.9573 Y25.0615
G01 X61.0036 Y25.0337
G01 X61.0524 Y25.0106
G01 X61.1033 Y24.9924
G01 X61.1557 Y24.9793
G01 X61.2091 Y24.9714
G01 X61.2630 Y24.9687
G01 X64.6667 Y24.9687
G01 X64.6667 Y15.1529
G01 X62.9071 Y13.3933
G01 X38.4539 Y13.3933
G01 X23.4103 Y28.4369
G01 X23.4103 Y29.9451
G01 X23.4219 Y29.9610
G01 X23.4559 Y30.0179
G01 X23.4836 Y30.0767
G01 X23.5056 Y30.1379
G01 X23.5224 Y30.2057
G01 X23.5317 Y30.2688
G01 X23.5350 Y30.3338
G01 X23.5350 Y33.0850
G01 X23.5317 Y33.1512
G01 X23.5220 Y33.2167
G01 X23.5059 Y33.2809
G01 X23.4836 Y33.3433
G01 X23.4564 Y33.4010
G01 X23.4198 Y33.4620
G01 X23.3818 Y33.5132
G01 X23.3373 Y33.5623
G01 X23.2882 Y33.6068
G01 X23.2370 Y33.6448
G01 X23.1760 Y33.6814
G01 X23.1183 Y33.7086
G01 X23.0559 Y33.7309
G01 X22.9917 Y33.7470
G01 X22.9274 Y33.7566
G01 X22.8600 Y33.7600
G01 X22.7938 Y33.7567
G01 X22.7283 Y33.7470
G01 X22.6641 Y33.7309
G01 X22.6017 Y33.7086
G01 X22.5418 Y33.6803
G01 X22.4850 Y33.6462
G01 X22.4318 Y33.6068
G01 X22.3827 Y33.5623
G01 X22.3382 Y33.5132
G01 X22.2988 Y33.4600
G01 X22.2647 Y33.4032
G01 X22.2364 Y33.3433
G01 X22.2141 Y33.2809
G01 X22.1980 Y33.2167
G01 X22.1884 Y33.1524
G01 X22.1850 Y33.0850
G01 X22.1850 Y30.3338
G01 X22.1883 Y30.2688
G01 X22.1976 Y30.2057
G01 X22.2144 Y30.1379
G01 X22.2364 Y30.0767
G01 X22.2641 Y30.0179
G01 X22.2981 Y29.9610
G01 X22.3097 Y29.9451
G01 X22.3098 Y28.2065
G00 Z2.0000
G00 X36.5700 Y27.3900
G01 F60.00
G01 Z-0.0600
G01 F120.00
G01 X39.5700 Y27.3900
G01 X39.6239 Y27.3926
G01 X39.6761 Y27.4003
G01 X39.7297 Y27.4137
G01 X39.7805 Y27.4319
G01 X39.8293 Y27.4549
G01 X39.8756 Y27.4827
G01 X39.9189 Y27.5148
G01 X39.9589 Y27.5511
G01 X39.9952 Y27.5911
G01 X40.0273 Y27.6344
G01 X40.0551 Y27.6807
G01 X40.0781 Y27.7295
G01 X40.0963 Y27.7803
G01 X40.1094 Y27.8327
G01 X40.1174 Y27.8861
G01 X40.1200 Y27.9400
G01 X40.1174 Y27.9939
G01 X40.1097 Y28.0461
G01 X40.0955 Y28.1020
G01 X40.0781 Y28.1505
G01 X40.0551 Y28.1993
G01 X40.0273 Y28.2456
G01 X39.9967 Y28.2870
G01 X39.9571 Y28.3306
G01 X39.9189 Y28.3652
G01 X39.8756 Y28.3973
G01 X39.8293 Y28.4251
G01 X39.7827 Y28.4471
G01 X39.7273 Y28.4670
G01 X39.6773 Y28.4794
G01 X39.6251 Y28.4872
G01 X39.5700 Y28.4900
G01 X36.5700 Y28.4900
G01 X36.5161 Y28.4874
G01 X36.4639 Y28.4797
G01 X36.4103 Y28.4663
G01 X36.3595 Y28.4481
G01 X36.3107 Y28.4251
G01 X36.2665 Y28.3986
G01 X36.2192 Y28.3636
G01 X36.1811 Y28.3289
G01 X36.1433 Y28.2870
G01 X36.1127 Y28.2456
G01 X36.0849 Y28.1993
G01 X36.0619 Y28.1505
G01 X36.0437 Y28.0997
G01 X36.0306 Y28.0473
G01 X36.0226 Y27.9939
G01 X36.0200 Y27.9400
G01 X36.0226 Y27.8861
G01 X36.0306 Y27.8327
G01 X36.0437 Y27.7803
G01 X36.0619 Y27.7295
G01 X36.0849 Y27.6807
G01 X36.1127 Y27.6344
G01 X36.1448 Y27.5911
G01 X36.1811 Y27.5511
G01 X36.2192 Y27.5164
G01 X36.2665 Y27.4814
G01 X36.3107 Y27.4549
G01 X36.3618 Y27.4310
G01 X36.4103 Y27.4137
G01 X36.4627 Y27.4006
G01 X36.5161 Y27.3926
G01 X36.5700 Y27.3900
G00 X36.5700 Y27.3900
G01 F60.00
G01 Z-0.1200
G01 F120.00
G01 X39.5700 Y27.3900
G01 X39.6239 Y27.3926
G01 X39.6761 Y27.4003
G01 X39.7297 Y27.4137
G01 X39.7805 Y27.4319
G01 X39.8293 Y27.4549
G01 X39.8756 Y27.4827
G01 X39.9189 Y27.5148
G01 X39.9589 Y27.5511
G01 X39.9952 Y27.5911
G01 X40.0273 Y27.6344
G01 X40.0551 Y27.6807
G01 X40.0781 Y27.7295
G01 X40.0963 Y27.7803
G01 X40.1094 Y27.8327
G01 X40.1174 Y27.8861
G01 X40.1200 Y27.9400
G01 X40.1174 Y27.9939
G01 X40.1097 Y28.0461
G01 X40.0955 Y28.1020
G01 X40.0781 Y28.1505
G01 X40.0551 Y28.1993
G01 X40.0273 Y28.2456
G01 X39.9967 Y28.2870
G01 X39.9571 Y28.3306
G01 X39.9189 Y28.3652
G01 X39.8756 Y28.3973
G01 X39.8293 Y28.4251
G01 X39.7827 Y28.4471
G01 X39.7273 Y28.4670
G01 X39.6773 Y28.4794
G01 X39.6251 Y28.4872
G01 X39.5700 Y28.4900
G01 X36.5700 Y28.4900
G01 X36.5161 Y28.4874
G01 X36.4639 Y28.4797
G01 X36.4103 Y28.4663
G01 X36.3595 Y28.4481
G01 X36.3107 Y28.4251
G01 X36.2665 Y28.3986
G01 X36.2192 Y28.3636
G01 X36.1811 Y28.3289
G01 X36.1433 Y28.2870
G01 X36.1127 Y28.2456
G01 X36.0849 Y28.1993
G01 X36.0619 Y28.1505
G01 X36.0437 Y28.0997
G01 X36.0306 Y28.0473
G01 X36.0226 Y27.9939
G01 X36.0200 Y27.9400
G01 X36.0226 Y27.8861
G01 X36.0306 Y27.8327
G01 X36.0437 Y27.7803
G01 X36.0619 Y27.7295
G01 X36.0849 Y27.6807
G01 X36.1127 Y27.6344
G01 X36.1448 Y27.5911
G01 X36.1811 Y27.5511
G01 X36.2192 Y27.5164
G01 X36.2665 Y27.4814
G01 X36.3107 Y27.4549
G01 X36.3618 Y27.4310
G01 X36.4103 Y27.4137
G01 X36.4627 Y27.4006
G01 X36.5161 Y27.3926
G01 X36.5700 Y27.3900
G00 X36.5700 Y27.3900
G01 F60.00
G01 Z-0.1800
G01 F120.00
G01 X39.5700 Y27.3900
G01 X39.6239 Y27.3926
G01 X39.6761 Y27.4003
G01 X39.7297 Y27.4137
G01 X39.7805 Y27.4319
G01 X39.8293 Y27.4549
G01 X39.8756 Y27.4827
G01 X39.9189 Y27.5148
G01 X39.9589 Y27.5511
G01 X39.9952 Y27.5911
G01 X40.0273 Y27.6344
G01 X40.0551 Y27.6807
G01 X40.0781 Y27.7295
G01 X40.0963 Y27.7803
G01 X40.1094 Y27.8327
G01 X40.1174 Y27.8861
G01 X40.1200 Y27.9400
G01 X40.1174 Y27.9939
G01 X40.1097 Y28.0461
G01 X40.0955 Y28.1020
G01 X40.0781 Y28.1505
G01 X40.0551 Y28.1993
G01 X40.0273 Y28.2456
G01 X39.9967 Y28.2870
G01 X39.9571 Y28.3306
G01 X39.9189 Y28.3652
G01 X39.8756 Y28.3973
G01 X39.8293 Y28.4251
G01 X39.7827 Y28.4471
G01 X39.7273 Y28.4670
G01 X39.6773 Y28.4794
G01 X39.6251 Y28.4872
G01 X39.5700 Y28.4900
G01 X36.5700 Y28.4900
G01 X36.5161 Y28.4874
G01 X36.4639 Y28.4797
G01 X36.4103 Y28.4663
G01 X36.3595 Y28.4481
G01 X36.3107 Y28.4251
G01 X36.2665 Y28.3986
G01 X36.2192 Y28.3636
G01 X36.1811 Y28.3289
G01 X36.1433 Y28.2870
G01 X36.1127 Y28.2456
G01 X36.0849 Y28.1993
G01 X36.0619 Y28.1505
G01 X36.0437 Y28.0997
G01 X36.0306 Y28.0473
G01 X36.0226 Y27.9939
G01 X36.0200 Y27.9400
G01 X36.0226 Y27.8861
G01 X36.0306 Y27.8327
G01 X36.0437 Y27.7803
G01 X36.0619 Y27.7295
G01 X36.0849 Y27.6807
G01 X36.1127 Y27.6344
G01 X36.1448 Y27.5911
G01 X36.1811 Y27.5511
G01 X36.2192 Y27.5164
G01 X36.2665 Y27.4814
G01 X36.3107 Y27.4549
G01 X36.3618 Y27.4310
G01 X36.4103 Y27.4137
G01 X36.4627 Y27.4006
G01 X36.5161 Y27.3926
G01 X36.5700 Y27.3900
G00 X36.5700 Y27.3900
G01 F60.00
G01 Z-0.2000
G01 F120.00
G01 X39.5700 Y27.3900
G01 X39.6239 Y27.3926
G01 X39.6761 Y27.4003
G01 X39.7297 Y27.4137
G01 X39.7805 Y27.4319
G01 X39.8293 Y27.4549
G01 X39.8756 Y27.4827
G01 X39.9189 Y27.5148
G01 X39.9589 Y27.5511
G01 X39.9952 Y27.5911
G01 X40.0273 Y27.6344
G01 X40.0551 Y27.6807
G01 X40.0781 Y27.7295
G01 X40.0963 Y27.7803
G01 X40.1094 Y27.8327
G01 X40.1174 Y27.8861
G01 X40.1200 Y27.9400
G01 X40.1174 Y27.9939
G01 X40.1097 Y28.0461
G01 X40.0955 Y28.1020
G01 X40.0781 Y28.1505
G01 X40.0551 Y28.1993
G01 X40.0273 Y28.2456
G01 X39.9967 Y28.2870
G01 X39.9571 Y28.3306
G01 X39.9189 Y28.3652
G01 X39.8756 Y28.3973
G01 X39.8293 Y28.4251
G01 X39.7827 Y28.4471
G01 X39.7273 Y28.4670
G01 X39.6773 Y28.4794
G01 X39.6251 Y28.4872
G01 X39.5700 Y28.4900
G01 X36.5700 Y28.4900
G01 X36.5161 Y28.4874
G01 X36.4639 Y28.4797
G01 X36.4103 Y28.4663
G01 X36.3595 Y28.4481
G01 X36.3107 Y28.4251
G01 X36.2665 Y28.3986
G01 X36.2192 Y28.3636
G01 X36.1811 Y28.3289
G01 X36.1433 Y28.2870
G01 X36.1127 Y28.2456
G01 X36.0849 Y28.1993
G01 X36.0619 Y28.1505
G01 X36.0437 Y28.0997
G01 X36.0306 Y28.0473
G01 X36.0226 Y27.9939
G01 X36.0200 Y27.9400
G01 X36.0226 Y27.8861
G01 X36.0306 Y27.8327
G01 X36.0437 Y27.7803
G01 X36.0619 Y27.7295
G01 X36.0849 Y27.6807
G01 X36.1127 Y27.6344
G01 X36.1448 Y27.5911
G01 X36.1811 Y27.5511
G01 X36.2192 Y27.5164
G01 X36.2665 Y27.4814
G01 X36.3107 Y27.4549
G01 X36.3618 Y27.4310
G01 X36.4103 Y27.4137
G01 X36.4627 Y27.4006
G01 X36.5161 Y27.3926
G01 X36.5700 Y27.3900
G00 Z2.0000
G00 X36.5700 Y29.9300
G01 F60.00
G01 Z-0.0600
G01 F120.00
G01 X39.5700 Y29.9300
G01 X39.6239 Y29.9326
G01 X39.6761 Y29.9403
G01 X39.7297 Y29.9537
G01 X39.7805 Y29.9719
G01 X39.8293 Y29.9949
G01 X39.8756 Y30.0227
G01 X39.9189 Y30.0548
G01 X39.9589 Y30.0911
G01 X39.9952 Y30.1311
G01 X40.0273 Y30.1744
G01 X40.0551 Y30.2207
G01 X40.0781 Y30.2695
G01 X40.0963 Y30.3203
G01 X40.1094 Y30.3727
G01 X40.1174 Y30.4261
G01 X40.1200 Y30.4800
G01 X40.1174 Y30.5339
G01 X40.1097 Y30.5861
G01 X40.0955 Y30.6420
G01 X40.0781 Y30.6905
G01 X40.0551 Y30.7393
G01 X40.0273 Y30.7856
G01 X39.9967 Y30.8270
G01 X39.9571 Y30.8706
G01 X39.9189 Y30.9052
G01 X39.8756 Y30.9373
G01 X39.8293 Y30.9651
G01 X39.7827 Y30.9871
G01 X39.7273 Y31.0070
G01 X39.6773 Y31.0194
G01 X39.6251 Y31.0272
G01 X39.5700 Y31.0300
G01 X36.5700 Y31.0300
G01 X36.5161 Y31.0274
G01 X36.4639 Y31.0197
G01 X36.4103 Y31.0063
G01 X36.3595 Y30.9881
G01 X36.3107 Y30.9651
G01 X36.2665 Y30.9386
G01 X36.2192 Y30.9036
G01 X36.1811 Y30.8689
G01 X36.1433 Y30.8270
G01 X36.1127 Y30.7856
G01 X36.0849 Y30.7393
G01 X36.0619 Y30.6905
G01 X36.0437 Y30.6397
G01 X36.0306 Y30.5873
G01 X36.0226 Y30.5339
G01 X36.0200 Y30.4800
G01 X36.0226 Y30.4261
G01 X36.0306 Y30.3727
G01 X36.0437 Y30.3203
G01 X36.0619 Y30.2695
G01 X36.0849 Y30.2207
G01 X36.1127 Y30.1744
G01 X36.1448 Y30.1311
G01 X36.1811 Y30.0911
G01 X36.2192 Y30.0564
G01 X36.2665 Y30.0214
G01 X36.3107 Y29.9949
G01 X36.3618 Y29.9710
G01 X36.4103 Y29.9537
G01 X36.4627 Y29.9406
G01 X36.5161 Y29.9326
G01 X36.5700 Y29.9300
G00 X36.5700 Y29.9300
G01 F60.00
G01 Z-0.1200
G01 F120.00
G01 X39.5700 Y29.9300
G01 X39.6239 Y29.9326
G01 X39.6761 Y29.9403
G01 X39.7297 Y29.9537
G01 X39.7805 Y29.9719
G01 X39.8293 Y29.9949
G01 X39.8756 Y30.0227
G01 X39.9189 Y30.0548
G01 X39.9589 Y30.0911
G01 X39.9952 Y30.1311
G01 X40.0273 Y30.1744
G01 X40.0551 Y30.2207
G01 X40.0781 Y30.2695
G01 X40.0963 Y30.3203
G01 X40.1094 Y30.3727
G01 X40.1174 Y30.4261
G01 X40.1200 Y30.4800
G01 X40.1174 Y30.5339
G01 X40.1097 Y30.5861
G01 X40.0955 Y30.6420
G01 X40.0781 Y30.6905
G01 X40.0551 Y30.7393
G01 X40.0273 Y30.7856
G01 X39.9967 Y30.8270
G01 X39.9571 Y30.8706
G01 X39.9189 Y30.9052
G01 X39.8756 Y30.9373
G01 X39.8293 Y30.9651
G01 X39.7827 Y30.9871
G01 X39.7273 Y31.0070
G01 X39.6773 Y31.0194
G01 X39.6251 Y31.0272
G01 X39.5700 Y31.0300
G01 X36.5700 Y31.0300
G01 X36.5161 Y31.0274
G01 X36.4639 Y31.0197
G01 X36.4103 Y31.0063
G01 X36.3595 Y30.9881
G01 X36.3107 Y30.9651
G01 X36.2665 Y30.9386
G01 X36.2192 Y30.9036
G01 X36.1811 Y30.8689
G01 X36.1433 Y30.8270
G01 X36.1127 Y30.7856
G01 X36.0849 Y30.7393
G01 X36.0619 Y30.6905
G01 X36.0437 Y30.6397
G01 X36.0306 Y30.5873
G01 X36.0226 Y30.5339
G01 X36.0200 Y30.4800
G01 X36.0226 Y30.4261
G01 X36.0306 Y30.3727
G01 X36.0437 Y30.3203
G01 X36.0619 Y30.2695
G01 X36.0849 Y30.2207
G01 X36.1127 Y30.1744
G01 X36.1448 Y30.1311
G01 X36.1811 Y30.0911
G01 X36.2192 Y30.0564
G01 X36.2665 Y30.0214
G01 X36.3107 Y29.9949
G01 X36.3618 Y29.9710
G01 X36.4103 Y29.9537
G01 X36.4627 Y29.9406
G01 X36.5161 Y29.9326
G01 X36.5700 Y29.9300
G00 X36.5700 Y29.9300
G01 F60.00
G01 Z-0.1800
G01 F120.00
G01 X39.5700 Y29.9300
G01 X39.6239 Y29.9326
G01 X39.6761 Y29.9403
G01 X39.7297 Y29.9537
G01 X39.7805 Y29.9719
G01 X39.8293 Y29.9949
G01 X39.8756 Y30.0227
G01 X39.9189 Y30.0548
G01 X39.9589 Y30.0911
G01 X39.9952 Y30.1311
G01 X40.0273 Y30.1744
G01 X40.0551 Y30.2207
G01 X40.0781 Y30.2695
G01 X40.0963 Y30.3203
G01 X40.1094 Y30.3727
G01 X40.1174 Y30.4261
G01 X40.1200 Y30.4800
G01 X40.1174 Y30.5339
G01 X40.1097 Y30.5861
G01 X40.0955 Y30.6420
G01 X40.0781 Y30.6905
G01 X40.0551 Y30.7393
G01 X40.0273 Y30.7856
G01 X39.9967 Y30.8270
G01 X39.9571 Y30.8706
G01 X39.9189 Y30.9052
G01 X39.8756 Y30.9373
G01 X39.8293 Y30.9651
G01 X39.7827 Y30.9871
G01 X39.7273 Y31.0070
G01 X39.6773 Y31.0194
G01 X39.6251 Y31.0272
G01 X39.5700 Y31.0300
G01 X36.5700 Y31.0300
G01 X36.5161 Y31.0274
G01 X36.4639 Y31.0197
G01 X36.4103 Y31.0063
G01 X36.3595 Y30.9881
G01 X36.3107 Y30.9651
G01 X36.2665 Y30.9386
G01 X36.2192 Y30.9036
G01 X36.1811 Y30.8689
G01 X36.1433 Y30.8270
G01 X36.1127 Y30.7856
G01 X36.0849 Y30.7393
G01 X36.0619 Y30.6905
G01 X36.0437 Y30.6397
G01 X36.0306 Y30.5873
G01 X36.0226 Y30.5339
G01 X36.0200 Y30.4800
G01 X36.0226 Y30.4261
G01 X36.0306 Y30.3727
G01 X36.0437 Y30.3203
G01 X36.0619 Y30.2695
G01 X36.0849 Y30.2207
G01 X36.1127 Y30.1744
G01 X36.1448 Y30.1311
G01 X36.1811 Y30.0911
G01 X36.2192 Y30.0564
G01 X36.2665 Y30.0214
G01 X36.3107 Y29.9949
G01 X36.3618 Y29.9710
G01 X36.4103 Y29.9537
G01 X36.4627 Y29.9406
G01 X36.5161 Y29.9326
G01 X36.5700 Y29.9300
G00 X36.5700 Y29.9300
G01 F60.00
G01 Z-0.2000
G01 F120.00
G01 X39.5700 Y29.9300
G01 X39.6239 Y29.9326
G01 X39.6761 Y29.9403
G01 X39.7297 Y29.9537
G01 X39.7805 Y29.9719
G01 X39.8293 Y29.9949
G01 X39.8756 Y30.0227
G01 X39.9189 Y30.0548
G01 X39.9589 Y30.0911
G01 X39.9952 Y30.1311
G01 X40.0273 Y30.1744
G01 X40.0551 Y30.2207
G01 X40.0781 Y30.2695
G01 X40.0963 Y30.3203
G01 X40.1094 Y30.3727
G01 X40.1174 Y30.4261
G01 X40.1200 Y30.4800
G01 X40.1174 Y30.5339
G01 X40.1097 Y30.5861
G01 X40.0955 Y30.6420
G01 X40.0781 Y30.6905
G01 X40.0551 Y30.7393
G01 X40.0273 Y30.7856
G01 X39.9967 Y30.8270
G01 X39.9571 Y30.8706
G01 X39.9189 Y30.9052
G01 X39.8756 Y30.9373
G01 X39.8293 Y30.9651
G01 X39.7827 Y30.9871
G01 X39.7273 Y31.0070
G01 X39.6773 Y31.0194
G01 X39.6251 Y31.0272
G01 X39.5700 Y31.0300
G01 X36.5700 Y31.0300
G01 X36.5161 Y31.0274
G01 X36.4639 Y31.0197
G01 X36.4103 Y31.0063
G01 X36.3595 Y30.9881
G01 X36.3107 Y30.9651
G01 X36.2665 Y30.9386
G01 X36.2192 Y30.9036
G01 X36.1811 Y30.8689
G01 X36.1433 Y30.8270
G01 X36.1127 Y30.7856
G01 X36.0849 Y30.7393
G01 X36.0619 Y30.6905
G01 X36.0437 Y30.6397
G01 X36.0306 Y30.5873
G01 X36.0226 Y30.5339
G01 X36.0200 Y30.4800
G01 X36.0226 Y30.4261
G01 X36.0306 Y30.3727
G01 X36.0437 Y30.3203
G01 X36.0619 Y30.2695
G01 X36.0849 Y30.2207
G01 X36.1127 Y30.1744
G01 X36.1448 Y30.1311
G01 X36.1811 Y30.0911
G01 X36.2192 Y30.0564
G01 X36.2665 Y30.0214
G01 X36.3107 Y29.9949
G01 X36.3618 Y29.9710
G01 X36.4103 Y29.9537
G01 X36.4627 Y29.9406
G01 X36.5161 Y29.9326
G01 X36.5700 Y29.9300
G00 Z2.0000
G00 X36.5700 Y32.4700
G01 F60.00
G01 Z-0.0600
G01 F120.00
G01 X39.5700 Y32.4700
G01 X39.6239 Y32.4726
G01 X39.6761 Y32.4803
G01 X39.7297 Y32.4937
G01 X39.7805 Y32.5119
G01 X39.8293 Y32.5349
G01 X39.8756 Y32.5627
G01 X39.9189 Y32.5948
G01 X39.9589 Y32.6311
G01 X39.9952 Y32.6711
G01 X40.0273 Y32.7144
G01 X40.0551 Y32.7607
G01 X40.0781 Y32.8095
G01 X40.0963 Y32.8603
G01 X40.1094 Y32.9127
G01 X40.1174 Y32.9661
G01 X40.1200 Y33.0200
G01 X40.1174 Y33.0739
G01 X40.1097 Y33.1261
G01 X40.0955 Y33.1820
G01 X40.0781 Y33.2305
G01 X40.0551 Y33.2793
G01 X40.0273 Y33.3256
G01 X39.9967 Y33.3670
G01 X39.9571 Y33.4106
G01 X39.9189 Y33.4452
G01 X39.8756 Y33.4773
G01 X39.8293 Y33.5051
G01 X39.7827 Y33.5271
G01 X39.7273 Y33.5470
G01 X39.6773 Y33.5594
G01 X39.6251 Y33.5672
G01 X39.5700 Y33.5700
G01 X36.5700 Y33.5700
G01 X36.5161 Y33.5674
G01 X36.4639 Y33.5597
G01 X36.4103 Y33.5463
G01 X36.3595 Y33.5281
G01 X36.3107 Y33.5051
G01 X36.2665 Y33.4786
G01 X36.2192 Y33.4436
G01 X36.1811 Y33.4089
G01 X36.1433 Y33.3670
G01 X36.1127 Y33.3256
G01 X36.0849 Y33.2793
G01 X36.0619 Y33.2305
G01 X36.0437 Y33.1797
G01 X36.0306 Y33.1273
G01 X36.0226 Y33.0739
G01 X36.0200 Y33.0200
G01 X36.0226 Y32.9661
G01 X36.0306 Y32.9127
G01 X36.0437 Y32.8603
G01 X36.0619 Y32.8095
G01 X36.0849 Y32.7607
G01 X36.1127 Y32.7144
G01 X36.1448 Y32.6711
G01 X36.1811 Y32.6311
G01 X36.2192 Y32.5964
G01 X36.2665 Y32.5614
G01 X36.3107 Y32.5349
G01 X36.3618 Y32.5110
G01 X36.4103 Y32.4937
G01 X36.4627 Y32.4806
G01 X36.5161 Y32.4726
G01 X36.5700 Y32.4700
G00 X36.5700 Y32.4700
G01 F60.00
G01 Z-0.1200
G01 F120.00
G01 X39.5700 Y32.4700
G01 X39.6239 Y32.4726
G01 X39.6761 Y32.4803
G01 X39.7297 Y32.4937
G01 X39.7805 Y32.5119
G01 X39.8293 Y32.5349
G01 X39.8756 Y32.5627
G01 X39.9189 Y32.5948
G01 X39.9589 Y32.6311
G01 X39.9952 Y32.6711
G01 X40.0273 Y32.7144
G01 X40.0551 Y32.7607
G01 X40.0781 Y32.8095
G01 X40.0963 Y32.8603
G01 X40.1094 Y32.9127
G01 X40.1174 Y32.9661
G01 X40.1200 Y33.0200
G01 X40.1174 Y33.0739
G01 X40.1097 Y33.1261
G01 X40.0955 Y33.1820
G01 X40.0781 Y33.2305
G01 X40.0551 Y33.2793
G01 X40.0273 Y33.3256
G01 X39.9967 Y33.3670
G01 X39.9571 Y33.4106
G01 X39.9189 Y33.4452
G01 X39.8756 Y33.4773
G01 X39.8293 Y33.5051
G01 X39.7827 Y33.5271
G01 X39.7273 Y33.5470
G01 X39.6773 Y33.5594
G01 X39.6251 Y33.5672
G01 X39.5700 Y33.5700
G01 X36.5700 Y33.5700
G01 X36.5161 Y33.5674
G01 X36.4639 Y33.5597
G01 X36.4103 Y33.5463
G01 X36.3595 Y33.5281
G01 X36.3107 Y33.5051
G01 X36.2665 Y33.4786
G01 X36.2192 Y33.4436
G01 X36.1811 Y33.4089
G01 X36.1433 Y33.3670
G01 X36.1127 Y33.3256
G01 X36.0849 Y33.2793
G01 X36.0619 Y33.2305
G01 X36.0437 Y33.1797
G01 X36.0306 Y33.1273
G01 X36.0226 Y33.0739
G01 X36.0200 Y33.0200
G01 X36.0226 Y32.9661
G01 X36.0306 Y32.9127
G01 X36.0437 Y32.8603
G01 X36.0619 Y32.8095
G01 X36.0849 Y32.7607
G01 X36.1127 Y32.7144
G01 X36.1448 Y32.6711
G01 X36.1811 Y32.6311
G01 X36.2192 Y32.5964
G01 X36.2665 Y32.5614
G01 X36.3107 Y32.5349
G01 X36.3618 Y32.5110
G01 X36.4103 Y32.4937
G01 X36.4627 Y32.4806
G01 X36.5161 Y32.4726
G01 X36.5700 Y32.4700
G00 X36.5700 Y32.4700
G01 F60.00
G01 Z-0.1800
G01 F120.00
G01 X39.5700 Y32.4700
G01 X39.6239 Y32.4726
G01 X39.6761 Y32.4803
G01 X39.7297 Y32.4937
G01 X39.7805 Y32.5119
G01 X39.8293 Y32.5349
G01 X39.8756 Y32.5627
G01 X39.9189 Y32.5948
G01 X39.9589 Y32.6311
G01 X39.9952 Y32.6711
G01 X40.0273 Y32.7144
G01 X40.0551 Y32.7607
G01 X40.0781 Y32.8095
G01 X40.0963 Y32.8603
G01 X40.1094 Y32.9127
G01 X40.1174 Y32.9661
G01 X40.1200 Y33.0200
G01 X40.1174 Y33.0739
G01 X40.1097 Y33.1261
G01 X40.0955 Y33.1820
G01 X40.0781 Y33.2305
G01 X40.0551 Y33.2793
G01 X40.0273 Y33.3256
G01 X39.9967 Y33.3670
G01 X39.9571 Y33.4106
G01 X39.9189 Y33.4452
G01 X39.8756 Y33.4773
G01 X39.8293 Y33.5051
G01 X39.7827 Y33.5271
G01 X39.7273 Y33.5470
G01 X39.6773 Y33.5594
G01 X39.6251 Y33.5672
G01 X39.5700 Y33.5700
G01 X36.5700 Y33.5700
G01 X36.5161 Y33.5674
G01 X36.4639 Y33.5597
G01 X36.4103 Y33.5463
G01 X36.3595 Y33.5281
G01 X36.3107 Y33.5051
G01 X36.2665 Y33.4786
G01 X36.2192 Y33.4436
G01 X36.1811 Y33.4089
G01 X36.1433 Y33.3670
G01 X36.1127 Y33.3256
G01 X36.0849 Y33.2793
G01 X36.0619 Y33.2305
G01 X36.0437 Y33.1797
G01 X36.0306 Y33.1273
G01 X36.0226 Y33.0739
G01 X36.0200 Y33.0200
G01 X36.0226 Y32.9661
G01 X36.0306 Y32.9127
G01 X36.0437 Y32.8603
G01 X36.0619 Y32.8095
G01 X36.0849 Y32.7607
G01 X36.1127 Y32.7144
G01 X36.1448 Y32.6711
G01 X36.1811 Y32.6311
G01 X36.2192 Y32.5964
G01 X36.2665 Y32.5614
G01 X36.3107 Y32.5349
G01 X36.3618 Y32.5110
G01 X36.4103 Y32.4937
G01 X36.4627 Y32.4806
G01 X36.5161 Y32.4726
G01 X36.5700 Y32.4700
G00 X36.5700 Y32.4700
G01 F60.00
G01 Z-0.2000
G01 F120.00
G01 X39.5700 Y32.4700
G01 X39.6239 Y32.4726
G01 X39.6761 Y32.4803
G01 X39.7297 Y32.4937
G01 X39.7805 Y32.5119
G01 X39.8293 Y32.5349
G01 X39.8756 Y32.5627
G01 X39.9189 Y32.5948
G01 X39.9589 Y32.6311
G01 X39.9952 Y32.6711
G01 X40.0273 Y32.7144
G01 X40.0551 Y32.7607
G01 X40.0781 Y32.8095
G01 X40.0963 Y32.8603
G01 X40.1094 Y32.9127
G01 X40.1174 Y32.9661
G01 X40.1200 Y33.0200
G01 X40.1174 Y33.0739
G01 X40.1097 Y33.1261
G01 X40.0955 Y33.1820
G01 X40.0781 Y33.2305
G01 X40.0551 Y33.2793
G01 X40.0273 Y33.3256
G01 X39.9967 Y33.3670
G01 X39.9571 Y33.4106
G01 X39.9189 Y33.4452
G01 X39.8756 Y33.4773
G01 X39.8293 Y33.5051
G01 X39.7827 Y33.5271
G01 X39.7273 Y33.5470
G01 X39.6773 Y33.5594
G01 X39.6251 Y33.5672
G01 X39.5700 Y33.5700
G01 X36.5700 Y33.5700
G01 X36.5161 Y33.5674
G01 X36.4639 Y33.5597
G01 X36.4103 Y33.5463
G01 X36.3595 Y33.5281
G01 X36.3107 Y33.5051
G01 X36.2665 Y33.4786
G01 X36.2192 Y33.4436
G01 X36.1811 Y33.4089
G01 X36.1433 Y33.3670
G01 X36.1127 Y33.3256
G01 X36.0849 Y33.2793
G01 X36.0619 Y33.2305
G01 X36.0437 Y33.1797
G01 X36.0306 Y33.1273
G01 X36.0226 Y33.0739
G01 X36.0200 Y33.0200
G01 X36.0226 Y32.9661
G01 X36.0306 Y32.9127
G01 X36.0437 Y32.8603
G01 X36.0619 Y32.8095
G01 X36.0849 Y32.7607
G01 X36.1127 Y32.7144
G01 X36.1448 Y32.6711
G01 X36.1811 Y32.6311
G01 X36.2192 Y32.5964
G01 X36.2665 Y32.5614
G01 X36.3107 Y32.5349
G01 X36.3618 Y32.5110
G01 X36.4103 Y32.4937
G01 X36.4627 Y32.4806
G01 X36.5161 Y32.4726
G01 X36.5700 Y32.4700
G00 Z2.0000
G00 X36.5700 Y37.5500
G01 F60.00
G01 Z-0.0600
G01 F120.00
G01 X39.5700 Y37.5500
G01 X39.6239 Y37.5526
G01 X39.6761 Y37.5603
G01 X39.7297 Y37.5737
G01 X39.7805 Y37.5919
G01 X39.8293 Y37.6149
G01 X39.8756 Y37.6427
G01 X39.9189 Y37.6748
G01 X39.9589 Y37.7111
G01 X39.9952 Y37.7511
G01 X40.0273 Y37.7944
G01 X40.0551 Y37.8407
G01 X40.0781 Y37.8895
G01 X40.0963 Y37.9403
G01 X40.1094 Y37.9927
G01 X40.1174 Y38.0461
G01 X40.1200 Y38.1000
G01 X40.1174 Y38.1539
G01 X40.1097 Y38.2061
G01 X40.0955 Y38.2620
G01 X40.0781 Y38.3105
G01 X40.0551 Y38.3593
G01 X40.0273 Y38.4056
G01 X39.9967 Y38.4470
G01 X39.9571 Y38.4906
G01 X39.9189 Y38.5252
G01 X39.8756 Y38.5573
G01 X39.8293 Y38.5851
G01 X39.7827 Y38.6071
G01 X39.7273 Y38.6270
G01 X39.6773 Y38.6394
G01 X39.6251 Y38.6472
G01 X39.5700 Y38.6500
G01 X36.5700 Y38.6500
G01 X36.5161 Y38.6474
G01 X36.4639 Y38.6397
G01 X36.4103 Y38.6263
G01 X36.3595 Y38.6081
G01 X36.3107 Y38.5851
G01 X36.2665 Y38.5586
G01 X36.2192 Y38.5236
G01 X36.1811 Y38.4889
G01 X36.1433 Y38.4470
G01 X36.1127 Y38.4056
G01 X36.0849 Y38.3593
G01 X36.0619 Y38.3105
G01 X36.0437 Y38.2597
G01 X36.0306 Y38.2073
G01 X36.0226 Y38.1539
G01 X36.0200 Y38.1000
G01 X36.0226 Y38.0461
G01 X36.0306 Y37.9927
G01 X36.0437 Y37.9403
G01 X36.0619 Y37.8895
G01 X36.0849 Y37.8407
G01 X36.1127 Y37.7944
G01 X36.1448 Y37.7511
G01 X36.1811 Y37.7111
G01 X36.2192 Y37.6764
G01 X36.2665 Y37.6414
G01 X36.3107 Y37.6149
G01 X36.3618 Y37.5910
G01 X36.4103 Y37.5737
G01 X36.4627 Y37.5606
G01 X36.5161 Y37.5526
G01 X36.5700 Y37.5500
G00 X36.5700 Y37.5500
G01 F60.00
G01 Z-0.1200
G01 F120.00
G01 X39.5700 Y37.5500
G01 X39.6239 Y37.5526
G01 X39.6761 Y37.5603
G01 X39.7297 Y37.5737
G01 X39.7805 Y37.5919
G01 X39.8293 Y37.6149
G01 X39.8756 Y37.6427
G01 X39.9189 Y37.6748
G01 X39.9589 Y37.7111
G01 X39.9952 Y37.7511
G01 X40.0273 Y37.7944
G01 X40.0551 Y37.8407
G01 X40.0781 Y37.8895
G01 X40.0963 Y37.9403
G01 X40.1094 Y37.9927
G01 X40.1174 Y38.0461
G01 X40.1200 Y38.1000
G01 X40.1174 Y38.1539
G01 X40.1097 Y38.2061
G01 X40.0955 Y38.2620
G01 X40.0781 Y38.3105
G01 X40.0551 Y38.3593
G01 X40.0273 Y38.4056
G01 X39.9967 Y38.4470
G01 X39.9571 Y38.4906
G01 X39.9189 Y38.5252
G01 X39.8756 Y38.5573
G01 X39.8293 Y38.5851
G01 X39.7827 Y38.6071
G01 X39.7273 Y38.6270
G01 X39.6773 Y38.6394
G01 X39.6251 Y38.6472
G01 X39.5700 Y38.6500
G01 X36.5700 Y38.6500
G01 X36.5161 Y38.6474
G01 X36.4639 Y38.6397
G01 X36.4103 Y38.6263
G01 X36.3595 Y38.6081
G01 X36.3107 Y38.5851
G01 X36.2665 Y38.5586
G01 X36.2192 Y38.5236
G01 X36.1811 Y38.4889
G01 X36.1433 Y38.4470
G01 X36.1127 Y38.4056
G01 X36.0849 Y38.3593
G01 X36.0619 Y38.3105
G01 X36.0437 Y38.2597
G01 X36.0306 Y38.2073
G01 X36.0226 Y38.1539
G01 X36.0200 Y38.1000
G01 X36.0226 Y38.0461
G01 X36.0306 Y37.9927
G01 X36.0437 Y37.9403
G01 X36.0619 Y37.8895
G01 X36.0849 Y37.8407
G01 X36.1127 Y37.7944
G01 X36.1448 Y37.7511
G01 X36.1811 Y37.7111
G01 X36.2192 Y37.6764
G01 X36.2665 Y37.6414
G01 X36.3107 Y37.6149
G01 X36.3618 Y37.5910
G01 X36.4103 Y37.5737
G01 X36.4627 Y37.5606
G01 X36.5161 Y37.5526
G01 X36.5700 Y37.5500
G00 X36.5700 Y37.5500
G01 F60.00
G01 Z-0.1800
G01 F120.00
G01 X39.5700 Y37.5500
G01 X39.6239 Y37.5526
G01 X39.6761 Y37.5603
G01 X39.7297 Y37.5737
G01 X39.7805 Y37.5919
G01 X39.8293 Y37.6149
G01 X39.8756 Y37.6427
G01 X39.9189 Y37.6748
G01 X39.9589 Y37.7111
G01 X39.9952 Y37.7511
G01 X40.0273 Y37.7944
G01 X40.0551 Y37.8407
G01 X40.0781 Y37.8895
G01 X40.0963 Y37.9403
G01 X40.1094 Y37.9927
G01 X40.1174 Y38.0461
G01 X40.1200 Y38.1000
G01 X40.1174 Y38.1539
G01 X40.1097 Y38.2061
G01 X40.0955 Y38.2620
G01 X40.0781 Y38.3105
G01 X40.0551 Y38.3593
G01 X40.0273 Y38.4056
G01 X39.9967 Y38.4470
G01 X39.9571 Y38.4906
G01 X39.9189 Y38.5252
G01 X39.8756 Y38.5573
G01 X39.8293 Y38.5851
G01 X39.7827 Y38.6071
G01 X39.7273 Y38.6270
G01 X39.6773 Y38.6394
G01 X39.6251 Y38.6472
G01 X39.5700 Y38.6500
G01 X36.5700 Y38.6500
G01 X36.5161 Y38.6474
G01 X36.4639 Y38.6397
G01 X36.4103 Y38.6263
G01 X36.3595 Y38.6081
G01 X36.3107 Y38.5851
G01 X36.2665 Y38.5586
G01 X36.2192 Y38.5236
G01 X36.1811 Y38.4889
G01 X36.1433 Y38.4470
G01 X36.1127 Y38.4056
G01 X36.0849 Y38.3593
G01 X36.0619 Y38.3105
G01 X36.0437 Y38.2597
G01 X36.0306 Y38.2073
G01 X36.0226 Y38.1539
G01 X36.0200 Y38.1000
G01 X36.0226 Y38.0461
G01 X36.0306 Y37.9927
G01 X36.0437 Y37.9403
G01 X36.0619 Y37.8895
G01 X36.0849 Y37.8407
G01 X36.1127 Y37.7944
G01 X36.1448 Y37.7511
G01 X36.1811 Y37.7111
G01 X36.2192 Y37.6764
G01 X36.2665 Y37.6414
G01 X36.3107 Y37.6149
G01 X36.3618 Y37.5910
G01 X36.4103 Y37.5737
G01 X36.4627 Y37.5606
G01 X36.5161 Y37.5526
G01 X36.5700 Y37.5500
G00 X36.5700 Y37.5500
G01 F60.00
G01 Z-0.2000
G01 F120.00
G01 X39.5700 Y37.5500
G01 X39.6239 Y37.5526
G01 X39.6761 Y37.5603
G01 X39.7297 Y37.5737
G01 X39.7805 Y37.5919
G01 X39.8293 Y37.6149
G01 X39.8756 Y37.6427
G01 X39.9189 Y37.6748
G01 X39.9589 Y37.7111
G01 X39.9952 Y37.7511
G01 X40.0273 Y37.7944
G01 X40.0551 Y37.8407
G01 X40.0781 Y37.8895
G01 X40.0963 Y37.9403
G01 X40.1094 Y37.9927
G01 X40.1174 Y38.0461
G01 X40.1200 Y38.1000
G01 X40.1174 Y38.1539
G01 X40.1097 Y38.2061
G01 X40.0955 Y38.2620
G01 X40.0781 Y38.3105
G01 X40.0551 Y38.3593
G01 X40.0273 Y38.4056
G01 X39.9967 Y38.4470
G01 X39.9571 Y38.4906
G01 X39.9189 Y38.5252
G01 X39.8756 Y38.5573
G01 X39.8293 Y38.5851
G01 X39.7827 Y38.6071
G01 X39.7273 Y38.6270
G01 X39.6773 Y38.6394
G01 X39.6251 Y38.6472
G01 X39.5700 Y38.6500
G01 X36.5700 Y38.6500
G01 X36.5161 Y38.6474
G01 X36.4639 Y38.6397
G01 X36.4103 Y38.6263
G01 X36.3595 Y38.6081
G01 X36.3107 Y38.5851
G01 X36.2665 Y38.5586
G01 X36.2192 Y38.5236
G01 X36.1811 Y38.4889
G01 X36.1433 Y38.4470
G01 X36.1127 Y38.4056
G01 X36.0849 Y38.3593
G01 X36.0619 Y38.3105
G01 X36.0437 Y38.2597
G01 X36.0306 Y38.2073
G01 X36.0226 Y38.1539
G01 X36.0200 Y38.1000
G01 X36.0226 Y38.0461
G01 X36.0306 Y37.9927
G01 X36.0437 Y37.9403
G01 X36.0619 Y37.8895
G01 X36.0849 Y37.8407
G01 X36.1127 Y37.7944
G01 X36.1448 Y37.7511
G01 X36.1811 Y37.7111
G01 X36.2192 Y37.6764
G01 X36.2665 Y37.6414
G01 X36.3107 Y37.6149
G01 X36.3618 Y37.5910
G01 X36.4103 Y37.5737
G01 X36.4627 Y37.5606
G01 X36.5161 Y37.5526
G01 X36.5700 Y37.5500
G00 Z2.0000
G00 X36.5700 Y40.0900
G01 F60.00
G01 Z-0.0600
G01 F120.00
G01 X39.5700 Y40.0900
G01 X39.6239 Y40.0926
G01 X39.6761 Y40.1003
G01 X39.7297 Y40.1137
G01 X39.7805 Y40.1319
G01 X39.8293 Y40.1549
G01 X39.8756 Y40.1827
G01 X39.9189 Y40.2148
G01 X39.9589 Y40.2511
G01 X39.9952 Y40.2911
G01 X40.0273 Y40.3344
G01 X40.0551 Y40.3807
G01 X40.0781 Y40.4295
G01 X40.0963 Y40.4803
G01 X40.1094 Y40.5327
G01 X40.1174 Y40.5861
G01 X40.1200 Y40.6400
G01 X40.1174 Y40.6939
G01 X40.1097 Y40.7461
G01 X40.0955 Y40.8020
G01 X40.0781 Y40.8505
G01 X40.0551 Y40.8993
G01 X40.0273 Y40.9456
G01 X39.9967 Y40.9870
G01 X39.9571 Y41.0306
G01 X39.9189 Y41.0652
G01 X39.8756 Y41.0973
G01 X39.8293 Y41.1251
G01 X39.7827 Y41.1471
G01 X39.7273 Y41.1670
G01 X39.6773 Y41.1794
G01 X39.6251 Y41.1872
G01 X39.5700 Y41.1900
G01 X36.5700 Y41.1900
G01 X36.5161 Y41.1874
G01 X36.4639 Y41.1797
G01 X36.4103 Y41.1663
G01 X36.3595 Y41.1481
G01 X36.3107 Y41.1251
G01 X36.2665 Y41.0986
G01 X36.2192 Y41.0636
G01 X36.1811 Y41.0289
G01 X36.1433 Y40.9870
G01 X36.1127 Y40.9456
G01 X36.0849 Y40.8993
G01 X36.0619 Y40.8505
G01 X36.0437 Y40.7997
G01 X36.0306 Y40.7473
G01 X36.0226 Y40.6939
G01 X36.0200 Y40.6400
G01 X36.0226 Y40.5861
G01 X36.0306 Y40.5327
G01 X36.0437 Y40.4803
G01 X36.0619 Y40.4295
G01 X36.0849 Y40.3807
G01 X36.1127 Y40.3344
G01 X36.1448 Y40.2911
G01 X36.1811 Y40.2511
G01 X36.2192 Y40.2164
G01 X36.2665 Y40.1814
G01 X36.3107 Y40.1549
G01 X36.3618 Y40.1310
G01 X36.4103 Y40.1137
G01 X36.4627 Y40.1006
G01 X36.5161 Y40.0926
G01 X36.5700 Y40.0900
G00 X36.5700 Y40.0900
G01 F60.00
G01 Z-0.1200
G01 F120.00
G01 X39.5700 Y40.0900
G01 X39.6239 Y40.0926
G01 X39.6761 Y40.1003
G01 X39.7297 Y40.1137
G01 X39.7805 Y40.1319
G01 X39.8293 Y40.1549
G01 X39.8756 Y40.1827
G01 X39.9189 Y40.2148
G01 X39.9589 Y40.2511
G01 X39.9952 Y40.2911
G01 X40.0273 Y40.3344
G01 X40.0551 Y40.3807
G01 X40.0781 Y40.4295
G01 X40.0963 Y40.4803
G01 X40.1094 Y40.5327
G01 X40.1174 Y40.5861
G01 X40.1200 Y40.6400
G01 X40.1174 Y40.6939
G01 X40.1097 Y40.7461
G01 X40.0955 Y40.8020
G01 X40.0781 Y40.8505
G01 X40.0551 Y40.8993
G01 X40.0273 Y40.9456
G01 X39.9967 Y40.9870
G01 X39.9571 Y41.0306
G01 X39.9189 Y41.0652
G01 X39.8756 Y41.0973
G01 X39.8293 Y41.1251
G01 X39.7827 Y41.1471
G01 X39.7273 Y41.1670
G01 X39.6773 Y41.1794
G01 X39.6251 Y41.1872
G01 X39.5700 Y41.1900
G01 X36.5700 Y41.1900
G01 X36.5161 Y41.1874
G01 X36.4639 Y41.1797
G01 X36.4103 Y41.1663
G01 X36.3595 Y41.1481
G01 X36.3107 Y41.1251
G01 X36.2665 Y41.0986
G01 X36.2192 Y41.0636
G01 X36.1811 Y41.0289
G01 X36.1433 Y40.9870
G01 X36.1127 Y40.9456
G01 X36.0849 Y40.8993
G01 X36.0619 Y40.8505
G01 X36.0437 Y40.7997
G01 X36.0306 Y40.7473
G01 X36.0226 Y40.6939
G01 X36.0200 Y40.6400
G01 X36.0226 Y40.5861
G01 X36.0306 Y40.5327
G01 X36.0437 Y40.4803
G01 X36.0619 Y40.4295
G01 X36.0849 Y40.3807
G01 X36.1127 Y40.3344
G01 X36.1448 Y40.2911
G01 X36.1811 Y40.2511
G01 X36.2192 Y40.2164
G01 X36.2665 Y40.1814
G01 X36.3107 Y40.1549
G01 X36.3618 Y40.1310
G01 X36.4103 Y40.1137
G01 X36.4627 Y40.1006
G01 X36.5161 Y40.0926
G01 X36.5700 Y40.0900
G00 X36.5700 Y40.0900
G01 F60.00
G01 Z-0.1800
G01 F120.00
G01 X39.5700 Y40.0900
G01 X39.6239 Y40.0926
G01 X39.6761 Y40.1003
G01 X39.7297 Y40.1137
G01 X39.7805 Y40.1319
G01 X39.8293 Y40.1549
G01 X39.8756 Y40.1827
G01 X39.9189 Y40.2148
G01 X39.9589 Y40.2511
G01 X39.9952 Y40.2911
G01 X40.0273 Y40.3344
G01 X40.0551 Y40.3807
G01 X40.0781 Y40.4295
G01 X40.0963 Y40.4803
G01 X40.1094 Y40.5327
G01 X40.1174 Y40.5861
G01 X40.1200 Y40.6400
G01 X40.1174 Y40.6939
G01 X40.1097 Y40.7461
G01 X40.0955 Y40.8020
G01 X40.0781 Y40.8505
G01 X40.0551 Y40.8993
G01 X40.0273 Y40.9456
G01 X39.9967 Y40.9870
G01 X39.9571 Y41.0306
G01 X39.9189 Y41.0652
G01 X39.8756 Y41.0973
G01 X39.8293 Y41.1251
G01 X39.7827 Y41.1471
G01 X39.7273 Y41.1670
G01 X39.6773 Y41.1794
G01 X39.6251 Y41.1872
G01 X39.5700 Y41.1900
G01 X36.5700 Y41.1900
G01 X36.5161 Y41.1874
G01 X36.4639 Y41.1797
G01 X36.4103 Y41.1663
G01 X36.3595 Y41.1481
G01 X36.3107 Y41.1251
G01 X36.2665 Y41.0986
G01 X36.2192 Y41.0636
G01 X36.1811 Y41.0289
G01 X36.1433 Y40.9870
G01 X36.1127 Y40.9456
G01 X36.0849 Y40.8993
G01 X36.0619 Y40.8505
G01 X36.0437 Y40.7997
G01 X36.0306 Y40.7473
G01 X36.0226 Y40.6939
G01 X36.0200 Y40.6400
G01 X36.0226 Y40.5861
G01 X36.0306 Y40.5327
G01 X36.0437 Y40.4803
G01 X36.0619 Y40.4295
G01 X36.0849 Y40.3807
G01 X36.1127 Y40.3344
G01 X36.1448 Y40.2911
G01 X36.1811 Y40.2511
G01 X36.2192 Y40.2164
G01 X36.2665 Y40.1814
G01 X36.3107 Y40.1549
G01 X36.3618 Y40.1310
G01 X36.4103 Y40.1137
G01 X36.4627 Y40.1006
G01 X36.5161 Y40.0926
G01 X36.5700 Y40.0900
G00 X36.5700 Y40.0900
G01 F60.00
G01 Z-0.2000
G01 F120.00
G01 X39.5700 Y40.0900
G01 X39.6239 Y40.0926
G01 X39.6761 Y40.1003
G01 X39.7297 Y40.1137
G01 X39.7805 Y40.1319
G01 X39.8293 Y40.1549
G01 X39.8756 Y40.1827
G01 X39.9189 Y40.2148
G01 X39.9589 Y40.2511
G01 X39.9952 Y40.2911
G01 X40.0273 Y40.3344
G01 X40.0551 Y40.3807
G01 X40.0781 Y40.4295
G01 X40.0963 Y40.4803
G01 X40.1094 Y40.5327
G01 X40.1174 Y40.5861
G01 X40.1200 Y40.6400
G01 X40.1174 Y40.6939
G01 X40.1097 Y40.7461
G01 X40.0955 Y40.8020
G01 X40.0781 Y40.8505
G01 X40.0551 Y40.8993
G01 X40.0273 Y40.9456
G01 X39.9967 Y40.9870
G01 X39.9571 Y41.0306
G01 X39.9189 Y41.0652
G01 X39.8756 Y41.0973
G01 X39.8293 Y41.1251
G01 X39.7827 Y41.1471
G01 X39.7273 Y41.1670
G01 X39.6773 Y41.1794
G01 X39.6251 Y41.1872
G01 X39.5700 Y41.1900
G01 X36.5700 Y41.1900
G01 X36.5161 Y41.1874
G01 X36.4639 Y41.1797
G01 X36.4103 Y41.1663
G01 X36.3595 Y41.1481
G01 X36.3107 Y41.1251
G01 X36.2665 Y41.0986
G01 X36.2192 Y41.0636
G01 X36.1811 Y41.0289
G01 X36.1433 Y40.9870
G01 X36.1127 Y40.9456
G01 X36.0849 Y40.8993
G01 X36.0619 Y40.8505
G01 X36.0437 Y40.7997
G01 X36.0306 Y40.7473
G01 X36.0226 Y40.6939
G01 X36.0200 Y40.6400
G01 X36.0226 Y40.5861
G01 X36.0306 Y40.5327
G01 X36.0437 Y40.4803
G01 X36.0619 Y40.4295
G01 X36.0849 Y40.3807
G01 X36.1127 Y40.3344
G01 X36.1448 Y40.2911
G01 X36.1811 Y40.2511
G01 X36.2192 Y40.2164
G01 X36.2665 Y40.1814
G01 X36.3107 Y40.1549
G01 X36.3618 Y40.1310
G01 X36.4103 Y40.1137
G01 X36.4627 Y40.1006
G01 X36.5161 Y40.0926
G01 X36.5700 Y40.0900
G00 Z2.0000
G00 X36.5700 Y42.6300
G01 F60.00
G01 Z-0.0600
G01 F120.00
G01 X39.5700 Y42.6300
G01 X39.6239 Y42.6326
G01 X39.6761 Y42.6403
G01 X39.7297 Y42.6537
G01 X39.7805 Y42.6719
G01 X39.8293 Y42.6949
G01 X39.8756 Y42.7227
G01 X39.9189 Y42.7548
G01 X39.9589 Y42.7911
G01 X39.9952 Y42.8311
G01 X40.0273 Y42.8744
G01 X40.0551 Y42.9207
G01 X40.0781 Y42.9695
G01 X40.0963 Y43.0203
G01 X40.1094 Y43.0727
G01 X40.1174 Y43.1261
G01 X40.1200 Y43.1800
G01 X40.1174 Y43.2339
G01 X40.1097 Y43.2861
G01 X40.0955 Y43.3420
G01 X40.0781 Y43.3905
G01 X40.0551 Y43.4393
G01 X40.0273 Y43.4856
G01 X39.9967 Y43.5270
G01 X39.9571 Y43.5706
G01 X39.9189 Y43.6052
G01 X39.8756 Y43.6373
G01 X39.8293 Y43.6651
G01 X39.7827 Y43.6871
G01 X39.7273 Y43.7070
G01 X39.6773 Y43.7194
G01 X39.6251 Y43.7272
G01 X39.5700 Y43.7300
G01 X36.5700 Y43.7300
G01 X36.5161 Y43.7274
G01 X36.4639 Y43.7197
G01 X36.4103 Y43.7063
G01 X36.3595 Y43.6881
G01 X36.3107 Y43.6651
G01 X36.2665 Y43.6386
G01 X36.2192 Y43.6036
G01 X36.1811 Y43.5689
G01 X36.1433 Y43.5270
G01 X36.1127 Y43.4856
G01 X36.0849 Y43.4393
G01 X36.0619 Y43.3905
G01 X36.0437 Y43.3397
G01 X36.0306 Y43.2873
G01 X36.0226 Y43.2339
G01 X36.0200 Y43.1800
G01 X36.0226 Y43.1261
G01 X36.0306 Y43.0727
G01 X36.0437 Y43.0203
G01 X36.0619 Y42.9695
G01 X36.0849 Y42.9207
G01 X36.1127 Y42.8744
G01 X36.1448 Y42.8311
G01 X36.1811 Y42.7911
G01 X36.2192 Y42.7564
G01 X36.2665 Y42.7214
G01 X36.3107 Y42.6949
G01 X36.3618 Y42.6710
G01 X36.4103 Y42.6537
G01 X36.4627 Y42.6406
G01 X36.5161 Y42.6326
G01 X36.5700 Y42.6300
G00 X36.5700 Y42.6300
G01 F60.00
G01 Z-0.1200
G01 F120.00
G01 X39.5700 Y42.6300
G01 X39.6239 Y42.6326
G01 X39.6761 Y42.6403
G01 X39.7297 Y42.6537
G01 X39.7805 Y42.6719
G01 X39.8293 Y42.6949
G01 X39.8756 Y42.7227
G01 X39.9189 Y42.7548
G01 X39.9589 Y42.7911
G01 X39.9952 Y42.8311
G01 X40.0273 Y42.8744
G01 X40.0551 Y42.9207
G01 X40.0781 Y42.9695
G01 X40.0963 Y43.0203
G01 X40.1094 Y43.0727
G01 X40.1174 Y43.1261
G01 X40.1200 Y43.1800
G01 X40.1174 Y43.2339
G01 X40.1097 Y43.2861
G01 X40.0955 Y43.3420
G01 X40.0781 Y43.3905
G01 X40.0551 Y43.4393
G01 X40.0273 Y43.4856
G01 X39.9967 Y43.5270
G01 X39.9571 Y43.5706
G01 X39.9189 Y43.6052
G01 X39.8756 Y43.6373
G01 X39.8293 Y43.6651
G01 X39.7827 Y43.6871
G01 X39.7273 Y43.7070
G01 X39.6773 Y43.7194
G01 X39.6251 Y43.7272
G01 X39.5700 Y43.7300
G01 X36.5700 Y43.7300
G01 X36.5161 Y43.7274
G01 X36.4639 Y43.7197
G01 X36.4103 Y43.7063
G01 X36.3595 Y43.6881
G01 X36.3107 Y43.6651
G01 X36.2665 Y43.6386
G01 X36.2192 Y43.6036
G01 X36.1811 Y43.5689
G01 X36.1433 Y43.5270
G01 X36.1127 Y43.4856
G01 X36.0849 Y43.4393
G01 X36.0619 Y43.3905
G01 X36.0437 Y43.3397
G01 X36.0306 Y43.2873
G01 X36.0226 Y43.2339
G01 X36.0200 Y43.1800
G01 X36.0226 Y43.1261
G01 X36.0306 Y43.0727
G01 X36.0437 Y43.0203
G01 X36.0619 Y42.9695
G01 X36.0849 Y42.9207
G01 X36.1127 Y42.8744
G01 X36.1448 Y42.8311
G01 X36.1811 Y42.7911
G01 X36.2192 Y42.7564
G01 X36.2665 Y42.7214
G01 X36.3107 Y42.6949
G01 X36.3618 Y42.6710
G01 X36.4103 Y42.6537
G01 X36.4627 Y42.6406
G01 X36.5161 Y42.6326
G01 X36.5700 Y42.6300
G00 X36.5700 Y42.6300
G01 F60.00
G01 Z-0.1800
G01 F120.00
G01 X39.5700 Y42.6300
G01 X39.6239 Y42.6326
G01 X39.6761 Y42.6403
G01 X39.7297 Y42.6537
G01 X39.7805 Y42.6719
G01 X39.8293 Y42.6949
G01 X39.8756 Y42.7227
G01 X39.9189 Y42.7548
G01 X39.9589 Y42.7911
G01 X39.9952 Y42.8311
G01 X40.0273 Y42.8744
G01 X40.0551 Y42.9207
G01 X40.0781 Y42.9695
G01 X40.0963 Y43.0203
G01 X40.1094 Y43.0727
G01 X40.1174 Y43.1261
G01 X40.1200 Y43.1800
G01 X40.1174 Y43.2339
G01 X40.1097 Y43.2861
G01 X40.0955 Y43.3420
G01 X40.0781 Y43.3905
G01 X40.0551 Y43.4393
G01 X40.0273 Y43.4856
G01 X39.9967 Y43.5270
G01 X39.9571 Y43.5706
G01 X39.9189 Y43.6052
G01 X39.8756 Y43.6373
G01 X39.8293 Y43.6651
G01 X39.7827 Y43.6871
G01 X39.7273 Y43.7070
G01 X39.6773 Y43.7194
G01 X39.6251 Y43.7272
G01 X39.5700 Y43.7300
G01 X36.5700 Y43.7300
G01 X36.5161 Y43.7274
G01 X36.4639 Y43.7197
G01 X36.4103 Y43.7063
G01 X36.3595 Y43.6881
G01 X36.3107 Y43.6651
G01 X36.2665 Y43.6386
G01 X36.2192 Y43.6036
G01 X36.1811 Y43.5689
G01 X36.1433 Y43.5270
G01 X36.1127 Y43.4856
G01 X36.0849 Y43.4393
G01 X36.0619 Y43.3905
G01 X36.0437 Y43.3397
G01 X36.0306 Y43.2873
G01 X36.0226 Y43.2339
G01 X36.0200 Y43.1800
G01 X36.0226 Y43.1261
G01 X36.0306 Y43.0727
G01 X36.0437 Y43.0203
G01 X36.0619 Y42.9695
G01 X36.0849 Y42.9207
G01 X36.1127 Y42.8744
G01 X36.1448 Y42.8311
G01 X36.1811 Y42.7911
G01 X36.2192 Y42.7564
G01 X36.2665 Y42.7214
G01 X36.3107 Y42.6949
G01 X36.3618 Y42.6710
G01 X36.4103 Y42.6537
G01 X36.4627 Y42.6406
G01 X36.5161 Y42.6326
G01 X36.5700 Y42.6300
G00 X36.5700 Y42.6300
G01 F60.00
G01 Z-0.2000
G01 F120.00
G01 X39.5700 Y42.6300
G01 X39.6239 Y42.6326
G01 X39.6761 Y42.6403
G01 X39.7297 Y42.6537
G01 X39.7805 Y42.6719
G01 X39.8293 Y42.6949
G01 X39.8756 Y42.7227
G01 X39.9189 Y42.7548
G01 X39.9589 Y42.7911
G01 X39.9952 Y42.8311
G01 X40.0273 Y42.8744
G01 X40.0551 Y42.9207
G01 X40.0781 Y42.9695
G01 X40.0963 Y43.0203
G01 X40.1094 Y43.0727
G01 X40.1174 Y43.1261
G01 X40.1200 Y43.1800
G01 X40.1174 Y43.2339
G01 X40.1097 Y43.2861
G01 X40.0955 Y43.3420
G01 X40.0781 Y43.3905
G01 X40.0551 Y43.4393
G01 X40.0273 Y43.4856
G01 X39.9967 Y43.5270
G01 X39.9571 Y43.5706
G01 X39.9189 Y43.6052
G01 X39.8756 Y43.6373
G01 X39.8293 Y43.6651
G01 X39.7827 Y43.6871
G01 X39.7273 Y43.7070
G01 X39.6773 Y43.7194
G01 X39.6251 Y43.7272
G01 X39.5700 Y43.7300
G01 X36.5700 Y43.7300
G01 X36.5161 Y43.7274
G01 X36.4639 Y43.7197
G01 X36.4103 Y43.7063
G01 X36.3595 Y43.6881
G01 X36.3107 Y43.6651
G01 X36.2665 Y43.6386
G01 X36.2192 Y43.6036
G01 X36.1811 Y43.5689
G01 X36.1433 Y43.5270
G01 X36.1127 Y43.4856
G01 X36.0849 Y43.4393
G01 X36.0619 Y43.3905
G01 X36.0437 Y43.3397
G01 X36.0306 Y43.2873
G01 X36.0226 Y43.2339
G01 X36.0200 Y43.1800
G01 X36.0226 Y43.1261
G01 X36.0306 Y43.0727
G01 X36.0437 Y43.0203
G01 X36.0619 Y42.9695
G01 X36.0849 Y42.9207
G01 X36.1127 Y42.8744
G01 X36.1448 Y42.8311
G01 X36.1811 Y42.7911
G01 X36.2192 Y42.7564
G01 X36.2665 Y42.7214
G01 X36.3107 Y42.6949
G01 X36.3618 Y42.6710
G01 X36.4103 Y42.6537
G01 X36.4627 Y42.6406
G01 X36.5161 Y42.6326
G01 X36.5700 Y42.6300
G00 Z2.0000
G00 X41.7100 Y42.6300
G01 F60.00
G01 Z-0.0600
G01 F120.00
G01 X44.7100 Y42.6300
G01 X44.7639 Y42.6326
G01 X44.8161 Y42.6403
G01 X44.8697 Y42.6537
G01 X44.9205 Y42.6719
G01 X44.9693 Y42.6949
G01 X45.0156 Y42.7227
G01 X45.0589 Y42.7548
G01 X45.0989 Y42.7911
G01 X45.1352 Y42.8311
G01 X45.1673 Y42.8744
G01 X45.1951 Y42.9207
G01 X45.2181 Y42.9695
G01 X45.2363 Y43.0203
G01 X45.2494 Y43.0727
G01 X45.2574 Y43.1261
G01 X45.2600 Y43.1800
G01 X45.2574 Y43.2339
G01 X45.2497 Y43.2861
G01 X45.2355 Y43.3420
G01 X45.2181 Y43.3905
G01 X45.1951 Y43.4393
G01 X45.1673 Y43.4856
G01 X45.1367 Y43.5270
G01 X45.0971 Y43.5706
G01 X45.0589 Y43.6052
G01 X45.0156 Y43.6373
G01 X44.9693 Y43.6651
G01 X44.9227 Y43.6871
G01 X44.8673 Y43.7070
G01 X44.8173 Y43.7194
G01 X44.7651 Y43.7272
G01 X44.7100 Y43.7300
G01 X41.7100 Y43.7300
G01 X41.6561 Y43.7274
G01 X41.6039 Y43.7197
G01 X41.5503 Y43.7063
G01 X41.4995 Y43.6881
G01 X41.4507 Y43.6651
G01 X41.4065 Y43.6386
G01 X41.3592 Y43.6036
G01 X41.3211 Y43.5689
G01 X41.2833 Y43.5270
G01 X41.2527 Y43.4856
G01 X41.2249 Y43.4393
G01 X41.2019 Y43.3905
G01 X41.1837 Y43.3397
G01 X41.1706 Y43.2873
G01 X41.1626 Y43.2339
G01 X41.1600 Y43.1800
G01 X41.1626 Y43.1261
G01 X41.1706 Y43.0727
G01 X41.1837 Y43.0203
G01 X41.2019 Y42.9695
G01 X41.2249 Y42.9207
G01 X41.2527 Y42.8744
G01 X41.2848 Y42.8311
G01 X41.3211 Y42.7911
G01 X41.3592 Y42.7564
G01 X41.4065 Y42.7214
G01 X41.4507 Y42.6949
G01 X41.5018 Y42.6710
G01 X41.5503 Y42.6537
G01 X41.6027 Y42.6406
G01 X41.6561 Y42.6326
G01 X41.7100 Y42.6300
G00 X41.7100 Y42.6300
G01 F60.00
G01 Z-0.1200
G01 F120.00
G01 X44.7100 Y42.6300
G01 X44.7639 Y42.6326
G01 X44.8161 Y42.6403
G01 X44.8697 Y42.6537
G01 X44.9205 Y42.6719
G01 X44.9693 Y42.6949
G01 X45.0156 Y42.7227
G01 X45.0589 Y42.7548
G01 X45.0989 Y42.7911
G01 X45.1352 Y42.8311
G01 X45.1673 Y42.8744
G01 X45.1951 Y42.9207
G01 X45.2181 Y42.9695
G01 X45.2363 Y43.0203
G01 X45.2494 Y43.0727
G01 X45.2574 Y43.1261
G01 X45.2600 Y43.1800
G01 X45.2574 Y43.2339
G01 X45.2497 Y43.2861
G01 X45.2355 Y43.3420
G01 X45.2181 Y43.3905
G01 X45.1951 Y43.4393
G01 X45.1673 Y43.4856
G01 X45.1367 Y43.5270
G01 X45.0971 Y43.5706
G01 X45.0589 Y43.6052
G01 X45.0156 Y43.6373
G01 X44.9693 Y43.6651
G01 X44.9227 Y43.6871
G01 X44.8673 Y43.7070
G01 X44.8173 Y43.7194
G01 X44.7651 Y43.7272
G01 X44.7100 Y43.7300
G01 X41.7100 Y43.7300
G01 X41.6561 Y43.7274
G01 X41.6039 Y43.7197
G01 X41.5503 Y43.7063
G01 X41.4995 Y43.6881
G01 X41.4507 Y43.6651
G01 X41.4065 Y43.6386
G01 X41.3592 Y43.6036
G01 X41.3211 Y43.5689
G01 X41.2833 Y43.5270
G01 X41.2527 Y43.4856
G01 X41.2249 Y43.4393
G01 X41.2019 Y43.3905
G01 X41.1837 Y43.3397
G01 X41.1706 Y43.2873
G01 X41.1626 Y43.2339
G01 X41.1600 Y43.1800
G01 X41.1626 Y43.1261
G01 X41.1706 Y43.0727
G01 X41.1837 Y43.0203
G01 X41.2019 Y42.9695
G01 X41.2249 Y42.9207
G01 X41.2527 Y42.8744
G01 X41.2848 Y42.8311
G01 X41.3211 Y42.7911
G01 X41.3592 Y42.7564
G01 X41.4065 Y42.7214
G01 X41.4507 Y42.6949
G01 X41.5018 Y42.6710
G01 X41.5503 Y42.6537
G01 X41.6027 Y42.6406
G01 X41.6561 Y42.6326
G01 X41.7100 Y42.6300
G00 X41.7100 Y42.6300
G01 F60.00
G01 Z-0.1800
G01 F120.00
G01 X44.7100 Y42.6300
G01 X44.7639 Y42.6326
G01 X44.8161 Y42.6403
G01 X44.8697 Y42.6537
G01 X44.9205 Y42.6719
G01 X44.9693 Y42.6949
G01 X45.0156 Y42.7227
G01 X45.0589 Y42.7548
G01 X45.0989 Y42.7911
G01 X45.1352 Y42.8311
G01 X45.1673 Y42.8744
G01 X45.1951 Y42.9207
G01 X45.2181 Y42.9695
G01 X45.2363 Y43.0203
G01 X45.2494 Y43.0727
G01 X45.2574 Y43.1261
G01 X45.2600 Y43.1800
G01 X45.2574 Y43.2339
G01 X45.2497 Y43.2861
G01 X45.2355 Y43.3420
G01 X45.2181 Y43.3905
G01 X45.1951 Y43.4393
G01 X45.1673 Y43.4856
G01 X45.1367 Y43.5270
G01 X45.0971 Y43.5706
G01 X45.0589 Y43.6052
G01 X45.0156 Y43.6373
G01 X44.9693 Y43.6651
G01 X44.9227 Y43.6871
G01 X44.8673 Y43.7070
G01 X44.8173 Y43.7194
G01 X44.7651 Y43.7272
G01 X44.7100 Y43.7300
G01 X41.7100 Y43.7300
G01 X41.6561 Y43.7274
G01 X41.6039 Y43.7197
G01 X41.5503 Y43.7063
G01 X41.4995 Y43.6881
G01 X41.4507 Y43.6651
G01 X41.4065 Y43.6386
G01 X41.3592 Y43.6036
G01 X41.3211 Y43.5689
G01 X41.2833 Y43.5270
G01 X41.2527 Y43.4856
G01 X41.2249 Y43.4393
G01 X41.2019 Y43.3905
G01 X41.1837 Y43.3397
G01 X41.1706 Y43.2873
G01 X41.1626 Y43.2339
G01 X41.1600 Y43.1800
G01 X41.1626 Y43.1261
G01 X41.1706 Y43.0727
G01 X41.1837 Y43.0203
G01 X41.2019 Y42.9695
G01 X41.2249 Y42.9207
G01 X41.2527 Y42.8744
G01 X41.2848 Y42.8311
G01 X41.3211 Y42.7911
G01 X41.3592 Y42.7564
G01 X41.4065 Y42.7214
G01 X41.4507 Y42.6949
G01 X41.5018 Y42.6710
G01 X41.5503 Y42.6537
G01 X41.6027 Y42.6406
G01 X41.6561 Y42.6326
G01 X41.7100 Y42.6300
G00 X41.7100 Y42.6300
G01 F60.00
G01 Z-0.2000
G01 F120.00
G01 X44.7100 Y42.6300
G01 X44.7639 Y42.6326
G01 X44.8161 Y42.6403
G01 X44.8697 Y42.6537
G01 X44.9205 Y42.6719
G01 X44.9693 Y42.6949
G01 X45.0156 Y42.7227
G01 X45.0589 Y42.7548
G01 X45.0989 Y42.7911
G01 X45.1352 Y42.8311
G01 X45.1673 Y42.8744
G01 X45.1951 Y42.9207
G01 X45.2181 Y42.9695
G01 X45.2363 Y43.0203
G01 X45.2494 Y43.0727
G01 X45.2574 Y43.1261
G01 X45.2600 Y43.1800
G01 X45.2574 Y43.2339
G01 X45.2497 Y43.2861
G01 X45.2355 Y43.3420
G01 X45.2181 Y43.3905
G01 X45.1951 Y43.4393
G01 X45.1673 Y43.4856
G01 X45.1367 Y43.5270
G01 X45.0971 Y43.5706
G01 X45.0589 Y43.6052
G01 X45.0156 Y43.6373
G01 X44.9693 Y43.6651
G01 X44.9227 Y43.6871
G01 X44.8673 Y43.7070
G01 X44.8173 Y43.7194
G01 X44.7651 Y43.7272
G01 X44.7100 Y43.7300
G01 X41.7100 Y43.7300
G01 X41.6561 Y43.7274
G01 X41.6039 Y43.7197
G01 X41.5503 Y43.7063
G01 X41.4995 Y43.6881
G01 X41.4507 Y43.6651
G01 X41.4065 Y43.6386
G01 X41.3592 Y43.6036
G01 X41.3211 Y43.5689
G01 X41.2833 Y43.5270
G01 X41.2527 Y43.4856
G01 X41.2249 Y43.4393
G01 X41.2019 Y43.3905
G01 X41.1837 Y43.3397
G01 X41.1706 Y43.2873
G01 X41.1626 Y43.2339
G01 X41.1600 Y43.1800
G01 X41.1626 Y43.1261
G01 X41.1706 Y43.0727
G01 X41.1837 Y43.0203
G01 X41.2019 Y42.9695
G01 X41.2249 Y42.9207
G01 X41.2527 Y42.8744
G01 X41.2848 Y42.8311
G01 X41.3211 Y42.7911
G01 X41.3592 Y42.7564
G01 X41.4065 Y42.7214
G01 X41.4507 Y42.6949
G01 X41.5018 Y42.6710
G01 X41.5503 Y42.6537
G01 X41.6027 Y42.6406
G01 X41.6561 Y42.6326
G01 X41.7100 Y42.6300
G00 Z2.0000
G00 X41.7100 Y40.0900
G01 F60.00
G01 Z-0.0600
G01 F120.00
G01 X46.7135 Y40.0898
G01 X46.7649 Y40.0924
G01 X46.8207 Y40.1009
G01 X46.8707 Y40.1134
G01 X46.9193 Y40.1308
G01 X46.9682 Y40.1536
G01 X47.0167 Y40.1825
G01 X47.0601 Y40.2147
G01 X47.1001 Y40.2509
G01 X47.1356 Y40.2900
G01 X47.1685 Y40.3343
G01 X47.1951 Y40.3785
G01 X47.2202 Y40.4317
G01 X47.2376 Y40.4803
G01 X47.2507 Y40.5327
G01 X47.2586 Y40.5861
G01 X47.2612 Y40.6388
G01 X47.2613 Y44.7521
G01 X62.6191 Y60.1099
G01 X62.6561 Y60.1509
G01 X62.6875 Y60.1933
G01 X62.7141 Y60.2375
G01 X62.7384 Y60.2884
G01 X62.7566 Y60.3393
G01 X62.7691 Y60.3893
G01 X62.7777 Y60.4463
G01 X62.7803 Y60.4990
G01 X62.7803 Y62.1447
G01 X62.8911 Y62.2112
G01 X63.0114 Y62.3003
G01 X63.1242 Y62.4023
G01 X63.2282 Y62.5167
G01 X63.3188 Y62.6389
G01 X63.3981 Y62.7715
G01 X63.4620 Y62.9068
G01 X63.5125 Y63.0477
G01 X63.5502 Y63.1976
G01 X63.5726 Y63.3493
G01 X63.5799 Y63.5025
G01 X63.5725 Y63.6519
G01 X63.5506 Y63.8000
G01 X63.5133 Y63.9499
G01 X63.4620 Y64.0932
G01 X63.3970 Y64.2307
G01 X63.3174 Y64.3631
G01 X63.2282 Y64.4833
G01 X63.1277 Y64.5942
G01 X63.0142 Y64.6974
G01 X62.8891 Y64.7901
G01 X62.7607 Y64.8670
G01 X62.6254 Y64.9310
G01 X62.4799 Y64.9833
G01 X62.3312 Y65.0204
G01 X62.1819 Y65.0425
G01 X62.0312 Y65.0500
G01 X61.0300 Y65.0500
G01 X60.8781 Y65.0425
G01 X60.7276 Y65.0202
G01 X60.5801 Y64.9833
G01 X60.4368 Y64.9320
G01 X60.2972 Y64.8658
G01 X60.1669 Y64.7874
G01 X60.0467 Y64.6982
G01 X59.9358 Y64.5977
G01 X59.8318 Y64.4833
G01 X59.7419 Y64.3621
G01 X59.6619 Y64.2285
G01 X59.5980 Y64.0932
G01 X59.5475 Y63.9523
G01 X59.5098 Y63.8024
G01 X59.4873 Y63.6495
G01 X59.4800 Y63.5000
G01 X59.4873 Y63.3505
G01 X59.5098 Y63.1976
G01 X59.5467 Y63.0501
G01 X59.5971 Y62.9091
G01 X59.6630 Y62.7693
G01 X59.7412 Y62.6389
G01 X59.8303 Y62.5186
G01 X59.9358 Y62.4023
G01 X60.0467 Y62.3018
G01 X60.1689 Y62.2112
G01 X60.2993 Y62.1330
G01 X60.4368 Y62.0680
G01 X60.5801 Y62.0167
G01 X60.7252 Y61.9803
G01 X60.8781 Y61.9575
G01 X61.0300 Y61.9500
G01 X61.6797 Y61.9500
G01 X61.6797 Y60.7269
G01 X46.3219 Y45.3691
G01 X46.2849 Y45.3281
G01 X46.2535 Y45.2857
G01 X46.2269 Y45.2415
G01 X46.2018 Y45.1883
G01 X46.1844 Y45.1397
G01 X46.1713 Y45.0873
G01 X46.1634 Y45.0339
G01 X46.1608 Y44.9812
G01 X46.1607 Y41.1903
G01 X41.7100 Y41.1900
G01 X41.6561 Y41.1874
G01 X41.6003 Y41.1789
G01 X41.5503 Y41.1663
G01 X41.4995 Y41.1481
G01 X41.4507 Y41.1251
G01 X41.4044 Y41.0973
G01 X41.3611 Y41.0652
G01 X41.3211 Y41.0289
G01 X41.2848 Y40.9889
