(G-CODE GENERATED BY FLATCAM v8.994 - www.flatcam.org - Version Date: 2020/11/7)

(Name: preamp-board-v4-PTH.drl_cnc)
(Type: G-code from Geometry)
(Units: MM)

(Created on Wednesday, 12 May 2021 at 08:29)

(This preprocessor is the default preprocessor used by FlatCAM.)
(It is made to work with MACH3 compatible motion controllers.)


(TOOLS DIAMETER: )
(Tool: 1 -> Dia: 1.3)

(FEEDRATE Z: )
(Tool: 1 -> Feedrate: 300)

(FEEDRATE RAPIDS: )
(Tool: 1 -> Feedrate Rapids: 1500)

(Z_CUT: )
(Tool: 1 -> Z_Cut: -2.0)

(Tools Offset: )
(Tool: 1 -> Offset Z: 0.0)

(Z_MOVE: )
(Tool: 1 -> Z_Move: 2)

(Z Toolchange: 15.0 mm)
(X,Y Toolchange: 0.0000, 0.0000 mm)
(Z Start: None mm)
(Z End: 0.5 mm)
(X,Y End: 0.0000, 0.0000 mm)
(Steps per circle: 64)
(Preprocessor Excellon: default)

(X range:   10.7800 ...   90.8200  mm)
(Y range:    4.4300 ...   64.1500  mm)

(Spindle Speed: 1000 RPM)
G21
G90
G94

G01 F300.00

M5
G00 Z15.0000
T1
G00 X0.0000 Y0.0000                
M6
(MSG, Change to Tool Dia = 1.3000 ||| Total drills for tool T1 = 44)
M0
G00 Z15.0000

G01 F300.00
M03 S1000
G00 X11.4300 Y35.5400
G01 Z-2.0000
G01 Z0
G00 Z2.0000
G00 X11.4300 Y33.0400
G01 Z-2.0000
G01 Z0
G00 Z2.0000
G00 X22.8600 Y35.5400
G01 Z-2.0000
G01 Z0
G00 Z2.0000
G00 X39.3700 Y33.0200
G01 Z-2.0000
G01 Z0
G00 Z2.0000
G00 X39.3700 Y35.5600
G01 Z-2.0000
G01 Z0
G00 Z2.0000
G00 X39.3700 Y38.1000
G01 Z-2.0000
G01 Z0
G00 Z2.0000
G00 X39.3700 Y40.6400
G01 Z-2.0000
G01 Z0
G00 Z2.0000
G00 X39.3700 Y43.1800
G01 Z-2.0000
G01 Z0
G00 Z2.0000
G00 X39.3700 Y45.7200
G01 Z-2.0000
G01 Z0
G00 Z2.0000
G00 X41.9100 Y45.7200
G01 Z-2.0000
G01 Z0
G00 Z2.0000
G00 X41.9100 Y43.1800
G01 Z-2.0000
G01 Z0
G00 Z2.0000
G00 X41.9100 Y40.6400
G01 Z-2.0000
G01 Z0
G00 Z2.0000
G00 X41.9100 Y38.1000
G01 Z-2.0000
G01 Z0
G00 Z2.0000
G00 X41.9100 Y35.5600
G01 Z-2.0000
G01 Z0
G00 Z2.0000
G00 X41.9100 Y33.0200
G01 Z-2.0000
G01 Z0
G00 Z2.0000
G00 X62.2300 Y30.3200
G01 Z-2.0000
G01 Z0
G00 Z2.0000
G00 X64.7700 Y30.3200
G01 Z-2.0000
G01 Z0
G00 Z2.0000
G00 X67.3100 Y30.3200
G01 Z-2.0000
G01 Z0
G00 Z2.0000
G00 X69.8500 Y30.3200
G01 Z-2.0000
G01 Z0
G00 Z2.0000
G00 X69.8500 Y38.2600
G01 Z-2.0000
G01 Z0
G00 Z2.0000
G00 X67.3100 Y38.2600
G01 Z-2.0000
G01 Z0
G00 Z2.0000
G00 X64.7700 Y38.2600
G01 Z-2.0000
G01 Z0
G00 Z2.0000
G00 X62.2300 Y38.2600
G01 Z-2.0000
G01 Z0
G00 Z2.0000
G00 X62.2300 Y52.4150
G01 Z-2.0000
G01 Z0
G00 Z2.0000
G00 X62.2300 Y63.5000
G01 Z-2.0000
G01 Z0
G00 Z2.0000
G00 X69.8500 Y63.5000
G01 Z-2.0000
G01 Z0
G00 Z2.0000
G00 X69.8500 Y52.4150
G01 Z-2.0000
G01 Z0
G00 Z2.0000
G00 X90.1700 Y44.3700
G01 Z-2.0000
G01 Z0
G00 Z2.0000
G00 X90.1700 Y39.3700
G01 Z-2.0000
G01 Z0
G00 Z2.0000
G00 X90.1700 Y31.7500
G01 Z-2.0000
G01 Z0
G00 Z2.0000
G00 X90.1700 Y26.7500
G01 Z-2.0000
G01 Z0
G00 Z2.0000
G00 X69.8500 Y16.1650
G01 Z-2.0000
G01 Z0
G00 Z2.0000
G00 X69.8500 Y5.0800
G01 Z-2.0000
G01 Z0
G00 Z2.0000
G00 X62.2300 Y5.0800
G01 Z-2.0000
G01 Z0
G00 Z2.0000
G00 X62.2300 Y16.1650
G01 Z-2.0000
G01 Z0
G00 Z2.0000
G00 X41.9100 Y22.8600
G01 Z-2.0000
G01 Z0
G00 Z2.0000
G00 X39.3700 Y22.8600
G01 Z-2.0000
G01 Z0
G00 Z2.0000
G00 X39.3700 Y25.4000
G01 Z-2.0000
G01 Z0
G00 Z2.0000
G00 X41.9100 Y25.4000
G01 Z-2.0000
G01 Z0
G00 Z2.0000
G00 X41.9100 Y27.9400
G01 Z-2.0000
G01 Z0
G00 Z2.0000
G00 X41.9100 Y30.4800
G01 Z-2.0000
G01 Z0
G00 Z2.0000
G00 X39.3700 Y30.4800
G01 Z-2.0000
G01 Z0
G00 Z2.0000
G00 X39.3700 Y27.9400
G01 Z-2.0000
G01 Z0
G00 Z2.0000
G00 X22.8600 Y33.0400
G01 Z-2.0000
G01 Z0
G00 Z2.0000
M05
G00 Z0.50
G00 X0.0 Y0.0


