( pcb2gcode 2.4.0 )
( Software-independent Gcode )
( This file uses a mill head of 0.03937inch to drill the 1 hole sizes. )
( Hole sizes: [0.123inch] )

G94       (Inches per minute feed rate.)
G20       (Units == INCHES.)
G91.1     (Incremental arc distance mode.)
G90       (Absolute coordinates.)
S10000    (RPM spindle speed.)

G01 F9.44882 (Feedrate)
G00 Z0.59055 (Retract)
T1
M5        (Spindle stop.)
G04 P1.00000
(MSG, Change tool bit to drill size 0.03937inch)
M6        (Tool change.)
M0        (Temporary machine stop.)
M3        (Spindle on clockwise.)
G04 P1.00000
G00 Z0.07874

G0 X0.43551 Y0.39370
G1 Z0.00294 F4.72441
G1 F9.44882
G2 X0.43551 Y0.39370 Z-0.00000 I-0.04181 J0.00000
G2 X0.43551 Y0.39370 Z-0.00294 I-0.04181 J0.00000
G2 X0.43551 Y0.39370 Z-0.00588 I-0.04181 J0.00000
G2 X0.43551 Y0.39370 Z-0.00881 I-0.04181 J0.00000
G2 X0.43551 Y0.39370 Z-0.01175 I-0.04181 J0.00000
G2 X0.43551 Y0.39370 Z-0.01469 I-0.04181 J0.00000
G2 X0.43551 Y0.39370 Z-0.01763 I-0.04181 J0.00000
G2 X0.43551 Y0.39370 Z-0.02057 I-0.04181 J0.00000
G2 X0.43551 Y0.39370 Z-0.02350 I-0.04181 J0.00000
G2 X0.43551 Y0.39370 Z-0.02644 I-0.04181 J0.00000
G2 X0.43551 Y0.39370 Z-0.02938 I-0.04181 J0.00000
G2 X0.43551 Y0.39370 Z-0.03232 I-0.04181 J0.00000
G2 X0.43551 Y0.39370 Z-0.03526 I-0.04181 J0.00000
G2 X0.43551 Y0.39370 Z-0.03819 I-0.04181 J0.00000
G2 X0.43551 Y0.39370 Z-0.04113 I-0.04181 J0.00000
G2 X0.43551 Y0.39370 Z-0.04407 I-0.04181 J0.00000
G2 X0.43551 Y0.39370 Z-0.04701 I-0.04181 J0.00000
G2 X0.43551 Y0.39370 Z-0.04995 I-0.04181 J0.00000
G2 X0.43551 Y0.39370 Z-0.05289 I-0.04181 J0.00000
G2 X0.43551 Y0.39370 Z-0.05582 I-0.04181 J0.00000
G2 X0.43551 Y0.39370 Z-0.05876 I-0.04181 J0.00000
G2 X0.43551 Y0.39370 Z-0.06170 I-0.04181 J0.00000
G2 X0.43551 Y0.39370 Z-0.06464 I-0.04181 J0.00000
G2 X0.43551 Y0.39370 Z-0.06758 I-0.04181 J0.00000
G2 X0.43551 Y0.39370 Z-0.07051 I-0.04181 J0.00000
G2 X0.43551 Y0.39370 Z-0.07345 I-0.04181 J0.00000
G2 X0.43551 Y0.39370 Z-0.07639 I-0.04181 J0.00000
G2 X0.43551 Y0.39370 Z-0.07933 I-0.04181 J0.00000
G2 X0.43551 Y0.39370 Z-0.08227 I-0.04181 J0.00000
G2 X0.43551 Y0.39370 Z-0.08520 I-0.04181 J0.00000
G2 X0.43551 Y0.39370 Z-0.08814 I-0.04181 J0.00000
G2 X0.43551 Y0.39370 Z-0.09108 I-0.04181 J0.00000
G2 X0.43551 Y0.39370 Z-0.09402 I-0.04181 J0.00000
G2 X0.43551 Y0.39370 Z-0.09696 I-0.04181 J0.00000
G2 X0.43551 Y0.39370 Z-0.09989 I-0.04181 J0.00000
G2 X0.43551 Y0.39370 Z-0.10283 I-0.04181 J0.00000
G2 X0.43551 Y0.39370 Z-0.10577 I-0.04181 J0.00000
G2 X0.43551 Y0.39370 Z-0.10871 I-0.04181 J0.00000
G2 X0.43551 Y0.39370 Z-0.11165 I-0.04181 J0.00000
G2 X0.43551 Y0.39370 Z-0.11458 I-0.04181 J0.00000
G2 X0.43551 Y0.39370 Z-0.11752 I-0.04181 J0.00000
G2 X0.43551 Y0.39370 Z-0.12046 I-0.04181 J0.00000
G2 X0.43551 Y0.39370 Z-0.12340 I-0.04181 J0.00000
G2 X0.43551 Y0.39370 Z-0.12634 I-0.04181 J0.00000
G2 X0.43551 Y0.39370 Z-0.12927 I-0.04181 J0.00000
G2 X0.43551 Y0.39370 Z-0.13221 I-0.04181 J0.00000
G2 X0.43551 Y0.39370 Z-0.13515 I-0.04181 J0.00000
G2 X0.43551 Y0.39370 Z-0.13809 I-0.04181 J0.00000
G2 X0.43551 Y0.39370 Z-0.14103 I-0.04181 J0.00000
G2 X0.43551 Y0.39370 Z-0.14397 I-0.04181 J0.00000
G2 X0.43551 Y0.39370 Z-0.14690 I-0.04181 J0.00000
G2 X0.43551 Y0.39370 Z-0.14984 I-0.04181 J0.00000
G2 X0.43551 Y0.39370 Z-0.15278 I-0.04181 J0.00000
G2 X0.43551 Y0.39370 Z-0.15572 I-0.04181 J0.00000
G2 X0.43551 Y0.39370 Z-0.15866 I-0.04181 J0.00000
G2 X0.43551 Y0.39370 Z-0.16159 I-0.04181 J0.00000
G2 X0.43551 Y0.39370 Z-0.16453 I-0.04181 J0.00000
G2 X0.43551 Y0.39370 Z-0.16747 I-0.04181 J0.00000
G2 X0.43551 Y0.39370 Z-0.17041 I-0.04181 J0.00000
G2 X0.43551 Y0.39370 Z-0.17335 I-0.04181 J0.00000
G2 X0.43551 Y0.39370 Z-0.17628 I-0.04181 J0.00000
G2 X0.43551 Y0.39370 Z-0.17922 I-0.04181 J0.00000
G2 X0.43551 Y0.39370 Z-0.18216 I-0.04181 J0.00000
G2 X0.43551 Y0.39370 Z-0.18510 I-0.04181 J0.00000
G2 X0.43551 Y0.39370 Z-0.18804 I-0.04181 J0.00000
G2 X0.43551 Y0.39370 Z-0.19097 I-0.04181 J0.00000
G2 X0.43551 Y0.39370 Z-0.19391 I-0.04181 J0.00000
G2 X0.43551 Y0.39370 Z-0.19685 I-0.04181 J0.00000
G2 X0.43551 Y0.39370 I-0.04181 J0.00000
G1 Z0.07874 F4.72441

G0 X0.43551 Y2.30630
G1 Z0.00294 F4.72441
G1 F9.44882
G2 X0.43551 Y2.30630 Z-0.00000 I-0.04181 J0.00000
G2 X0.43551 Y2.30630 Z-0.00294 I-0.04181 J0.00000
G2 X0.43551 Y2.30630 Z-0.00588 I-0.04181 J0.00000
G2 X0.43551 Y2.30630 Z-0.00881 I-0.04181 J0.00000
G2 X0.43551 Y2.30630 Z-0.01175 I-0.04181 J0.00000
G2 X0.43551 Y2.30630 Z-0.01469 I-0.04181 J0.00000
G2 X0.43551 Y2.30630 Z-0.01763 I-0.04181 J0.00000
G2 X0.43551 Y2.30630 Z-0.02057 I-0.04181 J0.00000
G2 X0.43551 Y2.30630 Z-0.02350 I-0.04181 J0.00000
G2 X0.43551 Y2.30630 Z-0.02644 I-0.04181 J0.00000
G2 X0.43551 Y2.30630 Z-0.02938 I-0.04181 J0.00000
G2 X0.43551 Y2.30630 Z-0.03232 I-0.04181 J0.00000
G2 X0.43551 Y2.30630 Z-0.03526 I-0.04181 J0.00000
G2 X0.43551 Y2.30630 Z-0.03819 I-0.04181 J0.00000
G2 X0.43551 Y2.30630 Z-0.04113 I-0.04181 J0.00000
G2 X0.43551 Y2.30630 Z-0.04407 I-0.04181 J0.00000
G2 X0.43551 Y2.30630 Z-0.04701 I-0.04181 J0.00000
G2 X0.43551 Y2.30630 Z-0.04995 I-0.04181 J0.00000
G2 X0.43551 Y2.30630 Z-0.05289 I-0.04181 J0.00000
G2 X0.43551 Y2.30630 Z-0.05582 I-0.04181 J0.00000
G2 X0.43551 Y2.30630 Z-0.05876 I-0.04181 J0.00000
G2 X0.43551 Y2.30630 Z-0.06170 I-0.04181 J0.00000
G2 X0.43551 Y2.30630 Z-0.06464 I-0.04181 J0.00000
G2 X0.43551 Y2.30630 Z-0.06758 I-0.04181 J0.00000
G2 X0.43551 Y2.30630 Z-0.07051 I-0.04181 J0.00000
G2 X0.43551 Y2.30630 Z-0.07345 I-0.04181 J0.00000
G2 X0.43551 Y2.30630 Z-0.07639 I-0.04181 J0.00000
G2 X0.43551 Y2.30630 Z-0.07933 I-0.04181 J0.00000
G2 X0.43551 Y2.30630 Z-0.08227 I-0.04181 J0.00000
G2 X0.43551 Y2.30630 Z-0.08520 I-0.04181 J0.00000
G2 X0.43551 Y2.30630 Z-0.08814 I-0.04181 J0.00000
G2 X0.43551 Y2.30630 Z-0.09108 I-0.04181 J0.00000
G2 X0.43551 Y2.30630 Z-0.09402 I-0.04181 J0.00000
G2 X0.43551 Y2.30630 Z-0.09696 I-0.04181 J0.00000
G2 X0.43551 Y2.30630 Z-0.09989 I-0.04181 J0.00000
G2 X0.43551 Y2.30630 Z-0.10283 I-0.04181 J0.00000
G2 X0.43551 Y2.30630 Z-0.10577 I-0.04181 J0.00000
G2 X0.43551 Y2.30630 Z-0.10871 I-0.04181 J0.00000
G2 X0.43551 Y2.30630 Z-0.11165 I-0.04181 J0.00000
G2 X0.43551 Y2.30630 Z-0.11458 I-0.04181 J0.00000
G2 X0.43551 Y2.30630 Z-0.11752 I-0.04181 J0.00000
G2 X0.43551 Y2.30630 Z-0.12046 I-0.04181 J0.00000
G2 X0.43551 Y2.30630 Z-0.12340 I-0.04181 J0.00000
G2 X0.43551 Y2.30630 Z-0.12634 I-0.04181 J0.00000
G2 X0.43551 Y2.30630 Z-0.12927 I-0.04181 J0.00000
G2 X0.43551 Y2.30630 Z-0.13221 I-0.04181 J0.00000
G2 X0.43551 Y2.30630 Z-0.13515 I-0.04181 J0.00000
G2 X0.43551 Y2.30630 Z-0.13809 I-0.04181 J0.00000
G2 X0.43551 Y2.30630 Z-0.14103 I-0.04181 J0.00000
G2 X0.43551 Y2.30630 Z-0.14397 I-0.04181 J0.00000
G2 X0.43551 Y2.30630 Z-0.14690 I-0.04181 J0.00000
G2 X0.43551 Y2.30630 Z-0.14984 I-0.04181 J0.00000
G2 X0.43551 Y2.30630 Z-0.15278 I-0.04181 J0.00000
G2 X0.43551 Y2.30630 Z-0.15572 I-0.04181 J0.00000
G2 X0.43551 Y2.30630 Z-0.15866 I-0.04181 J0.00000
G2 X0.43551 Y2.30630 Z-0.16159 I-0.04181 J0.00000
G2 X0.43551 Y2.30630 Z-0.16453 I-0.04181 J0.00000
G2 X0.43551 Y2.30630 Z-0.16747 I-0.04181 J0.00000
G2 X0.43551 Y2.30630 Z-0.17041 I-0.04181 J0.00000
G2 X0.43551 Y2.30630 Z-0.17335 I-0.04181 J0.00000
G2 X0.43551 Y2.30630 Z-0.17628 I-0.04181 J0.00000
G2 X0.43551 Y2.30630 Z-0.17922 I-0.04181 J0.00000
G2 X0.43551 Y2.30630 Z-0.18216 I-0.04181 J0.00000
G2 X0.43551 Y2.30630 Z-0.18510 I-0.04181 J0.00000
G2 X0.43551 Y2.30630 Z-0.18804 I-0.04181 J0.00000
G2 X0.43551 Y2.30630 Z-0.19097 I-0.04181 J0.00000
G2 X0.43551 Y2.30630 Z-0.19391 I-0.04181 J0.00000
G2 X0.43551 Y2.30630 Z-0.19685 I-0.04181 J0.00000
G2 X0.43551 Y2.30630 I-0.04181 J0.00000
G1 Z0.07874 F4.72441

G0 X3.58511 Y0.59060
G1 Z0.00294 F4.72441
G1 F9.44882
G2 X3.58511 Y0.59060 Z-0.00000 I-0.04181 J0.00000
G2 X3.58511 Y0.59060 Z-0.00294 I-0.04181 J0.00000
G2 X3.58511 Y0.59060 Z-0.00588 I-0.04181 J0.00000
G2 X3.58511 Y0.59060 Z-0.00881 I-0.04181 J0.00000
G2 X3.58511 Y0.59060 Z-0.01175 I-0.04181 J0.00000
G2 X3.58511 Y0.59060 Z-0.01469 I-0.04181 J0.00000
G2 X3.58511 Y0.59060 Z-0.01763 I-0.04181 J0.00000
G2 X3.58511 Y0.59060 Z-0.02057 I-0.04181 J0.00000
G2 X3.58511 Y0.59060 Z-0.02350 I-0.04181 J0.00000
G2 X3.58511 Y0.59060 Z-0.02644 I-0.04181 J0.00000
G2 X3.58511 Y0.59060 Z-0.02938 I-0.04181 J0.00000
G2 X3.58511 Y0.59060 Z-0.03232 I-0.04181 J0.00000
G2 X3.58511 Y0.59060 Z-0.03526 I-0.04181 J0.00000
G2 X3.58511 Y0.59060 Z-0.03819 I-0.04181 J0.00000
G2 X3.58511 Y0.59060 Z-0.04113 I-0.04181 J0.00000
G2 X3.58511 Y0.59060 Z-0.04407 I-0.04181 J0.00000
G2 X3.58511 Y0.59060 Z-0.04701 I-0.04181 J0.00000
G2 X3.58511 Y0.59060 Z-0.04995 I-0.04181 J0.00000
G2 X3.58511 Y0.59060 Z-0.05289 I-0.04181 J0.00000
G2 X3.58511 Y0.59060 Z-0.05582 I-0.04181 J0.00000
G2 X3.58511 Y0.59060 Z-0.05876 I-0.04181 J0.00000
G2 X3.58511 Y0.59060 Z-0.06170 I-0.04181 J0.00000
G2 X3.58511 Y0.59060 Z-0.06464 I-0.04181 J0.00000
G2 X3.58511 Y0.59060 Z-0.06758 I-0.04181 J0.00000
G2 X3.58511 Y0.59060 Z-0.07051 I-0.04181 J0.00000
G2 X3.58511 Y0.59060 Z-0.07345 I-0.04181 J0.00000
G2 X3.58511 Y0.59060 Z-0.07639 I-0.04181 J0.00000
G2 X3.58511 Y0.59060 Z-0.07933 I-0.04181 J0.00000
G2 X3.58511 Y0.59060 Z-0.08227 I-0.04181 J0.00000
G2 X3.58511 Y0.59060 Z-0.08520 I-0.04181 J0.00000
G2 X3.58511 Y0.59060 Z-0.08814 I-0.04181 J0.00000
G2 X3.58511 Y0.59060 Z-0.09108 I-0.04181 J0.00000
G2 X3.58511 Y0.59060 Z-0.09402 I-0.04181 J0.00000
G2 X3.58511 Y0.59060 Z-0.09696 I-0.04181 J0.00000
G2 X3.58511 Y0.59060 Z-0.09989 I-0.04181 J0.00000
G2 X3.58511 Y0.59060 Z-0.10283 I-0.04181 J0.00000
G2 X3.58511 Y0.59060 Z-0.10577 I-0.04181 J0.00000
G2 X3.58511 Y0.59060 Z-0.10871 I-0.04181 J0.00000
G2 X3.58511 Y0.59060 Z-0.11165 I-0.04181 J0.00000
G2 X3.58511 Y0.59060 Z-0.11458 I-0.04181 J0.00000
G2 X3.58511 Y0.59060 Z-0.11752 I-0.04181 J0.00000
G2 X3.58511 Y0.59060 Z-0.12046 I-0.04181 J0.00000
G2 X3.58511 Y0.59060 Z-0.12340 I-0.04181 J0.00000
G2 X3.58511 Y0.59060 Z-0.12634 I-0.04181 J0.00000
G2 X3.58511 Y0.59060 Z-0.12927 I-0.04181 J0.00000
G2 X3.58511 Y0.59060 Z-0.13221 I-0.04181 J0.00000
G2 X3.58511 Y0.59060 Z-0.13515 I-0.04181 J0.00000
G2 X3.58511 Y0.59060 Z-0.13809 I-0.04181 J0.00000
G2 X3.58511 Y0.59060 Z-0.14103 I-0.04181 J0.00000
G2 X3.58511 Y0.59060 Z-0.14397 I-0.04181 J0.00000
G2 X3.58511 Y0.59060 Z-0.14690 I-0.04181 J0.00000
G2 X3.58511 Y0.59060 Z-0.14984 I-0.04181 J0.00000
G2 X3.58511 Y0.59060 Z-0.15278 I-0.04181 J0.00000
G2 X3.58511 Y0.59060 Z-0.15572 I-0.04181 J0.00000
G2 X3.58511 Y0.59060 Z-0.15866 I-0.04181 J0.00000
G2 X3.58511 Y0.59060 Z-0.16159 I-0.04181 J0.00000
G2 X3.58511 Y0.59060 Z-0.16453 I-0.04181 J0.00000
G2 X3.58511 Y0.59060 Z-0.16747 I-0.04181 J0.00000
G2 X3.58511 Y0.59060 Z-0.17041 I-0.04181 J0.00000
G2 X3.58511 Y0.59060 Z-0.17335 I-0.04181 J0.00000
G2 X3.58511 Y0.59060 Z-0.17628 I-0.04181 J0.00000
G2 X3.58511 Y0.59060 Z-0.17922 I-0.04181 J0.00000
G2 X3.58511 Y0.59060 Z-0.18216 I-0.04181 J0.00000
G2 X3.58511 Y0.59060 Z-0.18510 I-0.04181 J0.00000
G2 X3.58511 Y0.59060 Z-0.18804 I-0.04181 J0.00000
G2 X3.58511 Y0.59060 Z-0.19097 I-0.04181 J0.00000
G2 X3.58511 Y0.59060 Z-0.19391 I-0.04181 J0.00000
G2 X3.58511 Y0.59060 Z-0.19685 I-0.04181 J0.00000
G2 X3.58511 Y0.59060 I-0.04181 J0.00000
G1 Z0.07874 F4.72441

G0 X3.58511 Y2.10940
G1 Z0.00294 F4.72441
G1 F9.44882
G2 X3.58511 Y2.10940 Z-0.00000 I-0.04181 J0.00000
G2 X3.58511 Y2.10940 Z-0.00294 I-0.04181 J0.00000
G2 X3.58511 Y2.10940 Z-0.00588 I-0.04181 J0.00000
G2 X3.58511 Y2.10940 Z-0.00881 I-0.04181 J0.00000
G2 X3.58511 Y2.10940 Z-0.01175 I-0.04181 J0.00000
G2 X3.58511 Y2.10940 Z-0.01469 I-0.04181 J0.00000
G2 X3.58511 Y2.10940 Z-0.01763 I-0.04181 J0.00000
G2 X3.58511 Y2.10940 Z-0.02057 I-0.04181 J0.00000
G2 X3.58511 Y2.10940 Z-0.02350 I-0.04181 J0.00000
G2 X3.58511 Y2.10940 Z-0.02644 I-0.04181 J0.00000
G2 X3.58511 Y2.10940 Z-0.02938 I-0.04181 J0.00000
G2 X3.58511 Y2.10940 Z-0.03232 I-0.04181 J0.00000
G2 X3.58511 Y2.10940 Z-0.03526 I-0.04181 J0.00000
G2 X3.58511 Y2.10940 Z-0.03819 I-0.04181 J0.00000
G2 X3.58511 Y2.10940 Z-0.04113 I-0.04181 J0.00000
G2 X3.58511 Y2.10940 Z-0.04407 I-0.04181 J0.00000
G2 X3.58511 Y2.10940 Z-0.04701 I-0.04181 J0.00000
G2 X3.58511 Y2.10940 Z-0.04995 I-0.04181 J0.00000
G2 X3.58511 Y2.10940 Z-0.05289 I-0.04181 J0.00000
G2 X3.58511 Y2.10940 Z-0.05582 I-0.04181 J0.00000
G2 X3.58511 Y2.10940 Z-0.05876 I-0.04181 J0.00000
G2 X3.58511 Y2.10940 Z-0.06170 I-0.04181 J0.00000
G2 X3.58511 Y2.10940 Z-0.06464 I-0.04181 J0.00000
G2 X3.58511 Y2.10940 Z-0.06758 I-0.04181 J0.00000
G2 X3.58511 Y2.10940 Z-0.07051 I-0.04181 J0.00000
G2 X3.58511 Y2.10940 Z-0.07345 I-0.04181 J0.00000
G2 X3.58511 Y2.10940 Z-0.07639 I-0.04181 J0.00000
G2 X3.58511 Y2.10940 Z-0.07933 I-0.04181 J0.00000
G2 X3.58511 Y2.10940 Z-0.08227 I-0.04181 J0.00000
G2 X3.58511 Y2.10940 Z-0.08520 I-0.04181 J0.00000
G2 X3.58511 Y2.10940 Z-0.08814 I-0.04181 J0.00000
G2 X3.58511 Y2.10940 Z-0.09108 I-0.04181 J0.00000
G2 X3.58511 Y2.10940 Z-0.09402 I-0.04181 J0.00000
G2 X3.58511 Y2.10940 Z-0.09696 I-0.04181 J0.00000
G2 X3.58511 Y2.10940 Z-0.09989 I-0.04181 J0.00000
G2 X3.58511 Y2.10940 Z-0.10283 I-0.04181 J0.00000
G2 X3.58511 Y2.10940 Z-0.10577 I-0.04181 J0.00000
G2 X3.58511 Y2.10940 Z-0.10871 I-0.04181 J0.00000
G2 X3.58511 Y2.10940 Z-0.11165 I-0.04181 J0.00000
G2 X3.58511 Y2.10940 Z-0.11458 I-0.04181 J0.00000
G2 X3.58511 Y2.10940 Z-0.11752 I-0.04181 J0.00000
G2 X3.58511 Y2.10940 Z-0.12046 I-0.04181 J0.00000
G2 X3.58511 Y2.10940 Z-0.12340 I-0.04181 J0.00000
G2 X3.58511 Y2.10940 Z-0.12634 I-0.04181 J0.00000
G2 X3.58511 Y2.10940 Z-0.12927 I-0.04181 J0.00000
G2 X3.58511 Y2.10940 Z-0.13221 I-0.04181 J0.00000
G2 X3.58511 Y2.10940 Z-0.13515 I-0.04181 J0.00000
G2 X3.58511 Y2.10940 Z-0.13809 I-0.04181 J0.00000
G2 X3.58511 Y2.10940 Z-0.14103 I-0.04181 J0.00000
G2 X3.58511 Y2.10940 Z-0.14397 I-0.04181 J0.00000
G2 X3.58511 Y2.10940 Z-0.14690 I-0.04181 J0.00000
G2 X3.58511 Y2.10940 Z-0.14984 I-0.04181 J0.00000
G2 X3.58511 Y2.10940 Z-0.15278 I-0.04181 J0.00000
G2 X3.58511 Y2.10940 Z-0.15572 I-0.04181 J0.00000
G2 X3.58511 Y2.10940 Z-0.15866 I-0.04181 J0.00000
G2 X3.58511 Y2.10940 Z-0.16159 I-0.04181 J0.00000
G2 X3.58511 Y2.10940 Z-0.16453 I-0.04181 J0.00000
G2 X3.58511 Y2.10940 Z-0.16747 I-0.04181 J0.00000
G2 X3.58511 Y2.10940 Z-0.17041 I-0.04181 J0.00000
G2 X3.58511 Y2.10940 Z-0.17335 I-0.04181 J0.00000
G2 X3.58511 Y2.10940 Z-0.17628 I-0.04181 J0.00000
G2 X3.58511 Y2.10940 Z-0.17922 I-0.04181 J0.00000
G2 X3.58511 Y2.10940 Z-0.18216 I-0.04181 J0.00000
G2 X3.58511 Y2.10940 Z-0.18510 I-0.04181 J0.00000
G2 X3.58511 Y2.10940 Z-0.18804 I-0.04181 J0.00000
G2 X3.58511 Y2.10940 Z-0.19097 I-0.04181 J0.00000
G2 X3.58511 Y2.10940 Z-0.19391 I-0.04181 J0.00000
G2 X3.58511 Y2.10940 Z-0.19685 I-0.04181 J0.00000
G2 X3.58511 Y2.10940 I-0.04181 J0.00000
G1 Z0.07874 F4.72441

G00 Z0.590551 ( All done -- retract )

M5      (Spindle off.)
G04 P1.000000
M9      (Coolant off.)
M2      (Program end.)

