(G-CODE GENERATED BY FLATCAM v8.994 - www.flatcam.org - Version Date: 2020/11/7)

(Name: preamp-board-v4-B_Cu.gbr_iso_combined_cnc)
(Type: G-code from Geometry)
(Units: MM)

(Created on Friday, 07 May 2021 at 14:10)

(This preprocessor is the default preprocessor used by FlatCAM.)
(It is made to work with MACH3 compatible motion controllers.)

(TOOL DIAMETER: 1.0 mm)
(Feedrate_XY: 300.0 mm/min)
(Feedrate_Z: 60.0 mm/min)
(Feedrate rapids 1500.0 mm/min)

(Z_Cut: -0.15 mm)
(Z_Move: 2.0 mm)
(Z Start: None mm)
(Z End: 15.0 mm)
(X,Y End: None mm)
(Steps per circle: 64)
(Preprocessor Geometry: default)

(X range:   10.3050 ...   92.1700  mm)
(Y range:    3.0800 ...   65.5000  mm)

(Spindle Speed: 10000.0 RPM)
G21
G90
G94

G01 F300.00

M5
G00 Z15.0000
G00 X0.0000 Y0.0000
T1
M6    
(MSG, Change to Tool Dia = 1.0000)
M0
G00 Z15.0000

M03 S10000.0
G01 F300.00
G00 X11.4545 Y34.2094
G01 F60.00
G01 Z-0.1500
G01 F300.00
G01 X11.4423 Y34.2098
G01 X11.4177 Y34.2098
G01 X11.3442 Y34.2064
G01 X11.3197 Y34.2046
G01 X11.2954 Y34.2016
G01 X11.2347 Y34.1926
G01 X11.2105 Y34.1884
G01 X11.1866 Y34.1830
G01 X11.1271 Y34.1681
G01 X11.1034 Y34.1616
G01 X11.0801 Y34.1539
G01 X11.0224 Y34.1332
G01 X10.9995 Y34.1244
G01 X10.9770 Y34.1144
G01 X10.9216 Y34.0882
G01 X10.8997 Y34.0772
G01 X10.8783 Y34.0651
G01 X10.8257 Y34.0335
G01 X10.8050 Y34.0204
G01 X10.7849 Y34.0063
G01 X10.7357 Y33.9697
G01 X10.7163 Y33.9546
G01 X10.6977 Y33.9386
G01 X10.6523 Y33.8974
G01 X10.6345 Y33.8805
G01 X10.6176 Y33.8627
G01 X10.5764 Y33.8173
G01 X10.5604 Y33.7987
G01 X10.5453 Y33.7793
G01 X10.5087 Y33.7301
G01 X10.4946 Y33.7100
G01 X10.4815 Y33.6893
G01 X10.4499 Y33.6367
G01 X10.4378 Y33.6153
G01 X10.4268 Y33.5934
G01 X10.4006 Y33.5380
G01 X10.3906 Y33.5155
G01 X10.3818 Y33.4926
G01 X10.3611 Y33.4349
G01 X10.3534 Y33.4116
G01 X10.3469 Y33.3879
G01 X10.3320 Y33.3284
G01 X10.3266 Y33.3045
G01 X10.3224 Y33.2803
G01 X10.3134 Y33.2196
G01 X10.3104 Y33.1953
G01 X10.3086 Y33.1708
G01 X10.3056 Y33.1095
G01 X10.3050 Y33.0850
G01 X10.3052 Y30.3227
G01 X10.3086 Y30.2492
G01 X10.3104 Y30.2247
G01 X10.3134 Y30.2004
G01 X10.3224 Y30.1397
G01 X10.3266 Y30.1155
G01 X10.3292 Y30.1035
G01 X10.3469 Y30.0321
G01 X10.3534 Y30.0084
G01 X10.3611 Y29.9851
G01 X10.3818 Y29.9274
G01 X10.3906 Y29.9045
G01 X10.4006 Y29.8820
G01 X10.4268 Y29.8266
G01 X10.4378 Y29.8047
G01 X10.4438 Y29.7939
G01 X10.4815 Y29.7307
G01 X10.4946 Y29.7100
G01 X10.5087 Y29.6899
G01 X10.5453 Y29.6407
G01 X10.5604 Y29.6213
G01 X10.5764 Y29.6027
G01 X10.6176 Y29.5573
G01 X10.6345 Y29.5395
G01 X10.6523 Y29.5226
G01 X10.6977 Y29.4814
G01 X10.7163 Y29.4654
G01 X10.7357 Y29.4503
G01 X10.7849 Y29.4137
G01 X10.7949 Y29.4065
G01 X10.8153 Y29.3929
G01 X10.8783 Y29.3549
G01 X10.8997 Y29.3428
G01 X10.9216 Y29.3318
G01 X10.9770 Y29.3056
G01 X10.9995 Y29.2956
G01 X11.0224 Y29.2868
G01 X11.0801 Y29.2661
G01 X11.1034 Y29.2584
G01 X11.1271 Y29.2519
G01 X11.1866 Y29.2370
G01 X11.2105 Y29.2316
G01 X11.2347 Y29.2274
G01 X11.2954 Y29.2184
G01 X11.3075 Y29.2168
G01 X11.3320 Y29.2144
G01 X11.4055 Y29.2106
G01 X11.4300 Y29.2100
G01 X11.4545 Y29.2106
G01 X11.5158 Y29.2136
G01 X11.5403 Y29.2154
G01 X11.5646 Y29.2184
G01 X11.6253 Y29.2274
G01 X11.6495 Y29.2316
G01 X11.6734 Y29.2370
G01 X11.7329 Y29.2519
G01 X11.7566 Y29.2584
G01 X11.7799 Y29.2661
G01 X11.8376 Y29.2868
G01 X11.8605 Y29.2956
G01 X11.8830 Y29.3056
G01 X11.9384 Y29.3318
G01 X11.9603 Y29.3428
G01 X11.9817 Y29.3549
G01 X12.0343 Y29.3865
G01 X12.0550 Y29.3996
G01 X12.0751 Y29.4137
G01 X12.1243 Y29.4503
G01 X12.1437 Y29.4654
G01 X12.1623 Y29.4814
G01 X12.2077 Y29.5226
G01 X12.2255 Y29.5395
G01 X12.2424 Y29.5573
G01 X12.2836 Y29.6027
G01 X12.2996 Y29.6213
G01 X12.3147 Y29.6407
G01 X12.3513 Y29.6899
G01 X12.3654 Y29.7100
G01 X12.3785 Y29.7307
G01 X12.4101 Y29.7833
G01 X12.4222 Y29.8047
G01 X12.4332 Y29.8266
G01 X12.4594 Y29.8820
G01 X12.4694 Y29.9045
G01 X12.4782 Y29.9274
G01 X12.4989 Y29.9851
G01 X12.5066 Y30.0084
G01 X12.5131 Y30.0321
G01 X12.5280 Y30.0916
G01 X12.5334 Y30.1155
G01 X12.5376 Y30.1397
G01 X12.5466 Y30.2004
G01 X12.5496 Y30.2247
G01 X12.5514 Y30.2492
G01 X12.5544 Y30.3105
G01 X12.5550 Y30.3350
G01 X12.5548 Y33.0973
G01 X12.5506 Y33.1830
G01 X12.5496 Y33.1953
G01 X12.5466 Y33.2196
G01 X12.5376 Y33.2803
G01 X12.5334 Y33.3045
G01 X12.5280 Y33.3284
G01 X12.5100 Y33.3998
G01 X12.5029 Y33.4233
G01 X12.4782 Y33.4926
G01 X12.4694 Y33.5155
G01 X12.4594 Y33.5380
G01 X12.4332 Y33.5934
G01 X12.4222 Y33.6153
G01 X12.4101 Y33.6367
G01 X12.3785 Y33.6893
G01 X12.3654 Y33.7100
G01 X12.3513 Y33.7301
G01 X12.3147 Y33.7793
G01 X12.2996 Y33.7987
G01 X12.2836 Y33.8173
G01 X12.2424 Y33.8627
G01 X12.2255 Y33.8805
G01 X12.2077 Y33.8974
G01 X12.1531 Y33.9467
G01 X12.1341 Y33.9623
G01 X12.0751 Y34.0063
G01 X12.0550 Y34.0204
G01 X12.0343 Y34.0335
G01 X11.9711 Y34.0712
G01 X11.9494 Y34.0828
G01 X11.8830 Y34.1144
G01 X11.8605 Y34.1244
G01 X11.8376 Y34.1332
G01 X11.7799 Y34.1539
G01 X11.7566 Y34.1616
G01 X11.7329 Y34.1681
G01 X11.6734 Y34.1830
G01 X11.6495 Y34.1884
G01 X11.6253 Y34.1926
G01 X11.5646 Y34.2016
G01 X11.5403 Y34.2046
G01 X11.5158 Y34.2064
G01 X11.4545 Y34.2094
G00 Z2.0000
G00 X12.0231 Y34.5397
G01 F60.00
G01 Z-0.1500
G01 F300.00
G01 X12.2917 Y34.5397
G01 X31.5137 Y15.3177
G01 X31.5315 Y15.3008
G01 X31.5679 Y15.2678
G01 X31.5864 Y15.2518
G01 X31.6058 Y15.2367
G01 X31.6452 Y15.2075
G01 X31.6653 Y15.1933
G01 X31.6756 Y15.1866
G01 X31.7281 Y15.1550
G01 X31.7387 Y15.1488
G01 X31.7604 Y15.1372
G01 X31.8269 Y15.1057
G01 X31.8382 Y15.1009
G01 X31.8611 Y15.0921
G01 X31.9073 Y15.0755
G01 X31.9306 Y15.0678
G01 X31.9543 Y15.0613
G01 X32.0019 Y15.0493
G01 X32.0259 Y15.0440
G01 X32.0500 Y15.0398
G01 X32.0986 Y15.0326
G01 X32.1230 Y15.0296
G01 X32.1474 Y15.0278
G01 X32.1965 Y15.0254
G01 X32.2210 Y15.0247
G01 X43.6820 Y15.0247
G01 X43.7065 Y15.0254
G01 X43.7678 Y15.0285
G01 X43.7800 Y15.0296
G01 X43.8044 Y15.0326
G01 X43.8530 Y15.0398
G01 X43.8771 Y15.0440
G01 X43.9011 Y15.0493
G01 X43.9487 Y15.0613
G01 X43.9724 Y15.0678
G01 X43.9957 Y15.0755
G01 X44.0534 Y15.0963
G01 X44.0648 Y15.1009
G01 X44.0872 Y15.1108
G01 X44.1316 Y15.1318
G01 X44.1535 Y15.1429
G01 X44.1749 Y15.1550
G01 X44.2170 Y15.1802
G01 X44.2274 Y15.1866
G01 X44.2478 Y15.2003
G01 X44.3070 Y15.2441
G01 X44.3166 Y15.2518
G01 X44.3351 Y15.2678
G01 X44.3715 Y15.3008
G01 X44.3893 Y15.3177
G01 X49.4193 Y20.3477
G01 X49.4362 Y20.3655
G01 X49.4692 Y20.4019
G01 X49.4852 Y20.4204
G01 X49.5003 Y20.4398
G01 X49.5295 Y20.4792
G01 X49.5367 Y20.4892
G01 X49.5504 Y20.5096
G01 X49.5820 Y20.5621
G01 X49.5882 Y20.5727
G01 X49.5998 Y20.5944
G01 X49.6313 Y20.6609
G01 X49.6407 Y20.6836
G01 X49.6449 Y20.6951
G01 X49.6615 Y20.7413
G01 X49.6692 Y20.7646
G01 X49.6757 Y20.7883
G01 X49.6877 Y20.8359
G01 X49.6930 Y20.8599
G01 X49.6972 Y20.8840
G01 X49.7044 Y20.9326
G01 X49.7074 Y20.9570
G01 X49.7092 Y20.9814
G01 X49.7116 Y21.0305
G01 X49.7123 Y21.0550
G01 X49.7123 Y32.3710
G01 X49.7116 Y32.3955
G01 X49.7092 Y32.4446
G01 X49.7074 Y32.4690
G01 X49.7061 Y32.4812
G01 X49.6953 Y32.5541
G01 X49.6930 Y32.5661
G01 X49.6877 Y32.5901
G01 X49.6757 Y32.6377
G01 X49.6692 Y32.6614
G01 X49.6615 Y32.6847
G01 X49.6449 Y32.7309
G01 X49.6361 Y32.7538
G01 X49.6313 Y32.7651
G01 X49.6052 Y32.8206
G01 X49.5941 Y32.8425
G01 X49.5820 Y32.8639
G01 X49.5504 Y32.9164
G01 X49.5437 Y32.9267
G01 X49.5295 Y32.9468
G01 X49.5003 Y32.9862
G01 X49.4852 Y33.0056
G01 X49.4692 Y33.0241
G01 X49.4279 Y33.0695
G01 X46.2215 Y36.2759
G01 X46.1761 Y36.3172
G01 X46.1576 Y36.3332
G01 X46.1382 Y36.3483
G01 X46.0988 Y36.3775
G01 X46.0888 Y36.3847
G01 X46.0684 Y36.3984
G01 X46.0159 Y36.4300
G01 X46.0053 Y36.4362
G01 X45.9836 Y36.4478
G01 X45.9171 Y36.4793
G01 X45.8944 Y36.4887
G01 X45.8829 Y36.4929
G01 X45.8367 Y36.5095
G01 X45.8134 Y36.5172
G01 X45.7897 Y36.5237
G01 X45.7421 Y36.5357
G01 X45.7181 Y36.5410
G01 X45.6940 Y36.5452
G01 X45.6454 Y36.5524
G01 X45.6210 Y36.5554
G01 X45.5966 Y36.5572
G01 X45.5475 Y36.5596
G01 X45.5230 Y36.5603
G01 X41.7100 Y36.5600
G01 X41.6855 Y36.5594
G01 X41.6365 Y36.5570
G01 X41.6120 Y36.5552
G01 X41.5876 Y36.5522
G01 X41.5391 Y36.5450
G01 X41.5149 Y36.5408
G01 X41.4910 Y36.5354
G01 X41.4315 Y36.5204
G01 X41.4080 Y36.5132
G01 X41.3502 Y36.4927
G01 X41.3273 Y36.4839
G01 X41.3049 Y36.4739
G01 X41.2605 Y36.4530
G01 X41.2386 Y36.4419
G01 X41.2173 Y36.4298
G01 X41.1752 Y36.4046
G01 X41.1544 Y36.3915
G01 X41.1344 Y36.3773
G01 X41.0950 Y36.3481
G01 X41.0756 Y36.3330
G01 X41.0570 Y36.3170
G01 X41.0117 Y36.2757
G01 X40.9943 Y36.2583
G01 X40.9530 Y36.2130
G01 X40.9370 Y36.1944
G01 X40.9219 Y36.1750
G01 X40.8927 Y36.1356
G01 X40.8785 Y36.1156
G01 X40.8654 Y36.0948
G01 X40.8402 Y36.0527
G01 X40.8281 Y36.0314
G01 X40.8170 Y36.0095
G01 X40.7961 Y35.9651
G01 X40.7861 Y35.9427
G01 X40.7773 Y35.9198
G01 X40.7568 Y35.8620
G01 X40.7496 Y35.8385
G01 X40.7346 Y35.7790
G01 X40.7292 Y35.7551
G01 X40.7250 Y35.7309
G01 X40.7162 Y35.6702
G01 X40.7138 Y35.6458
G01 X40.7102 Y35.5723
G01 X40.7102 Y35.5477
G01 X40.7130 Y35.4865
G01 X40.7148 Y35.4620
G01 X40.7178 Y35.4376
G01 X40.7270 Y35.3770
G01 X40.7318 Y35.3529
G01 X40.7346 Y35.3410
G01 X40.7465 Y35.2934
G01 X40.7531 Y35.2697
G01 X40.7608 Y35.2464
G01 X40.7773 Y35.2002
G01 X40.7861 Y35.1773
G01 X40.7961 Y35.1549
G01 X40.8170 Y35.1105
G01 X40.8281 Y35.0886
G01 X40.8402 Y35.0673
G01 X40.8654 Y35.0252
G01 X40.8785 Y35.0044
G01 X40.8927 Y34.9844
G01 X40.9219 Y34.9450
G01 X40.9370 Y34.9256
G01 X40.9530 Y34.9070
G01 X40.9860 Y34.8707
G01 X41.0029 Y34.8529
G01 X41.0207 Y34.8360
G01 X41.0570 Y34.8030
G01 X41.0756 Y34.7870
G01 X41.0950 Y34.7719
G01 X41.1443 Y34.7355
G01 X41.1647 Y34.7218
G01 X41.2279 Y34.6840
G01 X41.2495 Y34.6724
G01 X41.3049 Y34.6461
G01 X41.3273 Y34.6361
G01 X41.3502 Y34.6273
G01 X41.4080 Y34.6068
G01 X41.4315 Y34.5996
G01 X41.4434 Y34.5965
G01 X41.4910 Y34.5846
G01 X41.5149 Y34.5792
G01 X41.5391 Y34.5750
G01 X41.5876 Y34.5678
G01 X41.5998 Y34.5662
G01 X41.6242 Y34.5638
G01 X41.6855 Y34.5606
G01 X41.7100 Y34.5600
G01 X45.1087 Y34.5597
G01 X47.7117 Y31.9567
G01 X47.7117 Y21.4693
G01 X43.2677 Y17.0253
G01 X32.6353 Y17.0253
G01 X13.4045 Y36.2559
G01 X13.3591 Y36.2972
G01 X13.3499 Y36.3053
G01 X13.3310 Y36.3209
G01 X13.2718 Y36.3647
G01 X13.2514 Y36.3784
G01 X13.2410 Y36.3848
G01 X13.1989 Y36.4100
G01 X13.1775 Y36.4221
G01 X13.1556 Y36.4332
G01 X13.1112 Y36.4542
G01 X13.0888 Y36.4641
G01 X13.0774 Y36.4687
G01 X13.0081 Y36.4935
G01 X12.9846 Y36.5006
G01 X12.9727 Y36.5037
G01 X12.9251 Y36.5157
G01 X12.9011 Y36.5210
G01 X12.8770 Y36.5252
G01 X12.8284 Y36.5324
G01 X12.8040 Y36.5354
G01 X12.7796 Y36.5372
G01 X12.7183 Y36.5401
G01 X12.5550 Y36.5403
G01 X12.5550 Y38.2450
G01 X12.5544 Y38.2695
G01 X12.5514 Y38.3308
G01 X12.5496 Y38.3553
G01 X12.5482 Y38.3675
G01 X12.5356 Y38.4524
G01 X12.5308 Y38.4765
G01 X12.5280 Y38.4884
G01 X12.5100 Y38.5598
G01 X12.5029 Y38.5833
G01 X12.4989 Y38.5949
G01 X12.4739 Y38.6641
G01 X12.4645 Y38.6868
G01 X12.4332 Y38.7534
G01 X12.4222 Y38.7753
G01 X12.4101 Y38.7967
G01 X12.3721 Y38.8597
G01 X12.3654 Y38.8700
G01 X12.3513 Y38.8901
G01 X12.3147 Y38.9393
G01 X12.2996 Y38.9587
G01 X12.2836 Y38.9773
G01 X12.2424 Y39.0227
G01 X12.2255 Y39.0405
G01 X12.2077 Y39.0574
G01 X12.1623 Y39.0986
G01 X12.1437 Y39.1146
G01 X12.1243 Y39.1297
G01 X12.0751 Y39.1663
G01 X12.0550 Y39.1804
G01 X12.0343 Y39.1935
G01 X11.9711 Y39.2312
G01 X11.9494 Y39.2428
G01 X11.8830 Y39.2744
G01 X11.8605 Y39.2844
G01 X11.8376 Y39.2932
G01 X11.7799 Y39.3139
G01 X11.7566 Y39.3216
G01 X11.7329 Y39.3281
G01 X11.6734 Y39.3430
G01 X11.6495 Y39.3484
G01 X11.6253 Y39.3526
G01 X11.5646 Y39.3616
G01 X11.5403 Y39.3646
G01 X11.5158 Y39.3664
G01 X11.4423 Y39.3698
G01 X11.4177 Y39.3698
G01 X11.3442 Y39.3664
G01 X11.3197 Y39.3646
G01 X11.2954 Y39.3616
G01 X11.2226 Y39.3506
G01 X11.1985 Y39.3458
G01 X11.1271 Y39.3281
G01 X11.1034 Y39.3216
G01 X11.0801 Y39.3139
G01 X11.0224 Y39.2932
G01 X10.9995 Y39.2844
G01 X10.9770 Y39.2744
G01 X10.9216 Y39.2482
G01 X10.8997 Y39.2372
G01 X10.8783 Y39.2251
G01 X10.8257 Y39.1935
G01 X10.8050 Y39.1804
G01 X10.7849 Y39.1663
G01 X10.7357 Y39.1297
G01 X10.7259 Y39.1223
G01 X10.7069 Y39.1067
G01 X10.6523 Y39.0574
G01 X10.6345 Y39.0405
G01 X10.6176 Y39.0227
G01 X10.5764 Y38.9773
G01 X10.5604 Y38.9587
G01 X10.5453 Y38.9393
G01 X10.5087 Y38.8901
G01 X10.5015 Y38.8801
G01 X10.4879 Y38.8597
G01 X10.4499 Y38.7967
G01 X10.4378 Y38.7753
G01 X10.4268 Y38.7534
G01 X10.3955 Y38.6868
G01 X10.3906 Y38.6755
G01 X10.3818 Y38.6526
G01 X10.3611 Y38.5949
G01 X10.3534 Y38.5716
G01 X10.3469 Y38.5479
G01 X10.3292 Y38.4765
G01 X10.3266 Y38.4645
G01 X10.3224 Y38.4403
G01 X10.3134 Y38.3796
G01 X10.3104 Y38.3553
G01 X10.3086 Y38.3308
G01 X10.3056 Y38.2695
G01 X10.3050 Y38.2450
G01 X10.3050 Y35.4950
G01 X10.3056 Y35.4705
G01 X10.3086 Y35.4092
G01 X10.3104 Y35.3847
G01 X10.3134 Y35.3604
G01 X10.3244 Y35.2876
G01 X10.3266 Y35.2755
G01 X10.3320 Y35.2516
G01 X10.3469 Y35.1921
G01 X10.3534 Y35.1684
G01 X10.3611 Y35.1451
G01 X10.3861 Y35.0759
G01 X10.3955 Y35.0532
G01 X10.4006 Y35.0420
G01 X10.4268 Y34.9866
G01 X10.4378 Y34.9647
G01 X10.4499 Y34.9433
G01 X10.4815 Y34.8907
G01 X10.4879 Y34.8803
G01 X10.5015 Y34.8599
G01 X10.5453 Y34.8007
G01 X10.5604 Y34.7813
G01 X10.5764 Y34.7627
G01 X10.6176 Y34.7173
G01 X10.6345 Y34.6995
G01 X10.6523 Y34.6826
G01 X10.7069 Y34.6333
G01 X10.7163 Y34.6254
G01 X10.7357 Y34.6103
G01 X10.7849 Y34.5737
G01 X10.8050 Y34.5596
G01 X10.8257 Y34.5465
G01 X10.8783 Y34.5149
G01 X10.8997 Y34.5028
G01 X10.9106 Y34.4972
G01 X10.9882 Y34.4605
G01 X11.0109 Y34.4511
G01 X11.0224 Y34.4468
G01 X11.0801 Y34.4261
G01 X11.1034 Y34.4184
G01 X11.1271 Y34.4119
G01 X11.1985 Y34.3942
G01 X11.2226 Y34.3894
G01 X11.2347 Y34.3874
G01 X11.2954 Y34.3784
G01 X11.3197 Y34.3754
G01 X11.3442 Y34.3736
G01 X11.4055 Y34.3706
G01 X11.4300 Y34.3700
G01 X11.4423 Y34.3702
G01 X11.5280 Y34.3744
G01 X11.5403 Y34.3754
G01 X11.5646 Y34.3784
G01 X11.6253 Y34.3874
G01 X11.6495 Y34.3916
G01 X11.6734 Y34.3970
G01 X11.7329 Y34.4119
G01 X11.7448 Y34.4150
G01 X11.7683 Y34.4221
G01 X11.8491 Y34.4511
G01 X11.8718 Y34.4605
G01 X11.8830 Y34.4656
G01 X11.9384 Y34.4918
G01 X11.9603 Y34.5028
G01 X11.9817 Y34.5149
G01 X12.0231 Y34.5397
G00 Z2.0000
G00 X22.8845 Y34.2094
G01 F60.00
G01 Z-0.1500
G01 F300.00
G01 X22.8723 Y34.2098
G01 X22.8477 Y34.2098
G01 X22.7742 Y34.2064
G01 X22.7497 Y34.2046
G01 X22.7254 Y34.2016
G01 X22.6647 Y34.1926
G01 X22.6405 Y34.1884
G01 X22.6166 Y34.1830
G01 X22.5571 Y34.1681
G01 X22.5334 Y34.1616
G01 X22.5101 Y34.1539
G01 X22.4524 Y34.1332
G01 X22.4295 Y34.1244
G01 X22.4070 Y34.1144
G01 X22.3516 Y34.0882
G01 X22.3297 Y34.0772
G01 X22.3083 Y34.0651
G01 X22.2557 Y34.0335
G01 X22.2350 Y34.0204
G01 X22.2149 Y34.0063
G01 X22.1657 Y33.9697
G01 X22.1463 Y33.9546
G01 X22.1277 Y33.9386
G01 X22.0823 Y33.8974
G01 X22.0645 Y33.8805
G01 X22.0476 Y33.8627
G01 X22.0064 Y33.8173
G01 X21.9904 Y33.7987
G01 X21.9753 Y33.7793
G01 X21.9387 Y33.7301
G01 X21.9246 Y33.7100
G01 X21.9115 Y33.6893
G01 X21.8799 Y33.6367
G01 X21.8678 Y33.6153
G01 X21.8568 Y33.5934
G01 X21.8306 Y33.5380
G01 X21.8206 Y33.5155
G01 X21.8118 Y33.4926
G01 X21.7911 Y33.4349
G01 X21.7834 Y33.4116
G01 X21.7769 Y33.3879
G01 X21.7620 Y33.3284
G01 X21.7566 Y33.3045
G01 X21.7524 Y33.2803
G01 X21.7434 Y33.2196
G01 X21.7404 Y33.1953
G01 X21.7386 Y33.1708
G01 X21.7356 Y33.1095
G01 X21.7350 Y33.0850
G01 X21.7352 Y30.3227
G01 X21.7386 Y30.2492
G01 X21.7404 Y30.2247
G01 X21.7434 Y30.2004
G01 X21.7524 Y30.1397
G01 X21.7544 Y30.1276
G01 X21.7592 Y30.1035
G01 X21.7769 Y30.0321
G01 X21.7834 Y30.0084
G01 X21.7911 Y29.9851
G01 X21.8118 Y29.9274
G01 X21.8206 Y29.9045
G01 X21.8306 Y29.8820
G01 X21.8568 Y29.8266
G01 X21.8622 Y29.8156
G01 X21.8738 Y29.7939
G01 X21.9115 Y29.7307
G01 X21.9246 Y29.7100
G01 X21.9387 Y29.6899
G01 X21.9753 Y29.6407
G01 X21.9904 Y29.6213
G01 X22.0064 Y29.6027
G01 X22.0476 Y29.5573
G01 X22.0645 Y29.5395
G01 X22.0823 Y29.5226
G01 X22.1277 Y29.4814
G01 X22.1463 Y29.4654
G01 X22.1657 Y29.4503
G01 X22.2149 Y29.4137
G01 X22.2350 Y29.3996
G01 X22.2453 Y29.3929
G01 X22.3083 Y29.3549
G01 X22.3297 Y29.3428
G01 X22.3516 Y29.3318
G01 X22.4070 Y29.3056
G01 X22.4295 Y29.2956
G01 X22.4524 Y29.2868
G01 X22.5101 Y29.2661
G01 X22.5334 Y29.2584
G01 X22.5571 Y29.2519
G01 X22.6285 Y29.2342
G01 X22.6405 Y29.2316
G01 X22.6647 Y29.2274
G01 X22.7254 Y29.2184
G01 X22.7497 Y29.2154
G01 X22.7742 Y29.2136
G01 X22.8355 Y29.2106
G01 X22.8600 Y29.2100
G01 X22.8845 Y29.2106
G01 X22.9458 Y29.2136
G01 X22.9703 Y29.2154
G01 X22.9946 Y29.2184
G01 X23.0553 Y29.2274
G01 X23.0795 Y29.2316
G01 X23.1034 Y29.2370
G01 X23.1629 Y29.2519
G01 X23.1866 Y29.2584
G01 X23.2099 Y29.2661
G01 X23.2676 Y29.2868
G01 X23.2905 Y29.2956
G01 X23.3130 Y29.3056
G01 X23.3684 Y29.3318
G01 X23.3903 Y29.3428
G01 X23.4117 Y29.3549
G01 X23.4643 Y29.3865
G01 X23.4850 Y29.3996
G01 X23.5051 Y29.4137
G01 X23.5543 Y29.4503
G01 X23.5737 Y29.4654
G01 X23.5923 Y29.4814
G01 X23.6377 Y29.5226
G01 X23.6555 Y29.5395
G01 X23.6724 Y29.5573
G01 X23.7136 Y29.6027
G01 X23.7296 Y29.6213
G01 X23.7447 Y29.6407
G01 X23.7813 Y29.6899
G01 X23.7954 Y29.7100
G01 X23.8085 Y29.7307
G01 X23.8401 Y29.7833
G01 X23.8522 Y29.8047
G01 X23.8632 Y29.8266
G01 X23.8894 Y29.8820
G01 X23.8994 Y29.9045
G01 X23.9082 Y29.9274
G01 X23.9289 Y29.9851
G01 X23.9366 Y30.0084
G01 X23.9431 Y30.0321
G01 X23.9580 Y30.0916
G01 X23.9634 Y30.1155
G01 X23.9676 Y30.1397
G01 X23.9766 Y30.2004
G01 X23.9796 Y30.2247
G01 X23.9814 Y30.2492
G01 X23.9844 Y30.3105
G01 X23.9850 Y30.3350
G01 X23.9848 Y33.0973
G01 X23.9806 Y33.1830
G01 X23.9782 Y33.2075
G01 X23.9766 Y33.2196
G01 X23.9676 Y33.2803
G01 X23.9634 Y33.3045
G01 X23.9580 Y33.3284
G01 X23.9400 Y33.3998
G01 X23.9329 Y33.4233
G01 X23.9082 Y33.4926
G01 X23.8994 Y33.5155
G01 X23.8894 Y33.5380
G01 X23.8632 Y33.5934
G01 X23.8522 Y33.6153
G01 X23.8401 Y33.6367
G01 X23.8085 Y33.6893
G01 X23.7954 Y33.7100
G01 X23.7813 Y33.7301
G01 X23.7447 Y33.7793
G01 X23.7296 Y33.7987
G01 X23.7136 Y33.8173
G01 X23.6724 Y33.8627
G01 X23.6555 Y33.8805
G01 X23.6377 Y33.8974
G01 X23.5831 Y33.9467
G01 X23.5641 Y33.9623
G01 X23.5051 Y34.0063
G01 X23.4850 Y34.0204
G01 X23.4643 Y34.0335
G01 X23.4011 Y34.0712
G01 X23.3794 Y34.0828
G01 X23.3130 Y34.1144
G01 X23.2905 Y34.1244
G01 X23.2676 Y34.1332
G01 X23.2099 Y34.1539
G01 X23.1866 Y34.1616
G01 X23.1629 Y34.1681
G01 X23.1034 Y34.1830
G01 X23.0795 Y34.1884
G01 X23.0553 Y34.1926
G01 X22.9946 Y34.2016
G01 X22.9703 Y34.2046
G01 X22.9458 Y34.2064
G01 X22.8845 Y34.2094
G00 Z2.0000
G00 X22.8845 Y39.3694
G01 F60.00
G01 Z-0.1500
G01 F300.00
G01 X22.8723 Y39.3698
G01 X22.8477 Y39.3698
G01 X22.7742 Y39.3664
G01 X22.7497 Y39.3646
G01 X22.7254 Y39.3616
G01 X22.6647 Y39.3526
G01 X22.6405 Y39.3484
G01 X22.6166 Y39.3430
G01 X22.5571 Y39.3281
G01 X22.5334 Y39.3216
G01 X22.5101 Y39.3139
G01 X22.4524 Y39.2932
G01 X22.4295 Y39.2844
G01 X22.4070 Y39.2744
G01 X22.3516 Y39.2482
G01 X22.3297 Y39.2372
G01 X22.3083 Y39.2251
G01 X22.2557 Y39.1935
G01 X22.2350 Y39.1804
G01 X22.2149 Y39.1663
G01 X22.1657 Y39.1297
G01 X22.1463 Y39.1146
G01 X22.1277 Y39.0986
G01 X22.0823 Y39.0574
G01 X22.0645 Y39.0405
G01 X22.0476 Y39.0227
G01 X22.0064 Y38.9773
G01 X21.9904 Y38.9587
G01 X21.9753 Y38.9393
G01 X21.9387 Y38.8901
G01 X21.9246 Y38.8700
G01 X21.9115 Y38.8493
G01 X21.8799 Y38.7967
G01 X21.8678 Y38.7753
G01 X21.8568 Y38.7534
G01 X21.8306 Y38.6980
G01 X21.8206 Y38.6755
G01 X21.8118 Y38.6526
G01 X21.7911 Y38.5949
G01 X21.7834 Y38.5716
G01 X21.7769 Y38.5479
G01 X21.7620 Y38.4884
G01 X21.7566 Y38.4645
G01 X21.7524 Y38.4403
G01 X21.7434 Y38.3796
G01 X21.7404 Y38.3553
G01 X21.7386 Y38.3308
G01 X21.7356 Y38.2695
G01 X21.7350 Y38.2450
G01 X21.7352 Y35.4827
G01 X21.7386 Y35.4092
G01 X21.7404 Y35.3847
G01 X21.7434 Y35.3604
G01 X21.7524 Y35.2997
G01 X21.7544 Y35.2876
G01 X21.7592 Y35.2635
G01 X21.7769 Y35.1921
G01 X21.7834 Y35.1684
G01 X21.7911 Y35.1451
G01 X21.8118 Y35.0874
G01 X21.8206 Y35.0645
G01 X21.8306 Y35.0420
G01 X21.8568 Y34.9866
G01 X21.8622 Y34.9756
G01 X21.8738 Y34.9539
G01 X21.9115 Y34.8907
G01 X21.9246 Y34.8700
G01 X21.9387 Y34.8499
G01 X21.9753 Y34.8007
G01 X21.9904 Y34.7813
G01 X22.0064 Y34.7627
G01 X22.0476 Y34.7173
G01 X22.0645 Y34.6995
G01 X22.0823 Y34.6826
G01 X22.1277 Y34.6414
G01 X22.1463 Y34.6254
G01 X22.1657 Y34.6103
G01 X22.2149 Y34.5737
G01 X22.2249 Y34.5665
G01 X22.2453 Y34.5529
G01 X22.3083 Y34.5149
G01 X22.3297 Y34.5028
G01 X22.3516 Y34.4918
G01 X22.4070 Y34.4656
G01 X22.4295 Y34.4556
G01 X22.4524 Y34.4468
G01 X22.5101 Y34.4261
G01 X22.5334 Y34.4184
G01 X22.5571 Y34.4119
G01 X22.6285 Y34.3942
G01 X22.6405 Y34.3916
G01 X22.6647 Y34.3874
G01 X22.7254 Y34.3784
G01 X22.7497 Y34.3754
G01 X22.7742 Y34.3736
G01 X22.8355 Y34.3706
G01 X22.8600 Y34.3700
G01 X22.8845 Y34.3706
G01 X22.9458 Y34.3736
G01 X22.9703 Y34.3754
G01 X22.9946 Y34.3784
G01 X23.0553 Y34.3874
G01 X23.0795 Y34.3916
G01 X23.1034 Y34.3970
G01 X23.1629 Y34.4119
G01 X23.1866 Y34.4184
G01 X23.2099 Y34.4261
G01 X23.2676 Y34.4468
G01 X23.2905 Y34.4556
G01 X23.3130 Y34.4656
G01 X23.3684 Y34.4918
G01 X23.3903 Y34.5028
G01 X23.4117 Y34.5149
G01 X23.4643 Y34.5465
G01 X23.4850 Y34.5596
G01 X23.5051 Y34.5737
G01 X23.5543 Y34.6103
G01 X23.5737 Y34.6254
G01 X23.5923 Y34.6414
G01 X23.6377 Y34.6826
G01 X23.6555 Y34.6995
G01 X23.6724 Y34.7173
G01 X23.7136 Y34.7627
G01 X23.7296 Y34.7813
G01 X23.7447 Y34.8007
G01 X23.7813 Y34.8499
G01 X23.7954 Y34.8700
G01 X23.8085 Y34.8907
G01 X23.8401 Y34.9433
G01 X23.8522 Y34.9647
G01 X23.8632 Y34.9866
G01 X23.8894 Y35.0420
G01 X23.8994 Y35.0645
G01 X23.9082 Y35.0874
G01 X23.9289 Y35.1451
G01 X23.9366 Y35.1684
G01 X23.9431 Y35.1921
G01 X23.9580 Y35.2516
G01 X23.9634 Y35.2755
G01 X23.9676 Y35.2997
G01 X23.9766 Y35.3604
G01 X23.9796 Y35.3847
G01 X23.9814 Y35.4092
G01 X23.9844 Y35.4705
G01 X23.9850 Y35.4950
G01 X23.9848 Y38.2573
G01 X23.9806 Y38.3430
G01 X23.9796 Y38.3553
G01 X23.9766 Y38.3796
G01 X23.9676 Y38.4403
G01 X23.9634 Y38.4645
G01 X23.9580 Y38.4884
G01 X23.9400 Y38.5598
G01 X23.9329 Y38.5833
G01 X23.9082 Y38.6526
G01 X23.8994 Y38.6755
G01 X23.8894 Y38.6980
G01 X23.8632 Y38.7534
G01 X23.8522 Y38.7753
G01 X23.8401 Y38.7967
G01 X23.8085 Y38.8493
G01 X23.7954 Y38.8700
G01 X23.7813 Y38.8901
G01 X23.7447 Y38.9393
G01 X23.7296 Y38.9587
G01 X23.7136 Y38.9773
G01 X23.6724 Y39.0227
G01 X23.6555 Y39.0405
G01 X23.6377 Y39.0574
G01 X23.5831 Y39.1067
G01 X23.5641 Y39.1223
G01 X23.5051 Y39.1663
G01 X23.4850 Y39.1804
G01 X23.4643 Y39.1935
G01 X23.4011 Y39.2312
G01 X23.3794 Y39.2428
G01 X23.3130 Y39.2744
G01 X23.2905 Y39.2844
G01 X23.2676 Y39.2932
G01 X23.2099 Y39.3139
G01 X23.1866 Y39.3216
G01 X23.1629 Y39.3281
G01 X23.1034 Y39.3430
G01 X23.0795 Y39.3484
G01 X23.0553 Y39.3526
G01 X22.9946 Y39.3616
G01 X22.9703 Y39.3646
G01 X22.9458 Y39.3664
G01 X22.8845 Y39.3694
G00 Z2.0000
G00 X36.5700 Y39.1000
G01 F60.00
G01 Z-0.1500
G01 F300.00
G01 X36.5455 Y39.0994
G01 X36.4842 Y39.0962
G01 X36.4720 Y39.0952
G01 X36.4476 Y39.0922
G01 X36.3991 Y39.0850
G01 X36.3749 Y39.0808
G01 X36.3510 Y39.0754
G01 X36.2915 Y39.0604
G01 X36.2680 Y39.0532
G01 X36.2564 Y39.0492
G01 X36.2102 Y39.0327
G01 X36.1873 Y39.0239
G01 X36.1649 Y39.0139
G01 X36.1095 Y38.9876
G01 X36.0986 Y38.9819
G01 X36.0773 Y38.9698
G01 X36.0352 Y38.9446
G01 X36.0144 Y38.9315
G01 X35.9944 Y38.9173
G01 X35.9550 Y38.8881
G01 X35.9356 Y38.8730
G01 X35.9262 Y38.8651
G01 X35.8807 Y38.8240
G01 X35.8629 Y38.8071
G01 X35.8460 Y38.7893
G01 X35.8130 Y38.7530
G01 X35.7970 Y38.7344
G01 X35.7819 Y38.7150
G01 X35.7527 Y38.6756
G01 X35.7385 Y38.6556
G01 X35.7318 Y38.6453
G01 X35.7002 Y38.5927
G01 X35.6881 Y38.5714
G01 X35.6770 Y38.5495
G01 X35.6561 Y38.5051
G01 X35.6461 Y38.4827
G01 X35.6373 Y38.4598
G01 X35.6208 Y38.4136
G01 X35.6131 Y38.3903
G01 X35.6096 Y38.3785
G01 X35.5946 Y38.3190
G01 X35.5892 Y38.2951
G01 X35.5850 Y38.2709
G01 X35.5762 Y38.2102
G01 X35.5738 Y38.1858
G01 X35.5730 Y38.1735
G01 X35.5706 Y38.1245
G01 X35.5700 Y38.1000
G01 X35.5706 Y38.0755
G01 X35.5730 Y38.0265
G01 X35.5748 Y38.0020
G01 X35.5762 Y37.9898
G01 X35.5850 Y37.9291
G01 X35.5892 Y37.9049
G01 X35.5946 Y37.8810
G01 X35.6096 Y37.8215
G01 X35.6168 Y37.7980
G01 X35.6208 Y37.7864
G01 X35.6373 Y37.7402
G01 X35.6461 Y37.7173
G01 X35.6561 Y37.6949
G01 X35.6824 Y37.6395
G01 X35.6940 Y37.6179
G01 X35.7254 Y37.5652
G01 X35.7385 Y37.5444
G01 X35.7455 Y37.5343
G01 X35.7893 Y37.4752
G01 X35.8049 Y37.4562
G01 X35.8543 Y37.4017
G01 X35.8717 Y37.3843
G01 X35.9262 Y37.3349
G01 X35.9452 Y37.3193
G01 X36.0043 Y37.2755
G01 X36.0247 Y37.2618
G01 X36.0879 Y37.2240
G01 X36.1095 Y37.2124
G01 X36.1760 Y37.1810
G01 X36.1987 Y37.1716
G01 X36.2680 Y37.1468
G01 X36.2915 Y37.1396
G01 X36.3629 Y37.1218
G01 X36.3870 Y37.1170
G01 X36.4476 Y37.1078
G01 X36.4720 Y37.1048
G01 X36.4965 Y37.1030
G01 X36.5455 Y37.1006
G01 X36.5700 Y37.1000
G01 X38.3697 Y37.1000
G01 X38.3697 Y36.5600
G01 X36.5700 Y36.5600
G01 X36.5455 Y36.5594
G01 X36.4842 Y36.5562
G01 X36.4720 Y36.5552
G01 X36.4476 Y36.5522
G01 X36.3991 Y36.5450
G01 X36.3749 Y36.5408
G01 X36.3510 Y36.5354
G01 X36.3034 Y36.5235
G01 X36.2915 Y36.5204
G01 X36.2680 Y36.5132
G01 X36.1987 Y36.4884
G01 X36.1760 Y36.4790
G01 X36.1649 Y36.4739
G01 X36.1205 Y36.4530
G01 X36.0986 Y36.4419
G01 X36.0773 Y36.4298
G01 X36.0247 Y36.3982
G01 X36.0043 Y36.3845
G01 X35.9944 Y36.3773
G01 X35.9550 Y36.3481
G01 X35.9356 Y36.3330
G01 X35.9170 Y36.3170
G01 X35.8807 Y36.2840
G01 X35.8629 Y36.2671
G01 X35.8460 Y36.2493
G01 X35.8130 Y36.2130
G01 X35.7970 Y36.1944
G01 X35.7819 Y36.1750
G01 X35.7527 Y36.1356
G01 X35.7385 Y36.1156
G01 X35.7254 Y36.0948
G01 X35.7002 Y36.0527
G01 X35.6881 Y36.0314
G01 X35.6770 Y36.0095
G01 X35.6561 Y35.9651
G01 X35.6510 Y35.9540
G01 X35.6416 Y35.9313
G01 X35.6168 Y35.8620
G01 X35.6096 Y35.8385
G01 X35.5918 Y35.7671
G01 X35.5870 Y35.7430
G01 X35.5850 Y35.7309
G01 X35.5762 Y35.6702
G01 X35.5738 Y35.6458
G01 X35.5730 Y35.6335
G01 X35.5706 Y35.5845
G01 X35.5700 Y35.5600
G01 X35.5706 Y35.5355
G01 X35.5730 Y35.4865
G01 X35.5748 Y35.4620
G01 X35.5762 Y35.4498
G01 X35.5870 Y35.3770
G01 X35.5918 Y35.3529
G01 X35.6096 Y35.2815
G01 X35.6168 Y35.2580
G01 X35.6208 Y35.2464
G01 X35.6373 Y35.2002
G01 X35.6461 Y35.1773
G01 X35.6561 Y35.1549
G01 X35.6770 Y35.1105
G01 X35.6881 Y35.0886
G01 X35.7002 Y35.0673
G01 X35.7254 Y35.0252
G01 X35.7385 Y35.0044
G01 X35.7527 Y34.9844
G01 X35.7819 Y34.9450
G01 X35.7893 Y34.9352
G01 X35.8049 Y34.9162
G01 X35.8543 Y34.8617
G01 X35.8717 Y34.8443
G01 X35.9262 Y34.7949
G01 X35.9356 Y34.7870
G01 X35.9550 Y34.7719
G01 X36.0043 Y34.7355
G01 X36.0144 Y34.7285
G01 X36.0352 Y34.7154
G01 X36.0773 Y34.6902
G01 X36.0986 Y34.6781
G01 X36.1205 Y34.6670
G01 X36.1649 Y34.6461
G01 X36.1760 Y34.6410
G01 X36.1987 Y34.6316
G01 X36.2680 Y34.6068
G01 X36.2915 Y34.5996
G01 X36.3629 Y34.5818
G01 X36.3870 Y34.5770
G01 X36.4598 Y34.5662
G01 X36.4842 Y34.5638
G01 X36.5577 Y34.5602
G01 X39.3700 Y34.5598
G01 X39.5823 Y34.5602
G01 X39.6558 Y34.5638
G01 X39.6802 Y34.5662
G01 X39.7409 Y34.5750
G01 X39.7651 Y34.5792
G01 X39.7890 Y34.5846
G01 X39.8366 Y34.5965
G01 X39.8603 Y34.6031
G01 X39.8836 Y34.6108
G01 X39.9298 Y34.6273
G01 X39.9527 Y34.6361
G01 X39.9751 Y34.6461
G01 X40.0195 Y34.6670
G01 X40.0414 Y34.6781
G01 X40.0627 Y34.6902
G01 X40.1048 Y34.7154
G01 X40.1256 Y34.7285
G01 X40.1456 Y34.7427
G01 X40.1948 Y34.7793
G01 X40.2138 Y34.7949
G01 X40.2683 Y34.8443
G01 X40.2857 Y34.8617
G01 X40.3351 Y34.9162
G01 X40.3430 Y34.9256
G01 X40.3581 Y34.9450
G01 X40.3945 Y34.9943
G01 X40.4082 Y35.0147
G01 X40.4146 Y35.0252
G01 X40.4398 Y35.0673
G01 X40.4519 Y35.0886
G01 X40.4630 Y35.1105
G01 X40.4839 Y35.1549
G01 X40.4939 Y35.1773
G01 X40.4984 Y35.1887
G01 X40.5232 Y35.2580
G01 X40.5304 Y35.2815
G01 X40.5482 Y35.3529
G01 X40.5530 Y35.3770
G01 X40.5638 Y35.4498
G01 X40.5662 Y35.4742
G01 X40.5698 Y35.5477
G01 X40.5698 Y35.5723
G01 X40.5662 Y35.6458
G01 X40.5638 Y35.6702
G01 X40.5550 Y35.7309
G01 X40.5508 Y35.7551
G01 X40.5454 Y35.7790
G01 X40.5304 Y35.8385
G01 X40.5232 Y35.8620
G01 X40.5027 Y35.9198
G01 X40.4939 Y35.9427
G01 X40.4839 Y35.9651
G01 X40.4576 Y36.0205
G01 X40.4460 Y36.0421
G01 X40.4082 Y36.1053
G01 X40.3945 Y36.1257
G01 X40.3703 Y36.1587
G01 X40.3703 Y37.5013
G01 X40.3945 Y37.5343
G01 X40.4082 Y37.5547
G01 X40.4460 Y37.6179
G01 X40.4576 Y37.6395
G01 X40.4890 Y37.7060
G01 X40.4984 Y37.7287
G01 X40.5232 Y37.7980
G01 X40.5304 Y37.8215
G01 X40.5454 Y37.8810
G01 X40.5508 Y37.9049
G01 X40.5550 Y37.9291
G01 X40.5622 Y37.9776
G01 X40.5652 Y38.0020
G01 X40.5670 Y38.0265
G01 X40.5694 Y38.0755
G01 X40.5700 Y38.1000
G01 X40.5694 Y38.1245
G01 X40.5662 Y38.1858
G01 X40.5638 Y38.2102
G01 X40.5550 Y38.2709
G01 X40.5508 Y38.2951
G01 X40.5454 Y38.3190
G01 X40.5335 Y38.3666
G01 X40.5269 Y38.3903
G01 X40.5192 Y38.4136
G01 X40.5027 Y38.4598
G01 X40.4939 Y38.4827
G01 X40.4839 Y38.5051
G01 X40.4630 Y38.5495
G01 X40.4519 Y38.5714
G01 X40.4398 Y38.5927
G01 X40.4146 Y38.6348
G01 X40.4015 Y38.6556
G01 X40.3873 Y38.6756
G01 X40.3507 Y38.7248
G01 X40.3351 Y38.7438
G01 X40.2940 Y38.7893
G01 X40.2771 Y38.8071
G01 X40.2593 Y38.8240
G01 X40.2230 Y38.8570
G01 X40.2044 Y38.8730
G01 X40.1850 Y38.8881
G01 X40.1456 Y38.9173
G01 X40.1256 Y38.9315
G01 X40.1048 Y38.9446
G01 X40.0627 Y38.9698
G01 X40.0414 Y38.9819
G01 X40.0195 Y38.9930
G01 X39.9751 Y39.0139
G01 X39.9527 Y39.0239
G01 X39.9298 Y39.0327
G01 X39.8836 Y39.0492
G01 X39.8603 Y39.0569
G01 X39.8366 Y39.0635
G01 X39.7890 Y39.0754
G01 X39.7651 Y39.0808
G01 X39.7409 Y39.0850
G01 X39.6924 Y39.0922
G01 X39.6680 Y39.0952
G01 X39.6435 Y39.0970
G01 X39.5945 Y39.0994
G01 X39.5700 Y39.1000
G01 X39.3700 Y39.1002
G01 X36.5700 Y39.1000
G00 Z2.0000
G00 X36.5700 Y44.1800
G01 F60.00
G01 Z-0.1500
G01 F300.00
G01 X36.5455 Y44.1794
G01 X36.4965 Y44.1770
G01 X36.4720 Y44.1752
G01 X36.4476 Y44.1722
G01 X36.3991 Y44.1650
G01 X36.3749 Y44.1608
G01 X36.3510 Y44.1554
G01 X36.3034 Y44.1435
G01 X36.2797 Y44.1369
G01 X36.2564 Y44.1292
G01 X36.2102 Y44.1127
G01 X36.1873 Y44.1039
G01 X36.1760 Y44.0990
G01 X36.1205 Y44.0730
G01 X36.0986 Y44.0619
G01 X36.0773 Y44.0498
G01 X36.0247 Y44.0182
G01 X36.0043 Y44.0045
G01 X35.9452 Y43.9607
G01 X35.9262 Y43.9451
G01 X35.8807 Y43.9040
G01 X35.8629 Y43.8871
G01 X35.8460 Y43.8693
G01 X35.8130 Y43.8330
G01 X35.7970 Y43.8144
G01 X35.7819 Y43.7950
G01 X35.7527 Y43.7556
G01 X35.7385 Y43.7356
G01 X35.7254 Y43.7148
G01 X35.6940 Y43.6621
G01 X35.6824 Y43.6405
G01 X35.6510 Y43.5740
G01 X35.6416 Y43.5513
G01 X35.6208 Y43.4936
G01 X35.6131 Y43.4703
G01 X35.6096 Y43.4585
G01 X35.5946 Y43.3990
G01 X35.5892 Y43.3751
G01 X35.5850 Y43.3509
G01 X35.5778 Y43.3024
G01 X35.5748 Y43.2780
G01 X35.5730 Y43.2535
G01 X35.5706 Y43.2045
G01 X35.5700 Y43.1800
G01 X35.5706 Y43.1555
G01 X35.5730 Y43.1065
G01 X35.5748 Y43.0820
G01 X35.5778 Y43.0576
G01 X35.5850 Y43.0091
G01 X35.5892 Y42.9849
G01 X35.5946 Y42.9610
G01 X35.6065 Y42.9134
G01 X35.6131 Y42.8897
G01 X35.6208 Y42.8664
G01 X35.6373 Y42.8202
G01 X35.6461 Y42.7973
G01 X35.6561 Y42.7749
G01 X35.6770 Y42.7305
G01 X35.6881 Y42.7086
G01 X35.7002 Y42.6873
G01 X35.7254 Y42.6452
G01 X35.7385 Y42.6244
G01 X35.7527 Y42.6044
G01 X35.7893 Y42.5552
G01 X35.8049 Y42.5362
G01 X35.8130 Y42.5270
G01 X35.8543 Y42.4817
G01 X35.8717 Y42.4643
G01 X35.9262 Y42.4149
G01 X35.9452 Y42.3993
G01 X35.9944 Y42.3627
G01 X36.0144 Y42.3485
G01 X36.0352 Y42.3354
G01 X36.0773 Y42.3102
G01 X36.0986 Y42.2981
G01 X36.1205 Y42.2870
G01 X36.1649 Y42.2661
G01 X36.1873 Y42.2561
G01 X36.2102 Y42.2473
G01 X36.2680 Y42.2268
G01 X36.2915 Y42.2196
G01 X36.3510 Y42.2046
G01 X36.3749 Y42.1992
G01 X36.3991 Y42.1950
G01 X36.4476 Y42.1878
G01 X36.4720 Y42.1848
G01 X36.4965 Y42.1830
G01 X36.5455 Y42.1806
G01 X36.5700 Y42.1800
G01 X39.5700 Y42.1800
G01 X39.5945 Y42.1806
G01 X39.6435 Y42.1830
G01 X39.6680 Y42.1848
G01 X39.6924 Y42.1878
G01 X39.7409 Y42.1950
G01 X39.7530 Y42.1970
G01 X39.7771 Y42.2018
G01 X39.8366 Y42.2165
G01 X39.8603 Y42.2231
G01 X39.8836 Y42.2308
G01 X39.9413 Y42.2516
G01 X39.9527 Y42.2561
G01 X39.9751 Y42.2661
G01 X40.0195 Y42.2870
G01 X40.0414 Y42.2981
G01 X40.0627 Y42.3102
G01 X40.1153 Y42.3418
G01 X40.1357 Y42.3555
G01 X40.1850 Y42.3919
G01 X40.1948 Y42.3993
G01 X40.2138 Y42.4149
G01 X40.2593 Y42.4560
G01 X40.2771 Y42.4729
G01 X40.2940 Y42.4907
G01 X40.3270 Y42.5270
G01 X40.3351 Y42.5362
G01 X40.3507 Y42.5552
G01 X40.3873 Y42.6044
G01 X40.4015 Y42.6244
G01 X40.4146 Y42.6452
G01 X40.4460 Y42.6979
G01 X40.4576 Y42.7195
G01 X40.4630 Y42.7305
G01 X40.4839 Y42.7749
G01 X40.4939 Y42.7973
G01 X40.5027 Y42.8202
G01 X40.5232 Y42.8780
G01 X40.5304 Y42.9015
G01 X40.5482 Y42.9729
G01 X40.5530 Y42.9970
G01 X40.5638 Y43.0698
G01 X40.5662 Y43.0942
G01 X40.5698 Y43.1677
G01 X40.5698 Y43.1923
G01 X40.5662 Y43.2658
G01 X40.5638 Y43.2902
G01 X40.5530 Y43.3630
G01 X40.5482 Y43.3871
G01 X40.5304 Y43.4585
G01 X40.5232 Y43.4820
G01 X40.4984 Y43.5513
G01 X40.4890 Y43.5740
G01 X40.4576 Y43.6405
G01 X40.4460 Y43.6621
G01 X40.4082 Y43.7253
G01 X40.3945 Y43.7457
G01 X40.3507 Y43.8048
G01 X40.3351 Y43.8238
G01 X40.2857 Y43.8783
G01 X40.2683 Y43.8957
G01 X40.2138 Y43.9451
G01 X40.1948 Y43.9607
G01 X40.1357 Y44.0045
G01 X40.1153 Y44.0182
G01 X40.0521 Y44.0560
G01 X40.0305 Y44.0676
G01 X39.9640 Y44.0990
G01 X39.9413 Y44.1084
G01 X39.8720 Y44.1332
G01 X39.8485 Y44.1404
G01 X39.7890 Y44.1554
G01 X39.7651 Y44.1608
G01 X39.7409 Y44.1650
G01 X39.6924 Y44.1722
G01 X39.6680 Y44.1752
G01 X39.6435 Y44.1770
G01 X39.5823 Y44.1798
G01 X36.5700 Y44.1800
G00 Z2.0000
G00 X36.5700 Y46.7200
G01 F60.00
G01 Z-0.1500
G01 F300.00
G01 X36.5455 Y46.7194
G01 X36.4965 Y46.7170
G01 X36.4720 Y46.7152
G01 X36.4476 Y46.7122
G01 X36.3991 Y46.7050
G01 X36.3749 Y46.7008
G01 X36.3510 Y46.6954
G01 X36.3034 Y46.6835
G01 X36.2797 Y46.6769
G01 X36.2564 Y46.6692
G01 X36.2102 Y46.6527
G01 X36.1873 Y46.6439
G01 X36.1649 Y46.6339
G01 X36.1095 Y46.6076
G01 X36.0986 Y46.6019
G01 X36.0773 Y46.5898
G01 X36.0247 Y46.5582
G01 X36.0043 Y46.5445
G01 X35.9452 Y46.5007
G01 X35.9262 Y46.4851
G01 X35.8807 Y46.4440
G01 X35.8629 Y46.4271
G01 X35.8460 Y46.4093
G01 X35.8130 Y46.3730
G01 X35.7970 Y46.3544
G01 X35.7819 Y46.3350
G01 X35.7527 Y46.2956
G01 X35.7385 Y46.2756
G01 X35.7254 Y46.2548
G01 X35.6940 Y46.2021
G01 X35.6824 Y46.1805
G01 X35.6510 Y46.1140
G01 X35.6416 Y46.0913
G01 X35.6208 Y46.0336
G01 X35.6131 Y46.0103
G01 X35.6096 Y45.9985
G01 X35.5946 Y45.9390
G01 X35.5892 Y45.9151
G01 X35.5850 Y45.8909
G01 X35.5778 Y45.8424
G01 X35.5748 Y45.8180
G01 X35.5730 Y45.7935
G01 X35.5706 Y45.7445
G01 X35.5700 Y45.7200
G01 X35.5706 Y45.6955
G01 X35.5730 Y45.6465
G01 X35.5748 Y45.6220
G01 X35.5778 Y45.5976
G01 X35.5850 Y45.5491
G01 X35.5892 Y45.5249
G01 X35.5946 Y45.5010
G01 X35.6065 Y45.4534
G01 X35.6131 Y45.4297
G01 X35.6208 Y45.4064
G01 X35.6373 Y45.3602
G01 X35.6461 Y45.3373
G01 X35.6561 Y45.3149
G01 X35.6770 Y45.2705
G01 X35.6881 Y45.2486
G01 X35.7002 Y45.2273
G01 X35.7254 Y45.1852
G01 X35.7318 Y45.1747
G01 X35.7455 Y45.1543
G01 X35.7819 Y45.1050
G01 X35.7970 Y45.0856
G01 X35.8130 Y45.0670
G01 X35.8543 Y45.0217
G01 X35.8717 Y45.0043
G01 X35.9262 Y44.9549
G01 X35.9452 Y44.9393
G01 X35.9944 Y44.9027
G01 X36.0144 Y44.8885
G01 X36.0352 Y44.8754
G01 X36.0773 Y44.8502
G01 X36.0986 Y44.8381
G01 X36.1205 Y44.8270
G01 X36.1649 Y44.8061
G01 X36.1873 Y44.7961
G01 X36.2102 Y44.7873
G01 X36.2680 Y44.7668
G01 X36.2915 Y44.7596
G01 X36.3510 Y44.7446
G01 X36.3749 Y44.7392
G01 X36.3991 Y44.7350
G01 X36.4476 Y44.7278
G01 X36.4720 Y44.7248
G01 X36.4965 Y44.7230
G01 X36.5455 Y44.7206
G01 X36.5700 Y44.7200
G01 X39.5700 Y44.7200
G01 X39.5945 Y44.7206
G01 X39.6435 Y44.7230
G01 X39.6680 Y44.7248
G01 X39.6924 Y44.7278
G01 X39.7409 Y44.7350
G01 X39.7530 Y44.7370
G01 X39.7771 Y44.7418
G01 X39.8366 Y44.7565
G01 X39.8603 Y44.7631
G01 X39.8836 Y44.7708
G01 X39.9413 Y44.7916
G01 X39.9527 Y44.7961
G01 X39.9751 Y44.8061
G01 X40.0195 Y44.8270
G01 X40.0414 Y44.8381
G01 X40.0627 Y44.8502
G01 X40.1153 Y44.8818
G01 X40.1256 Y44.8885
G01 X40.1456 Y44.9027
G01 X40.1948 Y44.9393
G01 X40.2138 Y44.9549
G01 X40.2593 Y44.9960
G01 X40.2771 Y45.0129
G01 X40.2940 Y45.0307
G01 X40.3270 Y45.0670
G01 X40.3430 Y45.0856
G01 X40.3507 Y45.0952
G01 X40.3873 Y45.1444
G01 X40.4015 Y45.1644
G01 X40.4146 Y45.1852
G01 X40.4460 Y45.2379
G01 X40.4519 Y45.2486
G01 X40.4630 Y45.2705
G01 X40.4839 Y45.3149
G01 X40.4939 Y45.3373
G01 X40.5027 Y45.3602
G01 X40.5232 Y45.4180
G01 X40.5304 Y45.4415
G01 X40.5482 Y45.5129
G01 X40.5530 Y45.5370
G01 X40.5638 Y45.6098
G01 X40.5662 Y45.6342
G01 X40.5698 Y45.7077
G01 X40.5698 Y45.7323
G01 X40.5662 Y45.8058
G01 X40.5638 Y45.8302
G01 X40.5530 Y45.9030
G01 X40.5482 Y45.9271
G01 X40.5304 Y45.9985
G01 X40.5232 Y46.0220
G01 X40.4984 Y46.0913
G01 X40.4890 Y46.1140
G01 X40.4576 Y46.1805
G01 X40.4460 Y46.2021
G01 X40.4082 Y46.2653
G01 X40.3945 Y46.2857
G01 X40.3507 Y46.3448
G01 X40.3351 Y46.3638
G01 X40.2857 Y46.4183
G01 X40.2683 Y46.4357
G01 X40.2138 Y46.4851
G01 X40.1948 Y46.5007
G01 X40.1357 Y46.5445
G01 X40.1153 Y46.5582
G01 X40.0521 Y46.5960
G01 X40.0305 Y46.6076
G01 X39.9640 Y46.6390
G01 X39.9413 Y46.6484
G01 X39.8720 Y46.6732
G01 X39.8485 Y46.6804
G01 X39.7890 Y46.6954
G01 X39.7651 Y46.7008
G01 X39.7409 Y46.7050
G01 X39.6924 Y46.7122
G01 X39.6680 Y46.7152
G01 X39.6435 Y46.7170
G01 X39.5823 Y46.7198
G01 X36.5700 Y46.7200
G00 Z2.0000
G00 X41.7100 Y46.7200
G01 F60.00
G01 Z-0.1500
G01 F300.00
G01 X41.6855 Y46.7194
G01 X41.6365 Y46.7170
G01 X41.6120 Y46.7152
G01 X41.5876 Y46.7122
G01 X41.5270 Y46.7030
G01 X41.5029 Y46.6982
G01 X41.4434 Y46.6835
G01 X41.4197 Y46.6769
G01 X41.3964 Y46.6692
G01 X41.3502 Y46.6527
G01 X41.3273 Y46.6439
G01 X41.3049 Y46.6339
G01 X41.2605 Y46.6130
G01 X41.2386 Y46.6019
G01 X41.2173 Y46.5898
G01 X41.1752 Y46.5646
G01 X41.1544 Y46.5515
G01 X41.1344 Y46.5373
G01 X41.0950 Y46.5081
G01 X41.0756 Y46.4930
G01 X41.0570 Y46.4770
G01 X41.0207 Y46.4440
G01 X41.0029 Y46.4271
G01 X40.9860 Y46.4093
G01 X40.9530 Y46.3730
G01 X40.9370 Y46.3544
G01 X40.9219 Y46.3350
G01 X40.8927 Y46.2956
G01 X40.8785 Y46.2756
G01 X40.8654 Y46.2548
G01 X40.8402 Y46.2127
G01 X40.8281 Y46.1914
G01 X40.8170 Y46.1695
G01 X40.7910 Y46.1140
G01 X40.7816 Y46.0913
G01 X40.7608 Y46.0336
G01 X40.7531 Y46.0103
G01 X40.7465 Y45.9866
G01 X40.7346 Y45.9390
G01 X40.7292 Y45.9151
G01 X40.7250 Y45.8909
G01 X40.7178 Y45.8424
G01 X40.7148 Y45.8180
G01 X40.7130 Y45.7935
G01 X40.7102 Y45.7323
G01 X40.7102 Y45.7077
G01 X40.7130 Y45.6465
G01 X40.7148 Y45.6220
G01 X40.7178 Y45.5976
G01 X40.7250 Y45.5491
G01 X40.7292 Y45.5249
G01 X40.7346 Y45.5010
G01 X40.7465 Y45.4534
G01 X40.7531 Y45.4297
G01 X40.7608 Y45.4064
G01 X40.7773 Y45.3602
G01 X40.7861 Y45.3373
G01 X40.7961 Y45.3149
G01 X40.8170 Y45.2705
G01 X40.8281 Y45.2486
G01 X40.8402 Y45.2273
G01 X40.8654 Y45.1852
G01 X40.8785 Y45.1644
G01 X40.8927 Y45.1444
G01 X40.9219 Y45.1050
G01 X40.9370 Y45.0856
G01 X40.9530 Y45.0670
G01 X40.9860 Y45.0307
G01 X41.0029 Y45.0129
G01 X41.0207 Y44.9960
G01 X41.0570 Y44.9630
G01 X41.0756 Y44.9470
G01 X41.0950 Y44.9319
G01 X41.1443 Y44.8955
G01 X41.1647 Y44.8818
G01 X41.2173 Y44.8502
G01 X41.2386 Y44.8381
G01 X41.2605 Y44.8270
G01 X41.3049 Y44.8061
G01 X41.3273 Y44.7961
G01 X41.3502 Y44.7873
G01 X41.3964 Y44.7708
G01 X41.4197 Y44.7631
G01 X41.4434 Y44.7565
G01 X41.4910 Y44.7446
G01 X41.5149 Y44.7392
G01 X41.5391 Y44.7350
G01 X41.5876 Y44.7278
G01 X41.6120 Y44.7248
G01 X41.6365 Y44.7230
G01 X41.6977 Y44.7202
G01 X41.9100 Y44.7197
G01 X46.4157 Y44.7197
G01 X61.1650 Y29.9704
G01 X61.1650 Y27.5850
G01 X61.1656 Y27.5605
G01 X61.1683 Y27.5051
G01 X61.1701 Y27.4806
G01 X61.1731 Y27.4563
G01 X61.1813 Y27.4014
G01 X61.1855 Y27.3772
G01 X61.1908 Y27.3533
G01 X61.2074 Y27.2876
G01 X61.2146 Y27.2641
G01 X61.2372 Y27.2003
G01 X61.2461 Y27.1774
G01 X61.2560 Y27.1550
G01 X61.2797 Y27.1049
G01 X61.2908 Y27.0830
G01 X61.3029 Y27.0616
G01 X61.3314 Y27.0141
G01 X61.3445 Y26.9933
G01 X61.3586 Y26.9733
G01 X61.3916 Y26.9287
G01 X61.4067 Y26.9094
G01 X61.4228 Y26.8908
G01 X61.4600 Y26.8497
G01 X61.4769 Y26.8319
G01 X61.4857 Y26.8234
G01 X61.5450 Y26.7696
G01 X61.5640 Y26.7541
G01 X61.5737 Y26.7466
G01 X61.6183 Y26.7136
G01 X61.6383 Y26.6995
G01 X61.6591 Y26.6864
G01 X61.7066 Y26.6579
G01 X61.7280 Y26.6458
G01 X61.7499 Y26.6347
G01 X61.8000 Y26.6110
G01 X61.8224 Y26.6011
G01 X61.8453 Y26.5922
G01 X61.8975 Y26.5736
G01 X61.9208 Y26.5659
G01 X61.9445 Y26.5593
G01 X61.9983 Y26.5458
G01 X62.0222 Y26.5405
G01 X62.0464 Y26.5363
G01 X62.1013 Y26.5281
G01 X62.1256 Y26.5251
G01 X62.1501 Y26.5233
G01 X62.2055 Y26.5206
G01 X62.2300 Y26.5200
G01 X62.2545 Y26.5206
G01 X62.3099 Y26.5233
G01 X62.3344 Y26.5251
G01 X62.3587 Y26.5281
G01 X62.4136 Y26.5363
G01 X62.4378 Y26.5405
G01 X62.4617 Y26.5458
G01 X62.5155 Y26.5593
G01 X62.5392 Y26.5659
G01 X62.5625 Y26.5736
G01 X62.6147 Y26.5922
G01 X62.6376 Y26.6011
G01 X62.6600 Y26.6110
G01 X62.7101 Y26.6347
G01 X62.7320 Y26.6458
G01 X62.7534 Y26.6579
G01 X62.8009 Y26.6864
G01 X62.8217 Y26.6995
G01 X62.8417 Y26.7136
G01 X62.8863 Y26.7466
G01 X62.9056 Y26.7617
G01 X62.9242 Y26.7778
G01 X62.9653 Y26.8150
G01 X62.9831 Y26.8319
G01 X62.9916 Y26.8407
G01 X63.0372 Y26.8908
G01 X63.0533 Y26.9094
G01 X63.0684 Y26.9287
G01 X63.1014 Y26.9733
G01 X63.1155 Y26.9933
G01 X63.1286 Y27.0141
G01 X63.1571 Y27.0616
G01 X63.1692 Y27.0830
G01 X63.1803 Y27.1049
G01 X63.2040 Y27.1550
G01 X63.2139 Y27.1774
G01 X63.2228 Y27.2003
G01 X63.2414 Y27.2525
G01 X63.2491 Y27.2758
G01 X63.2557 Y27.2995
G01 X63.2692 Y27.3533
G01 X63.2745 Y27.3772
G01 X63.2787 Y27.4014
G01 X63.2869 Y27.4563
G01 X63.2899 Y27.4806
G01 X63.2917 Y27.5051
G01 X63.2948 Y27.5727
G01 X63.2950 Y30.4550
G01 X63.2944 Y30.4795
G01 X63.2909 Y30.5472
G01 X63.2885 Y30.5716
G01 X63.2787 Y30.6386
G01 X63.2745 Y30.6628
G01 X63.2692 Y30.6867
G01 X63.2557 Y30.7405
G01 X63.2491 Y30.7642
G01 X63.2414 Y30.7875
G01 X63.2228 Y30.8397
G01 X63.2139 Y30.8626
G01 X63.2040 Y30.8850
G01 X63.1749 Y30.9461
G01 X63.1633 Y30.9678
G01 X63.1571 Y30.9784
G01 X63.1286 Y31.0259
G01 X63.1155 Y31.0467
G01 X63.1014 Y31.0667
G01 X63.0609 Y31.1210
G01 X63.0454 Y31.1400
G01 X63.0000 Y31.1903
G01 X62.9831 Y31.2081
G01 X62.9653 Y31.2250
G01 X62.9150 Y31.2704
G01 X62.8960 Y31.2859
G01 X62.8417 Y31.3264
G01 X62.8318 Y31.3336
G01 X62.8114 Y31.3472
G01 X62.7534 Y31.3821
G01 X62.7320 Y31.3942
G01 X62.7101 Y31.4053
G01 X62.6600 Y31.4290
G01 X62.6376 Y31.4389
G01 X62.6147 Y31.4478
G01 X62.5509 Y31.4704
G01 X62.5274 Y31.4776
G01 X62.4733 Y31.4913
G01 X47.5285 Y46.4359
G01 X47.4831 Y46.4772
G01 X47.4646 Y46.4932
G01 X47.4452 Y46.5083
G01 X47.4058 Y46.5375
G01 X47.3857 Y46.5517
G01 X47.3650 Y46.5648
G01 X47.3229 Y46.5900
G01 X47.3015 Y46.6021
G01 X47.2796 Y46.6132
G01 X47.2352 Y46.6342
G01 X47.2128 Y46.6441
G01 X47.1899 Y46.6529
G01 X47.1437 Y46.6695
G01 X47.1204 Y46.6772
G01 X47.0967 Y46.6837
G01 X47.0491 Y46.6957
G01 X47.0251 Y46.7010
G01 X47.0010 Y46.7052
G01 X46.9524 Y46.7124
G01 X46.9280 Y46.7154
G01 X46.9036 Y46.7172
G01 X46.8545 Y46.7196
G01 X46.8300 Y46.7203
G01 X41.7100 Y46.7200
G00 Z2.0000
G00 X41.7100 Y44.1800
G01 F60.00
G01 Z-0.1500
G01 F300.00
G01 X41.6855 Y44.1794
G01 X41.6365 Y44.1770
G01 X41.6120 Y44.1752
G01 X41.5876 Y44.1722
G01 X41.5391 Y44.1650
G01 X41.5149 Y44.1608
G01 X41.4910 Y44.1554
G01 X41.4434 Y44.1435
G01 X41.4197 Y44.1369
G01 X41.3964 Y44.1292
G01 X41.3502 Y44.1127
G01 X41.3273 Y44.1039
G01 X41.3160 Y44.0990
G01 X41.2605 Y44.0730
G01 X41.2386 Y44.0619
G01 X41.2173 Y44.0498
G01 X41.1647 Y44.0182
G01 X41.1443 Y44.0045
G01 X41.0852 Y43.9607
G01 X41.0662 Y43.9451
G01 X41.0207 Y43.9040
G01 X41.0029 Y43.8871
G01 X40.9860 Y43.8693
G01 X40.9530 Y43.8330
G01 X40.9370 Y43.8144
G01 X40.9219 Y43.7950
G01 X40.8927 Y43.7556
G01 X40.8785 Y43.7356
G01 X40.8654 Y43.7148
G01 X40.8340 Y43.6621
G01 X40.8224 Y43.6405
G01 X40.7910 Y43.5740
G01 X40.7816 Y43.5513
G01 X40.7608 Y43.4936
G01 X40.7531 Y43.4703
G01 X40.7496 Y43.4585
G01 X40.7346 Y43.3990
G01 X40.7292 Y43.3751
G01 X40.7250 Y43.3509
G01 X40.7178 Y43.3024
G01 X40.7148 Y43.2780
G01 X40.7130 Y43.2535
G01 X40.7106 Y43.2045
G01 X40.7100 Y43.1800
G01 X40.7106 Y43.1555
G01 X40.7130 Y43.1065
G01 X40.7148 Y43.0820
G01 X40.7178 Y43.0576
G01 X40.7250 Y43.0091
G01 X40.7292 Y42.9849
G01 X40.7346 Y42.9610
G01 X40.7465 Y42.9134
G01 X40.7531 Y42.8897
G01 X40.7608 Y42.8664
G01 X40.7773 Y42.8202
G01 X40.7861 Y42.7973
G01 X40.7961 Y42.7749
G01 X40.8170 Y42.7305
G01 X40.8281 Y42.7086
G01 X40.8402 Y42.6873
G01 X40.8654 Y42.6452
G01 X40.8785 Y42.6244
G01 X40.8927 Y42.6044
G01 X40.9293 Y42.5552
G01 X40.9449 Y42.5362
G01 X40.9530 Y42.5270
G01 X40.9943 Y42.4817
G01 X41.0117 Y42.4643
G01 X41.0662 Y42.4149
G01 X41.0852 Y42.3993
G01 X41.1344 Y42.3627
G01 X41.1544 Y42.3485
G01 X41.1752 Y42.3354
G01 X41.2173 Y42.3102
G01 X41.2386 Y42.2981
G01 X41.2605 Y42.2870
G01 X41.3049 Y42.2661
G01 X41.3273 Y42.2561
G01 X41.3502 Y42.2473
G01 X41.4080 Y42.2268
G01 X41.4315 Y42.2196
G01 X41.4910 Y42.2046
G01 X41.5149 Y42.1992
G01 X41.5391 Y42.1950
G01 X41.5876 Y42.1878
G01 X41.6120 Y42.1848
G01 X41.6365 Y42.1830
G01 X41.6855 Y42.1806
G01 X41.7100 Y42.1800
G01 X44.7100 Y42.1800
G01 X44.7345 Y42.1806
G01 X44.7835 Y42.1830
G01 X44.8080 Y42.1848
G01 X44.8324 Y42.1878
G01 X44.8809 Y42.1950
G01 X44.8930 Y42.1970
G01 X44.9171 Y42.2018
G01 X44.9766 Y42.2165
G01 X45.0003 Y42.2231
G01 X45.0236 Y42.2308
G01 X45.0813 Y42.2516
G01 X45.0927 Y42.2561
G01 X45.1151 Y42.2661
G01 X45.1595 Y42.2870
G01 X45.1814 Y42.2981
G01 X45.2027 Y42.3102
G01 X45.2553 Y42.3418
G01 X45.2757 Y42.3555
G01 X45.3250 Y42.3919
G01 X45.3348 Y42.3993
G01 X45.3538 Y42.4149
G01 X45.3993 Y42.4560
G01 X45.4171 Y42.4729
G01 X45.4340 Y42.4907
G01 X45.4670 Y42.5270
G01 X45.4751 Y42.5362
G01 X45.4907 Y42.5552
G01 X45.5273 Y42.6044
G01 X45.5415 Y42.6244
G01 X45.5546 Y42.6452
G01 X45.5860 Y42.6979
G01 X45.5976 Y42.7195
G01 X45.6030 Y42.7305
G01 X45.6239 Y42.7749
G01 X45.6339 Y42.7973
G01 X45.6427 Y42.8202
G01 X45.6632 Y42.8780
G01 X45.6704 Y42.9015
G01 X45.6882 Y42.9729
G01 X45.6930 Y42.9970
G01 X45.7038 Y43.0698
G01 X45.7062 Y43.0942
G01 X45.7098 Y43.1677
G01 X45.7098 Y43.1923
G01 X45.7062 Y43.2658
G01 X45.7038 Y43.2902
G01 X45.6930 Y43.3630
G01 X45.6882 Y43.3871
G01 X45.6704 Y43.4585
G01 X45.6632 Y43.4820
G01 X45.6384 Y43.5513
G01 X45.6290 Y43.5740
G01 X45.5976 Y43.6405
G01 X45.5860 Y43.6621
G01 X45.5482 Y43.7253
G01 X45.5345 Y43.7457
G01 X45.4907 Y43.8048
G01 X45.4751 Y43.8238
G01 X45.4257 Y43.8783
G01 X45.4083 Y43.8957
G01 X45.3538 Y43.9451
G01 X45.3348 Y43.9607
G01 X45.2757 Y44.0045
G01 X45.2553 Y44.0182
G01 X45.1921 Y44.0560
G01 X45.1705 Y44.0676
G01 X45.1040 Y44.0990
G01 X45.0813 Y44.1084
G01 X45.0120 Y44.1332
G01 X44.9885 Y44.1404
G01 X44.9290 Y44.1554
G01 X44.9051 Y44.1608
G01 X44.8809 Y44.1650
G01 X44.8324 Y44.1722
G01 X44.8080 Y44.1752
G01 X44.7835 Y44.1770
G01 X44.7223 Y44.1798
G01 X41.7100 Y44.1800
G00 Z2.0000
G00 X41.7100 Y41.6400
G01 F60.00
G01 Z-0.1500
G01 F300.00
G01 X41.6855 Y41.6394
G01 X41.6365 Y41.6370
G01 X41.6120 Y41.6352
G01 X41.5876 Y41.6322
G01 X41.5391 Y41.6250
G01 X41.5149 Y41.6208
G01 X41.4910 Y41.6154
G01 X41.4434 Y41.6035
G01 X41.4197 Y41.5969
G01 X41.3964 Y41.5892
G01 X41.3502 Y41.5727
G01 X41.3273 Y41.5639
G01 X41.3049 Y41.5539
G01 X41.2495 Y41.5276
G01 X41.2386 Y41.5219
G01 X41.2173 Y41.5098
G01 X41.1647 Y41.4782
G01 X41.1443 Y41.4645
G01 X41.0852 Y41.4207
G01 X41.0662 Y41.4051
G01 X41.0207 Y41.3640
G01 X41.0029 Y41.3471
G01 X40.9860 Y41.3293
G01 X40.9530 Y41.2930
G01 X40.9370 Y41.2744
G01 X40.9219 Y41.2550
G01 X40.8927 Y41.2156
G01 X40.8785 Y41.1956
G01 X40.8654 Y41.1748
G01 X40.8340 Y41.1221
G01 X40.8224 Y41.1005
G01 X40.7910 Y41.0340
G01 X40.7816 Y41.0113
G01 X40.7608 Y40.9536
G01 X40.7531 Y40.9303
G01 X40.7496 Y40.9185
G01 X40.7346 Y40.8590
G01 X40.7292 Y40.8351
G01 X40.7250 Y40.8109
G01 X40.7178 Y40.7624
G01 X40.7148 Y40.7380
G01 X40.7130 Y40.7135
G01 X40.7106 Y40.6645
G01 X40.7100 Y40.6400
G01 X40.7106 Y40.6155
G01 X40.7130 Y40.5665
G01 X40.7148 Y40.5420
G01 X40.7178 Y40.5176
G01 X40.7250 Y40.4691
G01 X40.7292 Y40.4449
G01 X40.7346 Y40.4210
G01 X40.7465 Y40.3734
G01 X40.7531 Y40.3497
G01 X40.7608 Y40.3264
G01 X40.7773 Y40.2802
G01 X40.7861 Y40.2573
G01 X40.7961 Y40.2349
G01 X40.8170 Y40.1905
G01 X40.8281 Y40.1686
G01 X40.8402 Y40.1473
G01 X40.8654 Y40.1052
G01 X40.8718 Y40.0947
G01 X40.8855 Y40.0743
G01 X40.9219 Y40.0250
G01 X40.9370 Y40.0056
G01 X40.9530 Y39.9870
G01 X40.9943 Y39.9417
G01 X41.0117 Y39.9243
G01 X41.0662 Y39.8749
G01 X41.0852 Y39.8593
G01 X41.1344 Y39.8227
G01 X41.1544 Y39.8085
G01 X41.1752 Y39.7954
G01 X41.2173 Y39.7702
G01 X41.2386 Y39.7581
G01 X41.2605 Y39.7470
G01 X41.3049 Y39.7261
G01 X41.3273 Y39.7161
G01 X41.3502 Y39.7073
G01 X41.4080 Y39.6868
G01 X41.4315 Y39.6796
G01 X41.4910 Y39.6646
G01 X41.5149 Y39.6592
G01 X41.5391 Y39.6550
G01 X41.5876 Y39.6478
G01 X41.6120 Y39.6448
G01 X41.6365 Y39.6430
G01 X41.6855 Y39.6406
G01 X41.7100 Y39.6400
G01 X44.7100 Y39.6400
G01 X44.7345 Y39.6406
G01 X44.7835 Y39.6430
G01 X44.8080 Y39.6448
G01 X44.8324 Y39.6478
G01 X44.8809 Y39.6550
G01 X44.8930 Y39.6570
G01 X44.9171 Y39.6618
G01 X44.9766 Y39.6765
G01 X45.0003 Y39.6831
G01 X45.0236 Y39.6908
G01 X45.0813 Y39.7116
G01 X45.0927 Y39.7161
G01 X45.1151 Y39.7261
G01 X45.1595 Y39.7470
G01 X45.1814 Y39.7581
G01 X45.2027 Y39.7702
G01 X45.2553 Y39.8018
G01 X45.2656 Y39.8085
G01 X45.2856 Y39.8227
G01 X45.3348 Y39.8593
G01 X45.3538 Y39.8749
G01 X45.3993 Y39.9160
G01 X45.4171 Y39.9329
G01 X45.4340 Y39.9507
G01 X45.4670 Y39.9870
G01 X45.4830 Y40.0056
G01 X45.4907 Y40.0152
G01 X45.5273 Y40.0644
G01 X45.5415 Y40.0844
G01 X45.5546 Y40.1052
G01 X45.5860 Y40.1579
G01 X45.5919 Y40.1686
G01 X45.6030 Y40.1905
G01 X45.6239 Y40.2349
G01 X45.6339 Y40.2573
G01 X45.6427 Y40.2802
G01 X45.6632 Y40.3380
G01 X45.6704 Y40.3615
G01 X45.6882 Y40.4329
G01 X45.6930 Y40.4570
G01 X45.7038 Y40.5298
G01 X45.7062 Y40.5542
G01 X45.7098 Y40.6277
G01 X45.7098 Y40.6523
G01 X45.7062 Y40.7258
G01 X45.7038 Y40.7502
G01 X45.6930 Y40.8230
G01 X45.6882 Y40.8471
G01 X45.6704 Y40.9185
G01 X45.6632 Y40.9420
G01 X45.6384 Y41.0113
G01 X45.6290 Y41.0340
G01 X45.5976 Y41.1005
G01 X45.5860 Y41.1221
G01 X45.5482 Y41.1853
G01 X45.5345 Y41.2057
G01 X45.4907 Y41.2648
G01 X45.4751 Y41.2838
G01 X45.4257 Y41.3383
G01 X45.4083 Y41.3557
G01 X45.3538 Y41.4051
G01 X45.3348 Y41.4207
G01 X45.2757 Y41.4645
G01 X45.2553 Y41.4782
G01 X45.1921 Y41.5160
G01 X45.1705 Y41.5276
G01 X45.1040 Y41.5590
G01 X45.0813 Y41.5684
G01 X45.0120 Y41.5932
G01 X44.9885 Y41.6004
G01 X44.9290 Y41.6154
G01 X44.9051 Y41.6208
G01 X44.8809 Y41.6250
G01 X44.8324 Y41.6322
G01 X44.8080 Y41.6352
G01 X44.7835 Y41.6370
G01 X44.7223 Y41.6398
G01 X41.7100 Y41.6400
G00 Z2.0000
G00 X41.7100 Y39.1000
G01 F60.00
G01 Z-0.1500
G01 F300.00
G01 X41.6855 Y39.0994
G01 X41.6242 Y39.0962
G01 X41.6120 Y39.0952
G01 X41.5876 Y39.0922
G01 X41.5391 Y39.0850
G01 X41.5149 Y39.0808
G01 X41.4910 Y39.0754
G01 X41.4434 Y39.0635
G01 X41.4197 Y39.0569
G01 X41.3964 Y39.0492
G01 X41.3502 Y39.0327
G01 X41.3273 Y39.0239
G01 X41.3049 Y39.0139
G01 X41.2605 Y38.9930
G01 X41.2386 Y38.9819
G01 X41.2173 Y38.9698
G01 X41.1647 Y38.9382
G01 X41.1443 Y38.9245
G01 X41.0950 Y38.8881
G01 X41.0756 Y38.8730
G01 X41.0570 Y38.8570
G01 X41.0117 Y38.8157
G01 X41.0029 Y38.8071
G01 X40.9860 Y38.7893
G01 X40.9449 Y38.7438
G01 X40.9293 Y38.7248
G01 X40.8927 Y38.6756
G01 X40.8785 Y38.6556
G01 X40.8654 Y38.6348
G01 X40.8340 Y38.5821
G01 X40.8224 Y38.5605
G01 X40.7961 Y38.5051
G01 X40.7861 Y38.4827
G01 X40.7773 Y38.4598
G01 X40.7608 Y38.4136
G01 X40.7531 Y38.3903
G01 X40.7465 Y38.3666
G01 X40.7318 Y38.3071
G01 X40.7270 Y38.2830
G01 X40.7178 Y38.2224
G01 X40.7148 Y38.1980
G01 X40.7130 Y38.1735
G01 X40.7106 Y38.1245
G01 X40.7100 Y38.1000
G01 X40.7106 Y38.0755
G01 X40.7130 Y38.0265
G01 X40.7148 Y38.0020
G01 X40.7178 Y37.9776
G01 X40.7250 Y37.9291
G01 X40.7292 Y37.9049
G01 X40.7346 Y37.8810
G01 X40.7465 Y37.8334
G01 X40.7531 Y37.8097
G01 X40.7608 Y37.7864
G01 X40.7816 Y37.7287
G01 X40.7910 Y37.7060
G01 X40.8170 Y37.6505
G01 X40.8281 Y37.6286
G01 X40.8402 Y37.6073
G01 X40.8718 Y37.5547
G01 X40.8785 Y37.5444
G01 X40.8927 Y37.5244
G01 X40.9293 Y37.4752
G01 X40.9449 Y37.4562
G01 X40.9860 Y37.4107
G01 X41.0029 Y37.3929
G01 X41.0207 Y37.3760
G01 X41.0662 Y37.3349
G01 X41.0852 Y37.3193
G01 X41.1443 Y37.2755
G01 X41.1647 Y37.2618
G01 X41.2173 Y37.2302
G01 X41.2386 Y37.2181
G01 X41.2605 Y37.2070
G01 X41.3160 Y37.1810
G01 X41.3387 Y37.1716
G01 X41.3964 Y37.1508
G01 X41.4197 Y37.1431
G01 X41.4434 Y37.1365
G01 X41.4910 Y37.1246
G01 X41.5149 Y37.1192
G01 X41.5391 Y37.1150
G01 X41.5876 Y37.1078
G01 X41.6120 Y37.1048
G01 X41.6365 Y37.1030
G01 X41.6855 Y37.1006
G01 X41.7100 Y37.1000
G01 X41.9100 Y37.0997
G01 X46.2967 Y37.0997
G01 X61.2297 Y22.1667
G01 X61.2297 Y18.1650
G01 X61.0177 Y18.1648
G01 X60.8584 Y18.1572
G01 X60.8340 Y18.1554
G01 X60.8096 Y18.1524
G01 X60.6640 Y18.1308
G01 X60.6398 Y18.1266
G01 X60.6159 Y18.1212
G01 X60.4731 Y18.0854
G01 X60.4494 Y18.0789
G01 X60.4261 Y18.0712
G01 X60.2875 Y18.0216
G01 X60.2646 Y18.0128
G01 X60.2422 Y18.0028
G01 X60.1091 Y17.9399
G01 X60.0872 Y17.9288
G01 X60.0659 Y17.9167
G01 X59.9396 Y17.8411
G01 X59.9189 Y17.8279
G01 X59.8988 Y17.8138
G01 X59.7806 Y17.7261
G01 X59.7612 Y17.7110
G01 X59.7426 Y17.6950
G01 X59.6336 Y17.5961
G01 X59.6158 Y17.5792
G01 X59.5989 Y17.5614
G01 X59.5000 Y17.4524
G01 X59.4840 Y17.4338
G01 X59.4689 Y17.4144
G01 X59.3812 Y17.2962
G01 X59.3671 Y17.2761
G01 X59.3539 Y17.2554
G01 X59.2783 Y17.1291
G01 X59.2662 Y17.1078
G01 X59.2551 Y17.0859
G01 X59.1922 Y16.9528
G01 X59.1822 Y16.9304
G01 X59.1734 Y16.9075
G01 X59.1238 Y16.7689
G01 X59.1161 Y16.7456
G01 X59.1096 Y16.7219
G01 X59.0738 Y16.5791
G01 X59.0684 Y16.5552
G01 X59.0642 Y16.5310
G01 X59.0426 Y16.3854
G01 X59.0396 Y16.3610
G01 X59.0378 Y16.3366
G01 X59.0306 Y16.1895
G01 X59.0300 Y16.1650
G01 X59.0306 Y16.1405
G01 X59.0378 Y15.9934
G01 X59.0396 Y15.9690
G01 X59.0426 Y15.9446
G01 X59.0642 Y15.7990
G01 X59.0684 Y15.7748
G01 X59.0738 Y15.7509
G01 X59.1127 Y15.5962
G01 X59.1198 Y15.5727
G01 X59.1238 Y15.5611
G01 X59.1734 Y15.4225
G01 X59.1822 Y15.3996
G01 X59.1922 Y15.3772
G01 X59.2551 Y15.2441
G01 X59.2662 Y15.2222
G01 X59.2783 Y15.2009
G01 X59.3539 Y15.0746
G01 X59.3671 Y15.0539
G01 X59.3812 Y15.0338
G01 X59.4689 Y14.9156
G01 X59.4840 Y14.8962
G01 X59.5000 Y14.8776
G01 X59.5989 Y14.7686
G01 X59.6158 Y14.7508
G01 X59.6336 Y14.7339
G01 X59.7426 Y14.6350
G01 X59.7612 Y14.6190
G01 X59.7806 Y14.6039
G01 X59.8988 Y14.5162
G01 X59.9189 Y14.5021
G01 X59.9396 Y14.4889
G01 X60.0659 Y14.4133
G01 X60.0872 Y14.4012
G01 X60.1091 Y14.3901
G01 X60.2422 Y14.3272
G01 X60.2646 Y14.3172
G01 X60.2875 Y14.3084
G01 X60.4261 Y14.2588
G01 X60.4494 Y14.2511
G01 X60.4731 Y14.2446
G01 X60.6278 Y14.2060
G01 X60.6519 Y14.2012
G01 X60.6640 Y14.1992
G01 X60.8096 Y14.1776
G01 X60.8340 Y14.1746
G01 X60.8584 Y14.1728
G01 X61.0055 Y14.1656
G01 X61.0300 Y14.1650
G01 X62.0423 Y14.1652
G01 X62.2016 Y14.1728
G01 X62.2260 Y14.1746
G01 X62.2504 Y14.1776
G01 X62.3960 Y14.1992
G01 X62.4202 Y14.2034
G01 X62.4441 Y14.2088
G01 X62.5869 Y14.2446
G01 X62.6106 Y14.2511
G01 X62.6339 Y14.2588
G01 X62.7725 Y14.3084
G01 X62.7954 Y14.3172
G01 X62.8178 Y14.3272
G01 X62.9509 Y14.3901
G01 X62.9728 Y14.4012
G01 X62.9941 Y14.4133
G01 X63.1204 Y14.4889
G01 X63.1411 Y14.5021
G01 X63.1612 Y14.5162
G01 X63.2794 Y14.6039
G01 X63.2892 Y14.6113
G01 X63.3082 Y14.6269
G01 X63.4264 Y14.7339
G01 X63.4442 Y14.7508
G01 X63.4611 Y14.7686
G01 X63.5600 Y14.8776
G01 X63.5760 Y14.8962
G01 X63.5911 Y14.9156
G01 X63.6788 Y15.0338
G01 X63.6929 Y15.0539
G01 X63.7061 Y15.0746
G01 X63.7817 Y15.2009
G01 X63.7938 Y15.2222
G01 X63.8049 Y15.2441
G01 X63.8678 Y15.3772
G01 X63.8778 Y15.3996
G01 X63.8866 Y15.4225
G01 X63.9362 Y15.5611
G01 X63.9439 Y15.5844
G01 X63.9504 Y15.6081
G01 X63.9862 Y15.7509
G01 X63.9916 Y15.7748
G01 X63.9958 Y15.7990
G01 X64.0174 Y15.9446
G01 X64.0204 Y15.9690
G01 X64.0222 Y15.9934
G01 X64.0294 Y16.1405
G01 X64.0300 Y16.1650
G01 X64.0298 Y16.1773
G01 X64.0222 Y16.3366
G01 X64.0204 Y16.3610
G01 X64.0174 Y16.3854
G01 X63.9958 Y16.5310
G01 X63.9916 Y16.5552
G01 X63.9862 Y16.5791
G01 X63.9504 Y16.7219
G01 X63.9439 Y16.7456
G01 X63.9362 Y16.7689
G01 X63.8866 Y16.9075
G01 X63.8778 Y16.9304
G01 X63.8678 Y16.9528
G01 X63.7995 Y17.0969
G01 X63.7879 Y17.1185
G01 X63.7817 Y17.1291
G01 X63.7061 Y17.2554
G01 X63.6929 Y17.2761
G01 X63.6788 Y17.2962
G01 X63.5911 Y17.4144
G01 X63.5837 Y17.4242
G01 X63.5681 Y17.4432
G01 X63.4611 Y17.5614
G01 X63.4528 Y17.5704
G01 X63.4354 Y17.5878
G01 X63.3082 Y17.7031
G01 X63.2892 Y17.7187
G01 X63.2303 Y17.7626
G01 X63.2303 Y22.5810
G01 X63.2296 Y22.6055
G01 X63.2272 Y22.6546
G01 X63.2254 Y22.6790
G01 X63.2224 Y22.7034
G01 X63.2152 Y22.7520
G01 X63.2110 Y22.7761
G01 X63.2057 Y22.8001
G01 X63.1937 Y22.8477
G01 X63.1872 Y22.8714
G01 X63.1795 Y22.8947
G01 X63.1587 Y22.9524
G01 X63.1493 Y22.9751
G01 X63.1232 Y23.0306
G01 X63.1121 Y23.0525
G01 X63.1000 Y23.0739
G01 X63.0684 Y23.1264
G01 X63.0547 Y23.1468
G01 X63.0183 Y23.1962
G01 X63.0109 Y23.2060
G01 X62.9953 Y23.2249
G01 X62.9542 Y23.2705
G01 X62.9373 Y23.2883
G01 X47.4183 Y38.8073
G01 X47.4005 Y38.8242
G01 X47.3549 Y38.8653
G01 X47.3456 Y38.8732
G01 X47.3262 Y38.8883
G01 X47.2868 Y38.9175
G01 X47.2667 Y38.9317
G01 X47.2460 Y38.9448
G01 X47.2039 Y38.9700
G01 X47.1825 Y38.9821
G01 X47.1606 Y38.9932
G01 X47.1162 Y39.0142
G01 X47.0938 Y39.0241
G01 X47.0709 Y39.0329
G01 X47.0247 Y39.0495
G01 X47.0014 Y39.0572
G01 X46.9777 Y39.0637
G01 X46.9181 Y39.0785
G01 X46.8941 Y39.0833
G01 X46.8334 Y39.0924
G01 X46.8090 Y39.0954
G01 X46.7846 Y39.0972
G01 X46.7355 Y39.0996
G01 X46.7110 Y39.1003
G01 X41.7100 Y39.1000
G00 Z2.0000
G00 X41.7100 Y34.0200
G01 F60.00
G01 Z-0.1500
G01 F300.00
G01 X41.6855 Y34.0194
G01 X41.6365 Y34.0170
G01 X41.6120 Y34.0152
G01 X41.5876 Y34.0122
G01 X41.5391 Y34.0050
G01 X41.5149 Y34.0008
G01 X41.4910 Y33.9954
G01 X41.4434 Y33.9835
G01 X41.4197 Y33.9769
G01 X41.3964 Y33.9692
G01 X41.3502 Y33.9527
G01 X41.3273 Y33.9439
G01 X41.3049 Y33.9339
G01 X41.2495 Y33.9076
G01 X41.2279 Y33.8960
G01 X41.2173 Y33.8898
G01 X41.1647 Y33.8582
G01 X41.1443 Y33.8445
G01 X41.0852 Y33.8007
G01 X41.0662 Y33.7851
G01 X41.0207 Y33.7440
G01 X41.0029 Y33.7271
G01 X40.9860 Y33.7093
G01 X40.9530 Y33.6730
G01 X40.9370 Y33.6544
G01 X40.9219 Y33.6350
G01 X40.8927 Y33.5956
G01 X40.8785 Y33.5756
G01 X40.8654 Y33.5548
G01 X40.8340 Y33.5021
G01 X40.8224 Y33.4805
G01 X40.7910 Y33.4140
G01 X40.7816 Y33.3913
G01 X40.7608 Y33.3336
G01 X40.7568 Y33.3220
G01 X40.7496 Y33.2985
G01 X40.7346 Y33.2390
G01 X40.7292 Y33.2151
G01 X40.7250 Y33.1909
G01 X40.7178 Y33.1424
G01 X40.7148 Y33.1180
G01 X40.7130 Y33.0935
G01 X40.7106 Y33.0445
G01 X40.7100 Y33.0200
G01 X40.7106 Y32.9955
G01 X40.7130 Y32.9465
G01 X40.7148 Y32.9220
G01 X40.7178 Y32.8976
G01 X40.7250 Y32.8491
G01 X40.7292 Y32.8249
G01 X40.7346 Y32.8010
G01 X40.7465 Y32.7534
G01 X40.7531 Y32.7297
G01 X40.7608 Y32.7064
G01 X40.7773 Y32.6602
G01 X40.7861 Y32.6373
G01 X40.7961 Y32.6149
G01 X40.8170 Y32.5705
G01 X40.8281 Y32.5486
G01 X40.8402 Y32.5273
G01 X40.8654 Y32.4852
G01 X40.8785 Y32.4644
G01 X40.8855 Y32.4543
G01 X40.9219 Y32.4050
G01 X40.9370 Y32.3856
G01 X40.9530 Y32.3670
G01 X40.9943 Y32.3217
G01 X41.0117 Y32.3043
G01 X41.0662 Y32.2549
G01 X41.0852 Y32.2393
G01 X41.1344 Y32.2027
G01 X41.1544 Y32.1885
G01 X41.1752 Y32.1754
G01 X41.2173 Y32.1502
G01 X41.2386 Y32.1381
G01 X41.2605 Y32.1270
G01 X41.3049 Y32.1061
G01 X41.3273 Y32.0961
G01 X41.3502 Y32.0873
G01 X41.4080 Y32.0668
G01 X41.4315 Y32.0596
G01 X41.4910 Y32.0446
G01 X41.5149 Y32.0392
G01 X41.5391 Y32.0350
G01 X41.5876 Y32.0278
G01 X41.6120 Y32.0248
G01 X41.6365 Y32.0230
G01 X41.6855 Y32.0206
G01 X41.7100 Y32.0200
G01 X44.7100 Y32.0200
G01 X44.7345 Y32.0206
G01 X44.7835 Y32.0230
G01 X44.8080 Y32.0248
G01 X44.8324 Y32.0278
G01 X44.8809 Y32.0350
G01 X44.9051 Y32.0392
G01 X44.9171 Y32.0418
G01 X44.9766 Y32.0565
G01 X45.0003 Y32.0631
G01 X45.0236 Y32.0708
G01 X45.0813 Y32.0916
G01 X45.1040 Y32.1010
G01 X45.1151 Y32.1061
G01 X45.1595 Y32.1270
G01 X45.1814 Y32.1381
G01 X45.2027 Y32.1502
G01 X45.2553 Y32.1818
G01 X45.2757 Y32.1955
G01 X45.3250 Y32.2319
G01 X45.3348 Y32.2393
G01 X45.3538 Y32.2549
G01 X45.3993 Y32.2960
G01 X45.4171 Y32.3129
G01 X45.4340 Y32.3307
G01 X45.4670 Y32.3670
G01 X45.4830 Y32.3856
G01 X45.4907 Y32.3952
G01 X45.5273 Y32.4444
G01 X45.5415 Y32.4644
G01 X45.5546 Y32.4852
G01 X45.5860 Y32.5379
G01 X45.5919 Y32.5486
G01 X45.6030 Y32.5705
G01 X45.6239 Y32.6149
G01 X45.6339 Y32.6373
G01 X45.6427 Y32.6602
G01 X45.6632 Y32.7180
G01 X45.6704 Y32.7415
G01 X45.6882 Y32.8129
G01 X45.6930 Y32.8370
G01 X45.7038 Y32.9098
G01 X45.7062 Y32.9342
G01 X45.7098 Y33.0077
G01 X45.7098 Y33.0323
G01 X45.7062 Y33.1058
G01 X45.7038 Y33.1302
G01 X45.6930 Y33.2030
G01 X45.6882 Y33.2271
G01 X45.6704 Y33.2985
G01 X45.6632 Y33.3220
G01 X45.6384 Y33.3913
G01 X45.6290 Y33.4140
G01 X45.5976 Y33.4805
G01 X45.5860 Y33.5021
G01 X45.5482 Y33.5653
G01 X45.5345 Y33.5857
G01 X45.4907 Y33.6448
G01 X45.4751 Y33.6638
G01 X45.4257 Y33.7183
G01 X45.4083 Y33.7357
G01 X45.3538 Y33.7851
G01 X45.3348 Y33.8007
G01 X45.2757 Y33.8445
G01 X45.2553 Y33.8582
G01 X45.1921 Y33.8960
G01 X45.1705 Y33.9076
G01 X45.1040 Y33.9390
G01 X45.0813 Y33.9484
G01 X45.0120 Y33.9732
G01 X44.9885 Y33.9804
G01 X44.9290 Y33.9954
G01 X44.9051 Y34.0008
G01 X44.8809 Y34.0050
G01 X44.8324 Y34.0122
G01 X44.8080 Y34.0152
G01 X44.7835 Y34.0170
G01 X44.7223 Y34.0198
G01 X41.7100 Y34.0200
G00 Z2.0000
G00 X41.7100 Y28.9400
G01 F60.00
G01 Z-0.1500
G01 F300.00
G01 X41.6855 Y28.9394
G01 X41.6365 Y28.9370
G01 X41.6120 Y28.9352
G01 X41.5876 Y28.9322
G01 X41.5391 Y28.9250
G01 X41.5149 Y28.9208
G01 X41.4910 Y28.9154
G01 X41.4434 Y28.9035
G01 X41.4197 Y28.8969
G01 X41.3964 Y28.8892
G01 X41.3502 Y28.8727
G01 X41.3273 Y28.8639
G01 X41.3049 Y28.8539
G01 X41.2495 Y28.8276
G01 X41.2386 Y28.8219
G01 X41.2173 Y28.8098
G01 X41.1647 Y28.7782
G01 X41.1443 Y28.7645
G01 X41.0852 Y28.7207
G01 X41.0662 Y28.7051
G01 X41.0207 Y28.6640
G01 X41.0029 Y28.6471
G01 X40.9860 Y28.6293
G01 X40.9530 Y28.5930
G01 X40.9370 Y28.5744
G01 X40.9219 Y28.5550
G01 X40.8927 Y28.5156
G01 X40.8785 Y28.4956
G01 X40.8654 Y28.4748
G01 X40.8340 Y28.4221
G01 X40.8224 Y28.4005
G01 X40.7910 Y28.3340
G01 X40.7816 Y28.3113
G01 X40.7608 Y28.2536
G01 X40.7568 Y28.2420
G01 X40.7496 Y28.2185
G01 X40.7346 Y28.1590
G01 X40.7292 Y28.1351
G01 X40.7250 Y28.1109
G01 X40.7178 Y28.0624
G01 X40.7148 Y28.0380
G01 X40.7130 Y28.0135
G01 X40.7106 Y27.9645
G01 X40.7100 Y27.9400
G01 X40.7106 Y27.9155
G01 X40.7130 Y27.8665
G01 X40.7148 Y27.8420
G01 X40.7178 Y27.8176
G01 X40.7250 Y27.7691
G01 X40.7292 Y27.7449
G01 X40.7346 Y27.7210
G01 X40.7465 Y27.6734
G01 X40.7531 Y27.6497
G01 X40.7608 Y27.6264
G01 X40.7773 Y27.5802
G01 X40.7861 Y27.5573
G01 X40.7961 Y27.5349
G01 X40.8170 Y27.4905
G01 X40.8281 Y27.4686
G01 X40.8402 Y27.4473
G01 X40.8654 Y27.4052
G01 X40.8785 Y27.3844
G01 X40.8855 Y27.3743
G01 X40.9219 Y27.3250
G01 X40.9370 Y27.3056
G01 X40.9530 Y27.2870
G01 X40.9943 Y27.2417
G01 X41.0117 Y27.2243
G01 X41.0662 Y27.1749
G01 X41.0852 Y27.1593
G01 X41.1344 Y27.1227
G01 X41.1544 Y27.1085
G01 X41.1752 Y27.0954
G01 X41.2173 Y27.0702
G01 X41.2386 Y27.0581
G01 X41.2605 Y27.0470
G01 X41.3049 Y27.0261
G01 X41.3273 Y27.0161
G01 X41.3502 Y27.0073
G01 X41.4080 Y26.9868
G01 X41.4315 Y26.9796
G01 X41.4910 Y26.9646
G01 X41.5149 Y26.9592
G01 X41.5391 Y26.9550
G01 X41.5876 Y26.9478
G01 X41.6120 Y26.9448
G01 X41.6365 Y26.9430
G01 X41.6855 Y26.9406
G01 X41.7100 Y26.9400
G01 X44.7100 Y26.9400
G01 X44.7345 Y26.9406
G01 X44.7835 Y26.9430
G01 X44.8080 Y26.9448
G01 X44.8324 Y26.9478
G01 X44.8809 Y26.9550
G01 X44.9051 Y26.9592
G01 X44.9171 Y26.9618
G01 X44.9766 Y26.9765
G01 X45.0003 Y26.9831
G01 X45.0236 Y26.9908
G01 X45.0813 Y27.0116
G01 X45.1040 Y27.0210
G01 X45.1151 Y27.0261
G01 X45.1595 Y27.0470
G01 X45.1814 Y27.0581
G01 X45.2027 Y27.0702
G01 X45.2553 Y27.1018
G01 X45.2757 Y27.1155
G01 X45.3250 Y27.1519
G01 X45.3444 Y27.1670
G01 X45.3538 Y27.1749
G01 X45.3993 Y27.2160
G01 X45.4171 Y27.2329
G01 X45.4340 Y27.2507
G01 X45.4670 Y27.2870
G01 X45.4830 Y27.3056
G01 X45.4907 Y27.3152
G01 X45.5273 Y27.3644
G01 X45.5415 Y27.3844
G01 X45.5546 Y27.4052
G01 X45.5860 Y27.4579
G01 X45.5919 Y27.4686
G01 X45.6030 Y27.4905
G01 X45.6239 Y27.5349
G01 X45.6339 Y27.5573
G01 X45.6427 Y27.5802
G01 X45.6632 Y27.6380
G01 X45.6704 Y27.6615
G01 X45.6882 Y27.7329
G01 X45.6930 Y27.7570
G01 X45.7038 Y27.8298
G01 X45.7062 Y27.8542
G01 X45.7098 Y27.9277
G01 X45.7098 Y27.9523
G01 X45.7062 Y28.0258
G01 X45.7038 Y28.0502
G01 X45.6930 Y28.1230
G01 X45.6882 Y28.1471
G01 X45.6704 Y28.2185
G01 X45.6632 Y28.2420
G01 X45.6384 Y28.3113
G01 X45.6290 Y28.3340
G01 X45.5976 Y28.4005
G01 X45.5860 Y28.4221
G01 X45.5482 Y28.4853
G01 X45.5345 Y28.5057
G01 X45.4907 Y28.5648
G01 X45.4751 Y28.5838
G01 X45.4257 Y28.6383
G01 X45.4083 Y28.6557
G01 X45.3538 Y28.7051
G01 X45.3348 Y28.7207
G01 X45.2757 Y28.7645
G01 X45.2553 Y28.7782
G01 X45.1921 Y28.8160
G01 X45.1705 Y28.8276
G01 X45.1040 Y28.8590
G01 X45.0813 Y28.8684
G01 X45.0120 Y28.8932
G01 X44.9885 Y28.9004
G01 X44.9290 Y28.9154
G01 X44.9051 Y28.9208
G01 X44.8809 Y28.9250
G01 X44.8324 Y28.9322
G01 X44.8080 Y28.9352
G01 X44.7835 Y28.9370
G01 X44.7223 Y28.9398
G01 X41.7100 Y28.9400
G00 Z2.0000
G00 X41.7100 Y26.4000
G01 F60.00
G01 Z-0.1500
G01 F300.00
G01 X41.6855 Y26.3994
G01 X41.6365 Y26.3970
G01 X41.6120 Y26.3952
G01 X41.5876 Y26.3922
G01 X41.5391 Y26.3850
G01 X41.5149 Y26.3808
G01 X41.4910 Y26.3754
G01 X41.4434 Y26.3635
G01 X41.4197 Y26.3569
G01 X41.3964 Y26.3492
G01 X41.3502 Y26.3327
G01 X41.3273 Y26.3239
G01 X41.3049 Y26.3139
G01 X41.2495 Y26.2876
G01 X41.2386 Y26.2819
G01 X41.2173 Y26.2698
G01 X41.1647 Y26.2382
G01 X41.1443 Y26.2245
G01 X41.0852 Y26.1807
G01 X41.0662 Y26.1651
G01 X41.0207 Y26.1240
G01 X41.0029 Y26.1071
G01 X40.9860 Y26.0893
G01 X40.9530 Y26.0530
G01 X40.9370 Y26.0344
G01 X40.9219 Y26.0150
G01 X40.8927 Y25.9756
G01 X40.8785 Y25.9556
G01 X40.8654 Y25.9348
G01 X40.8340 Y25.8821
G01 X40.8224 Y25.8605
G01 X40.7910 Y25.7940
G01 X40.7816 Y25.7713
G01 X40.7608 Y25.7136
G01 X40.7568 Y25.7020
G01 X40.7496 Y25.6785
G01 X40.7346 Y25.6190
G01 X40.7292 Y25.5951
G01 X40.7250 Y25.5709
G01 X40.7178 Y25.5224
G01 X40.7148 Y25.4980
G01 X40.7130 Y25.4735
G01 X40.7106 Y25.4245
G01 X40.7100 Y25.4000
G01 X40.7106 Y25.3755
G01 X40.7130 Y25.3265
G01 X40.7148 Y25.3020
G01 X40.7178 Y25.2776
G01 X40.7250 Y25.2291
G01 X40.7292 Y25.2049
G01 X40.7346 Y25.1810
G01 X40.7465 Y25.1334
G01 X40.7531 Y25.1097
G01 X40.7608 Y25.0864
G01 X40.7773 Y25.0402
G01 X40.7861 Y25.0173
G01 X40.7961 Y24.9949
G01 X40.8170 Y24.9505
G01 X40.8281 Y24.9286
G01 X40.8402 Y24.9073
G01 X40.8654 Y24.8652
G01 X40.8785 Y24.8444
G01 X40.8855 Y24.8343
G01 X40.9219 Y24.7850
G01 X40.9370 Y24.7656
G01 X40.9530 Y24.7470
G01 X40.9943 Y24.7017
G01 X41.0117 Y24.6843
G01 X41.0662 Y24.6349
G01 X41.0852 Y24.6193
G01 X41.1344 Y24.5827
G01 X41.1544 Y24.5685
G01 X41.1752 Y24.5554
G01 X41.2173 Y24.5302
G01 X41.2386 Y24.5181
G01 X41.2605 Y24.5070
G01 X41.3049 Y24.4861
G01 X41.3273 Y24.4761
G01 X41.3502 Y24.4673
G01 X41.4080 Y24.4468
G01 X41.4315 Y24.4396
G01 X41.4910 Y24.4246
G01 X41.5149 Y24.4192
G01 X41.5391 Y24.4150
G01 X41.5876 Y24.4078
G01 X41.6120 Y24.4048
G01 X41.6365 Y24.4030
G01 X41.6855 Y24.4006
G01 X41.7100 Y24.4000
G01 X44.7100 Y24.4000
G01 X44.7345 Y24.4006
G01 X44.7835 Y24.4030
G01 X44.8080 Y24.4048
G01 X44.8324 Y24.4078
G01 X44.8809 Y24.4150
G01 X44.9051 Y24.4192
G01 X44.9171 Y24.4218
G01 X44.9766 Y24.4365
G01 X45.0003 Y24.4431
G01 X45.0236 Y24.4508
G01 X45.0813 Y24.4716
G01 X45.1040 Y24.4810
G01 X45.1151 Y24.4861
G01 X45.1595 Y24.5070
G01 X45.1814 Y24.5181
G01 X45.2027 Y24.5302
G01 X45.2553 Y24.5618
G01 X45.2757 Y24.5755
G01 X45.3250 Y24.6119
G01 X45.3444 Y24.6270
G01 X45.3538 Y24.6349
G01 X45.3993 Y24.6760
G01 X45.4171 Y24.6929
G01 X45.4340 Y24.7107
G01 X45.4670 Y24.7470
G01 X45.4830 Y24.7656
G01 X45.4907 Y24.7752
G01 X45.5273 Y24.8244
G01 X45.5415 Y24.8444
G01 X45.5546 Y24.8652
G01 X45.5860 Y24.9179
G01 X45.5919 Y24.9286
G01 X45.6030 Y24.9505
G01 X45.6239 Y24.9949
G01 X45.6339 Y25.0173
G01 X45.6427 Y25.0402
G01 X45.6632 Y25.0980
G01 X45.6704 Y25.1215
G01 X45.6882 Y25.1929
G01 X45.6930 Y25.2170
G01 X45.7038 Y25.2898
G01 X45.7062 Y25.3142
G01 X45.7098 Y25.3877
G01 X45.7098 Y25.4123
G01 X45.7062 Y25.4858
G01 X45.7038 Y25.5102
G01 X45.6930 Y25.5830
G01 X45.6882 Y25.6071
G01 X45.6704 Y25.6785
G01 X45.6632 Y25.7020
G01 X45.6384 Y25.7713
G01 X45.6290 Y25.7940
G01 X45.5976 Y25.8605
G01 X45.5860 Y25.8821
G01 X45.5482 Y25.9453
G01 X45.5345 Y25.9657
G01 X45.4907 Y26.0248
G01 X45.4751 Y26.0438
G01 X45.4257 Y26.0983
G01 X45.4083 Y26.1157
G01 X45.3538 Y26.1651
G01 X45.3348 Y26.1807
G01 X45.2757 Y26.2245
G01 X45.2553 Y26.2382
G01 X45.1921 Y26.2760
G01 X45.1705 Y26.2876
G01 X45.1040 Y26.3190
G01 X45.0813 Y26.3284
G01 X45.0120 Y26.3532
G01 X44.9885 Y26.3604
G01 X44.9290 Y26.3754
G01 X44.9051 Y26.3808
G01 X44.8809 Y26.3850
G01 X44.8324 Y26.3922
G01 X44.8080 Y26.3952
G01 X44.7835 Y26.3970
G01 X44.7223 Y26.3998
G01 X41.7100 Y26.4000
G00 Z2.0000
G00 X36.5700 Y28.9400
G01 F60.00
G01 Z-0.1500
G01 F300.00
G01 X36.5455 Y28.9394
G01 X36.4842 Y28.9362
G01 X36.4720 Y28.9352
G01 X36.4476 Y28.9322
G01 X36.3991 Y28.9250
G01 X36.3749 Y28.9208
G01 X36.3510 Y28.9154
G01 X36.2915 Y28.9004
G01 X36.2797 Y28.8969
G01 X36.2564 Y28.8892
G01 X36.2102 Y28.8727
G01 X36.1873 Y28.8639
G01 X36.1649 Y28.8539
G01 X36.1095 Y28.8276
G01 X36.0986 Y28.8219
G01 X36.0773 Y28.8098
G01 X36.0352 Y28.7846
G01 X36.0144 Y28.7715
G01 X35.9944 Y28.7573
G01 X35.9550 Y28.7281
G01 X35.9356 Y28.7130
G01 X35.9262 Y28.7051
G01 X35.8807 Y28.6640
G01 X35.8629 Y28.6471
G01 X35.8460 Y28.6293
G01 X35.8130 Y28.5930
G01 X35.7970 Y28.5744
G01 X35.7819 Y28.5550
G01 X35.7527 Y28.5156
G01 X35.7385 Y28.4956
G01 X35.7318 Y28.4853
G01 X35.7002 Y28.4327
G01 X35.6881 Y28.4114
G01 X35.6770 Y28.3895
G01 X35.6561 Y28.3451
G01 X35.6461 Y28.3227
G01 X35.6373 Y28.2998
G01 X35.6208 Y28.2536
G01 X35.6168 Y28.2420
G01 X35.6096 Y28.2185
G01 X35.5946 Y28.1590
G01 X35.5892 Y28.1351
G01 X35.5850 Y28.1109
G01 X35.5762 Y28.0502
G01 X35.5738 Y28.0258
G01 X35.5730 Y28.0135
G01 X35.5706 Y27.9645
G01 X35.5700 Y27.9400
G01 X35.5706 Y27.9155
G01 X35.5730 Y27.8665
G01 X35.5748 Y27.8420
G01 X35.5762 Y27.8298
G01 X35.5850 Y27.7691
G01 X35.5892 Y27.7449
G01 X35.5946 Y27.7210
G01 X35.6096 Y27.6615
G01 X35.6168 Y27.6380
G01 X35.6208 Y27.6264
G01 X35.6373 Y27.5802
G01 X35.6461 Y27.5573
G01 X35.6561 Y27.5349
G01 X35.6824 Y27.4795
G01 X35.6940 Y27.4579
G01 X35.7002 Y27.4473
G01 X35.7318 Y27.3947
G01 X35.7455 Y27.3743
G01 X35.7893 Y27.3152
G01 X35.8049 Y27.2962
G01 X35.8543 Y27.2417
G01 X35.8717 Y27.2243
G01 X35.9262 Y27.1749
G01 X35.9452 Y27.1593
G01 X36.0043 Y27.1155
G01 X36.0247 Y27.1018
G01 X36.0879 Y27.0640
G01 X36.1095 Y27.0524
G01 X36.1760 Y27.0210
G01 X36.1987 Y27.0116
G01 X36.2680 Y26.9868
G01 X36.2915 Y26.9796
G01 X36.3629 Y26.9618
G01 X36.3870 Y26.9570
G01 X36.4476 Y26.9478
G01 X36.4720 Y26.9448
G01 X36.4965 Y26.9430
G01 X36.5455 Y26.9406
G01 X36.5700 Y26.9400
G01 X38.3697 Y26.9400
G01 X38.3697 Y26.4000
G01 X36.5700 Y26.4000
G01 X36.5455 Y26.3994
G01 X36.4842 Y26.3962
G01 X36.4720 Y26.3952
G01 X36.4476 Y26.3922
G01 X36.3991 Y26.3850
G01 X36.3749 Y26.3808
G01 X36.3510 Y26.3754
G01 X36.3034 Y26.3635
G01 X36.2797 Y26.3569
G01 X36.2680 Y26.3532
G01 X36.1987 Y26.3284
G01 X36.1760 Y26.3190
G01 X36.1649 Y26.3139
G01 X36.1205 Y26.2930
G01 X36.0986 Y26.2819
G01 X36.0773 Y26.2698
G01 X36.0247 Y26.2382
G01 X36.0144 Y26.2315
G01 X35.9944 Y26.2173
G01 X35.9550 Y26.1881
G01 X35.9356 Y26.1730
G01 X35.9170 Y26.1570
G01 X35.8807 Y26.1240
G01 X35.8629 Y26.1071
G01 X35.8460 Y26.0893
G01 X35.8130 Y26.0530
G01 X35.7970 Y26.0344
G01 X35.7819 Y26.0150
G01 X35.7527 Y25.9756
G01 X35.7385 Y25.9556
G01 X35.7254 Y25.9348
G01 X35.7002 Y25.8927
G01 X35.6881 Y25.8714
G01 X35.6770 Y25.8495
G01 X35.6561 Y25.8051
G01 X35.6461 Y25.7827
G01 X35.6416 Y25.7713
G01 X35.6168 Y25.7020
G01 X35.6096 Y25.6785
G01 X35.5918 Y25.6071
G01 X35.5870 Y25.5830
G01 X35.5850 Y25.5709
G01 X35.5762 Y25.5102
G01 X35.5738 Y25.4858
G01 X35.5730 Y25.4735
G01 X35.5706 Y25.4245
G01 X35.5700 Y25.4000
G01 X35.5706 Y25.3755
G01 X35.5730 Y25.3265
G01 X35.5748 Y25.3020
G01 X35.5762 Y25.2898
G01 X35.5870 Y25.2170
G01 X35.5918 Y25.1929
G01 X35.6096 Y25.1215
G01 X35.6168 Y25.0980
G01 X35.6208 Y25.0864
G01 X35.6373 Y25.0402
G01 X35.6461 Y25.0173
G01 X35.6561 Y24.9949
G01 X35.6770 Y24.9505
G01 X35.6881 Y24.9286
G01 X35.7002 Y24.9073
G01 X35.7254 Y24.8652
G01 X35.7385 Y24.8444
G01 X35.7527 Y24.8244
G01 X35.7819 Y24.7850
G01 X35.7970 Y24.7656
G01 X35.8049 Y24.7562
G01 X35.8543 Y24.7017
G01 X35.8717 Y24.6843
G01 X35.9262 Y24.6349
G01 X35.9452 Y24.6193
G01 X35.9550 Y24.6119
G01 X36.0043 Y24.5755
G01 X36.0247 Y24.5618
G01 X36.0352 Y24.5554
G01 X36.0773 Y24.5302
G01 X36.0986 Y24.5181
G01 X36.1205 Y24.5070
G01 X36.1649 Y24.4861
G01 X36.1760 Y24.4810
G01 X36.1987 Y24.4716
G01 X36.2680 Y24.4468
G01 X36.2915 Y24.4396
G01 X36.3629 Y24.4218
G01 X36.3870 Y24.4170
G01 X36.4598 Y24.4062
G01 X36.4842 Y24.4038
G01 X36.5577 Y24.4002
G01 X39.3700 Y24.3998
G01 X39.5823 Y24.4002
G01 X39.6558 Y24.4038
G01 X39.6802 Y24.4062
G01 X39.7409 Y24.4150
G01 X39.7651 Y24.4192
G01 X39.7890 Y24.4246
G01 X39.8366 Y24.4365
G01 X39.8603 Y24.4431
G01 X39.8836 Y24.4508
G01 X39.9298 Y24.4673
G01 X39.9527 Y24.4761
G01 X39.9751 Y24.4861
G01 X40.0195 Y24.5070
G01 X40.0414 Y24.5181
G01 X40.0627 Y24.5302
G01 X40.1048 Y24.5554
G01 X40.1256 Y24.5685
G01 X40.1456 Y24.5827
G01 X40.1948 Y24.6193
G01 X40.2138 Y24.6349
G01 X40.2683 Y24.6843
G01 X40.2857 Y24.7017
G01 X40.3351 Y24.7562
G01 X40.3430 Y24.7656
G01 X40.3581 Y24.7850
G01 X40.3945 Y24.8343
G01 X40.4082 Y24.8547
G01 X40.4146 Y24.8652
G01 X40.4398 Y24.9073
G01 X40.4519 Y24.9286
G01 X40.4630 Y24.9505
G01 X40.4839 Y24.9949
G01 X40.4939 Y25.0173
G01 X40.4984 Y25.0287
G01 X40.5232 Y25.0980
G01 X40.5304 Y25.1215
G01 X40.5482 Y25.1929
G01 X40.5530 Y25.2170
G01 X40.5638 Y25.2898
G01 X40.5662 Y25.3142
G01 X40.5698 Y25.3877
G01 X40.5698 Y25.4123
G01 X40.5662 Y25.4858
G01 X40.5638 Y25.5102
G01 X40.5550 Y25.5709
G01 X40.5508 Y25.5951
G01 X40.5454 Y25.6190
G01 X40.5304 Y25.6785
G01 X40.5232 Y25.7020
G01 X40.5027 Y25.7598
G01 X40.4939 Y25.7827
G01 X40.4839 Y25.8051
G01 X40.4576 Y25.8605
G01 X40.4460 Y25.8821
G01 X40.4082 Y25.9453
G01 X40.3945 Y25.9657
G01 X40.3703 Y25.9987
G01 X40.3703 Y27.3413
G01 X40.3945 Y27.3743
G01 X40.4082 Y27.3947
G01 X40.4460 Y27.4579
G01 X40.4576 Y27.4795
G01 X40.4890 Y27.5460
G01 X40.4984 Y27.5687
G01 X40.5232 Y27.6380
G01 X40.5304 Y27.6615
G01 X40.5454 Y27.7210
G01 X40.5508 Y27.7449
G01 X40.5550 Y27.7691
G01 X40.5622 Y27.8176
G01 X40.5652 Y27.8420
G01 X40.5670 Y27.8665
G01 X40.5694 Y27.9155
G01 X40.5700 Y27.9400
G01 X40.5694 Y27.9645
G01 X40.5662 Y28.0258
G01 X40.5638 Y28.0502
G01 X40.5550 Y28.1109
G01 X40.5508 Y28.1351
G01 X40.5454 Y28.1590
G01 X40.5335 Y28.2066
G01 X40.5269 Y28.2303
G01 X40.5192 Y28.2536
G01 X40.5027 Y28.2998
G01 X40.4939 Y28.3227
G01 X40.4839 Y28.3451
G01 X40.4630 Y28.3895
G01 X40.4519 Y28.4114
G01 X40.4398 Y28.4327
G01 X40.4146 Y28.4748
G01 X40.4015 Y28.4956
G01 X40.3873 Y28.5156
G01 X40.3507 Y28.5648
G01 X40.3351 Y28.5838
G01 X40.2940 Y28.6293
G01 X40.2771 Y28.6471
G01 X40.2593 Y28.6640
G01 X40.2230 Y28.6970
G01 X40.2044 Y28.7130
G01 X40.1850 Y28.7281
G01 X40.1456 Y28.7573
G01 X40.1256 Y28.7715
G01 X40.1048 Y28.7846
G01 X40.0627 Y28.8098
G01 X40.0414 Y28.8219
G01 X40.0195 Y28.8330
G01 X39.9751 Y28.8539
G01 X39.9527 Y28.8639
G01 X39.9298 Y28.8727
G01 X39.8836 Y28.8892
G01 X39.8603 Y28.8969
G01 X39.8366 Y28.9035
G01 X39.7890 Y28.9154
G01 X39.7651 Y28.9208
G01 X39.7409 Y28.9250
G01 X39.6924 Y28.9322
G01 X39.6680 Y28.9352
G01 X39.6435 Y28.9370
G01 X39.5945 Y28.9394
G01 X39.5700 Y28.9400
G01 X39.3700 Y28.9402
G01 X36.5700 Y28.9400
G00 Z2.0000
G00 X33.5687 Y30.4800
G01 F60.00
G01 Z-0.1500
G01 F300.00
G01 X33.5694 Y30.4555
G01 X33.5718 Y30.4064
G01 X33.5736 Y30.3820
G01 X33.5766 Y30.3576
G01 X33.5838 Y30.3090
G01 X33.5880 Y30.2849
G01 X33.5933 Y30.2609
G01 X33.6053 Y30.2133
G01 X33.6118 Y30.1896
G01 X33.6195 Y30.1663
G01 X33.6361 Y30.1201
G01 X33.6449 Y30.0972
G01 X33.6548 Y30.0748
G01 X33.6758 Y30.0304
G01 X33.6869 Y30.0085
G01 X33.6990 Y29.9871
G01 X33.7242 Y29.9450
G01 X33.7373 Y29.9243
G01 X33.7515 Y29.9042
G01 X33.7807 Y29.8648
G01 X33.7958 Y29.8454
G01 X33.8118 Y29.8269
G01 X33.8448 Y29.7905
G01 X33.8617 Y29.7727
G01 X33.8795 Y29.7558
G01 X33.9159 Y29.7228
G01 X33.9344 Y29.7068
G01 X33.9538 Y29.6917
G01 X33.9932 Y29.6625
G01 X34.0133 Y29.6483
G01 X34.0340 Y29.6352
G01 X34.0761 Y29.6100
G01 X34.0975 Y29.5979
G01 X34.1194 Y29.5868
G01 X34.1638 Y29.5658
G01 X34.1862 Y29.5559
G01 X34.2091 Y29.5471
G01 X34.2553 Y29.5305
G01 X34.2786 Y29.5228
G01 X34.3023 Y29.5163
G01 X34.3499 Y29.5043
G01 X34.3739 Y29.4990
G01 X34.3980 Y29.4948
G01 X34.4466 Y29.4876
G01 X34.4710 Y29.4846
G01 X34.4954 Y29.4828
G01 X34.5567 Y29.4799
G01 X39.5700 Y29.4800
G01 X39.5945 Y29.4806
G01 X39.6558 Y29.4838
G01 X39.6680 Y29.4848
G01 X39.6924 Y29.4878
G01 X39.7409 Y29.4950
G01 X39.7651 Y29.4992
G01 X39.7890 Y29.5046
G01 X39.8366 Y29.5165
G01 X39.8603 Y29.5231
G01 X39.8836 Y29.5308
G01 X39.9298 Y29.5473
G01 X39.9527 Y29.5561
G01 X39.9751 Y29.5661
G01 X40.0195 Y29.5870
G01 X40.0414 Y29.5981
G01 X40.0627 Y29.6102
G01 X40.1153 Y29.6418
G01 X40.1357 Y29.6555
G01 X40.1850 Y29.6919
G01 X40.2044 Y29.7070
G01 X40.2230 Y29.7230
G01 X40.2593 Y29.7560
G01 X40.2771 Y29.7729
G01 X40.2940 Y29.7907
G01 X40.3270 Y29.8270
G01 X40.3430 Y29.8456
G01 X40.3581 Y29.8650
G01 X40.3945 Y29.9143
G01 X40.4082 Y29.9347
G01 X40.4398 Y29.9873
G01 X40.4519 Y30.0086
G01 X40.4630 Y30.0305
G01 X40.4839 Y30.0749
G01 X40.4939 Y30.0973
G01 X40.5027 Y30.1202
G01 X40.5192 Y30.1664
G01 X40.5269 Y30.1897
G01 X40.5335 Y30.2134
G01 X40.5454 Y30.2610
G01 X40.5508 Y30.2849
G01 X40.5550 Y30.3091
G01 X40.5638 Y30.3698
G01 X40.5662 Y30.3942
G01 X40.5698 Y30.4677
G01 X40.5698 Y30.4923
G01 X40.5670 Y30.5535
G01 X40.5662 Y30.5658
G01 X40.5638 Y30.5902
G01 X40.5550 Y30.6509
G01 X40.5508 Y30.6751
G01 X40.5454 Y30.6990
G01 X40.5304 Y30.7585
G01 X40.5232 Y30.7820
G01 X40.4984 Y30.8513
G01 X40.4890 Y30.8740
G01 X40.4576 Y30.9405
G01 X40.4460 Y30.9621
G01 X40.4082 Y31.0253
G01 X40.3945 Y31.0457
G01 X40.3581 Y31.0950
G01 X40.3430 Y31.1144
G01 X40.3270 Y31.1330
G01 X40.2940 Y31.1693
G01 X40.2771 Y31.1871
G01 X40.2593 Y31.2040
G01 X40.2230 Y31.2370
G01 X40.2044 Y31.2530
G01 X40.1850 Y31.2681
G01 X40.1456 Y31.2973
G01 X40.1256 Y31.3115
G01 X40.1048 Y31.3246
G01 X40.0627 Y31.3498
G01 X40.0414 Y31.3619
G01 X40.0195 Y31.3730
G01 X39.9751 Y31.3939
G01 X39.9527 Y31.4039
G01 X39.9298 Y31.4127
G01 X39.8836 Y31.4292
G01 X39.8603 Y31.4369
G01 X39.8366 Y31.4435
G01 X39.7771 Y31.4582
G01 X39.7530 Y31.4630
G01 X39.7409 Y31.4650
G01 X39.6924 Y31.4722
G01 X39.6680 Y31.4752
G01 X39.6435 Y31.4770
G01 X39.5945 Y31.4794
G01 X39.5700 Y31.4800
G01 X35.5693 Y31.4803
G01 X35.5693 Y39.6397
G01 X39.5700 Y39.6400
G01 X39.5945 Y39.6406
G01 X39.6435 Y39.6430
G01 X39.6680 Y39.6448
G01 X39.6924 Y39.6478
G01 X39.7409 Y39.6550
G01 X39.7651 Y39.6592
G01 X39.7890 Y39.6646
G01 X39.8366 Y39.6765
G01 X39.8603 Y39.6831
G01 X39.8836 Y39.6908
G01 X39.9298 Y39.7073
G01 X39.9527 Y39.7161
G01 X39.9751 Y39.7261
G01 X40.0195 Y39.7470
G01 X40.0414 Y39.7581
G01 X40.0627 Y39.7702
G01 X40.1048 Y39.7954
G01 X40.1256 Y39.8085
G01 X40.1456 Y39.8227
G01 X40.1948 Y39.8593
G01 X40.2138 Y39.8749
G01 X40.2593 Y39.9160
G01 X40.2771 Y39.9329
G01 X40.2940 Y39.9507
G01 X40.3270 Y39.9870
G01 X40.3430 Y40.0056
G01 X40.3581 Y40.0250
G01 X40.3873 Y40.0644
G01 X40.4015 Y40.0844
G01 X40.4146 Y40.1052
G01 X40.4460 Y40.1579
G01 X40.4576 Y40.1795
G01 X40.4839 Y40.2349
G01 X40.4939 Y40.2573
G01 X40.5027 Y40.2802
G01 X40.5192 Y40.3264
G01 X40.5269 Y40.3497
G01 X40.5335 Y40.3734
G01 X40.5454 Y40.4210
G01 X40.5508 Y40.4449
G01 X40.5550 Y40.4691
G01 X40.5622 Y40.5176
G01 X40.5652 Y40.5420
G01 X40.5670 Y40.5665
G01 X40.5698 Y40.6277
G01 X40.5698 Y40.6523
G01 X40.5662 Y40.7258
G01 X40.5638 Y40.7502
G01 X40.5550 Y40.8109
G01 X40.5508 Y40.8351
G01 X40.5454 Y40.8590
G01 X40.5304 Y40.9185
G01 X40.5232 Y40.9420
G01 X40.5192 Y40.9536
G01 X40.5027 Y40.9998
G01 X40.4939 Y41.0227
G01 X40.4839 Y41.0451
G01 X40.4630 Y41.0895
G01 X40.4519 Y41.1114
G01 X40.4398 Y41.1327
G01 X40.4146 Y41.1748
G01 X40.4015 Y41.1956
G01 X40.3873 Y41.2156
G01 X40.3581 Y41.2550
G01 X40.3430 Y41.2744
G01 X40.3270 Y41.2930
G01 X40.2940 Y41.3293
G01 X40.2771 Y41.3471
G01 X40.2593 Y41.3640
G01 X40.2230 Y41.3970
G01 X40.2044 Y41.4130
G01 X40.1850 Y41.4281
G01 X40.1456 Y41.4573
G01 X40.1256 Y41.4715
G01 X40.1048 Y41.4846
G01 X40.0627 Y41.5098
G01 X40.0414 Y41.5219
G01 X40.0195 Y41.5330
G01 X39.9640 Y41.5590
G01 X39.9413 Y41.5684
G01 X39.8836 Y41.5892
G01 X39.8603 Y41.5969
G01 X39.8366 Y41.6035
G01 X39.7890 Y41.6154
G01 X39.7651 Y41.6208
G01 X39.7409 Y41.6250
G01 X39.6924 Y41.6322
G01 X39.6680 Y41.6352
G01 X39.6435 Y41.6370
G01 X39.5945 Y41.6394
G01 X39.5700 Y41.6400
G01 X35.5693 Y41.6403
G01 X35.5693 Y46.8277
G01 X35.8173 Y47.0757
G01 X56.8007 Y47.0757
G01 X61.2297 Y42.6467
G01 X61.2297 Y41.3587
G01 X61.2146 Y41.3159
G01 X61.2074 Y41.2924
G01 X61.1908 Y41.2267
G01 X61.1855 Y41.2028
G01 X61.1832 Y41.1907
G01 X61.1731 Y41.1237
G01 X61.1701 Y41.0994
G01 X61.1683 Y41.0749
G01 X61.1652 Y41.0073
G01 X61.1650 Y38.1250
G01 X61.1656 Y38.1005
G01 X61.1683 Y38.0451
G01 X61.1701 Y38.0206
G01 X61.1731 Y37.9963
G01 X61.1832 Y37.9293
G01 X61.1855 Y37.9172
G01 X61.1908 Y37.8933
G01 X61.2074 Y37.8276
G01 X61.2146 Y37.8041
G01 X61.2297 Y37.7613
G01 X61.2299 Y35.0487
G01 X61.2328 Y34.9874
G01 X61.2346 Y34.9630
G01 X61.2376 Y34.9386
G01 X61.2448 Y34.8900
G01 X61.2467 Y34.8779
G01 X61.2515 Y34.8539
G01 X61.2663 Y34.7943
G01 X61.2728 Y34.7706
G01 X61.2805 Y34.7473
G01 X61.2971 Y34.7011
G01 X61.3059 Y34.6782
G01 X61.3107 Y34.6669
G01 X61.3422 Y34.6004
G01 X61.3538 Y34.5787
G01 X61.3600 Y34.5681
G01 X61.3852 Y34.5260
G01 X61.3983 Y34.5053
G01 X61.4125 Y34.4852
G01 X61.4417 Y34.4458
G01 X61.4491 Y34.4360
G01 X61.4647 Y34.4171
G01 X61.5141 Y34.3625
G01 X63.7697 Y32.1067
G01 X63.7697 Y30.8187
G01 X63.7546 Y30.7759
G01 X63.7474 Y30.7524
G01 X63.7308 Y30.6867
G01 X63.7255 Y30.6628
G01 X63.7232 Y30.6507
G01 X63.7131 Y30.5837
G01 X63.7101 Y30.5594
G01 X63.7083 Y30.5349
G01 X63.7052 Y30.4673
G01 X63.7052 Y27.5727
G01 X63.7083 Y27.5051
G01 X63.7101 Y27.4806
G01 X63.7131 Y27.4563
G01 X63.7213 Y27.4014
G01 X63.7232 Y27.3893
G01 X63.7280 Y27.3652
G01 X63.7443 Y27.2995
G01 X63.7509 Y27.2758
G01 X63.7586 Y27.2525
G01 X63.7815 Y27.1888
G01 X63.7861 Y27.1774
G01 X63.7960 Y27.1550
G01 X63.8197 Y27.1049
G01 X63.8308 Y27.0830
G01 X63.8429 Y27.0616
G01 X63.8778 Y27.0036
G01 X63.8914 Y26.9832
G01 X63.9316 Y26.9287
G01 X63.9467 Y26.9094
G01 X63.9628 Y26.8908
G01 X64.0000 Y26.8497
G01 X64.0169 Y26.8319
G01 X64.0347 Y26.8150
G01 X64.0758 Y26.7778
G01 X64.0944 Y26.7617
G01 X64.1137 Y26.7466
G01 X64.1583 Y26.7136
G01 X64.1783 Y26.6995
G01 X64.1991 Y26.6864
G01 X64.2466 Y26.6579
G01 X64.2680 Y26.6458
G01 X64.2789 Y26.6401
G01 X64.3400 Y26.6110
G01 X64.3624 Y26.6011
G01 X64.3853 Y26.5922
G01 X64.4375 Y26.5736
G01 X64.4608 Y26.5659
G01 X64.4845 Y26.5593
G01 X64.5383 Y26.5458
G01 X64.5622 Y26.5405
G01 X64.5743 Y26.5382
G01 X64.6413 Y26.5281
G01 X64.6656 Y26.5251
G01 X64.6901 Y26.5233
G01 X64.7455 Y26.5206
G01 X64.7700 Y26.5200
G01 X64.7945 Y26.5206
G01 X64.8622 Y26.5241
G01 X64.8866 Y26.5265
G01 X64.9536 Y26.5363
G01 X64.9778 Y26.5405
G01 X65.0017 Y26.5458
G01 X65.0555 Y26.5593
G01 X65.0792 Y26.5659
G01 X65.1025 Y26.5736
G01 X65.1547 Y26.5922
G01 X65.1776 Y26.6011
G01 X65.2000 Y26.6110
G01 X65.2501 Y26.6347
G01 X65.2720 Y26.6458
G01 X65.2934 Y26.6579
G01 X65.3409 Y26.6864
G01 X65.3617 Y26.6995
G01 X65.3817 Y26.7136
G01 X65.4360 Y26.7541
G01 X65.4550 Y26.7696
G01 X65.5053 Y26.8150
G01 X65.5231 Y26.8319
G01 X65.5400 Y26.8497
G01 X65.5772 Y26.8908
G01 X65.5933 Y26.9094
G01 X65.6084 Y26.9287
G01 X65.6486 Y26.9832
G01 X65.6622 Y27.0036
G01 X65.6971 Y27.0616
G01 X65.7092 Y27.0830
G01 X65.7203 Y27.1049
G01 X65.7440 Y27.1550
G01 X65.7539 Y27.1774
G01 X65.7628 Y27.2003
G01 X65.7854 Y27.2641
G01 X65.7891 Y27.2758
G01 X65.7957 Y27.2995
G01 X65.8092 Y27.3533
G01 X65.8145 Y27.3772
G01 X65.8187 Y27.4014
G01 X65.8269 Y27.4563
G01 X65.8299 Y27.4806
G01 X65.8317 Y27.5051
G01 X65.8344 Y27.5605
G01 X65.8350 Y27.5850
G01 X65.8348 Y30.4673
G01 X65.8317 Y30.5349
G01 X65.8299 Y30.5594
G01 X65.8269 Y30.5837
G01 X65.8168 Y30.6507
G01 X65.8145 Y30.6628
G01 X65.8092 Y30.6867
G01 X65.7926 Y30.7524
G01 X65.7854 Y30.7759
G01 X65.7703 Y30.8187
G01 X65.7701 Y32.5333
G01 X65.7672 Y32.5946
G01 X65.7654 Y32.6190
G01 X65.7624 Y32.6434
G01 X65.7552 Y32.6920
G01 X65.7510 Y32.7161
G01 X65.7457 Y32.7401
G01 X65.7306 Y32.7996
G01 X65.7235 Y32.8231
G01 X65.6987 Y32.8924
G01 X65.6941 Y32.9038
G01 X65.6842 Y32.9262
G01 X65.6632 Y32.9706
G01 X65.6521 Y32.9925
G01 X65.6400 Y33.0139
G01 X65.6148 Y33.0560
G01 X65.6017 Y33.0767
G01 X65.5947 Y33.0868
G01 X65.5509 Y33.1460
G01 X65.5432 Y33.1556
G01 X65.5272 Y33.1741
G01 X65.4859 Y33.2195
G01 X63.2303 Y35.4753
G01 X63.2303 Y37.7613
G01 X63.2454 Y37.8041
G01 X63.2526 Y37.8276
G01 X63.2692 Y37.8933
G01 X63.2745 Y37.9172
G01 X63.2768 Y37.9293
G01 X63.2869 Y37.9963
G01 X63.2899 Y38.0206
G01 X63.2917 Y38.0451
G01 X63.2944 Y38.1005
G01 X63.2950 Y38.1250
G01 X63.2950 Y40.9950
G01 X63.2944 Y41.0195
G01 X63.2917 Y41.0749
G01 X63.2899 Y41.0994
G01 X63.2869 Y41.1237
G01 X63.2768 Y41.1907
G01 X63.2720 Y41.2148
G01 X63.2692 Y41.2267
G01 X63.2526 Y41.2924
G01 X63.2454 Y41.3159
G01 X63.2303 Y41.3587
G01 X63.2303 Y43.0610
G01 X63.2296 Y43.0855
G01 X63.2272 Y43.1346
G01 X63.2254 Y43.1590
G01 X63.2224 Y43.1834
G01 X63.2133 Y43.2441
G01 X63.2085 Y43.2681
G01 X63.1937 Y43.3277
G01 X63.1872 Y43.3514
G01 X63.1795 Y43.3747
G01 X63.1587 Y43.4324
G01 X63.1493 Y43.4551
G01 X63.1442 Y43.4662
G01 X63.1232 Y43.5106
G01 X63.1121 Y43.5325
G01 X63.1062 Y43.5433
G01 X63.0925 Y43.5665
G01 X63.0748 Y43.5960
G01 X63.0617 Y43.6167
G01 X63.0475 Y43.6368
G01 X63.0183 Y43.6762
G01 X63.0032 Y43.6956
G01 X62.9872 Y43.7141
G01 X62.9542 Y43.7505
G01 X62.9373 Y43.7683
G01 X57.9135 Y48.7919
G01 X57.8681 Y48.8332
G01 X57.8496 Y48.8492
G01 X57.8302 Y48.8643
G01 X57.7908 Y48.8935
G01 X57.7707 Y48.9077
G01 X57.7500 Y48.9208
G01 X57.7079 Y48.9460
G01 X57.6865 Y48.9581
G01 X57.6646 Y48.9692
G01 X57.6202 Y48.9902
G01 X57.5978 Y49.0001
G01 X57.5749 Y49.0089
G01 X57.5171 Y49.0295
G01 X57.4936 Y49.0366
G01 X57.4341 Y49.0517
G01 X57.4101 Y49.0570
G01 X57.3860 Y49.0612
G01 X57.3374 Y49.0684
G01 X57.3130 Y49.0714
G01 X57.2886 Y49.0732
G01 X57.2395 Y49.0756
G01 X57.2150 Y49.0763
G01 X35.4030 Y49.0763
G01 X35.3785 Y49.0756
G01 X35.3294 Y49.0732
G01 X35.3050 Y49.0714
G01 X35.2806 Y49.0684
G01 X35.2199 Y49.0593
G01 X35.1959 Y49.0545
G01 X35.1363 Y49.0397
G01 X35.1126 Y49.0332
G01 X35.0893 Y49.0255
G01 X35.0431 Y49.0089
G01 X35.0202 Y49.0001
G01 X34.9978 Y48.9902
G01 X34.9534 Y48.9692
G01 X34.9315 Y48.9581
G01 X34.9101 Y48.9460
G01 X34.8680 Y48.9208
G01 X34.8473 Y48.9077
G01 X34.8272 Y48.8935
G01 X34.7780 Y48.8569
G01 X34.7591 Y48.8413
G01 X34.7499 Y48.8332
G01 X34.7135 Y48.8002
G01 X34.6957 Y48.7833
G01 X33.8617 Y47.9493
G01 X33.8448 Y47.9315
G01 X33.8118 Y47.8951
G01 X33.7958 Y47.8766
G01 X33.7881 Y47.8670
G01 X33.7515 Y47.8178
G01 X33.7373 Y47.7977
G01 X33.7242 Y47.7770
G01 X33.6990 Y47.7349
G01 X33.6869 Y47.7135
G01 X33.6812 Y47.7026
G01 X33.6548 Y47.6472
G01 X33.6449 Y47.6248
G01 X33.6361 Y47.6019
G01 X33.6195 Y47.5557
G01 X33.6118 Y47.5324
G01 X33.6053 Y47.5087
G01 X33.5933 Y47.4611
G01 X33.5880 Y47.4371
G01 X33.5838 Y47.4130
G01 X33.5749 Y47.3522
G01 X33.5725 Y47.3278
G01 X33.5694 Y47.2665
G01 X33.5687 Y47.2420
G01 X33.5687 Y30.4800
G00 Z2.0000
G00 X36.5700 Y34.0200
G01 F60.00
G01 Z-0.1500
G01 F300.00
G01 X36.5455 Y34.0194
G01 X36.4965 Y34.0170
G01 X36.4720 Y34.0152
G01 X36.4476 Y34.0122
G01 X36.3991 Y34.0050
G01 X36.3749 Y34.0008
G01 X36.3510 Y33.9954
G01 X36.3034 Y33.9835
G01 X36.2797 Y33.9769
G01 X36.2564 Y33.9692
G01 X36.2102 Y33.9527
G01 X36.1873 Y33.9439
G01 X36.1649 Y33.9339
G01 X36.1095 Y33.9076
G01 X36.0879 Y33.8960
G01 X36.0773 Y33.8898
G01 X36.0247 Y33.8582
G01 X36.0043 Y33.8445
G01 X35.9452 Y33.8007
G01 X35.9262 Y33.7851
G01 X35.8807 Y33.7440
G01 X35.8629 Y33.7271
G01 X35.8460 Y33.7093
G01 X35.8130 Y33.6730
G01 X35.7970 Y33.6544
G01 X35.7819 Y33.6350
G01 X35.7527 Y33.5956
G01 X35.7385 Y33.5756
G01 X35.7254 Y33.5548
G01 X35.6940 Y33.5021
G01 X35.6824 Y33.4805
G01 X35.6510 Y33.4140
G01 X35.6416 Y33.3913
G01 X35.6208 Y33.3336
G01 X35.6168 Y33.3220
G01 X35.6096 Y33.2985
G01 X35.5946 Y33.2390
G01 X35.5892 Y33.2151
G01 X35.5850 Y33.1909
G01 X35.5778 Y33.1424
G01 X35.5748 Y33.1180
G01 X35.5730 Y33.0935
G01 X35.5706 Y33.0445
G01 X35.5700 Y33.0200
G01 X35.5706 Y32.9955
G01 X35.5730 Y32.9465
G01 X35.5748 Y32.9220
G01 X35.5778 Y32.8976
G01 X35.5850 Y32.8491
G01 X35.5892 Y32.8249
G01 X35.5946 Y32.8010
G01 X35.6065 Y32.7534
G01 X35.6131 Y32.7297
G01 X35.6208 Y32.7064
G01 X35.6373 Y32.6602
G01 X35.6461 Y32.6373
G01 X35.6561 Y32.6149
G01 X35.6770 Y32.5705
G01 X35.6881 Y32.5486
G01 X35.7002 Y32.5273
G01 X35.7254 Y32.4852
G01 X35.7385 Y32.4644
G01 X35.7455 Y32.4543
G01 X35.7819 Y32.4050
G01 X35.7970 Y32.3856
G01 X35.8130 Y32.3670
G01 X35.8543 Y32.3217
G01 X35.8717 Y32.3043
G01 X35.9262 Y32.2549
G01 X35.9452 Y32.2393
G01 X35.9944 Y32.2027
G01 X36.0144 Y32.1885
G01 X36.0352 Y32.1754
G01 X36.0773 Y32.1502
G01 X36.0986 Y32.1381
G01 X36.1205 Y32.1270
G01 X36.1649 Y32.1061
G01 X36.1873 Y32.0961
G01 X36.2102 Y32.0873
G01 X36.2680 Y32.0668
G01 X36.2915 Y32.0596
G01 X36.3510 Y32.0446
G01 X36.3749 Y32.0392
G01 X36.3991 Y32.0350
G01 X36.4476 Y32.0278
G01 X36.4720 Y32.0248
G01 X36.4965 Y32.0230
G01 X36.5455 Y32.0206
G01 X36.5700 Y32.0200
G01 X39.5700 Y32.0200
G01 X39.5945 Y32.0206
G01 X39.6435 Y32.0230
G01 X39.6680 Y32.0248
G01 X39.6924 Y32.0278
G01 X39.7409 Y32.0350
G01 X39.7651 Y32.0392
G01 X39.7771 Y32.0418
G01 X39.8366 Y32.0565
G01 X39.8603 Y32.0631
G01 X39.8836 Y32.0708
G01 X39.9413 Y32.0916
G01 X39.9640 Y32.1010
G01 X39.9751 Y32.1061
G01 X40.0195 Y32.1270
G01 X40.0414 Y32.1381
G01 X40.0627 Y32.1502
G01 X40.1153 Y32.1818
G01 X40.1357 Y32.1955
G01 X40.1850 Y32.2319
G01 X40.1948 Y32.2393
G01 X40.2138 Y32.2549
G01 X40.2593 Y32.2960
G01 X40.2771 Y32.3129
G01 X40.2940 Y32.3307
G01 X40.3270 Y32.3670
G01 X40.3430 Y32.3856
G01 X40.3507 Y32.3952
G01 X40.3873 Y32.4444
G01 X40.4015 Y32.4644
G01 X40.4146 Y32.4852
G01 X40.4460 Y32.5379
G01 X40.4519 Y32.5486
G01 X40.4630 Y32.5705
G01 X40.4839 Y32.6149
G01 X40.4939 Y32.6373
G01 X40.5027 Y32.6602
G01 X40.5232 Y32.7180
G01 X40.5304 Y32.7415
G01 X40.5482 Y32.8129
G01 X40.5530 Y32.8370
G01 X40.5638 Y32.9098
G01 X40.5662 Y32.9342
G01 X40.5698 Y33.0077
G01 X40.5698 Y33.0323
G01 X40.5662 Y33.1058
G01 X40.5638 Y33.1302
G01 X40.5530 Y33.2030
G01 X40.5482 Y33.2271
G01 X40.5304 Y33.2985
G01 X40.5232 Y33.3220
G01 X40.4984 Y33.3913
G01 X40.4890 Y33.4140
G01 X40.4576 Y33.4805
G01 X40.4460 Y33.5021
G01 X40.4082 Y33.5653
G01 X40.3945 Y33.5857
G01 X40.3507 Y33.6448
G01 X40.3351 Y33.6638
G01 X40.2857 Y33.7183
G01 X40.2683 Y33.7357
G01 X40.2138 Y33.7851
G01 X40.1948 Y33.8007
G01 X40.1357 Y33.8445
G01 X40.1153 Y33.8582
G01 X40.0521 Y33.8960
G01 X40.0305 Y33.9076
G01 X39.9640 Y33.9390
G01 X39.9413 Y33.9484
G01 X39.8720 Y33.9732
G01 X39.8485 Y33.9804
G01 X39.7890 Y33.9954
G01 X39.7651 Y34.0008
G01 X39.7409 Y34.0050
G01 X39.6924 Y34.0122
G01 X39.6680 Y34.0152
G01 X39.6435 Y34.0170
G01 X39.5823 Y34.0198
G01 X36.5700 Y34.0200
G00 Z2.0000
G00 X35.5706 Y23.2375
G01 F60.00
G01 Z-0.1500
G01 F300.00
G01 X35.5700 Y23.2130
G01 X35.5700 Y22.5070
G01 X35.5706 Y22.4825
G01 X35.5721 Y22.4558
G01 X35.5745 Y22.4314
G01 X35.5782 Y22.4050
G01 X35.5824 Y22.3808
G01 X35.5878 Y22.3568
G01 X35.5944 Y22.3310
G01 X35.5979 Y22.3192
G01 X35.6056 Y22.2959
G01 X35.6147 Y22.2708
G01 X35.6241 Y22.2481
G01 X35.6292 Y22.2370
G01 X35.6407 Y22.2129
G01 X35.6464 Y22.2020
G01 X35.6585 Y22.1807
G01 X35.6723 Y22.1578
G01 X35.6790 Y22.1475
G01 X35.6932 Y22.1275
G01 X35.7092 Y22.1061
G01 X35.7169 Y22.0965
G01 X35.7329 Y22.0780
G01 X35.7509 Y22.0583
G01 X35.7683 Y22.0409
G01 X35.7773 Y22.0326
G01 X35.7972 Y22.0148
G01 X35.8065 Y22.0069
G01 X35.8161 Y21.9992
G01 X35.8375 Y21.9832
G01 X35.8575 Y21.9690
G01 X35.8678 Y21.9623
G01 X35.8907 Y21.9485
G01 X35.9120 Y21.9364
G01 X35.9229 Y21.9307
G01 X35.9470 Y21.9192
G01 X35.9581 Y21.9141
G01 X35.9808 Y21.9047
G01 X36.0059 Y21.8956
G01 X36.0292 Y21.8879
G01 X36.0410 Y21.8844
G01 X36.0668 Y21.8778
G01 X36.0908 Y21.8724
G01 X36.1028 Y21.8702
G01 X36.1292 Y21.8661
G01 X36.1536 Y21.8631
G01 X36.1658 Y21.8621
G01 X36.1925 Y21.8606
G01 X36.2170 Y21.8600
G01 X39.9230 Y21.8600
G01 X39.9353 Y21.8602
G01 X39.9619 Y21.8613
G01 X39.9742 Y21.8621
G01 X39.9986 Y21.8645
G01 X40.0250 Y21.8682
G01 X40.0492 Y21.8724
G01 X40.0732 Y21.8778
G01 X40.0990 Y21.8844
G01 X40.1108 Y21.8879
G01 X40.1341 Y21.8956
G01 X40.1592 Y21.9047
G01 X40.1819 Y21.9141
G01 X40.2061 Y21.9254
G01 X40.2280 Y21.9364
G01 X40.2493 Y21.9485
G01 X40.2722 Y21.9623
G01 X40.2926 Y21.9760
G01 X40.3141 Y21.9918
G01 X40.3335 Y22.0069
G01 X40.3520 Y22.0229
G01 X40.3717 Y22.0409
G01 X40.3891 Y22.0583
G01 X40.4071 Y22.0780
G01 X40.4231 Y22.0965
G01 X40.4382 Y22.1159
G01 X40.4540 Y22.1374
G01 X40.4677 Y22.1578
G01 X40.4815 Y22.1807
G01 X40.4936 Y22.2020
G01 X40.5046 Y22.2239
G01 X40.5159 Y22.2481
G01 X40.5253 Y22.2708
G01 X40.5344 Y22.2959
G01 X40.5421 Y22.3192
G01 X40.5487 Y22.3428
G01 X40.5550 Y22.3688
G01 X40.5598 Y22.3928
G01 X40.5639 Y22.4192
G01 X40.5669 Y22.4436
G01 X40.5679 Y22.4558
G01 X40.5694 Y22.4825
G01 X40.5700 Y22.5070
G01 X40.5699 Y23.2245
G01 X40.5688 Y23.2497
G01 X40.5672 Y23.2727
G01 X40.5627 Y23.3091
G01 X40.5590 Y23.3319
G01 X40.5542 Y23.3545
G01 X40.5453 Y23.3901
G01 X40.5385 Y23.4121
G01 X40.5304 Y23.4359
G01 X40.5263 Y23.4467
G01 X40.5175 Y23.4681
G01 X40.5072 Y23.4910
G01 X40.4969 Y23.5117
G01 X40.4848 Y23.5337
G01 X40.4731 Y23.5536
G01 X40.4605 Y23.5730
G01 X40.4462 Y23.5936
G01 X40.4323 Y23.6120
G01 X40.4163 Y23.6315
G01 X40.4011 Y23.6489
G01 X40.3933 Y23.6573
G01 X40.3756 Y23.6752
G01 X40.3589 Y23.6911
G01 X40.3310 Y23.7150
G01 X40.3129 Y23.7293
G01 X40.3036 Y23.7362
G01 X40.2830 Y23.7505
G01 X40.2636 Y23.7631
G01 X40.2437 Y23.7748
G01 X40.2217 Y23.7869
G01 X40.2010 Y23.7972
G01 X40.1905 Y23.8020
G01 X40.1567 Y23.8163
G01 X40.1350 Y23.8242
G01 X40.1111 Y23.8320
G01 X40.0889 Y23.8383
G01 X40.0645 Y23.8442
G01 X40.0419 Y23.8490
G01 X40.0305 Y23.8510
G01 X40.0056 Y23.8546
G01 X39.9827 Y23.8572
G01 X39.9461 Y23.8595
G01 X39.9230 Y23.8600
G01 X36.2170 Y23.8600
G01 X36.1925 Y23.8594
G01 X36.1658 Y23.8579
G01 X36.1414 Y23.8555
G01 X36.1292 Y23.8539
G01 X36.1028 Y23.8498
G01 X36.0788 Y23.8450
G01 X36.0410 Y23.8356
G01 X36.0175 Y23.8284
G01 X35.9923 Y23.8196
G01 X35.9694 Y23.8107
G01 X35.9581 Y23.8059
G01 X35.9339 Y23.7946
G01 X35.9120 Y23.7836
G01 X35.8907 Y23.7715
G01 X35.8678 Y23.7577
G01 X35.8575 Y23.7510
G01 X35.8375 Y23.7368
G01 X35.8161 Y23.7208
G01 X35.7972 Y23.7052
G01 X35.7683 Y23.6791
G01 X35.7509 Y23.6617
G01 X35.7329 Y23.6420
G01 X35.7169 Y23.6235
G01 X35.7018 Y23.6041
G01 X35.6860 Y23.5826
G01 X35.6723 Y23.5622
G01 X35.6585 Y23.5393
G01 X35.6464 Y23.5180
G01 X35.6354 Y23.4961
G01 X35.6241 Y23.4719
G01 X35.6193 Y23.4606
G01 X35.6147 Y23.4492
G01 X35.6056 Y23.4241
G01 X35.5979 Y23.4008
G01 X35.5913 Y23.3772
G01 X35.5850 Y23.3512
G01 X35.5802 Y23.3272
G01 X35.5745 Y23.2886
G01 X35.5721 Y23.2642
G01 X35.5706 Y23.2375
G00 Z2.0000
G00 X31.0257 Y23.5560
G01 F60.00
G01 Z-0.1500
G01 F300.00
G01 X31.0264 Y23.5315
G01 X31.0288 Y23.4824
G01 X31.0306 Y23.4580
G01 X31.0336 Y23.4336
G01 X31.0408 Y23.3850
G01 X31.0450 Y23.3609
G01 X31.0503 Y23.3369
G01 X31.0623 Y23.2893
G01 X31.0688 Y23.2656
G01 X31.0765 Y23.2423
G01 X31.0931 Y23.1961
G01 X31.1019 Y23.1732
G01 X31.1118 Y23.1508
G01 X31.1328 Y23.1064
G01 X31.1439 Y23.0845
G01 X31.1560 Y23.0631
G01 X31.1812 Y23.0210
G01 X31.1943 Y23.0003
G01 X31.2085 Y22.9802
G01 X31.2377 Y22.9408
G01 X31.2528 Y22.9214
G01 X31.2688 Y22.9029
G01 X31.3018 Y22.8665
G01 X31.3187 Y22.8487
G01 X34.6077 Y19.5597
G01 X34.6255 Y19.5428
G01 X34.6619 Y19.5098
G01 X34.6804 Y19.4938
G01 X34.6998 Y19.4787
G01 X34.7392 Y19.4495
G01 X34.7593 Y19.4353
G01 X34.7800 Y19.4222
G01 X34.8221 Y19.3970
G01 X34.8435 Y19.3849
G01 X34.8654 Y19.3738
G01 X34.9209 Y19.3477
G01 X34.9436 Y19.3383
G01 X34.9551 Y19.3341
G01 X35.0129 Y19.3135
G01 X35.0364 Y19.3064
G01 X35.0959 Y19.2913
G01 X35.1199 Y19.2860
G01 X35.1440 Y19.2818
G01 X35.2048 Y19.2729
G01 X35.2292 Y19.2705
G01 X35.2905 Y19.2674
G01 X35.3150 Y19.2667
G01 X40.4450 Y19.2667
G01 X40.4695 Y19.2674
G01 X40.5308 Y19.2705
G01 X40.5552 Y19.2729
G01 X40.5674 Y19.2746
G01 X40.6160 Y19.2818
G01 X40.6401 Y19.2860
G01 X40.6641 Y19.2913
G01 X40.7117 Y19.3033
G01 X40.7354 Y19.3098
