( pcb2gcode 2.4.0 )
( Software-independent Gcode )
( This file uses a mill head of 1.00000mm to drill the 1 hole sizes. )
( Hole sizes: [3.1242mm] )

G94       (Millimeters per minute feed rate.)
G21       (Units == Millimeters.)
G91.1     (Incremental arc distance mode.)
G90       (Absolute coordinates.)
S10000    (RPM spindle speed.)

G01 F240.00000 (Feedrate)
G00 Z15.00000 (Retract)
T1
M5        (Spindle stop.)
G04 P1.00000
(MSG, Change tool bit to drill size 1.00000mm)
M6        (Tool change.)
M0        (Temporary machine stop.)
M3        (Spindle on clockwise.)
G04 P1.00000
G00 Z10.00000

G0 X25.06256 Y2.99974
G1 Z0.07500 F120.00000
G1 F240.00000
G2 X25.06256 Y2.99974 Z-0.00000 I-1.06210 J0.00000
G2 X25.06256 Y2.99974 Z-0.07500 I-1.06210 J0.00000
G2 X25.06256 Y2.99974 Z-0.15000 I-1.06210 J0.00000
G2 X25.06256 Y2.99974 Z-0.22500 I-1.06210 J0.00000
G2 X25.06256 Y2.99974 Z-0.30000 I-1.06210 J0.00000
G2 X25.06256 Y2.99974 Z-0.37500 I-1.06210 J0.00000
G2 X25.06256 Y2.99974 Z-0.45000 I-1.06210 J0.00000
G2 X25.06256 Y2.99974 Z-0.52500 I-1.06210 J0.00000
G2 X25.06256 Y2.99974 Z-0.60000 I-1.06210 J0.00000
G2 X25.06256 Y2.99974 Z-0.67500 I-1.06210 J0.00000
G2 X25.06256 Y2.99974 Z-0.75000 I-1.06210 J0.00000
G2 X25.06256 Y2.99974 Z-0.82500 I-1.06210 J0.00000
G2 X25.06256 Y2.99974 Z-0.90000 I-1.06210 J0.00000
G2 X25.06256 Y2.99974 Z-0.97500 I-1.06210 J0.00000
G2 X25.06256 Y2.99974 Z-1.05000 I-1.06210 J0.00000
G2 X25.06256 Y2.99974 Z-1.12500 I-1.06210 J0.00000
G2 X25.06256 Y2.99974 Z-1.20000 I-1.06210 J0.00000
G2 X25.06256 Y2.99974 Z-1.27500 I-1.06210 J0.00000
G2 X25.06256 Y2.99974 Z-1.35000 I-1.06210 J0.00000
G2 X25.06256 Y2.99974 Z-1.42500 I-1.06210 J0.00000
G2 X25.06256 Y2.99974 Z-1.50000 I-1.06210 J0.00000
G2 X25.06256 Y2.99974 Z-1.57500 I-1.06210 J0.00000
G2 X25.06256 Y2.99974 Z-1.65000 I-1.06210 J0.00000
G2 X25.06256 Y2.99974 Z-1.72500 I-1.06210 J0.00000
G2 X25.06256 Y2.99974 Z-1.80000 I-1.06210 J0.00000
G2 X25.06256 Y2.99974 Z-1.87500 I-1.06210 J0.00000
G2 X25.06256 Y2.99974 Z-1.95000 I-1.06210 J0.00000
G2 X25.06256 Y2.99974 Z-2.02500 I-1.06210 J0.00000
G2 X25.06256 Y2.99974 Z-2.10000 I-1.06210 J0.00000
G2 X25.06256 Y2.99974 Z-2.17500 I-1.06210 J0.00000
G2 X25.06256 Y2.99974 Z-2.25000 I-1.06210 J0.00000
G2 X25.06256 Y2.99974 Z-2.32500 I-1.06210 J0.00000
G2 X25.06256 Y2.99974 Z-2.40000 I-1.06210 J0.00000
G2 X25.06256 Y2.99974 Z-2.47500 I-1.06210 J0.00000
G2 X25.06256 Y2.99974 Z-2.55000 I-1.06210 J0.00000
G2 X25.06256 Y2.99974 Z-2.62500 I-1.06210 J0.00000
G2 X25.06256 Y2.99974 Z-2.70000 I-1.06210 J0.00000
G2 X25.06256 Y2.99974 Z-2.77500 I-1.06210 J0.00000
G2 X25.06256 Y2.99974 Z-2.85000 I-1.06210 J0.00000
G2 X25.06256 Y2.99974 Z-2.92500 I-1.06210 J0.00000
G2 X25.06256 Y2.99974 Z-3.00000 I-1.06210 J0.00000
G2 X25.06256 Y2.99974 Z-3.07500 I-1.06210 J0.00000
G2 X25.06256 Y2.99974 Z-3.15000 I-1.06210 J0.00000
G2 X25.06256 Y2.99974 Z-3.22500 I-1.06210 J0.00000
G2 X25.06256 Y2.99974 Z-3.30000 I-1.06210 J0.00000
G2 X25.06256 Y2.99974 Z-3.37500 I-1.06210 J0.00000
G2 X25.06256 Y2.99974 Z-3.45000 I-1.06210 J0.00000
G2 X25.06256 Y2.99974 Z-3.52500 I-1.06210 J0.00000
G2 X25.06256 Y2.99974 Z-3.60000 I-1.06210 J0.00000
G2 X25.06256 Y2.99974 Z-3.67500 I-1.06210 J0.00000
G2 X25.06256 Y2.99974 Z-3.75000 I-1.06210 J0.00000
G2 X25.06256 Y2.99974 Z-3.82500 I-1.06210 J0.00000
G2 X25.06256 Y2.99974 Z-3.90000 I-1.06210 J0.00000
G2 X25.06256 Y2.99974 Z-3.97500 I-1.06210 J0.00000
G2 X25.06256 Y2.99974 Z-4.05000 I-1.06210 J0.00000
G2 X25.06256 Y2.99974 Z-4.12500 I-1.06210 J0.00000
G2 X25.06256 Y2.99974 Z-4.20000 I-1.06210 J0.00000
G2 X25.06256 Y2.99974 Z-4.27500 I-1.06210 J0.00000
G2 X25.06256 Y2.99974 Z-4.35000 I-1.06210 J0.00000
G2 X25.06256 Y2.99974 Z-4.42500 I-1.06210 J0.00000
G2 X25.06256 Y2.99974 Z-4.50000 I-1.06210 J0.00000
G2 X25.06256 Y2.99974 Z-4.57500 I-1.06210 J0.00000
G2 X25.06256 Y2.99974 Z-4.65000 I-1.06210 J0.00000
G2 X25.06256 Y2.99974 Z-4.72500 I-1.06210 J0.00000
G2 X25.06256 Y2.99974 Z-4.80000 I-1.06210 J0.00000
G2 X25.06256 Y2.99974 Z-4.87500 I-1.06210 J0.00000
G2 X25.06256 Y2.99974 Z-4.95000 I-1.06210 J0.00000
G2 X25.06256 Y2.99974 Z-5.02500 I-1.06210 J0.00000
G2 X25.06256 Y2.99974 Z-5.10000 I-1.06210 J0.00000
G2 X25.06256 Y2.99974 Z-5.17500 I-1.06210 J0.00000
G2 X25.06256 Y2.99974 Z-5.25000 I-1.06210 J0.00000
G2 X25.06256 Y2.99974 Z-5.32500 I-1.06210 J0.00000
G2 X25.06256 Y2.99974 Z-5.40000 I-1.06210 J0.00000
G2 X25.06256 Y2.99974 Z-5.47500 I-1.06210 J0.00000
G2 X25.06256 Y2.99974 Z-5.55000 I-1.06210 J0.00000
G2 X25.06256 Y2.99974 Z-5.62500 I-1.06210 J0.00000
G2 X25.06256 Y2.99974 Z-5.70000 I-1.06210 J0.00000
G2 X25.06256 Y2.99974 Z-5.77500 I-1.06210 J0.00000
G2 X25.06256 Y2.99974 Z-5.85000 I-1.06210 J0.00000
G2 X25.06256 Y2.99974 Z-5.92500 I-1.06210 J0.00000
G2 X25.06256 Y2.99974 Z-6.00000 I-1.06210 J0.00000
G2 X25.06256 Y2.99974 I-1.06210 J0.00000
G1 Z10.00000 F120.00000

G0 X25.06256 Y104.95026
G1 Z0.07500 F120.00000
G1 F240.00000
G2 X25.06256 Y104.95026 Z-0.00000 I-1.06210 J0.00000
G2 X25.06256 Y104.95026 Z-0.07500 I-1.06210 J0.00000
G2 X25.06256 Y104.95026 Z-0.15000 I-1.06210 J0.00000
G2 X25.06256 Y104.95026 Z-0.22500 I-1.06210 J0.00000
G2 X25.06256 Y104.95026 Z-0.30000 I-1.06210 J0.00000
G2 X25.06256 Y104.95026 Z-0.37500 I-1.06210 J0.00000
G2 X25.06256 Y104.95026 Z-0.45000 I-1.06210 J0.00000
G2 X25.06256 Y104.95026 Z-0.52500 I-1.06210 J0.00000
G2 X25.06256 Y104.95026 Z-0.60000 I-1.06210 J0.00000
G2 X25.06256 Y104.95026 Z-0.67500 I-1.06210 J0.00000
G2 X25.06256 Y104.95026 Z-0.75000 I-1.06210 J0.00000
G2 X25.06256 Y104.95026 Z-0.82500 I-1.06210 J0.00000
G2 X25.06256 Y104.95026 Z-0.90000 I-1.06210 J0.00000
G2 X25.06256 Y104.95026 Z-0.97500 I-1.06210 J0.00000
G2 X25.06256 Y104.95026 Z-1.05000 I-1.06210 J0.00000
G2 X25.06256 Y104.95026 Z-1.12500 I-1.06210 J0.00000
G2 X25.06256 Y104.95026 Z-1.20000 I-1.06210 J0.00000
G2 X25.06256 Y104.95026 Z-1.27500 I-1.06210 J0.00000
G2 X25.06256 Y104.95026 Z-1.35000 I-1.06210 J0.00000
G2 X25.06256 Y104.95026 Z-1.42500 I-1.06210 J0.00000
G2 X25.06256 Y104.95026 Z-1.50000 I-1.06210 J0.00000
G2 X25.06256 Y104.95026 Z-1.57500 I-1.06210 J0.00000
G2 X25.06256 Y104.95026 Z-1.65000 I-1.06210 J0.00000
G2 X25.06256 Y104.95026 Z-1.72500 I-1.06210 J0.00000
G2 X25.06256 Y104.95026 Z-1.80000 I-1.06210 J0.00000
G2 X25.06256 Y104.95026 Z-1.87500 I-1.06210 J0.00000
G2 X25.06256 Y104.95026 Z-1.95000 I-1.06210 J0.00000
G2 X25.06256 Y104.95026 Z-2.02500 I-1.06210 J0.00000
G2 X25.06256 Y104.95026 Z-2.10000 I-1.06210 J0.00000
G2 X25.06256 Y104.95026 Z-2.17500 I-1.06210 J0.00000
G2 X25.06256 Y104.95026 Z-2.25000 I-1.06210 J0.00000
G2 X25.06256 Y104.95026 Z-2.32500 I-1.06210 J0.00000
G2 X25.06256 Y104.95026 Z-2.40000 I-1.06210 J0.00000
G2 X25.06256 Y104.95026 Z-2.47500 I-1.06210 J0.00000
G2 X25.06256 Y104.95026 Z-2.55000 I-1.06210 J0.00000
G2 X25.06256 Y104.95026 Z-2.62500 I-1.06210 J0.00000
G2 X25.06256 Y104.95026 Z-2.70000 I-1.06210 J0.00000
G2 X25.06256 Y104.95026 Z-2.77500 I-1.06210 J0.00000
G2 X25.06256 Y104.95026 Z-2.85000 I-1.06210 J0.00000
G2 X25.06256 Y104.95026 Z-2.92500 I-1.06210 J0.00000
G2 X25.06256 Y104.95026 Z-3.00000 I-1.06210 J0.00000
G2 X25.06256 Y104.95026 Z-3.07500 I-1.06210 J0.00000
G2 X25.06256 Y104.95026 Z-3.15000 I-1.06210 J0.00000
G2 X25.06256 Y104.95026 Z-3.22500 I-1.06210 J0.00000
G2 X25.06256 Y104.95026 Z-3.30000 I-1.06210 J0.00000
G2 X25.06256 Y104.95026 Z-3.37500 I-1.06210 J0.00000
G2 X25.06256 Y104.95026 Z-3.45000 I-1.06210 J0.00000
G2 X25.06256 Y104.95026 Z-3.52500 I-1.06210 J0.00000
G2 X25.06256 Y104.95026 Z-3.60000 I-1.06210 J0.00000
G2 X25.06256 Y104.95026 Z-3.67500 I-1.06210 J0.00000
G2 X25.06256 Y104.95026 Z-3.75000 I-1.06210 J0.00000
G2 X25.06256 Y104.95026 Z-3.82500 I-1.06210 J0.00000
G2 X25.06256 Y104.95026 Z-3.90000 I-1.06210 J0.00000
G2 X25.06256 Y104.95026 Z-3.97500 I-1.06210 J0.00000
G2 X25.06256 Y104.95026 Z-4.05000 I-1.06210 J0.00000
G2 X25.06256 Y104.95026 Z-4.12500 I-1.06210 J0.00000
G2 X25.06256 Y104.95026 Z-4.20000 I-1.06210 J0.00000
G2 X25.06256 Y104.95026 Z-4.27500 I-1.06210 J0.00000
G2 X25.06256 Y104.95026 Z-4.35000 I-1.06210 J0.00000
G2 X25.06256 Y104.95026 Z-4.42500 I-1.06210 J0.00000
G2 X25.06256 Y104.95026 Z-4.50000 I-1.06210 J0.00000
G2 X25.06256 Y104.95026 Z-4.57500 I-1.06210 J0.00000
G2 X25.06256 Y104.95026 Z-4.65000 I-1.06210 J0.00000
G2 X25.06256 Y104.95026 Z-4.72500 I-1.06210 J0.00000
G2 X25.06256 Y104.95026 Z-4.80000 I-1.06210 J0.00000
G2 X25.06256 Y104.95026 Z-4.87500 I-1.06210 J0.00000
G2 X25.06256 Y104.95026 Z-4.95000 I-1.06210 J0.00000
G2 X25.06256 Y104.95026 Z-5.02500 I-1.06210 J0.00000
G2 X25.06256 Y104.95026 Z-5.10000 I-1.06210 J0.00000
G2 X25.06256 Y104.95026 Z-5.17500 I-1.06210 J0.00000
G2 X25.06256 Y104.95026 Z-5.25000 I-1.06210 J0.00000
G2 X25.06256 Y104.95026 Z-5.32500 I-1.06210 J0.00000
G2 X25.06256 Y104.95026 Z-5.40000 I-1.06210 J0.00000
G2 X25.06256 Y104.95026 Z-5.47500 I-1.06210 J0.00000
G2 X25.06256 Y104.95026 Z-5.55000 I-1.06210 J0.00000
G2 X25.06256 Y104.95026 Z-5.62500 I-1.06210 J0.00000
G2 X25.06256 Y104.95026 Z-5.70000 I-1.06210 J0.00000
G2 X25.06256 Y104.95026 Z-5.77500 I-1.06210 J0.00000
G2 X25.06256 Y104.95026 Z-5.85000 I-1.06210 J0.00000
G2 X25.06256 Y104.95026 Z-5.92500 I-1.06210 J0.00000
G2 X25.06256 Y104.95026 Z-6.00000 I-1.06210 J0.00000
G2 X25.06256 Y104.95026 I-1.06210 J0.00000
G1 Z10.00000 F120.00000

G0 X175.06226 Y2.99974
G1 Z0.07500 F120.00000
G1 F240.00000
G2 X175.06226 Y2.99974 Z-0.00000 I-1.06210 J0.00000
G2 X175.06226 Y2.99974 Z-0.07500 I-1.06210 J0.00000
G2 X175.06226 Y2.99974 Z-0.15000 I-1.06210 J0.00000
G2 X175.06226 Y2.99974 Z-0.22500 I-1.06210 J0.00000
G2 X175.06226 Y2.99974 Z-0.30000 I-1.06210 J0.00000
G2 X175.06226 Y2.99974 Z-0.37500 I-1.06210 J0.00000
G2 X175.06226 Y2.99974 Z-0.45000 I-1.06210 J0.00000
G2 X175.06226 Y2.99974 Z-0.52500 I-1.06210 J0.00000
G2 X175.06226 Y2.99974 Z-0.60000 I-1.06210 J0.00000
G2 X175.06226 Y2.99974 Z-0.67500 I-1.06210 J0.00000
G2 X175.06226 Y2.99974 Z-0.75000 I-1.06210 J0.00000
G2 X175.06226 Y2.99974 Z-0.82500 I-1.06210 J0.00000
G2 X175.06226 Y2.99974 Z-0.90000 I-1.06210 J0.00000
G2 X175.06226 Y2.99974 Z-0.97500 I-1.06210 J0.00000
G2 X175.06226 Y2.99974 Z-1.05000 I-1.06210 J0.00000
G2 X175.06226 Y2.99974 Z-1.12500 I-1.06210 J0.00000
G2 X175.06226 Y2.99974 Z-1.20000 I-1.06210 J0.00000
G2 X175.06226 Y2.99974 Z-1.27500 I-1.06210 J0.00000
G2 X175.06226 Y2.99974 Z-1.35000 I-1.06210 J0.00000
G2 X175.06226 Y2.99974 Z-1.42500 I-1.06210 J0.00000
G2 X175.06226 Y2.99974 Z-1.50000 I-1.06210 J0.00000
G2 X175.06226 Y2.99974 Z-1.57500 I-1.06210 J0.00000
G2 X175.06226 Y2.99974 Z-1.65000 I-1.06210 J0.00000
G2 X175.06226 Y2.99974 Z-1.72500 I-1.06210 J0.00000
G2 X175.06226 Y2.99974 Z-1.80000 I-1.06210 J0.00000
G2 X175.06226 Y2.99974 Z-1.87500 I-1.06210 J0.00000
G2 X175.06226 Y2.99974 Z-1.95000 I-1.06210 J0.00000
G2 X175.06226 Y2.99974 Z-2.02500 I-1.06210 J0.00000
G2 X175.06226 Y2.99974 Z-2.10000 I-1.06210 J0.00000
G2 X175.06226 Y2.99974 Z-2.17500 I-1.06210 J0.00000
G2 X175.06226 Y2.99974 Z-2.25000 I-1.06210 J0.00000
G2 X175.06226 Y2.99974 Z-2.32500 I-1.06210 J0.00000
G2 X175.06226 Y2.99974 Z-2.40000 I-1.06210 J0.00000
G2 X175.06226 Y2.99974 Z-2.47500 I-1.06210 J0.00000
G2 X175.06226 Y2.99974 Z-2.55000 I-1.06210 J0.00000
G2 X175.06226 Y2.99974 Z-2.62500 I-1.06210 J0.00000
G2 X175.06226 Y2.99974 Z-2.70000 I-1.06210 J0.00000
G2 X175.06226 Y2.99974 Z-2.77500 I-1.06210 J0.00000
G2 X175.06226 Y2.99974 Z-2.85000 I-1.06210 J0.00000
G2 X175.06226 Y2.99974 Z-2.92500 I-1.06210 J0.00000
G2 X175.06226 Y2.99974 Z-3.00000 I-1.06210 J0.00000
G2 X175.06226 Y2.99974 Z-3.07500 I-1.06210 J0.00000
G2 X175.06226 Y2.99974 Z-3.15000 I-1.06210 J0.00000
G2 X175.06226 Y2.99974 Z-3.22500 I-1.06210 J0.00000
G2 X175.06226 Y2.99974 Z-3.30000 I-1.06210 J0.00000
G2 X175.06226 Y2.99974 Z-3.37500 I-1.06210 J0.00000
G2 X175.06226 Y2.99974 Z-3.45000 I-1.06210 J0.00000
G2 X175.06226 Y2.99974 Z-3.52500 I-1.06210 J0.00000
G2 X175.06226 Y2.99974 Z-3.60000 I-1.06210 J0.00000
G2 X175.06226 Y2.99974 Z-3.67500 I-1.06210 J0.00000
G2 X175.06226 Y2.99974 Z-3.75000 I-1.06210 J0.00000
G2 X175.06226 Y2.99974 Z-3.82500 I-1.06210 J0.00000
G2 X175.06226 Y2.99974 Z-3.90000 I-1.06210 J0.00000
G2 X175.06226 Y2.99974 Z-3.97500 I-1.06210 J0.00000
G2 X175.06226 Y2.99974 Z-4.05000 I-1.06210 J0.00000
G2 X175.06226 Y2.99974 Z-4.12500 I-1.06210 J0.00000
G2 X175.06226 Y2.99974 Z-4.20000 I-1.06210 J0.00000
G2 X175.06226 Y2.99974 Z-4.27500 I-1.06210 J0.00000
G2 X175.06226 Y2.99974 Z-4.35000 I-1.06210 J0.00000
G2 X175.06226 Y2.99974 Z-4.42500 I-1.06210 J0.00000
G2 X175.06226 Y2.99974 Z-4.50000 I-1.06210 J0.00000
G2 X175.06226 Y2.99974 Z-4.57500 I-1.06210 J0.00000
G2 X175.06226 Y2.99974 Z-4.65000 I-1.06210 J0.00000
G2 X175.06226 Y2.99974 Z-4.72500 I-1.06210 J0.00000
G2 X175.06226 Y2.99974 Z-4.80000 I-1.06210 J0.00000
G2 X175.06226 Y2.99974 Z-4.87500 I-1.06210 J0.00000
G2 X175.06226 Y2.99974 Z-4.95000 I-1.06210 J0.00000
G2 X175.06226 Y2.99974 Z-5.02500 I-1.06210 J0.00000
G2 X175.06226 Y2.99974 Z-5.10000 I-1.06210 J0.00000
G2 X175.06226 Y2.99974 Z-5.17500 I-1.06210 J0.00000
G2 X175.06226 Y2.99974 Z-5.25000 I-1.06210 J0.00000
G2 X175.06226 Y2.99974 Z-5.32500 I-1.06210 J0.00000
G2 X175.06226 Y2.99974 Z-5.40000 I-1.06210 J0.00000
G2 X175.06226 Y2.99974 Z-5.47500 I-1.06210 J0.00000
G2 X175.06226 Y2.99974 Z-5.55000 I-1.06210 J0.00000
G2 X175.06226 Y2.99974 Z-5.62500 I-1.06210 J0.00000
G2 X175.06226 Y2.99974 Z-5.70000 I-1.06210 J0.00000
G2 X175.06226 Y2.99974 Z-5.77500 I-1.06210 J0.00000
G2 X175.06226 Y2.99974 Z-5.85000 I-1.06210 J0.00000
G2 X175.06226 Y2.99974 Z-5.92500 I-1.06210 J0.00000
G2 X175.06226 Y2.99974 Z-6.00000 I-1.06210 J0.00000
G2 X175.06226 Y2.99974 I-1.06210 J0.00000
G1 Z10.00000 F120.00000

G0 X175.06226 Y104.95026
G1 Z0.07500 F120.00000
G1 F240.00000
G2 X175.06226 Y104.95026 Z-0.00000 I-1.06210 J0.00000
G2 X175.06226 Y104.95026 Z-0.07500 I-1.06210 J0.00000
G2 X175.06226 Y104.95026 Z-0.15000 I-1.06210 J0.00000
G2 X175.06226 Y104.95026 Z-0.22500 I-1.06210 J0.00000
G2 X175.06226 Y104.95026 Z-0.30000 I-1.06210 J0.00000
G2 X175.06226 Y104.95026 Z-0.37500 I-1.06210 J0.00000
G2 X175.06226 Y104.95026 Z-0.45000 I-1.06210 J0.00000
G2 X175.06226 Y104.95026 Z-0.52500 I-1.06210 J0.00000
G2 X175.06226 Y104.95026 Z-0.60000 I-1.06210 J0.00000
G2 X175.06226 Y104.95026 Z-0.67500 I-1.06210 J0.00000
G2 X175.06226 Y104.95026 Z-0.75000 I-1.06210 J0.00000
G2 X175.06226 Y104.95026 Z-0.82500 I-1.06210 J0.00000
G2 X175.06226 Y104.95026 Z-0.90000 I-1.06210 J0.00000
G2 X175.06226 Y104.95026 Z-0.97500 I-1.06210 J0.00000
G2 X175.06226 Y104.95026 Z-1.05000 I-1.06210 J0.00000
G2 X175.06226 Y104.95026 Z-1.12500 I-1.06210 J0.00000
G2 X175.06226 Y104.95026 Z-1.20000 I-1.06210 J0.00000
G2 X175.06226 Y104.95026 Z-1.27500 I-1.06210 J0.00000
G2 X175.06226 Y104.95026 Z-1.35000 I-1.06210 J0.00000
G2 X175.06226 Y104.95026 Z-1.42500 I-1.06210 J0.00000
G2 X175.06226 Y104.95026 Z-1.50000 I-1.06210 J0.00000
G2 X175.06226 Y104.95026 Z-1.57500 I-1.06210 J0.00000
G2 X175.06226 Y104.95026 Z-1.65000 I-1.06210 J0.00000
G2 X175.06226 Y104.95026 Z-1.72500 I-1.06210 J0.00000
G2 X175.06226 Y104.95026 Z-1.80000 I-1.06210 J0.00000
G2 X175.06226 Y104.95026 Z-1.87500 I-1.06210 J0.00000
G2 X175.06226 Y104.95026 Z-1.95000 I-1.06210 J0.00000
G2 X175.06226 Y104.95026 Z-2.02500 I-1.06210 J0.00000
G2 X175.06226 Y104.95026 Z-2.10000 I-1.06210 J0.00000
G2 X175.06226 Y104.95026 Z-2.17500 I-1.06210 J0.00000
G2 X175.06226 Y104.95026 Z-2.25000 I-1.06210 J0.00000
G2 X175.06226 Y104.95026 Z-2.32500 I-1.06210 J0.00000
G2 X175.06226 Y104.95026 Z-2.40000 I-1.06210 J0.00000
G2 X175.06226 Y104.95026 Z-2.47500 I-1.06210 J0.00000
G2 X175.06226 Y104.95026 Z-2.55000 I-1.06210 J0.00000
G2 X175.06226 Y104.95026 Z-2.62500 I-1.06210 J0.00000
G2 X175.06226 Y104.95026 Z-2.70000 I-1.06210 J0.00000
G2 X175.06226 Y104.95026 Z-2.77500 I-1.06210 J0.00000
G2 X175.06226 Y104.95026 Z-2.85000 I-1.06210 J0.00000
G2 X175.06226 Y104.95026 Z-2.92500 I-1.06210 J0.00000
G2 X175.06226 Y104.95026 Z-3.00000 I-1.06210 J0.00000
G2 X175.06226 Y104.95026 Z-3.07500 I-1.06210 J0.00000
G2 X175.06226 Y104.95026 Z-3.15000 I-1.06210 J0.00000
G2 X175.06226 Y104.95026 Z-3.22500 I-1.06210 J0.00000
G2 X175.06226 Y104.95026 Z-3.30000 I-1.06210 J0.00000
G2 X175.06226 Y104.95026 Z-3.37500 I-1.06210 J0.00000
G2 X175.06226 Y104.95026 Z-3.45000 I-1.06210 J0.00000
G2 X175.06226 Y104.95026 Z-3.52500 I-1.06210 J0.00000
G2 X175.06226 Y104.95026 Z-3.60000 I-1.06210 J0.00000
G2 X175.06226 Y104.95026 Z-3.67500 I-1.06210 J0.00000
G2 X175.06226 Y104.95026 Z-3.75000 I-1.06210 J0.00000
G2 X175.06226 Y104.95026 Z-3.82500 I-1.06210 J0.00000
G2 X175.06226 Y104.95026 Z-3.90000 I-1.06210 J0.00000
G2 X175.06226 Y104.95026 Z-3.97500 I-1.06210 J0.00000
G2 X175.06226 Y104.95026 Z-4.05000 I-1.06210 J0.00000
G2 X175.06226 Y104.95026 Z-4.12500 I-1.06210 J0.00000
G2 X175.06226 Y104.95026 Z-4.20000 I-1.06210 J0.00000
G2 X175.06226 Y104.95026 Z-4.27500 I-1.06210 J0.00000
G2 X175.06226 Y104.95026 Z-4.35000 I-1.06210 J0.00000
G2 X175.06226 Y104.95026 Z-4.42500 I-1.06210 J0.00000
G2 X175.06226 Y104.95026 Z-4.50000 I-1.06210 J0.00000
G2 X175.06226 Y104.95026 Z-4.57500 I-1.06210 J0.00000
G2 X175.06226 Y104.95026 Z-4.65000 I-1.06210 J0.00000
G2 X175.06226 Y104.95026 Z-4.72500 I-1.06210 J0.00000
G2 X175.06226 Y104.95026 Z-4.80000 I-1.06210 J0.00000
G2 X175.06226 Y104.95026 Z-4.87500 I-1.06210 J0.00000
G2 X175.06226 Y104.95026 Z-4.95000 I-1.06210 J0.00000
G2 X175.06226 Y104.95026 Z-5.02500 I-1.06210 J0.00000
G2 X175.06226 Y104.95026 Z-5.10000 I-1.06210 J0.00000
G2 X175.06226 Y104.95026 Z-5.17500 I-1.06210 J0.00000
G2 X175.06226 Y104.95026 Z-5.25000 I-1.06210 J0.00000
G2 X175.06226 Y104.95026 Z-5.32500 I-1.06210 J0.00000
G2 X175.06226 Y104.95026 Z-5.40000 I-1.06210 J0.00000
G2 X175.06226 Y104.95026 Z-5.47500 I-1.06210 J0.00000
G2 X175.06226 Y104.95026 Z-5.55000 I-1.06210 J0.00000
G2 X175.06226 Y104.95026 Z-5.62500 I-1.06210 J0.00000
G2 X175.06226 Y104.95026 Z-5.70000 I-1.06210 J0.00000
G2 X175.06226 Y104.95026 Z-5.77500 I-1.06210 J0.00000
G2 X175.06226 Y104.95026 Z-5.85000 I-1.06210 J0.00000
G2 X175.06226 Y104.95026 Z-5.92500 I-1.06210 J0.00000
G2 X175.06226 Y104.95026 Z-6.00000 I-1.06210 J0.00000
G2 X175.06226 Y104.95026 I-1.06210 J0.00000
G1 Z10.00000 F120.00000

G00 Z15.000000 ( All done -- retract )

M5      (Spindle off.)
G04 P1.000000
M9      (Coolant off.)
M2      (Program end.)

