(G-CODE GENERATED BY FLATCAM v8.994 - www.flatcam.org - Version Date: 2020/11/7)

(Name: io-board-mixed-B_Cu.gbr_iso_combined_cnc)
(Type: G-code from Geometry)
(Units: MM)

(Created on Saturday, 08 May 2021 at 14:38)

(This preprocessor is the default preprocessor used by FlatCAM.)
(It is made to work with MACH3 compatible motion controllers.)

(TOOL DIAMETER: 0.1 mm)
(Feedrate_XY: 400.0 mm/min)
(Feedrate_Z: 60.0 mm/min)
(Feedrate rapids 1500.0 mm/min)

(Z_Cut: -0.0 mm)
(Z_Move: 2.0 mm)
(Z Start: None mm)
(Z End: 20.0 mm)
(X,Y End: 0.0000, 0.0000 mm)
(Steps per circle: 64)
(Preprocessor Geometry: default)

(X range:    7.5689 ...  170.8423  mm)
(Y range:    6.8282 ...   97.2500  mm)

(Spindle Speed: 10000.0 RPM)
G21
G90
G94

G01 F200.00

M5
G00 Z15.0000
G00 X0.0000 Y0.0000
T1
M6    
(MSG, Change to Tool Dia = 0.1000)
M0
G00 Z15.0000

M03 S10000.0
G01 F200.00
G00 X12.5889 Y17.7559
G01 F60.00
G01 Z-0.1
G01 F200.00
G01 X12.5850 Y17.6800
G01 X12.5850 Y15.0800
G01 X12.5889 Y15.0041
G01 X12.5994 Y14.9337
G01 X12.6170 Y14.8635
G01 X12.6421 Y14.7930
G01 X12.6736 Y14.7265
G01 X12.7114 Y14.6633
G01 X12.7552 Y14.6042
G01 X12.8047 Y14.5497
G01 X12.8592 Y14.5002
G01 X12.9183 Y14.4564
G01 X12.9815 Y14.4186
G01 X13.0480 Y14.3871
G01 X13.1173 Y14.3623
G01 X13.1887 Y14.3444
G01 X13.2615 Y14.3336
G01 X13.3350 Y14.3300
G01 X13.4085 Y14.3336
G01 X13.4813 Y14.3444
G01 X13.5515 Y14.3620
G01 X13.6243 Y14.3881
G01 X13.6885 Y14.4186
G01 X13.7517 Y14.4564
G01 X13.8108 Y14.5002
G01 X13.8636 Y14.5480
G01 X13.9148 Y14.6042
G01 X13.9599 Y14.6654
G01 X13.9964 Y14.7265
G01 X14.0279 Y14.7930
G01 X14.0534 Y14.8647
G01 X14.0706 Y14.9337
G01 X14.0811 Y15.0041
G01 X14.0850 Y15.0800
G01 X14.0850 Y17.6800
G01 X14.0811 Y17.7559
G01 X14.0706 Y17.8263
G01 X14.0530 Y17.8965
G01 X14.0279 Y17.9670
G01 X13.9975 Y18.0314
G01 X13.9572 Y18.0987
G01 X13.9148 Y18.1558
G01 X13.8653 Y18.2103
G01 X13.8108 Y18.2598
G01 X13.7517 Y18.3036
G01 X13.6885 Y18.3414
G01 X13.6220 Y18.3729
G01 X13.5527 Y18.3977
G01 X13.4837 Y18.4151
G01 X13.4061 Y18.4266
G01 X13.3350 Y18.4300
G01 X13.2615 Y18.4264
G01 X13.1887 Y18.4156
G01 X13.1197 Y18.3984
G01 X13.0457 Y18.3719
G01 X12.9815 Y18.3414
G01 X12.9183 Y18.3036
G01 X12.8592 Y18.2598
G01 X12.8047 Y18.2103
G01 X12.7552 Y18.1558
G01 X12.7128 Y18.0987
G01 X12.6725 Y18.0314
G01 X12.6421 Y17.9670
G01 X12.6173 Y17.8977
G01 X12.5994 Y17.8263
G01 X12.5889 Y17.7559
G00 Z2.0000
G00 X15.1289 Y17.7559
G01 F60.00
G01 Z-0.1
G01 F200.00
G01 X15.1250 Y17.6800
G01 X15.1250 Y15.0800
G01 X15.1289 Y15.0041
G01 X15.1394 Y14.9337
G01 X15.1570 Y14.8635
G01 X15.1821 Y14.7930
G01 X15.2136 Y14.7265
G01 X15.2514 Y14.6633
G01 X15.2952 Y14.6042
G01 X15.3447 Y14.5497
G01 X15.3992 Y14.5002
G01 X15.4583 Y14.4564
G01 X15.5215 Y14.4186
G01 X15.5880 Y14.3871
G01 X15.6573 Y14.3623
G01 X15.7287 Y14.3444
G01 X15.8015 Y14.3336
G01 X15.8750 Y14.3300
G01 X15.9485 Y14.3336
G01 X16.0213 Y14.3444
G01 X16.0915 Y14.3620
G01 X16.1643 Y14.3881
G01 X16.2285 Y14.4186
G01 X16.2917 Y14.4564
G01 X16.3508 Y14.5002
G01 X16.4036 Y14.5480
G01 X16.4548 Y14.6042
G01 X16.4999 Y14.6654
G01 X16.5364 Y14.7265
G01 X16.5679 Y14.7930
G01 X16.5934 Y14.8647
G01 X16.6106 Y14.9337
G01 X16.6211 Y15.0041
G01 X16.6250 Y15.0800
G01 X16.6250 Y17.6800
G01 X16.6211 Y17.7559
G01 X16.6106 Y17.8263
G01 X16.5930 Y17.8965
G01 X16.5679 Y17.9670
G01 X16.5375 Y18.0314
G01 X16.4972 Y18.0987
G01 X16.4548 Y18.1558
G01 X16.4053 Y18.2103
G01 X16.3508 Y18.2598
G01 X16.2917 Y18.3036
G01 X16.2285 Y18.3414
G01 X16.1620 Y18.3729
G01 X16.0927 Y18.3977
G01 X16.0237 Y18.4151
G01 X15.9461 Y18.4266
G01 X15.8750 Y18.4300
G01 X15.8015 Y18.4264
G01 X15.7287 Y18.4156
G01 X15.6597 Y18.3984
G01 X15.5857 Y18.3719
G01 X15.5215 Y18.3414
G01 X15.4583 Y18.3036
G01 X15.3992 Y18.2598
G01 X15.3447 Y18.2103
G01 X15.2952 Y18.1558
G01 X15.2528 Y18.0987
G01 X15.2125 Y18.0314
G01 X15.1821 Y17.9670
G01 X15.1573 Y17.8977
G01 X15.1394 Y17.8263
G01 X15.1289 Y17.7559
G00 Z2.0000
G00 X12.5864 Y23.5401
G01 F60.00
G01 Z-0.1
G01 F200.00
G01 X12.5850 Y23.5142
G01 X12.5850 Y19.9258
G01 X12.5862 Y19.9007
G01 X12.5895 Y19.8783
G01 X12.5964 Y19.8504
G01 X12.6045 Y19.8279
G01 X12.6141 Y19.8074
G01 X12.6281 Y19.7837
G01 X12.6431 Y19.7635
G01 X12.6582 Y19.7467
G01 X12.6785 Y19.7281
G01 X12.7008 Y19.7118
G01 X12.7202 Y19.7002
G01 X12.7429 Y19.6895
G01 X12.7689 Y19.6804
G01 X12.7909 Y19.6749
G01 X12.8145 Y19.6714
G01 X12.8408 Y19.6700
G01 X13.8292 Y19.6700
G01 X13.8543 Y19.6712
G01 X13.8767 Y19.6745
G01 X13.9046 Y19.6814
G01 X13.9271 Y19.6895
G01 X13.9476 Y19.6991
G01 X13.9713 Y19.7131
G01 X13.9915 Y19.7281
G01 X14.0083 Y19.7432
G01 X14.0284 Y19.7655
G01 X14.0419 Y19.7837
G01 X14.0548 Y19.8052
G01 X14.0655 Y19.8279
G01 X14.0732 Y19.8492
G01 X14.0805 Y19.8783
G01 X14.0838 Y19.9007
G01 X14.0849 Y19.9233
G01 X14.0850 Y23.5142
G01 X14.0838 Y23.5393
G01 X14.0805 Y23.5617
G01 X14.0732 Y23.5908
G01 X14.0655 Y23.6121
G01 X14.0548 Y23.6348
G01 X14.0419 Y23.6563
G01 X14.0269 Y23.6765
G01 X14.0101 Y23.6951
G01 X13.9933 Y23.7103
G01 X13.9692 Y23.7282
G01 X13.9498 Y23.7398
G01 X13.9271 Y23.7505
G01 X13.9035 Y23.7590
G01 X13.8853 Y23.7636
G01 X13.8853 Y26.7726
G01 X16.8999 Y29.7873
G01 X16.9369 Y29.8284
G01 X16.9675 Y29.8698
G01 X16.9941 Y29.9140
G01 X17.0184 Y29.9649
G01 X17.0366 Y30.0158
G01 X17.0497 Y30.0682
G01 X17.0573 Y30.1191
G01 X17.0603 Y30.1755
G01 X17.0603 Y33.5100
G01 X17.2600 Y33.5100
G01 X17.2698 Y33.5110
G01 X17.2780 Y33.5134
G01 X17.2857 Y33.5171
G01 X17.2917 Y33.5213
G01 X17.2979 Y33.5273
G01 X17.3029 Y33.5343
G01 X17.3066 Y33.5420
G01 X17.3090 Y33.5502
G01 X17.3100 Y33.5588
G01 X17.3100 Y37.5600
G01 X17.3095 Y37.5673
G01 X17.3075 Y37.5757
G01 X17.3041 Y37.5836
G01 X17.3002 Y37.5898
G01 X17.2954 Y37.5954
G01 X17.2888 Y37.6009
G01 X17.2825 Y37.6047
G01 X17.2757 Y37.6075
G01 X17.2673 Y37.6095
G01 X17.2600 Y37.6100
G01 X15.7588 Y37.6100
G01 X15.7515 Y37.6093
G01 X15.7443 Y37.6075
G01 X15.7375 Y37.6047
G01 X15.7302 Y37.6002
G01 X15.7238 Y37.5945
G01 X15.7191 Y37.5888
G01 X15.7153 Y37.5825
G01 X15.7125 Y37.5757
G01 X15.7107 Y37.5685
G01 X15.7100 Y37.5600
G01 X15.7100 Y33.5588
G01 X15.7110 Y33.5502
G01 X15.7134 Y33.5420
G01 X15.7171 Y33.5343
G01 X15.7221 Y33.5273
G01 X15.7283 Y33.5213
G01 X15.7354 Y33.5165
G01 X15.7432 Y33.5129
G01 X15.7502 Y33.5110
G01 X15.7600 Y33.5100
G01 X15.9597 Y33.5100
G01 X15.9597 Y30.4034
G01 X12.9459 Y27.3896
G01 X12.9097 Y27.3496
G01 X12.8789 Y27.3082
G01 X12.8492 Y27.2588
G01 X12.8266 Y27.2111
G01 X12.8078 Y27.1579
G01 X12.7953 Y27.1078
G01 X12.7877 Y27.0569
G01 X12.7848 Y27.0017
G01 X12.7847 Y23.7636
G01 X12.7697 Y23.7599
G01 X12.7473 Y23.7523
G01 X12.7268 Y23.7432
G01 X12.7071 Y23.7323
G01 X12.6866 Y23.7183
G01 X12.6702 Y23.7048
G01 X12.6510 Y23.6857
G01 X12.6367 Y23.6684
G01 X12.6246 Y23.6508
G01 X12.6108 Y23.6261
G01 X12.6023 Y23.6066
G01 X12.5948 Y23.5842
G01 X12.5894 Y23.5612
G01 X12.5864 Y23.5401
G00 Z2.0000
G00 X20.2089 Y23.0959
G01 F60.00
G01 Z-0.1
G01 F200.00
G01 X20.2050 Y23.0200
G01 X20.2050 Y20.4200
G01 X20.2089 Y20.3441
G01 X20.2194 Y20.2737
G01 X20.2370 Y20.2035
G01 X20.2621 Y20.1330
G01 X20.2936 Y20.0665
G01 X20.3314 Y20.0033
G01 X20.3752 Y19.9442
G01 X20.4247 Y19.8897
G01 X20.4792 Y19.8402
G01 X20.5383 Y19.7964
G01 X20.6015 Y19.7586
G01 X20.6680 Y19.7271
G01 X20.7373 Y19.7023
G01 X20.8087 Y19.6844
G01 X20.8815 Y19.6736
G01 X20.9550 Y19.6700
G01 X21.0285 Y19.6736
G01 X21.1013 Y19.6844
G01 X21.1715 Y19.7020
G01 X21.2443 Y19.7281
G01 X21.3085 Y19.7586
G01 X21.3717 Y19.7964
G01 X21.4308 Y19.8402
G01 X21.4836 Y19.8880
G01 X21.5348 Y19.9442
G01 X21.5799 Y20.0054
G01 X21.6164 Y20.0665
G01 X21.6479 Y20.1330
G01 X21.6734 Y20.2047
G01 X21.6906 Y20.2737
G01 X21.7011 Y20.3441
G01 X21.7050 Y20.4200
G01 X21.7050 Y23.0200
G01 X21.7011 Y23.0959
G01 X21.6906 Y23.1663
G01 X21.6730 Y23.2365
G01 X21.6479 Y23.3070
G01 X21.6175 Y23.3714
G01 X21.5772 Y23.4387
G01 X21.5348 Y23.4958
G01 X21.4853 Y23.5503
G01 X21.4308 Y23.5998
G01 X21.3717 Y23.6436
G01 X21.3085 Y23.6814
G01 X21.2443 Y23.7119
G01 X21.1703 Y23.7384
G01 X21.1013 Y23.7556
G01 X21.0285 Y23.7664
G01 X20.9550 Y23.7700
G01 X20.8815 Y23.7664
G01 X20.8087 Y23.7556
G01 X20.7397 Y23.7384
G01 X20.6657 Y23.7119
G01 X20.6015 Y23.6814
G01 X20.5383 Y23.6436
G01 X20.4792 Y23.5998
G01 X20.4247 Y23.5503
G01 X20.3752 Y23.4958
G01 X20.3328 Y23.4387
G01 X20.2925 Y23.3714
G01 X20.2621 Y23.3070
G01 X20.2373 Y23.2377
G01 X20.2194 Y23.1663
G01 X20.2089 Y23.0959
G00 Z2.0000
G00 X22.7489 Y17.7559
G01 F60.00
G01 Z-0.1
G01 F200.00
G01 X22.7450 Y17.6800
G01 X22.7450 Y15.0800
G01 X22.7484 Y15.0089
G01 X22.7599 Y14.9313
G01 X22.7773 Y14.8623
G01 X22.8026 Y14.7919
G01 X22.8336 Y14.7265
G01 X22.8707 Y14.6644
G01 X22.9145 Y14.6052
G01 X22.9447 Y14.5716
G01 X22.9448 Y13.3785
G01 X22.9474 Y13.3258
G01 X22.9553 Y13.2724
G01 X22.9684 Y13.2200
G01 X22.9876 Y13.1669
G01 X23.0097 Y13.1203
G01 X23.0375 Y13.0740
G01 X23.0697 Y13.0306
G01 X23.1059 Y12.9906
G01 X26.1085 Y9.9881
G01 X26.1476 Y9.9527
G01 X26.1890 Y9.9219
G01 X26.2395 Y9.8916
G01 X26.2861 Y9.8696
G01 X26.3370 Y9.8514
G01 X26.3894 Y9.8383
G01 X26.4415 Y9.8305
G01 X26.4967 Y9.8277
G01 X63.0383 Y9.8277
G01 X63.0910 Y9.8303
G01 X63.1456 Y9.8383
G01 X63.1957 Y9.8508
G01 X63.2511 Y9.8706
G01 X63.2977 Y9.8927
G01 X63.3440 Y9.9205
G01 X63.3874 Y9.9527
G01 X63.4265 Y9.9881
G01 X66.0400 Y12.6015
G01 X68.6642 Y9.9774
G01 X68.7033 Y9.9420
G01 X68.7467 Y9.9098
G01 X68.7930 Y9.8820
G01 X68.8396 Y9.8599
G01 X68.8950 Y9.8401
G01 X68.9451 Y9.8276
G01 X68.9997 Y9.8196
G01 X69.0524 Y9.8170
G01 X89.5451 Y9.8170
G01 X89.5966 Y9.8195
G01 X89.6548 Y9.8282
G01 X89.7048 Y9.8407
G01 X89.7557 Y9.8589
G01 X89.8045 Y9.8820
G01 X89.8487 Y9.9085
G01 X89.8951 Y9.9427
G01 X89.9342 Y9.9782
G01 X91.0454 Y11.0894
G01 X92.1683 Y9.9665
G01 X92.2074 Y9.9310
G01 X92.2538 Y9.8968
G01 X92.2980 Y9.8703
G01 X92.3468 Y9.8472
G01 X92.3977 Y9.8290
G01 X92.4477 Y9.8165
G01 X92.5047 Y9.8079
G01 X92.5574 Y9.8053
G01 X108.3571 Y9.8053
G01 X111.1739 Y6.9886
G01 X111.2130 Y6.9532
G01 X111.2564 Y6.9210
G01 X111.3027 Y6.8932
G01 X111.3515 Y6.8701
G01 X111.4024 Y6.8519
G01 X111.4548 Y6.8388
G01 X111.5082 Y6.8309
G01 X111.5609 Y6.8283
G01 X145.7638 Y6.8282
G01 X145.8177 Y6.8309
G01 X145.8711 Y6.8388
G01 X145.9259 Y6.8527
G01 X145.9744 Y6.8701
G01 X146.0232 Y6.8932
G01 X146.0715 Y6.9224
G01 X146.1129 Y6.9532
G01 X146.1529 Y6.9894
G01 X152.1541 Y12.9906
G01 X152.1903 Y13.0306
G01 X152.2238 Y13.0761
G01 X152.2503 Y13.1203
G01 X152.2734 Y13.1691
G01 X152.2916 Y13.2200
G01 X152.3041 Y13.2700
G01 X152.3127 Y13.3270
G01 X152.3153 Y13.3797
G01 X152.3153 Y14.5716
G01 X152.3455 Y14.6052
G01 X152.3893 Y14.6644
G01 X152.4264 Y14.7265
G01 X152.4584 Y14.7941
G01 X152.4827 Y14.8623
G01 X152.5006 Y14.9337
G01 X152.5114 Y15.0065
G01 X152.5150 Y15.0788
G01 X152.5150 Y17.6800
G01 X152.5111 Y17.7559
G01 X152.5006 Y17.8263
G01 X152.4827 Y17.8977
G01 X152.4579 Y17.9670
G01 X152.4264 Y18.0335
G01 X152.3886 Y18.0967
G01 X152.3448 Y18.1558
G01 X152.2953 Y18.2103
G01 X152.2408 Y18.2598
G01 X152.1817 Y18.3036
G01 X152.1185 Y18.3414
G01 X152.0520 Y18.3729
G01 X151.9827 Y18.3977
G01 X151.9113 Y18.4156
G01 X151.8385 Y18.4264
G01 X151.7650 Y18.4300
G01 X151.6915 Y18.4264
G01 X151.6187 Y18.4156
G01 X151.5473 Y18.3977
G01 X151.4757 Y18.3719
G01 X151.4115 Y18.3414
G01 X151.3483 Y18.3036
G01 X151.2892 Y18.2598
G01 X151.2364 Y18.2120
G01 X151.1852 Y18.1558
G01 X151.1401 Y18.0946
G01 X151.1036 Y18.0335
G01 X151.0721 Y17.9670
G01 X151.0473 Y17.8977
G01 X151.0299 Y17.8287
G01 X151.0185 Y17.7523
G01 X151.0150 Y17.6800
G01 X151.0151 Y15.0775
G01 X151.0186 Y15.0065
G01 X151.0294 Y14.9337
G01 X151.0473 Y14.8623
G01 X151.0716 Y14.7941
G01 X151.1036 Y14.7265
G01 X151.1407 Y14.6644
G01 X151.1845 Y14.6052
G01 X151.2147 Y14.5716
G01 X151.2147 Y13.6076
G01 X145.5359 Y7.9288
G01 X111.7900 Y7.9288
G01 X109.1353 Y10.5835
G01 X109.1353 Y14.5716
G01 X109.1655 Y14.6052
G01 X109.2093 Y14.6644
G01 X109.2464 Y14.7265
G01 X109.2774 Y14.7919
G01 X109.3034 Y14.8647
G01 X109.3206 Y14.9337
G01 X109.3315 Y15.0077
G01 X109.3350 Y15.0800
G01 X109.3350 Y17.6800
G01 X109.3316 Y17.7511
G01 X109.3206 Y17.8263
G01 X109.3034 Y17.8953
G01 X109.2769 Y17.9693
G01 X109.2464 Y18.0335
G01 X109.2086 Y18.0967
G01 X109.1648 Y18.1558
G01 X109.1153 Y18.2103
G01 X109.0608 Y18.2598
G01 X109.0017 Y18.3036
G01 X108.9385 Y18.3414
G01 X108.8743 Y18.3719
G01 X108.8027 Y18.3977
G01 X108.7337 Y18.4151
G01 X108.6561 Y18.4266
G01 X108.5850 Y18.4300
G01 X108.5115 Y18.4264
G01 X108.4387 Y18.4156
G01 X108.3673 Y18.3977
G01 X108.2980 Y18.3729
G01 X108.2315 Y18.3414
G01 X108.1683 Y18.3036
G01 X108.1092 Y18.2598
G01 X108.0547 Y18.2103
G01 X108.0052 Y18.1558
G01 X107.9614 Y18.0967
G01 X107.9236 Y18.0335
G01 X107.8921 Y17.9670
G01 X107.8673 Y17.8977
G01 X107.8494 Y17.8263
G01 X107.8385 Y17.7523
G01 X107.8350 Y17.6800
G01 X107.8350 Y15.0800
G01 X107.8385 Y15.0077
G01 X107.8494 Y14.9337
G01 X107.8666 Y14.8647
G01 X107.8926 Y14.7919
G01 X107.9236 Y14.7265
G01 X107.9607 Y14.6644
G01 X108.0045 Y14.6052
G01 X108.0347 Y14.5716
G01 X108.0347 Y10.9059
G01 X92.7853 Y10.9059
G01 X91.5957 Y12.0955
G01 X91.5957 Y56.2624
G01 X96.5527 Y61.2194
G01 X98.4250 Y61.2194
G01 X98.4789 Y61.2221
G01 X98.5323 Y61.2300
G01 X98.5847 Y61.2431
G01 X98.6356 Y61.2613
G01 X98.6844 Y61.2844
G01 X98.7307 Y61.3122
G01 X98.7741 Y61.3444
G01 X98.8141 Y61.3806
G01 X98.8511 Y61.4216
G01 X98.8825 Y61.4640
G01 X98.9091 Y61.5082
G01 X98.9334 Y61.5591
G01 X98.9516 Y61.6100
G01 X98.9641 Y61.6600
G01 X98.9727 Y61.7170
G01 X98.9753 Y61.7697
G01 X98.9753 Y62.9402
G01 X98.9915 Y62.9552
G01 X99.0442 Y63.0134
G01 X99.0902 Y63.0755
G01 X99.1311 Y63.1440
G01 X99.1641 Y63.2139
G01 X99.1906 Y63.2878
G01 X99.2096 Y63.3639
G01 X99.2213 Y63.4428
G01 X99.2250 Y63.5200
G01 X99.2250 Y66.0200
G01 X99.2211 Y66.0984
G01 X99.2096 Y66.1761
G01 X99.1906 Y66.2522
G01 X99.1650 Y66.3239
G01 X99.1293 Y66.3993
G01 X99.0902 Y66.4645
G01 X99.0434 Y66.5275
G01 X98.9907 Y66.5857
G01 X98.9344 Y66.6368
G01 X98.8674 Y66.6865
G01 X98.8021 Y66.7255
G01 X98.7311 Y66.7591
G01 X98.6572 Y66.7856
G01 X98.5835 Y66.8041
G01 X98.5010 Y66.8163
G01 X98.4250 Y66.8200
G01 X98.3466 Y66.8161
G01 X98.2689 Y66.8046
G01 X98.1951 Y66.7862
G01 X98.1166 Y66.7581
G01 X98.0479 Y66.7255
G01 X97.9805 Y66.6852
G01 X97.9175 Y66.6384
G01 X97.8611 Y66.5874
G01 X97.8051 Y66.5256
G01 X97.7598 Y66.4645
G01 X97.7195 Y66.3971
G01 X97.6859 Y66.3261
G01 X97.6602 Y66.2546
G01 X97.6400 Y66.1737
G01 X97.6289 Y66.0984
G01 X97.6250 Y66.0200
G01 X97.6250 Y63.5200
G01 X97.6287 Y63.4440
G01 X97.6404 Y63.3639
G01 X97.6594 Y63.2878
G01 X97.6859 Y63.2139
G01 X97.7189 Y63.1440
G01 X97.7598 Y63.0755
G01 X97.8058 Y63.0134
G01 X97.8585 Y62.9552
G01 X97.8747 Y62.9402
G01 X97.8747 Y62.3200
G01 X96.3236 Y62.3199
G01 X96.2684 Y62.3170
G01 X96.2175 Y62.3094
G01 X96.1674 Y62.2969
G01 X96.1142 Y62.2781
G01 X96.0633 Y62.2538
G01 X96.0191 Y62.2272
G01 X95.9777 Y62.1966
G01 X95.9357 Y62.1588
G01 X93.4999 Y59.7230
G01 X79.9253 Y73.2976
G01 X79.9253 Y74.2616
G01 X79.9555 Y74.2952
G01 X79.9993 Y74.3544
G01 X80.0364 Y74.4165
G01 X80.0684 Y74.4841
G01 X80.0927 Y74.5523
G01 X80.1106 Y74.6237
G01 X80.1214 Y74.6965
G01 X80.1249 Y74.7675
G01 X80.1250 Y77.3700
G01 X80.1213 Y77.4447
G01 X80.1106 Y77.5163
G01 X80.0927 Y77.5877
G01 X80.0679 Y77.6570
G01 X80.0375 Y77.7214
G01 X79.9972 Y77.7887
G01 X79.9548 Y77.8458
G01 X79.9036 Y77.9020
G01 X79.8508 Y77.9498
G01 X79.7917 Y77.9936
G01 X79.7285 Y78.0314
G01 X79.6620 Y78.0629
G01 X79.5927 Y78.0877
G01 X79.5213 Y78.1056
G01 X79.4485 Y78.1164
G01 X79.3762 Y78.1200
G01 X79.3015 Y78.1164
G01 X79.2287 Y78.1056
G01 X79.1573 Y78.0877
G01 X79.0880 Y78.0629
G01 X79.0215 Y78.0314
G01 X78.9583 Y77.9936
G01 X78.8992 Y77.9498
G01 X78.8464 Y77.9020
G01 X78.7952 Y77.8458
G01 X78.7528 Y77.7887
G01 X78.7125 Y77.7214
G01 X78.6821 Y77.6570
G01 X78.6573 Y77.5877
G01 X78.6394 Y77.5163
G01 X78.6285 Y77.4423
G01 X78.6250 Y77.3700
G01 X78.6250 Y74.7700
G01 X78.6285 Y74.6977
G01 X78.6394 Y74.6237
G01 X78.6566 Y74.5547
G01 X78.6826 Y74.4819
G01 X78.7136 Y74.4165
G01 X78.7507 Y74.3544
G01 X78.7945 Y74.2952
G01 X78.8247 Y74.2616
G01 X78.8247 Y73.0697
G01 X78.8273 Y73.0170
G01 X78.8353 Y72.9624
G01 X78.8492 Y72.9076
G01 X78.8666 Y72.8591
G01 X78.8886 Y72.8125
G01 X78.9182 Y72.7630
G01 X78.9497 Y72.7206
G01 X78.9859 Y72.6806
G01 X92.7217 Y58.9448
G01 X90.6546 Y56.8776
G01 X90.6201 Y56.8394
G01 X90.5879 Y56.7960
G01 X90.5601 Y56.7497
G01 X90.5370 Y56.7009
G01 X90.5188 Y56.6500
G01 X90.5057 Y56.5976
G01 X90.4978 Y56.5442
G01 X90.4952 Y56.4928
G01 X90.4951 Y12.0955
G01 X89.3172 Y10.9176
G01 X69.2803 Y10.9176
G01 X66.5903 Y13.6076
G01 X66.5903 Y14.5716
G01 X66.6205 Y14.6052
G01 X66.6643 Y14.6644
G01 X66.7014 Y14.7265
G01 X66.7334 Y14.7941
G01 X66.7577 Y14.8623
G01 X66.7756 Y14.9337
G01 X66.7864 Y15.0065
G01 X66.7899 Y15.0775
G01 X66.7900 Y17.6800
G01 X66.7863 Y17.7547
G01 X66.7756 Y17.8263
G01 X66.7577 Y17.8977
G01 X66.7329 Y17.9670
G01 X66.7014 Y18.0335
G01 X66.6636 Y18.0967
G01 X66.6198 Y18.1558
G01 X66.5703 Y18.2103
G01 X66.5177 Y18.2582
G01 X66.4546 Y18.3049
G01 X66.3935 Y18.3414
G01 X66.3247 Y18.3738
G01 X66.2577 Y18.3977
G01 X66.1863 Y18.4156
G01 X66.1135 Y18.4264
G01 X66.0388 Y18.4300
G01 X65.9665 Y18.4264
G01 X65.8937 Y18.4156
G01 X65.8223 Y18.3977
G01 X65.7530 Y18.3729
G01 X65.6865 Y18.3414
G01 X65.6233 Y18.3036
G01 X65.5642 Y18.2598
G01 X65.5114 Y18.2120
G01 X65.4602 Y18.1558
G01 X65.4178 Y18.0987
G01 X65.3775 Y18.0314
G01 X65.3471 Y17.9670
G01 X65.3223 Y17.8977
G01 X65.3044 Y17.8263
G01 X65.2937 Y17.7547
G01 X65.2900 Y17.6800
G01 X65.2901 Y15.0775
G01 X65.2936 Y15.0065
G01 X65.3044 Y14.9337
G01 X65.3223 Y14.8623
G01 X65.3466 Y14.7941
G01 X65.3786 Y14.7265
G01 X65.4157 Y14.6644
G01 X65.4595 Y14.6052
G01 X65.4897 Y14.5716
G01 X65.4897 Y13.6076
G01 X62.8104 Y10.9283
G01 X26.7246 Y10.9283
G01 X24.0453 Y13.6076
G01 X24.0453 Y14.5716
G01 X24.0755 Y14.6052
G01 X24.1193 Y14.6644
G01 X24.1564 Y14.7265
G01 X24.1884 Y14.7941
G01 X24.2127 Y14.8623
G01 X24.2306 Y14.9337
G01 X24.2414 Y15.0065
G01 X24.2450 Y15.0788
G01 X24.2450 Y17.6812
G01 X24.2411 Y17.7559
G01 X24.2306 Y17.8263
G01 X24.2134 Y17.8953
G01 X24.1879 Y17.9670
G01 X24.1558 Y18.0346
G01 X24.1186 Y18.0967
G01 X24.0763 Y18.1539
G01 X24.0236 Y18.2120
G01 X23.9708 Y18.2598
G01 X23.9117 Y18.3036
G01 X23.8485 Y18.3414
G01 X23.7843 Y18.3719
G01 X23.7103 Y18.3984
G01 X23.6413 Y18.4156
G01 X23.5685 Y18.4264
G01 X23.4950 Y18.4300
G01 X23.4239 Y18.4266
G01 X23.3487 Y18.4156
G01 X23.2773 Y18.3977
G01 X23.2103 Y18.3738
G01 X23.1415 Y18.3414
G01 X23.0783 Y18.3036
G01 X23.0211 Y18.2613
G01 X22.9630 Y18.2086
G01 X22.9152 Y18.1558
G01 X22.8714 Y18.0967
G01 X22.8336 Y18.0335
G01 X22.8031 Y17.9693
G01 X22.7766 Y17.8953
G01 X22.7594 Y17.8263
G01 X22.7489 Y17.7559
G00 Z2.0000
G00 X25.2889 Y17.7559
G01 F60.00
G01 Z-0.1
G01 F200.00
G01 X25.2850 Y17.6800
G01 X25.2850 Y15.0800
G01 X25.2889 Y15.0041
G01 X25.2994 Y14.9337
G01 X25.3170 Y14.8635
G01 X25.3421 Y14.7930
G01 X25.3736 Y14.7265
G01 X25.4114 Y14.6633
G01 X25.4552 Y14.6042
G01 X25.5047 Y14.5497
G01 X25.5592 Y14.5002
G01 X25.6183 Y14.4564
G01 X25.6815 Y14.4186
G01 X25.7480 Y14.3871
G01 X25.8173 Y14.3623
G01 X25.8887 Y14.3444
G01 X25.9615 Y14.3336
G01 X26.0350 Y14.3300
G01 X26.1085 Y14.3336
G01 X26.1813 Y14.3444
G01 X26.2515 Y14.3620
G01 X26.3243 Y14.3881
G01 X26.3885 Y14.4186
G01 X26.4517 Y14.4564
G01 X26.5108 Y14.5002
G01 X26.5636 Y14.5480
G01 X26.6148 Y14.6042
G01 X26.6599 Y14.6654
G01 X26.6964 Y14.7265
G01 X26.7279 Y14.7930
G01 X26.7534 Y14.8647
G01 X26.7706 Y14.9337
G01 X26.7811 Y15.0041
G01 X26.7850 Y15.0800
G01 X26.7850 Y17.6800
G01 X26.7811 Y17.7559
G01 X26.7706 Y17.8263
G01 X26.7530 Y17.8965
G01 X26.7279 Y17.9670
G01 X26.6975 Y18.0314
G01 X26.6572 Y18.0987
G01 X26.6148 Y18.1558
G01 X26.5653 Y18.2103
G01 X26.5108 Y18.2598
G01 X26.4517 Y18.3036
G01 X26.3885 Y18.3414
G01 X26.3220 Y18.3729
G01 X26.2527 Y18.3977
G01 X26.1837 Y18.4151
G01 X26.1061 Y18.4266
G01 X26.0350 Y18.4300
G01 X25.9615 Y18.4264
G01 X25.8887 Y18.4156
G01 X25.8197 Y18.3984
G01 X25.7457 Y18.3719
G01 X25.6815 Y18.3414
G01 X25.6183 Y18.3036
G01 X25.5592 Y18.2598
G01 X25.5047 Y18.2103
G01 X25.4552 Y18.1558
G01 X25.4128 Y18.0987
G01 X25.3725 Y18.0314
G01 X25.3421 Y17.9670
G01 X25.3173 Y17.8977
G01 X25.2994 Y17.8263
G01 X25.2889 Y17.7559
G00 Z2.0000
G00 X27.8289 Y17.7559
G01 F60.00
G01 Z-0.1
G01 F200.00
G01 X27.8250 Y17.6800
G01 X27.8250 Y15.0800
G01 X27.8289 Y15.0041
G01 X27.8394 Y14.9337
G01 X27.8570 Y14.8635
G01 X27.8821 Y14.7930
G01 X27.9136 Y14.7265
G01 X27.9514 Y14.6633
G01 X27.9952 Y14.6042
G01 X28.0447 Y14.5497
G01 X28.0992 Y14.5002
G01 X28.1583 Y14.4564
G01 X28.2215 Y14.4186
G01 X28.2880 Y14.3871
G01 X28.3573 Y14.3623
G01 X28.4287 Y14.3444
G01 X28.5015 Y14.3336
G01 X28.5750 Y14.3300
G01 X28.6485 Y14.3336
G01 X28.7213 Y14.3444
G01 X28.7915 Y14.3620
G01 X28.8643 Y14.3881
G01 X28.9285 Y14.4186
G01 X28.9917 Y14.4564
G01 X29.0508 Y14.5002
G01 X29.1036 Y14.5480
G01 X29.1548 Y14.6042
G01 X29.1999 Y14.6654
G01 X29.2364 Y14.7265
G01 X29.2679 Y14.7930
G01 X29.2934 Y14.8647
G01 X29.3106 Y14.9337
G01 X29.3211 Y15.0041
G01 X29.3250 Y15.0800
G01 X29.3250 Y17.6800
G01 X29.3211 Y17.7559
G01 X29.3106 Y17.8263
G01 X29.2930 Y17.8965
G01 X29.2679 Y17.9670
G01 X29.2375 Y18.0314
G01 X29.1972 Y18.0987
G01 X29.1548 Y18.1558
G01 X29.1053 Y18.2103
G01 X29.0508 Y18.2598
G01 X28.9917 Y18.3036
G01 X28.9285 Y18.3414
G01 X28.8620 Y18.3729
G01 X28.7927 Y18.3977
G01 X28.7237 Y18.4151
G01 X28.6461 Y18.4266
G01 X28.5750 Y18.4300
G01 X28.5015 Y18.4264
G01 X28.4287 Y18.4156
G01 X28.3597 Y18.3984
G01 X28.2857 Y18.3719
G01 X28.2215 Y18.3414
G01 X28.1583 Y18.3036
G01 X28.0992 Y18.2598
G01 X28.0447 Y18.2103
G01 X27.9952 Y18.1558
G01 X27.9528 Y18.0987
G01 X27.9125 Y18.0314
G01 X27.8821 Y17.9670
G01 X27.8573 Y17.8977
G01 X27.8394 Y17.8263
G01 X27.8289 Y17.7559
G00 Z2.0000
G00 X30.3689 Y17.7559
G01 F60.00
G01 Z-0.1
G01 F200.00
G01 X30.3650 Y17.6800
G01 X30.3651 Y15.0775
G01 X30.3686 Y15.0065
G01 X30.3794 Y14.9337
G01 X30.3973 Y14.8623
G01 X30.4216 Y14.7941
G01 X30.4536 Y14.7265
G01 X30.4907 Y14.6644
G01 X30.5345 Y14.6052
G01 X30.5647 Y14.5716
G01 X30.5648 Y13.3785
G01 X30.5674 Y13.3258
G01 X30.5749 Y13.2748
G01 X30.5888 Y13.2188
G01 X30.6066 Y13.1691
G01 X30.6309 Y13.1182
G01 X30.6575 Y13.0740
G01 X30.6881 Y13.0326
G01 X30.7251 Y12.9915
G01 X32.2281 Y11.4885
G01 X32.2672 Y11.4531
G01 X32.3086 Y11.4223
G01 X32.3591 Y11.3920
G01 X32.4057 Y11.3700
G01 X32.4566 Y11.3518
G01 X32.5090 Y11.3387
G01 X32.5611 Y11.3309
G01 X32.6163 Y11.3281
G01 X37.5279 Y11.3281
G01 X37.5818 Y11.3308
G01 X37.6376 Y11.3393
G01 X37.6876 Y11.3518
G01 X37.7362 Y11.3692
G01 X37.7862 Y11.3926
G01 X37.8356 Y11.4223
G01 X37.8770 Y11.4531
G01 X37.9170 Y11.4893
G01 X42.3883 Y15.9606
G01 X42.4245 Y16.0006
G01 X42.4553 Y16.0420
G01 X42.4845 Y16.0903
G01 X42.5076 Y16.1391
G01 X42.5250 Y16.1876
G01 X42.5391 Y16.2436
G01 X42.5468 Y16.2958
G01 X42.5495 Y16.3497
G01 X42.5495 Y41.9955
G01 X42.5468 Y42.0494
G01 X42.5391 Y42.1016
G01 X42.5250 Y42.1576
G01 X42.5076 Y42.2061
G01 X42.4845 Y42.2549
G01 X42.4553 Y42.3032
G01 X42.4245 Y42.3446
G01 X42.3883 Y42.3846
G01 X36.7453 Y48.0276
G01 X36.7453 Y48.9702
G01 X36.7615 Y48.9852
G01 X36.8142 Y49.0434
G01 X36.8602 Y49.1055
G01 X36.9011 Y49.1740
G01 X36.9341 Y49.2439
G01 X36.9606 Y49.3178
G01 X36.9796 Y49.3939
G01 X36.9913 Y49.4740
G01 X36.9950 Y49.5500
G01 X36.9950 Y52.0500
G01 X36.9913 Y52.1272
G01 X36.9796 Y52.2061
G01 X36.9612 Y52.2799
G01 X36.9331 Y52.3584
G01 X36.9005 Y52.4271
G01 X36.8602 Y52.4945
G01 X36.8134 Y52.5575
G01 X36.7624 Y52.6139
G01 X36.7006 Y52.6699
G01 X36.6395 Y52.7152
G01 X36.5721 Y52.7555
G01 X36.5011 Y52.7891
G01 X36.4296 Y52.8148
G01 X36.3499 Y52.8349
G01 X36.2734 Y52.8461
G01 X36.1950 Y52.8500
G01 X36.1166 Y52.8461
G01 X36.0389 Y52.8346
G01 X35.9628 Y52.8156
G01 X35.8889 Y52.7891
G01 X35.8179 Y52.7555
G01 X35.7485 Y52.7138
G01 X35.6875 Y52.6684
G01 X35.6276 Y52.6139
G01 X35.5751 Y52.5556
G01 X35.5298 Y52.4945
G01 X35.4907 Y52.4293
G01 X35.4559 Y52.3561
G01 X35.4294 Y52.2822
G01 X35.4104 Y52.2061
G01 X35.3990 Y52.1296
G01 X35.3950 Y52.0500
G01 X35.3950 Y49.5500
G01 X35.3987 Y49.4728
G01 X35.4104 Y49.3939
G01 X35.4294 Y49.3178
G01 X35.4559 Y49.2439
G01 X35.4889 Y49.1740
G01 X35.5298 Y49.1055
G01 X35.5758 Y49.0434
G01 X35.6285 Y48.9852
G01 X35.6447 Y48.9702
G01 X35.6448 Y47.7985
G01 X35.6474 Y47.7458
G01 X35.6553 Y47.6924
G01 X35.6684 Y47.6400
G01 X35.6876 Y47.5869
G01 X35.7097 Y47.5403
G01 X35.7375 Y47.4940
G01 X35.7697 Y47.4506
G01 X35.8059 Y47.4106
G01 X41.4489 Y41.7676
G01 X41.4489 Y16.5776
G01 X37.3000 Y12.4287
G01 X32.8442 Y12.4287
G01 X31.6653 Y13.6076
G01 X31.6653 Y14.5716
G01 X31.6955 Y14.6052
G01 X31.7393 Y14.6644
G01 X31.7764 Y14.7265
G01 X31.8084 Y14.7941
G01 X31.8327 Y14.8623
G01 X31.8506 Y14.9337
G01 X31.8614 Y15.0065
G01 X31.8650 Y15.0788
G01 X31.8650 Y17.6812
G01 X31.8614 Y17.7535
G01 X31.8506 Y17.8263
G01 X31.8327 Y17.8977
G01 X31.8069 Y17.9693
G01 X31.7764 Y18.0335
G01 X31.7386 Y18.0967
G01 X31.6948 Y18.1558
G01 X31.6470 Y18.2086
G01 X31.5889 Y18.2613
G01 X31.5317 Y18.3036
G01 X31.4707 Y18.3402
G01 X31.3997 Y18.3738
G01 X31.3327 Y18.3977
G01 X31.2613 Y18.4156
G01 X31.1885 Y18.4264
G01 X31.1175 Y18.4299
G01 X31.0391 Y18.4261
G01 X30.9687 Y18.4156
G01 X30.8973 Y18.3977
G01 X30.8280 Y18.3729
G01 X30.7636 Y18.3425
G01 X30.6963 Y18.3022
G01 X30.6392 Y18.2598
G01 X30.5847 Y18.2103
G01 X30.5352 Y18.1558
G01 X30.4928 Y18.0987
G01 X30.4525 Y18.0314
G01 X30.4221 Y17.9670
G01 X30.3973 Y17.8977
G01 X30.3794 Y17.8263
G01 X30.3689 Y17.7559
G00 Z2.0000
G00 X32.9089 Y23.0959
G01 F60.00
G01 Z-0.1
G01 F200.00
G01 X32.9050 Y23.0200
G01 X32.9050 Y20.4200
G01 X32.9089 Y20.3441
G01 X32.9194 Y20.2737
G01 X32.9370 Y20.2035
G01 X32.9621 Y20.1330
G01 X32.9936 Y20.0665
G01 X33.0314 Y20.0033
G01 X33.0752 Y19.9442
G01 X33.1247 Y19.8897
G01 X33.1792 Y19.8402
G01 X33.2383 Y19.7964
G01 X33.3015 Y19.7586
G01 X33.3680 Y19.7271
G01 X33.4373 Y19.7023
G01 X33.5087 Y19.6844
G01 X33.5815 Y19.6736
G01 X33.6550 Y19.6700
G01 X33.7285 Y19.6736
G01 X33.8013 Y19.6844
G01 X33.8715 Y19.7020
G01 X33.9443 Y19.7281
G01 X34.0085 Y19.7586
G01 X34.0717 Y19.7964
G01 X34.1308 Y19.8402
G01 X34.1836 Y19.8880
G01 X34.2348 Y19.9442
G01 X34.2799 Y20.0054
G01 X34.3164 Y20.0665
G01 X34.3479 Y20.1330
G01 X34.3734 Y20.2047
G01 X34.3906 Y20.2737
G01 X34.4011 Y20.3441
G01 X34.4050 Y20.4200
G01 X34.4050 Y23.0200
G01 X34.4011 Y23.0959
G01 X34.3906 Y23.1663
G01 X34.3730 Y23.2365
G01 X34.3479 Y23.3070
G01 X34.3175 Y23.3714
G01 X34.2772 Y23.4387
G01 X34.2348 Y23.4958
G01 X34.1853 Y23.5503
G01 X34.1308 Y23.5998
G01 X34.0717 Y23.6436
G01 X34.0085 Y23.6814
G01 X33.9443 Y23.7119
G01 X33.8703 Y23.7384
G01 X33.8013 Y23.7556
G01 X33.7285 Y23.7664
G01 X33.6550 Y23.7700
G01 X33.5815 Y23.7664
G01 X33.5087 Y23.7556
G01 X33.4397 Y23.7384
G01 X33.3657 Y23.7119
G01 X33.3015 Y23.6814
G01 X33.2383 Y23.6436
G01 X33.1792 Y23.5998
G01 X33.1247 Y23.5503
G01 X33.0752 Y23.4958
G01 X33.0328 Y23.4387
G01 X32.9925 Y23.3714
G01 X32.9621 Y23.3070
G01 X32.9373 Y23.2377
G01 X32.9194 Y23.1663
G01 X32.9089 Y23.0959
G00 Z2.0000
G00 X35.4489 Y23.0959
G01 F60.00
G01 Z-0.1
G01 F200.00
G01 X35.4450 Y23.0200
G01 X35.4450 Y20.4200
G01 X35.4489 Y20.3441
G01 X35.4594 Y20.2737
G01 X35.4770 Y20.2035
G01 X35.5021 Y20.1330
G01 X35.5336 Y20.0665
G01 X35.5714 Y20.0033
G01 X35.6152 Y19.9442
G01 X35.6647 Y19.8897
G01 X35.7192 Y19.8402
G01 X35.7783 Y19.7964
G01 X35.8415 Y19.7586
G01 X35.9080 Y19.7271
G01 X35.9773 Y19.7023
G01 X36.0487 Y19.6844
G01 X36.1215 Y19.6736
G01 X36.1950 Y19.6700
G01 X36.2685 Y19.6736
G01 X36.3413 Y19.6844
G01 X36.4115 Y19.7020
G01 X36.4843 Y19.7281
G01 X36.5485 Y19.7586
G01 X36.6117 Y19.7964
G01 X36.6708 Y19.8402
G01 X36.7236 Y19.8880
G01 X36.7748 Y19.9442
G01 X36.8199 Y20.0054
G01 X36.8564 Y20.0665
G01 X36.8879 Y20.1330
G01 X36.9134 Y20.2047
G01 X36.9306 Y20.2737
G01 X36.9411 Y20.3441
G01 X36.9450 Y20.4200
G01 X36.9450 Y23.0200
G01 X36.9411 Y23.0959
G01 X36.9306 Y23.1663
G01 X36.9130 Y23.2365
G01 X36.8879 Y23.3070
G01 X36.8575 Y23.3714
G01 X36.8172 Y23.4387
G01 X36.7748 Y23.4958
G01 X36.7253 Y23.5503
G01 X36.6708 Y23.5998
G01 X36.6117 Y23.6436
G01 X36.5485 Y23.6814
G01 X36.4843 Y23.7119
G01 X36.4103 Y23.7384
G01 X36.3413 Y23.7556
G01 X36.2685 Y23.7664
G01 X36.1950 Y23.7700
G01 X36.1215 Y23.7664
G01 X36.0487 Y23.7556
G01 X35.9797 Y23.7384
G01 X35.9057 Y23.7119
G01 X35.8415 Y23.6814
G01 X35.7783 Y23.6436
G01 X35.7192 Y23.5998
G01 X35.6647 Y23.5503
G01 X35.6152 Y23.4958
G01 X35.5728 Y23.4387
G01 X35.5325 Y23.3714
G01 X35.5021 Y23.3070
G01 X35.4773 Y23.2377
G01 X35.4594 Y23.1663
G01 X35.4489 Y23.0959
G00 Z2.0000
G00 X27.8289 Y23.0959
G01 F60.00
G01 Z-0.1
G01 F200.00
G01 X27.8250 Y23.0200
G01 X27.8250 Y20.4200
G01 X27.8289 Y20.3441
G01 X27.8394 Y20.2737
G01 X27.8570 Y20.2035
G01 X27.8821 Y20.1330
G01 X27.9136 Y20.0665
G01 X27.9514 Y20.0033
G01 X27.9952 Y19.9442
G01 X28.0447 Y19.8897
G01 X28.0992 Y19.8402
G01 X28.1583 Y19.7964
G01 X28.2215 Y19.7586
G01 X28.2880 Y19.7271
G01 X28.3573 Y19.7023
G01 X28.4287 Y19.6844
G01 X28.5015 Y19.6736
G01 X28.5750 Y19.6700
G01 X28.6485 Y19.6736
G01 X28.7213 Y19.6844
G01 X28.7915 Y19.7020
G01 X28.8643 Y19.7281
G01 X28.9285 Y19.7586
G01 X28.9917 Y19.7964
G01 X29.0508 Y19.8402
G01 X29.1036 Y19.8880
G01 X29.1548 Y19.9442
G01 X29.1999 Y20.0054
G01 X29.2364 Y20.0665
G01 X29.2679 Y20.1330
G01 X29.2934 Y20.2047
G01 X29.3106 Y20.2737
G01 X29.3211 Y20.3441
G01 X29.3250 Y20.4200
G01 X29.3250 Y23.0200
G01 X29.3211 Y23.0959
G01 X29.3106 Y23.1663
G01 X29.2930 Y23.2365
G01 X29.2679 Y23.3070
G01 X29.2375 Y23.3714
G01 X29.1972 Y23.4387
G01 X29.1548 Y23.4958
G01 X29.1053 Y23.5503
G01 X29.0508 Y23.5998
G01 X28.9917 Y23.6436
G01 X28.9285 Y23.6814
G01 X28.8643 Y23.7119
G01 X28.7903 Y23.7384
G01 X28.7213 Y23.7556
G01 X28.6485 Y23.7664
G01 X28.5750 Y23.7700
G01 X28.5015 Y23.7664
G01 X28.4287 Y23.7556
G01 X28.3597 Y23.7384
G01 X28.2857 Y23.7119
G01 X28.2215 Y23.6814
G01 X28.1583 Y23.6436
G01 X28.0992 Y23.5998
G01 X28.0447 Y23.5503
G01 X27.9952 Y23.4958
G01 X27.9528 Y23.4387
G01 X27.9125 Y23.3714
G01 X27.8821 Y23.3070
G01 X27.8573 Y23.2377
G01 X27.8394 Y23.1663
G01 X27.8289 Y23.0959
G00 Z2.0000
G00 X31.2956 Y31.8520
G01 F60.00
G01 Z-0.1
G01 F200.00
G01 X31.2983 Y31.7981
G01 X31.3062 Y31.7447
G01 X31.3193 Y31.6923
G01 X31.3375 Y31.6414
G01 X31.3606 Y31.5926
G01 X31.3884 Y31.5463
G01 X31.4206 Y31.5029
G01 X31.4560 Y31.4638
G01 X37.3837 Y25.5360
G01 X37.3837 Y19.7469
G01 X36.0531 Y18.4163
G01 X36.0463 Y18.4151
G01 X35.9750 Y18.3969
G01 X35.9080 Y18.3729
G01 X35.8415 Y18.3414
G01 X35.7783 Y18.3036
G01 X35.7211 Y18.2613
G01 X35.6638 Y18.2095
G01 X35.6152 Y18.1558
G01 X35.5714 Y18.0967
G01 X35.5336 Y18.0335
G01 X35.5031 Y17.9693
G01 X35.4766 Y17.8953
G01 X35.4594 Y17.8263
G01 X35.4486 Y17.7535
G01 X35.4450 Y17.6800
G01 X35.4450 Y15.0800
G01 X35.4489 Y15.0041
G01 X35.4594 Y14.9337
G01 X35.4770 Y14.8635
G01 X35.5021 Y14.7930
G01 X35.5336 Y14.7265
G01 X35.5714 Y14.6633
G01 X35.6152 Y14.6042
G01 X35.6647 Y14.5497
G01 X35.7192 Y14.5002
G01 X35.7783 Y14.4564
G01 X35.8415 Y14.4186
G01 X35.9080 Y14.3871
G01 X35.9773 Y14.3623
G01 X36.0487 Y14.3444
G01 X36.1215 Y14.3336
G01 X36.1950 Y14.3300
G01 X36.2685 Y14.3336
G01 X36.3413 Y14.3444
G01 X36.4127 Y14.3623
G01 X36.4843 Y14.3881
G01 X36.5485 Y14.4186
G01 X36.6117 Y14.4564
G01 X36.6727 Y14.5018
G01 X36.7253 Y14.5497
G01 X36.7732 Y14.6023
G01 X36.8199 Y14.6654
G01 X36.8564 Y14.7265
G01 X36.8869 Y14.7907
G01 X36.9127 Y14.8623
G01 X36.9310 Y14.9361
G01 X36.9414 Y15.0065
G01 X36.9450 Y15.0800
G01 X36.9450 Y17.6800
G01 X36.9417 Y17.7485
G01 X38.3248 Y19.1317
G01 X38.3593 Y19.1699
G01 X38.3901 Y19.2113
G01 X38.4193 Y19.2596
G01 X38.4424 Y19.3084
G01 X38.4598 Y19.3569
G01 X38.4739 Y19.4129
G01 X38.4816 Y19.4651
G01 X38.4843 Y19.5190
G01 X38.4843 Y25.7639
G01 X38.4816 Y25.8178
G01 X38.4737 Y25.8712
G01 X38.4612 Y25.9213
G01 X38.4414 Y25.9767
G01 X38.4193 Y26.0233
G01 X38.3915 Y26.0696
G01 X38.3593 Y26.1130
G01 X38.3239 Y26.1521
G01 X32.3962 Y32.0799
G01 X32.3962 Y52.9329
G01 X39.0616 Y59.5982
G01 X41.6844 Y56.9754
G01 X41.6749 Y56.9367
G01 X41.6599 Y56.8348
G01 X41.6549 Y56.7331
G01 X41.6599 Y56.6314
G01 X41.6756 Y56.5259
G01 X41.7001 Y56.4283
G01 X41.7344 Y56.3324
G01 X41.7801 Y56.2360
G01 X41.8319 Y56.1498
G01 X41.8932 Y56.0670
G01 X41.9624 Y55.9906
G01 X42.0369 Y55.9230
G01 X42.1236 Y55.8587
G01 X42.2099 Y55.8071
G01 X42.3008 Y55.7640
G01 X42.4001 Y55.7283
G01 X42.5025 Y55.7029
G01 X42.6020 Y55.6882
G01 X42.7024 Y55.6832
G01 X42.8078 Y55.6882
G01 X42.9121 Y55.7038
G01 X43.0097 Y55.7283
G01 X43.1044 Y55.7621
G01 X43.1999 Y55.8071
G01 X43.2903 Y55.8615
G01 X43.3710 Y55.9214
G01 X43.4456 Y55.9889
G01 X43.5166 Y56.0670
G01 X43.5793 Y56.1518
G01 X43.6309 Y56.2381
G01 X43.6740 Y56.3290
G01 X43.7097 Y56.4283
G01 X43.7351 Y56.5307
G01 X43.7498 Y56.6302
G01 X43.7549 Y56.7319
G01 X43.7498 Y56.8360
G01 X43.7347 Y56.9379
G01 X43.7097 Y57.0379
G01 X43.6750 Y57.1349
G01 X43.6309 Y57.2281
G01 X43.5779 Y57.3164
G01 X43.5166 Y57.3992
G01 X43.4465 Y57.4764
G01 X43.3691 Y57.5463
G01 X43.2882 Y57.6061
G01 X43.2020 Y57.6579
G01 X43.1067 Y57.7032
G01 X43.0085 Y57.7382
G01 X42.9097 Y57.7629
G01 X42.8103 Y57.7777
G01 X42.7061 Y57.7831
G01 X42.6008 Y57.7779
G01 X42.5013 Y57.7631
G01 X42.4626 Y57.7536
G01 X38.0153 Y62.2009
G01 X38.0153 Y74.2616
G01 X38.0455 Y74.2952
G01 X38.0893 Y74.3544
G01 X38.1264 Y74.4165
G01 X38.1574 Y74.4819
G01 X38.1834 Y74.5547
G01 X38.2006 Y74.6237
G01 X38.2115 Y74.6977
G01 X38.2150 Y74.7700
G01 X38.2150 Y77.3712
G01 X38.2114 Y77.4435
G01 X38.2006 Y77.5163
G01 X38.1827 Y77.5877
G01 X38.1579 Y77.6570
G01 X38.1264 Y77.7235
G01 X38.0886 Y77.7867
G01 X38.0448 Y77.8458
G01 X37.9970 Y77.8986
G01 X37.9408 Y77.9498
G01 X37.8837 Y77.9922
G01 X37.8164 Y78.0325
G01 X37.7520 Y78.0629
G01 X37.6827 Y78.0877
G01 X37.6113 Y78.1056
G01 X37.5397 Y78.1163
G01 X37.4650 Y78.1200
G01 X37.3915 Y78.1164
G01 X37.3187 Y78.1056
G01 X37.2473 Y78.0877
G01 X37.1780 Y78.0629
G01 X37.1115 Y78.0314
G01 X37.0483 Y77.9936
G01 X36.9873 Y77.9482
G01 X36.9330 Y77.8986
G01 X36.8852 Y77.8458
G01 X36.8428 Y77.7887
G01 X36.8036 Y77.7235
G01 X36.7731 Y77.6593
G01 X36.7473 Y77.5877
G01 X36.7294 Y77.5163
G01 X36.7186 Y77.4435
G01 X36.7151 Y77.3725
G01 X36.7150 Y74.7700
G01 X36.7185 Y74.6977
G01 X36.7294 Y74.6237
G01 X36.7466 Y74.5547
G01 X36.7726 Y74.4819
G01 X36.8036 Y74.4165
G01 X36.8407 Y74.3544
G01 X36.8845 Y74.2952
G01 X36.9147 Y74.2616
G01 X36.9148 Y61.9705
G01 X36.9174 Y61.9191
G01 X36.9253 Y61.8657
G01 X36.9384 Y61.8133
G01 X36.9558 Y61.7647
G01 X36.9809 Y61.7115
G01 X37.0075 Y61.6673
G01 X37.0404 Y61.6230
G01 X37.0759 Y61.5839
G01 X38.2834 Y60.3764
G01 X31.4568 Y53.5499
G01 X31.4206 Y53.5099
G01 X31.3898 Y53.4685
G01 X31.3606 Y53.4202
G01 X31.3367 Y53.3691
G01 X31.3193 Y53.3205
G01 X31.3068 Y53.2705
G01 X31.2983 Y53.2147
G01 X31.2956 Y53.1608
G01 X31.2956 Y31.8520
G00 Z2.0000
G00 X32.9050 Y37.6100
G01 F60.00
G01 Z-0.1
G01 F200.00
G01 X32.8952 Y37.6090
G01 X32.8859 Y37.6062
G01 X32.8772 Y37.6016
G01 X32.8696 Y37.5954
G01 X32.8634 Y37.5878
G01 X32.8588 Y37.5791
G01 X32.8560 Y37.5698
G01 X32.8550 Y37.5600
G01 X32.8550 Y33.5600
G01 X32.8557 Y33.5515
G01 X32.8579 Y33.5432
G01 X32.8609 Y33.5364
G01 X32.8648 Y33.5302
G01 X32.8696 Y33.5246
G01 X32.8752 Y33.5198
G01 X32.8825 Y33.5153
G01 X32.8893 Y33.5125
G01 X32.8965 Y33.5107
G01 X32.9038 Y33.5100
G01 X34.4050 Y33.5100
G01 X34.4135 Y33.5107
G01 X34.4218 Y33.5129
G01 X34.4286 Y33.5159
G01 X34.4348 Y33.5198
G01 X34.4404 Y33.5246
G01 X34.4459 Y33.5312
G01 X34.4502 Y33.5386
G01 X34.4528 Y33.5455
G01 X34.4545 Y33.5527
G01 X34.4550 Y33.5600
G01 X34.4550 Y37.5600
G01 X34.4543 Y37.5685
G01 X34.4521 Y37.5768
G01 X34.4491 Y37.5836
G01 X34.4452 Y37.5898
G01 X34.4404 Y37.5954
G01 X34.4348 Y37.6002
G01 X34.4275 Y37.6047
G01 X34.4207 Y37.6075
G01 X34.4135 Y37.6093
G01 X34.4062 Y37.6100
G01 X32.9050 Y37.6100
G00 Z2.0000
G00 X35.3992 Y36.8908
G01 F60.00
G01 Z-0.1
G01 F200.00
G01 X35.3950 Y36.8100
G01 X35.3950 Y34.3100
G01 X35.3992 Y34.2292
G01 X35.4104 Y34.1539
G01 X35.4294 Y34.0778
G01 X35.4559 Y34.0039
G01 X35.4895 Y33.9329
G01 X35.5298 Y33.8655
G01 X35.5766 Y33.8025
G01 X35.6293 Y33.7443
G01 X35.6875 Y33.6916
G01 X35.7505 Y33.6448
G01 X35.8179 Y33.6045
G01 X35.8889 Y33.5709
G01 X35.9628 Y33.5444
G01 X36.0389 Y33.5254
G01 X36.1166 Y33.5139
G01 X36.1950 Y33.5100
G01 X36.2734 Y33.5139
G01 X36.3511 Y33.5254
G01 X36.4272 Y33.5444
G01 X36.5011 Y33.5709
G01 X36.5699 Y33.6034
G01 X36.6395 Y33.6448
G01 X36.7044 Y33.6932
G01 X36.7607 Y33.7443
G01 X36.8118 Y33.8006
G01 X36.8602 Y33.8655
G01 X36.9016 Y33.9351
G01 X36.9341 Y34.0039
G01 X36.9598 Y34.0754
G01 X36.9800 Y34.1563
G01 X36.9911 Y34.2316
G01 X36.9950 Y34.3100
G01 X36.9950 Y36.8100
G01 X36.9908 Y36.8908
G01 X36.9796 Y36.9661
G01 X36.9606 Y37.0422
G01 X36.9341 Y37.1161
G01 X36.9016 Y37.1849
G01 X36.8588 Y37.2565
G01 X36.8134 Y37.3175
G01 X36.7607 Y37.3757
G01 X36.7025 Y37.4284
G01 X36.6395 Y37.4752
G01 X36.5721 Y37.5155
G01 X36.5034 Y37.5481
G01 X36.4249 Y37.5762
G01 X36.3511 Y37.5946
G01 X36.2734 Y37.6061
G01 X36.1950 Y37.6100
G01 X36.1166 Y37.6061
G01 X36.0389 Y37.5946
G01 X35.9628 Y37.5756
G01 X35.8889 Y37.5491
G01 X35.8201 Y37.5166
G01 X35.7485 Y37.4738
G01 X35.6875 Y37.4284
G01 X35.6293 Y37.3757
G01 X35.5766 Y37.3175
G01 X35.5312 Y37.2565
G01 X35.4884 Y37.1849
G01 X35.4559 Y37.1161
G01 X35.4294 Y37.0422
G01 X35.4104 Y36.9661
G01 X35.3992 Y36.8908
G00 Z2.0000
G00 X37.9392 Y36.8908
G01 F60.00
G01 Z-0.1
G01 F200.00
G01 X37.9350 Y36.8100
G01 X37.9350 Y34.3100
G01 X37.9392 Y34.2292
G01 X37.9504 Y34.1539
G01 X37.9694 Y34.0778
G01 X37.9959 Y34.0039
G01 X38.0295 Y33.9329
G01 X38.0698 Y33.8655
G01 X38.1166 Y33.8025
G01 X38.1693 Y33.7443
G01 X38.2275 Y33.6916
G01 X38.2905 Y33.6448
G01 X38.3579 Y33.6045
G01 X38.4289 Y33.5709
G01 X38.5028 Y33.5444
G01 X38.5789 Y33.5254
G01 X38.6566 Y33.5139
G01 X38.7350 Y33.5100
G01 X38.8134 Y33.5139
G01 X38.8911 Y33.5254
G01 X38.9672 Y33.5444
G01 X39.0411 Y33.5709
G01 X39.1099 Y33.6034
G01 X39.1795 Y33.6448
G01 X39.2444 Y33.6932
G01 X39.3007 Y33.7443
G01 X39.3518 Y33.8006
G01 X39.4002 Y33.8655
G01 X39.4416 Y33.9351
G01 X39.4741 Y34.0039
G01 X39.4998 Y34.0754
G01 X39.5200 Y34.1563
G01 X39.5311 Y34.2316
G01 X39.5350 Y34.3100
G01 X39.5350 Y36.8100
G01 X39.5308 Y36.8908
G01 X39.5196 Y36.9661
G01 X39.5006 Y37.0422
G01 X39.4741 Y37.1161
G01 X39.4416 Y37.1849
G01 X39.3988 Y37.2565
G01 X39.3534 Y37.3175
G01 X39.3007 Y37.3757
G01 X39.2425 Y37.4284
G01 X39.1795 Y37.4752
G01 X39.1121 Y37.5155
G01 X39.0434 Y37.5481
G01 X38.9649 Y37.5762
G01 X38.8911 Y37.5946
G01 X38.8134 Y37.6061
G01 X38.7350 Y37.6100
G01 X38.6566 Y37.6061
G01 X38.5789 Y37.5946
G01 X38.5028 Y37.5756
G01 X38.4289 Y37.5491
G01 X38.3601 Y37.5166
G01 X38.2885 Y37.4738
G01 X38.2275 Y37.4284
G01 X38.1693 Y37.3757
G01 X38.1166 Y37.3175
G01 X38.0712 Y37.2565
G01 X38.0284 Y37.1849
G01 X37.9959 Y37.1161
G01 X37.9694 Y37.0422
G01 X37.9504 Y36.9661
G01 X37.9392 Y36.8908
G00 Z2.0000
G00 X32.8550 Y48.8000
G01 F60.00
G01 Z-0.1
G01 F200.00
G01 X32.8557 Y48.7915
G01 X32.8579 Y48.7832
G01 X32.8615 Y48.7754
G01 X32.8663 Y48.7683
G01 X32.8723 Y48.7621
G01 X32.8793 Y48.7571
G01 X32.8870 Y48.7534
G01 X32.8952 Y48.7510
G01 X32.9050 Y48.7500
G01 X33.1047 Y48.7500
G01 X33.1047 Y47.7997
G01 X33.1074 Y47.7458
G01 X33.1153 Y47.6924
G01 X33.1278 Y47.6423
G01 X33.1466 Y47.5891
G01 X33.1697 Y47.5403
G01 X33.1962 Y47.4961
G01 X33.2304 Y47.4497
G01 X33.2659 Y47.4106
G01 X39.9485 Y40.7280
G01 X39.9485 Y17.1991
G01 X36.6794 Y13.9300
G01 X34.2053 Y13.9300
G01 X34.2053 Y14.5716
G01 X34.2355 Y14.6052
G01 X34.2793 Y14.6644
G01 X34.3164 Y14.7265
G01 X34.3484 Y14.7941
G01 X34.3727 Y14.8623
G01 X34.3906 Y14.9337
G01 X34.4014 Y15.0065
G01 X34.4049 Y15.0775
G01 X34.4050 Y17.6800
G01 X34.4014 Y17.7535
G01 X34.3910 Y17.8239
G01 X34.3723 Y17.8989
G01 X34.3479 Y17.9670
G01 X34.3164 Y18.0335
G01 X34.2786 Y18.0967
G01 X34.2363 Y18.1539
G01 X34.1836 Y18.2120
G01 X34.1308 Y18.2598
G01 X34.0717 Y18.3036
G01 X34.0085 Y18.3414
G01 X33.9420 Y18.3729
G01 X33.8727 Y18.3977
G01 X33.8037 Y18.4151
G01 X33.7261 Y18.4266
G01 X33.6550 Y18.4300
G01 X33.5815 Y18.4264
G01 X33.5087 Y18.4156
G01 X33.4397 Y18.3984
G01 X33.3657 Y18.3719
G01 X33.3015 Y18.3414
G01 X33.2383 Y18.3036
G01 X33.1792 Y18.2598
G01 X33.1247 Y18.2103
G01 X33.0752 Y18.1558
G01 X33.0314 Y18.0967
G01 X32.9936 Y18.0335
G01 X32.9631 Y17.9693
G01 X32.9366 Y17.8953
G01 X32.9194 Y17.8263
G01 X32.9086 Y17.7535
G01 X32.9050 Y17.6800
G01 X32.9050 Y15.0800
G01 X32.9085 Y15.0077
G01 X32.9194 Y14.9337
G01 X32.9366 Y14.8647
G01 X32.9626 Y14.7919
G01 X32.9936 Y14.7265
G01 X33.0307 Y14.6644
G01 X33.0745 Y14.6052
G01 X33.1047 Y14.5716
G01 X33.1047 Y13.3797
G01 X33.1073 Y13.3270
G01 X33.1159 Y13.2700
G01 X33.1284 Y13.2200
G01 X33.1466 Y13.1691
G01 X33.1697 Y13.1203
G01 X33.1962 Y13.0761
G01 X33.2297 Y13.0306
G01 X33.2659 Y12.9906
G01 X33.3059 Y12.9544
G01 X33.3493 Y12.9222
G01 X33.3956 Y12.8944
G01 X33.4444 Y12.8713
G01 X33.4953 Y12.8531
G01 X33.5477 Y12.8400
G01 X33.6035 Y12.8319
G01 X33.6550 Y12.8294
G01 X36.9073 Y12.8294
G01 X36.9625 Y12.8322
G01 X37.0146 Y12.8400
G01 X37.0670 Y12.8531
G01 X37.1179 Y12.8713
G01 X37.1645 Y12.8933
G01 X37.2150 Y12.9236
G01 X37.2564 Y12.9544
G01 X37.2964 Y12.9906
G01 X40.8887 Y16.5830
G01 X40.9241 Y16.6221
G01 X40.9549 Y16.6635
G01 X40.9852 Y16.7140
G01 X41.0072 Y16.7606
G01 X41.0254 Y16.8115
G01 X41.0385 Y16.8639
G01 X41.0461 Y16.9148
G01 X41.0491 Y16.9712
G01 X41.0491 Y40.9559
G01 X41.0463 Y41.0111
G01 X41.0385 Y41.0632
G01 X41.0254 Y41.1156
G01 X41.0072 Y41.1665
G01 X40.9852 Y41.2131
G01 X40.9549 Y41.2636
G01 X40.9241 Y41.3050
G01 X40.8887 Y41.3441
G01 X34.2053 Y48.0276
G01 X34.2053 Y48.7500
G01 X34.4050 Y48.7500
G01 X34.4148 Y48.7510
G01 X34.4230 Y48.7534
G01 X34.4307 Y48.7571
G01 X34.4367 Y48.7613
G01 X34.4429 Y48.7673
G01 X34.4472 Y48.7733
G01 X34.4512 Y48.7809
G01 X34.4538 Y48.7890
G01 X34.4549 Y48.7975
G01 X34.4550 Y52.8000
G01 X34.4545 Y52.8073
G01 X34.4528 Y52.8145
G01 X34.4502 Y52.8214
G01 X34.4466 Y52.8278
G01 X34.4420 Y52.8336
G01 X34.4367 Y52.8387
G01 X34.4307 Y52.8429
G01 X34.4230 Y52.8466
G01 X34.4148 Y52.8490
G01 X34.4050 Y52.8500
G01 X32.9038 Y52.8500
G01 X32.8965 Y52.8493
G01 X32.8893 Y52.8475
G01 X32.8825 Y52.8447
G01 X32.8762 Y52.8409
G01 X32.8705 Y52.8362
G01 X32.8656 Y52.8308
G01 X32.8615 Y52.8246
G01 X32.8584 Y52.8180
G01 X32.8560 Y52.8098
G01 X32.8550 Y52.8000
G01 X32.8550 Y48.8000
G00 Z2.0000
G00 X37.9392 Y52.1308
G01 F60.00
G01 Z-0.1
G01 F200.00
G01 X37.9350 Y52.0500
G01 X37.9350 Y49.5500
G01 X37.9392 Y49.4692
G01 X37.9504 Y49.3939
G01 X37.9694 Y49.3178
G01 X37.9959 Y49.2439
G01 X38.0295 Y49.1729
G01 X38.0698 Y49.1055
G01 X38.1166 Y49.0425
G01 X38.1693 Y48.9843
G01 X38.2275 Y48.9316
G01 X38.2905 Y48.8848
G01 X38.3579 Y48.8445
G01 X38.4289 Y48.8109
G01 X38.5028 Y48.7844
G01 X38.5789 Y48.7654
G01 X38.6566 Y48.7539
G01 X38.7350 Y48.7500
G01 X38.8134 Y48.7539
G01 X38.8911 Y48.7654
G01 X38.9672 Y48.7844
G01 X39.0411 Y48.8109
G01 X39.1099 Y48.8434
G01 X39.1795 Y48.8848
G01 X39.2444 Y48.9332
G01 X39.3007 Y48.9843
G01 X39.3518 Y49.0406
G01 X39.4002 Y49.1055
G01 X39.4416 Y49.1751
G01 X39.4741 Y49.2439
G01 X39.4998 Y49.3154
G01 X39.5200 Y49.3963
G01 X39.5311 Y49.4716
G01 X39.5350 Y49.5500
G01 X39.5350 Y52.0500
G01 X39.5308 Y52.1308
G01 X39.5196 Y52.2061
G01 X39.5006 Y52.2822
G01 X39.4741 Y52.3561
G01 X39.4416 Y52.4249
G01 X39.3988 Y52.4965
G01 X39.3534 Y52.5575
G01 X39.3007 Y52.6157
G01 X39.2425 Y52.6684
G01 X39.1795 Y52.7152
G01 X39.1121 Y52.7555
G01 X39.0411 Y52.7891
G01 X38.9672 Y52.8156
G01 X38.8935 Y52.8341
G01 X38.8110 Y52.8463
G01 X38.7350 Y52.8500
G01 X38.6566 Y52.8461
G01 X38.5789 Y52.8346
G01 X38.5028 Y52.8156
G01 X38.4289 Y52.7891
G01 X38.3601 Y52.7566
G01 X38.2885 Y52.7138
G01 X38.2275 Y52.6684
G01 X38.1693 Y52.6157
G01 X38.1166 Y52.5575
G01 X38.0712 Y52.4965
G01 X38.0284 Y52.4249
G01 X37.9959 Y52.3561
G01 X37.9694 Y52.2822
G01 X37.9504 Y52.2061
G01 X37.9392 Y52.1308
G00 Z2.0000
G00 X52.5400 Y48.8000
G01 F60.00
G01 Z-0.1
G01 F200.00
G01 X52.5407 Y48.7915
G01 X52.5429 Y48.7832
G01 X52.5465 Y48.7754
G01 X52.5513 Y48.7683
G01 X52.5573 Y48.7621
G01 X52.5643 Y48.7571
G01 X52.5720 Y48.7534
G01 X52.5802 Y48.7510
G01 X52.5900 Y48.7500
G01 X52.7897 Y48.7500
G01 X52.7897 Y47.7997
G01 X52.7925 Y47.7445
G01 X52.8003 Y47.6924
G01 X52.8134 Y47.6400
G01 X52.8316 Y47.5891
G01 X52.8536 Y47.5425
G01 X52.8839 Y47.4920
G01 X52.9147 Y47.4506
G01 X52.9501 Y47.4115
G01 X65.4897 Y34.8718
G01 X65.4897 Y23.5284
G01 X65.4595 Y23.4948
G01 X65.4157 Y23.4356
G01 X65.3786 Y23.3735
G01 X65.3476 Y23.3081
G01 X65.3216 Y23.2353
G01 X65.3044 Y23.1663
G01 X65.2935 Y23.0923
G01 X65.2900 Y23.0200
G01 X65.2900 Y20.4200
G01 X65.2934 Y20.3489
G01 X65.3044 Y20.2737
G01 X65.3231 Y20.2000
G01 X65.3471 Y20.1330
G01 X65.3775 Y20.0686
G01 X65.4164 Y20.0033
G01 X65.4602 Y19.9442
G01 X65.5114 Y19.8880
G01 X65.5642 Y19.8402
G01 X65.6213 Y19.7978
G01 X65.6865 Y19.7586
G01 X65.7553 Y19.7262
G01 X65.8223 Y19.7023
G01 X65.8913 Y19.6849
G01 X65.9665 Y19.6736
G01 X66.0400 Y19.6700
G01 X66.1135 Y19.6736
G01 X66.1887 Y19.6849
G01 X66.2577 Y19.7023
G01 X66.3247 Y19.7262
G01 X66.3914 Y19.7575
G01 X66.4587 Y19.7978
G01 X66.5158 Y19.8402
G01 X66.5686 Y19.8880
G01 X66.6198 Y19.9442
G01 X66.6649 Y20.0054
G01 X66.7014 Y20.0665
G01 X66.7319 Y20.1307
G01 X66.7577 Y20.2023
G01 X66.7756 Y20.2737
G01 X66.7861 Y20.3441
G01 X66.7900 Y20.4200
G01 X66.7900 Y23.0200
G01 X66.7865 Y23.0923
G01 X66.7756 Y23.1663
G01 X66.7584 Y23.2353
G01 X66.7324 Y23.3081
G01 X66.7014 Y23.3735
G01 X66.6643 Y23.4356
G01 X66.6205 Y23.4948
G01 X66.5903 Y23.5284
G01 X66.5903 Y35.0997
G01 X66.5876 Y35.1536
G01 X66.5791 Y35.2094
G01 X66.5666 Y35.2594
G01 X66.5492 Y35.3080
G01 X66.5264 Y35.3569
G01 X66.4961 Y35.4074
G01 X66.4653 Y35.4488
G01 X66.4291 Y35.4888
G01 X53.8903 Y48.0276
G01 X53.8903 Y48.7500
G01 X54.0900 Y48.7500
G01 X54.0998 Y48.7510
G01 X54.1080 Y48.7534
G01 X54.1157 Y48.7571
G01 X54.1217 Y48.7613
G01 X54.1279 Y48.7673
G01 X54.1322 Y48.7733
G01 X54.1362 Y48.7809
G01 X54.1388 Y48.7890
G01 X54.1399 Y48.7975
G01 X54.1400 Y52.8000
G01 X54.1395 Y52.8073
G01 X54.1378 Y52.8145
G01 X54.1352 Y52.8214
G01 X54.1316 Y52.8278
G01 X54.1270 Y52.8336
G01 X54.1217 Y52.8387
G01 X54.1157 Y52.8429
G01 X54.1080 Y52.8466
G01 X54.0998 Y52.8490
G01 X54.0900 Y52.8500
G01 X52.5888 Y52.8500
G01 X52.5815 Y52.8493
G01 X52.5743 Y52.8475
G01 X52.5675 Y52.8447
G01 X52.5612 Y52.8409
G01 X52.5555 Y52.8362
G01 X52.5506 Y52.8308
G01 X52.5465 Y52.8246
G01 X52.5434 Y52.8180
G01 X52.5410 Y52.8098
G01 X52.5400 Y52.8000
G01 X52.5400 Y48.8000
G00 Z2.0000
G00 X55.0842 Y52.1308
G01 F60.00
G01 Z-0.1
G01 F200.00
G01 X55.0800 Y52.0500
G01 X55.0800 Y49.5500
G01 X55.0837 Y49.4728
G01 X55.0954 Y49.3939
G01 X55.1144 Y49.3178
G01 X55.1409 Y49.2439
G01 X55.1739 Y49.1740
G01 X55.2148 Y49.1055
G01 X55.2608 Y49.0434
G01 X55.3135 Y48.9852
G01 X55.3297 Y48.9702
G01 X55.3297 Y47.7997
G01 X55.3323 Y47.7470
G01 X55.3409 Y47.6900
G01 X55.3534 Y47.6400
G01 X55.3716 Y47.5891
G01 X55.3959 Y47.5382
G01 X55.4225 Y47.4940
G01 X55.4531 Y47.4526
G01 X55.4909 Y47.4106
G01 X68.0297 Y34.8718
G01 X68.0297 Y23.5284
G01 X67.9995 Y23.4948
G01 X67.9557 Y23.4356
G01 X67.9186 Y23.3735
G01 X67.8876 Y23.3081
G01 X67.8623 Y23.2377
G01 X67.8449 Y23.1687
G01 X67.8335 Y23.0923
G01 X67.8300 Y23.0200
G01 X67.8300 Y20.4200
G01 X67.8334 Y20.3489
G01 X67.8444 Y20.2737
G01 X67.8631 Y20.2000
G01 X67.8881 Y20.1307
G01 X67.9186 Y20.0665
G01 X67.9551 Y20.0054
G01 X68.0002 Y19.9442
G01 X68.0497 Y19.8897
G01 X68.1042 Y19.8402
G01 X68.1654 Y19.7951
G01 X68.2265 Y19.7586
G01 X68.2907 Y19.7281
G01 X68.3600 Y19.7031
G01 X68.4337 Y19.6844
G01 X68.5065 Y19.6736
G01 X68.5800 Y19.6700
G01 X68.6559 Y19.6739
G01 X68.7263 Y19.6844
G01 X68.7953 Y19.7016
G01 X68.8670 Y19.7271
G01 X68.9335 Y19.7586
G01 X68.9946 Y19.7951
G01 X69.0558 Y19.8402
G01 X69.1120 Y19.8914
G01 X69.1598 Y19.9442
G01 X69.2036 Y20.0033
G01 X69.2414 Y20.0665
G01 X69.2719 Y20.1307
G01 X69.2977 Y20.2023
G01 X69.3160 Y20.2761
G01 X69.3264 Y20.3465
G01 X69.3300 Y20.4188
G01 X69.3300 Y23.0200
G01 X69.3265 Y23.0923
G01 X69.3156 Y23.1663
G01 X69.2984 Y23.2353
G01 X69.2724 Y23.3081
G01 X69.2414 Y23.3735
G01 X69.2043 Y23.4356
G01 X69.1605 Y23.4948
G01 X69.1303 Y23.5284
G01 X69.1303 Y35.0997
G01 X69.1276 Y35.1536
G01 X69.1197 Y35.2070
G01 X69.1066 Y35.2594
G01 X69.0884 Y35.3103
G01 X69.0653 Y35.3591
G01 X69.0375 Y35.4054
G01 X69.0053 Y35.4488
G01 X68.9691 Y35.4888
G01 X56.4303 Y48.0276
G01 X56.4303 Y48.9702
G01 X56.4465 Y48.9852
G01 X56.4992 Y49.0434
G01 X56.5452 Y49.1055
G01 X56.5861 Y49.1740
G01 X56.6191 Y49.2439
G01 X56.6456 Y49.3178
G01 X56.6646 Y49.3939
G01 X56.6763 Y49.4740
G01 X56.6800 Y49.5500
G01 X56.6800 Y52.0500
G01 X56.6761 Y52.1284
G01 X56.6650 Y52.2037
G01 X56.6452 Y52.2834
G01 X56.6191 Y52.3561
G01 X56.5855 Y52.4271
G01 X56.5452 Y52.4945
G01 X56.4999 Y52.5556
G01 X56.4439 Y52.6174
G01 X56.3875 Y52.6684
G01 X56.3245 Y52.7152
G01 X56.2571 Y52.7555
G01 X56.1884 Y52.7881
G01 X56.1099 Y52.8162
G01 X56.0361 Y52.8346
G01 X55.9584 Y52.8461
G01 X55.8800 Y52.8500
G01 X55.8016 Y52.8461
G01 X55.7239 Y52.8346
G01 X55.6478 Y52.8156
G01 X55.5739 Y52.7891
G01 X55.5051 Y52.7566
G01 X55.4335 Y52.7138
G01 X55.3725 Y52.6684
G01 X55.3143 Y52.6157
G01 X55.2616 Y52.5575
G01 X55.2162 Y52.4965
G01 X55.1734 Y52.4249
G01 X55.1409 Y52.3561
G01 X55.1144 Y52.2822
G01 X55.0954 Y52.2061
G01 X55.0842 Y52.1308
G00 Z2.0000
G00 X57.6242 Y52.1308
G01 F60.00
G01 Z-0.1
G01 F200.00
G01 X57.6200 Y52.0500
G01 X57.6200 Y49.5500
G01 X57.6242 Y49.4692
G01 X57.6354 Y49.3939
G01 X57.6544 Y49.3178
G01 X57.6809 Y49.2439
G01 X57.7145 Y49.1729
G01 X57.7548 Y49.1055
G01 X57.8016 Y49.0425
G01 X57.8543 Y48.9843
G01 X57.9125 Y48.9316
G01 X57.9755 Y48.8848
G01 X58.0429 Y48.8445
G01 X58.1139 Y48.8109
G01 X58.1878 Y48.7844
G01 X58.2639 Y48.7654
G01 X58.3416 Y48.7539
G01 X58.4200 Y48.7500
G01 X58.4984 Y48.7539
G01 X58.5761 Y48.7654
G01 X58.6522 Y48.7844
G01 X58.7261 Y48.8109
G01 X58.7949 Y48.8434
G01 X58.8645 Y48.8848
G01 X58.9294 Y48.9332
G01 X58.9857 Y48.9843
G01 X59.0368 Y49.0406
G01 X59.0852 Y49.1055
G01 X59.1266 Y49.1751
G01 X59.1591 Y49.2439
G01 X59.1848 Y49.3154
G01 X59.2050 Y49.3963
G01 X59.2161 Y49.4716
G01 X59.2200 Y49.5500
G01 X59.2200 Y52.0500
G01 X59.2158 Y52.1308
G01 X59.2046 Y52.2061
G01 X59.1856 Y52.2822
G01 X59.1591 Y52.3561
G01 X59.1266 Y52.4249
G01 X59.0838 Y52.4965
G01 X59.0384 Y52.5575
G01 X58.9857 Y52.6157
G01 X58.9275 Y52.6684
G01 X58.8645 Y52.7152
G01 X58.7971 Y52.7555
G01 X58.7284 Y52.7881
G01 X58.6499 Y52.8162
G01 X58.5761 Y52.8346
G01 X58.4984 Y52.8461
G01 X58.4200 Y52.8500
G01 X58.3416 Y52.8461
G01 X58.2639 Y52.8346
G01 X58.1878 Y52.8156
G01 X58.1139 Y52.7891
G01 X58.0451 Y52.7566
G01 X57.9735 Y52.7138
G01 X57.9125 Y52.6684
G01 X57.8543 Y52.6157
G01 X57.8016 Y52.5575
G01 X57.7562 Y52.4965
G01 X57.7134 Y52.4249
G01 X57.6809 Y52.3561
G01 X57.6544 Y52.2822
G01 X57.6354 Y52.2061
G01 X57.6242 Y52.1308
G00 Z2.0000
G00 X49.4913 Y63.2243
G01 F60.00
G01 Z-0.1
G01 F200.00
G01 X49.4912 Y18.4436
G01 X49.4939 Y18.3897
G01 X49.5021 Y18.3351
G01 X49.5149 Y18.2839
G01 X49.5323 Y18.2353
G01 X49.5562 Y18.1842
G01 X49.5854 Y18.1359
G01 X49.6162 Y18.0945
G01 X49.6524 Y18.0545
G01 X54.7163 Y12.9906
G01 X54.7563 Y12.9544
G01 X54.7977 Y12.9236
G01 X54.8482 Y12.8933
G01 X54.8971 Y12.8705
G01 X54.9457 Y12.8531
G01 X54.9957 Y12.8406
G01 X55.0515 Y12.8321
G01 X55.1054 Y12.8294
G01 X60.9600 Y12.8294
G01 X61.0139 Y12.8321
G01 X61.0685 Y12.8403
G01 X61.1197 Y12.8531
G01 X61.1683 Y12.8705
G01 X61.2194 Y12.8944
G01 X61.2677 Y12.9236
G01 X61.3091 Y12.9544
G01 X61.3473 Y12.9889
G01 X61.3853 Y13.0306
G01 X61.4188 Y13.0761
G01 X61.4453 Y13.1203
G01 X61.4674 Y13.1669
G01 X61.4869 Y13.2211
G01 X61.4997 Y13.2724
G01 X61.5073 Y13.3233
G01 X61.5102 Y13.3785
G01 X61.5103 Y14.5716
G01 X61.5405 Y14.6052
G01 X61.5843 Y14.6644
G01 X61.6214 Y14.7265
G01 X61.6534 Y14.7941
G01 X61.6777 Y14.8623
G01 X61.6956 Y14.9337
G01 X61.7064 Y15.0065
G01 X61.7099 Y15.0775
G01 X61.7100 Y17.6800
G01 X61.7063 Y17.7547
G01 X61.6951 Y17.8287
G01 X61.6777 Y17.8977
G01 X61.6538 Y17.9647
G01 X61.6214 Y18.0335
G01 X61.5836 Y18.0967
G01 X61.5398 Y18.1558
G01 X61.4886 Y18.2120
G01 X61.4358 Y18.2598
G01 X61.3787 Y18.3022
G01 X61.3146 Y18.3408
G01 X61.2470 Y18.3729
G01 X61.1753 Y18.3984
G01 X61.1063 Y18.4156
G01 X61.0359 Y18.4261
G01 X60.9625 Y18.4299
G01 X60.8865 Y18.4264
G01 X60.8137 Y18.4156
G01 X60.7423 Y18.3977
G01 X60.6707 Y18.3719
G01 X60.6065 Y18.3414
G01 X60.5454 Y18.3049
G01 X60.4861 Y18.2613
G01 X60.4297 Y18.2103
G01 X60.3802 Y18.1558
G01 X60.3351 Y18.0946
G01 X60.2986 Y18.0335
G01 X60.2681 Y17.9693
G01 X60.2423 Y17.8977
G01 X60.2244 Y17.8263
G01 X60.2136 Y17.7535
G01 X60.2100 Y17.6800
G01 X60.2101 Y15.0775
G01 X60.2136 Y15.0065
G01 X60.2244 Y14.9337
G01 X60.2423 Y14.8623
G01 X60.2666 Y14.7941
G01 X60.2986 Y14.7265
G01 X60.3357 Y14.6644
G01 X60.3795 Y14.6052
G01 X60.4097 Y14.5716
G01 X60.4097 Y13.9300
G01 X55.3333 Y13.9300
G01 X50.5918 Y18.6715
G01 X50.5918 Y62.9939
G01 X51.8176 Y64.2197
G01 X52.5400 Y64.2197
G01 X52.5400 Y62.7700
G01 X52.5402 Y62.7651
G01 X52.5412 Y62.7590
G01 X52.5443 Y62.7497
G01 X52.5491 Y62.7412
G01 X52.5555 Y62.7338
G01 X52.5622 Y62.7284
G01 X52.5709 Y62.7238
G01 X52.5802 Y62.7210
G01 X52.5900 Y62.7200
G01 X54.0900 Y62.7200
G01 X54.0949 Y62.7202
G01 X54.1010 Y62.7212
G01 X54.1103 Y62.7243
G01 X54.1188 Y62.7291
G01 X54.1262 Y62.7355
G01 X54.1322 Y62.7433
G01 X54.1366 Y62.7520
G01 X54.1390 Y62.7602
G01 X54.1400 Y62.7700
G01 X54.1400 Y66.7700
G01 X54.1395 Y66.7773
G01 X54.1375 Y66.7857
G01 X54.1341 Y66.7936
G01 X54.1294 Y66.8008
G01 X54.1254 Y66.8054
G01 X54.1208 Y66.8094
G01 X54.1157 Y66.8129
G01 X54.1114 Y66.8152
G01 X54.1068 Y66.8171
G01 X54.1010 Y66.8188
G01 X54.0949 Y66.8198
G01 X54.0900 Y66.8200
G01 X52.5900 Y66.8200
G01 X52.5827 Y66.8195
G01 X52.5743 Y66.8175
G01 X52.5664 Y66.8141
G01 X52.5592 Y66.8094
G01 X52.5555 Y66.8062
G01 X52.5513 Y66.8017
G01 X52.5478 Y66.7967
G01 X52.5453 Y66.7925
G01 X52.5429 Y66.7868
G01 X52.5415 Y66.7821
G01 X52.5405 Y66.7773
G01 X52.5400 Y66.7712
G01 X52.5400 Y65.3203
G01 X51.5897 Y65.3203
G01 X51.5370 Y65.3177
G01 X51.4824 Y65.3097
G01 X51.4276 Y65.2958
G01 X51.3791 Y65.2784
G01 X51.3325 Y65.2564
G01 X51.2830 Y65.2268
G01 X51.2406 Y65.1953
G01 X51.2006 Y65.1591
G01 X49.6524 Y63.6109
G01 X49.6178 Y63.5727
G01 X49.5827 Y63.5254
G01 X49.5562 Y63.4812
G01 X49.5323 Y63.4301
G01 X49.5149 Y63.3815
G01 X49.5018 Y63.3291
G01 X49.4939 Y63.2757
G01 X49.4913 Y63.2243
G00 Z2.0000
G00 X47.9909 Y64.1676
G01 F60.00
G01 Z-0.1
G01 F200.00
G01 X47.9908 Y17.8221
G01 X47.9938 Y17.7657
G01 X48.0014 Y17.7148
G01 X48.0142 Y17.6635
G01 X48.0327 Y17.6115
G01 X48.0570 Y17.5606
G01 X48.0836 Y17.5164
G01 X48.1142 Y17.4750
G01 X48.1520 Y17.4330
G01 X54.0957 Y11.4893
G01 X54.1357 Y11.4531
G01 X54.1791 Y11.4209
G01 X54.2254 Y11.3931
G01 X54.2731 Y11.3705
G01 X54.3251 Y11.3518
G01 X54.3775 Y11.3387
G01 X54.4309 Y11.3308
G01 X54.4848 Y11.3281
G01 X61.9987 Y11.3281
G01 X62.0551 Y11.3311
G01 X62.1060 Y11.3387
G01 X62.1573 Y11.3515
G01 X62.2093 Y11.3700
G01 X62.2602 Y11.3943
G01 X62.3044 Y11.4209
G01 X62.3458 Y11.4515
G01 X62.3869 Y11.4885
G01 X63.8891 Y12.9906
G01 X63.9253 Y13.0306
G01 X63.9561 Y13.0720
G01 X63.9853 Y13.1203
G01 X64.0092 Y13.1714
G01 X64.0266 Y13.2200
G01 X64.0391 Y13.2700
G01 X64.0476 Y13.3258
G01 X64.0503 Y13.3797
G01 X64.0503 Y14.5716
G01 X64.0805 Y14.6052
G01 X64.1243 Y14.6644
G01 X64.1614 Y14.7265
G01 X64.1934 Y14.7941
G01 X64.2177 Y14.8623
G01 X64.2356 Y14.9337
G01 X64.2464 Y15.0065
G01 X64.2499 Y15.0775
G01 X64.2500 Y17.6812
G01 X64.2464 Y17.7535
G01 X64.2360 Y17.8239
G01 X64.2177 Y17.8977
G01 X64.1919 Y17.9693
G01 X64.1614 Y18.0335
G01 X64.1249 Y18.0946
G01 X64.0798 Y18.1558
G01 X64.0286 Y18.2120
G01 X63.9758 Y18.2598
G01 X63.9187 Y18.3022
G01 X63.8525 Y18.3420
G01 X63.7870 Y18.3729
G01 X63.7153 Y18.3984
G01 X63.6463 Y18.4156
G01 X63.5759 Y18.4261
G01 X63.5025 Y18.4299
G01 X63.4265 Y18.4264
G01 X63.3537 Y18.4156
G01 X63.2823 Y18.3977
G01 X63.2130 Y18.3729
G01 X63.1465 Y18.3414
G01 X63.0833 Y18.3036
G01 X63.0242 Y18.2598
G01 X62.9680 Y18.2086
G01 X62.9202 Y18.1558
G01 X62.8778 Y18.0987
G01 X62.8398 Y18.0357
G01 X62.8071 Y17.9670
G01 X62.7831 Y17.9000
G01 X62.7640 Y17.8239
G01 X62.7536 Y17.7535
G01 X62.7500 Y17.6800
G01 X62.7501 Y15.0775
G01 X62.7536 Y15.0065
G01 X62.7644 Y14.9337
G01 X62.7823 Y14.8623
G01 X62.8066 Y14.7941
G01 X62.8386 Y14.7265
G01 X62.8757 Y14.6644
G01 X62.9195 Y14.6052
G01 X62.9497 Y14.5716
G01 X62.9497 Y13.6076
G01 X61.7708 Y12.4287
G01 X54.7127 Y12.4287
G01 X49.0914 Y18.0500
G01 X49.0914 Y63.9372
G01 X52.3742 Y67.2200
G01 X57.8697 Y67.2200
G01 X57.8697 Y66.5998
G01 X57.8535 Y66.5848
G01 X57.8008 Y66.5266
G01 X57.7548 Y66.4645
G01 X57.7139 Y66.3960
G01 X57.6809 Y66.3261
G01 X57.6544 Y66.2522
G01 X57.6354 Y66.1761
G01 X57.6237 Y66.0960
G01 X57.6200 Y66.0200
G01 X57.6200 Y63.5200
G01 X57.6239 Y63.4416
G01 X57.6354 Y63.3639
G01 X57.6544 Y63.2878
G01 X57.6809 Y63.2139
G01 X57.7145 Y63.1429
G01 X57.7562 Y63.0735
G01 X57.8016 Y63.0125
G01 X57.8526 Y62.9561
G01 X57.9106 Y62.9032
G01 X57.9755 Y62.8548
G01 X58.0429 Y62.8145
G01 X58.1139 Y62.7809
G01 X58.1878 Y62.7544
G01 X58.2639 Y62.7354
G01 X58.3440 Y62.7237
G01 X58.4200 Y62.7200
G01 X58.4960 Y62.7237
G01 X58.5737 Y62.7350
G01 X58.6522 Y62.7544
G01 X58.7261 Y62.7809
G01 X58.7993 Y62.8157
G01 X58.8645 Y62.8548
G01 X58.9275 Y62.9016
G01 X58.9874 Y62.9561
G01 X59.0384 Y63.0125
G01 X59.0852 Y63.0755
G01 X59.1266 Y63.1451
G01 X59.1591 Y63.2139
G01 X59.1856 Y63.2878
G01 X59.2050 Y63.3663
G01 X59.2161 Y63.4416
G01 X59.2199 Y63.5175
G01 X59.2200 Y66.0200
G01 X59.2163 Y66.0972
G01 X59.2046 Y66.1761
G01 X59.1856 Y66.2522
G01 X59.1591 Y66.3261
G01 X59.1261 Y66.3960
G01 X59.0852 Y66.4645
G01 X59.0392 Y66.5266
G01 X58.9865 Y66.5848
G01 X58.9703 Y66.5998
G01 X58.9702 Y67.7715
G01 X58.9676 Y67.8242
G01 X58.9601 Y67.8752
G01 X58.9462 Y67.9312
G01 X58.9284 Y67.9809
G01 X58.9064 Y68.0275
G01 X58.8775 Y68.0760
G01 X58.8453 Y68.1194
G01 X58.8108 Y68.1576
G01 X58.7691 Y68.1956
G01 X58.7236 Y68.2291
G01 X58.6794 Y68.2556
G01 X58.6306 Y68.2787
G01 X58.5797 Y68.2969
G01 X58.5297 Y68.3094
G01 X58.4715 Y68.3181
G01 X58.4200 Y68.3206
G01 X52.1463 Y68.3206
G01 X52.0924 Y68.3179
G01 X52.0414 Y68.3104
G01 X51.9854 Y68.2965
G01 X51.9335 Y68.2777
G01 X51.8869 Y68.2556
G01 X51.8427 Y68.2291
G01 X51.7972 Y68.1956
G01 X51.7572 Y68.1594
G01 X48.1512 Y64.5533
G01 X48.1158 Y64.5142
G01 X48.0836 Y64.4708
G01 X48.0558 Y64.4245
G01 X48.0327 Y64.3757
G01 X48.0145 Y64.3248
G01 X48.0014 Y64.2724
G01 X47.9935 Y64.2190
G01 X47.9909 Y64.1676
G00 Z2.0000
G00 X50.6592 Y76.2808
G01 F60.00
G01 Z-0.1
G01 F200.00
G01 X50.6550 Y76.2000
G01 X50.6589 Y76.1216
G01 X50.6704 Y76.0439
G01 X50.6894 Y75.9678
G01 X50.7159 Y75.8939
G01 X50.7495 Y75.8229
G01 X50.7898 Y75.7555
G01 X50.8382 Y75.6906
G01 X50.8911 Y75.6326
G01 X50.9475 Y75.5816
G01 X51.0085 Y75.5362
G01 X51.0779 Y75.4945
G01 X51.1466 Y75.4619
G01 X51.2228 Y75.4344
G01 X51.2989 Y75.4154
G01 X51.3766 Y75.4039
G01 X51.4538 Y75.4000
G01 X53.9550 Y75.4000
G01 X54.0334 Y75.4039
G01 X54.1135 Y75.4159
G01 X54.1872 Y75.4344
G01 X54.2611 Y75.4609
G01 X54.3321 Y75.4945
G01 X54.3974 Y75.5335
G01 X54.4644 Y75.5832
G01 X54.5207 Y75.6343
G01 X54.5734 Y75.6925
G01 X54.6202 Y75.7555
G01 X54.6593 Y75.8207
G01 X54.6950 Y75.8961
G01 X54.7206 Y75.9678
G01 X54.7396 Y76.0439
G01 X54.7511 Y76.1216
G01 X54.7550 Y76.1988
G01 X54.7511 Y76.2784
G01 X54.7396 Y76.3561
G01 X54.7206 Y76.4322
G01 X54.6941 Y76.5061
G01 X54.6605 Y76.5771
G01 X54.6202 Y76.6445
G01 X54.5734 Y76.7075
G01 X54.5207 Y76.7657
G01 X54.4625 Y76.8184
G01 X54.3995 Y76.8652
G01 X54.3321 Y76.9055
G01 X54.2611 Y76.9391
G01 X54.1872 Y76.9656
G01 X54.1111 Y76.9846
G01 X54.0334 Y76.9961
G01 X53.9562 Y77.0000
G01 X51.4550 Y77.0000
G01 X51.3766 Y76.9961
G01 X51.2977 Y76.9844
G01 X51.2228 Y76.9656
G01 X51.1511 Y76.9400
G01 X51.0779 Y76.9055
G01 X51.0105 Y76.8652
G01 X50.9494 Y76.8199
G01 X50.8876 Y76.7639
G01 X50.8366 Y76.7075
G01 X50.7912 Y76.6465
G01 X50.7484 Y76.5749
G01 X50.7159 Y76.5061
G01 X50.6894 Y76.4322
G01 X50.6704 Y76.3561
G01 X50.6592 Y76.2808
G00 Z2.0000
G00 X50.6592 Y78.8208
G01 F60.00
G01 Z-0.1
G01 F200.00
G01 X50.6550 Y78.7400
G01 X50.6589 Y78.6616
G01 X50.6704 Y78.5839
G01 X50.6894 Y78.5078
G01 X50.7159 Y78.4339
G01 X50.7495 Y78.3629
G01 X50.7898 Y78.2955
G01 X50.8366 Y78.2325
G01 X50.8893 Y78.1743
G01 X50.9475 Y78.1216
G01 X51.0105 Y78.0748
G01 X51.0779 Y78.0345
G01 X51.1489 Y78.0009
G01 X51.2228 Y77.9744
G01 X51.2989 Y77.9554
G01 X51.3754 Y77.9440
G01 X51.4550 Y77.9400
G01 X53.9550 Y77.9400
G01 X54.0310 Y77.9437
G01 X54.1111 Y77.9554
G01 X54.1872 Y77.9744
G01 X54.2611 Y78.0009
G01 X54.3310 Y78.0339
G01 X54.3995 Y78.0748
G01 X54.4616 Y78.1208
G01 X54.5198 Y78.1735
G01 X54.5348 Y78.1897
G01 X55.4774 Y78.1897
G01 X59.6343 Y74.0328
G01 X59.6343 Y63.0236
G01 X58.9307 Y62.3200
G01 X56.4303 Y62.3200
G01 X56.4303 Y62.9402
G01 X56.4465 Y62.9552
G01 X56.4976 Y63.0115
G01 X56.5445 Y63.0745
G01 X56.5855 Y63.1429
G01 X56.6186 Y63.2127
G01 X56.6456 Y63.2878
G01 X56.6646 Y63.3639
G01 X56.6761 Y63.4416
G01 X56.6799 Y63.5175
G01 X56.6800 Y66.0212
G01 X56.6761 Y66.0984
G01 X56.6646 Y66.1761
G01 X56.6456 Y66.2522
G01 X56.6200 Y66.3239
G01 X56.5843 Y66.3993
G01 X56.5452 Y66.4645
G01 X56.4968 Y66.5294
G01 X56.4457 Y66.5857
G01 X56.3875 Y66.6384
G01 X56.3245 Y66.6852
G01 X56.2571 Y66.7255
G01 X56.1861 Y66.7591
G01 X56.1146 Y66.7848
G01 X56.0337 Y66.8050
G01 X55.9584 Y66.8161
G01 X55.8800 Y66.8200
G01 X55.8016 Y66.8161
G01 X55.7239 Y66.8046
G01 X55.6478 Y66.7856
G01 X55.5761 Y66.7600
G01 X55.5007 Y66.7243
G01 X55.4355 Y66.6852
G01 X55.3725 Y66.6384
G01 X55.3143 Y66.5857
G01 X55.2616 Y66.5275
G01 X55.2148 Y66.4645
G01 X55.1757 Y66.3993
G01 X55.1400 Y66.3239
G01 X55.1144 Y66.2522
G01 X55.0954 Y66.1761
G01 X55.0839 Y66.0984
G01 X55.0800 Y66.0212
G01 X55.0800 Y63.5200
G01 X55.0839 Y63.4416
G01 X55.0954 Y63.3639
G01 X55.1144 Y63.2878
G01 X55.1409 Y63.2139
G01 X55.1739 Y63.1440
G01 X55.2148 Y63.0755
G01 X55.2608 Y63.0134
G01 X55.3135 Y62.9552
G01 X55.3297 Y62.9402
G01 X55.3297 Y61.7697
G01 X55.3324 Y61.7158
G01 X55.3403 Y61.6624
G01 X55.3528 Y61.6123
G01 X55.3726 Y61.5569
G01 X55.3947 Y61.5103
G01 X55.4225 Y61.4640
G01 X55.4547 Y61.4206
G01 X55.4892 Y61.3824
G01 X55.5309 Y61.3444
G01 X55.5743 Y61.3122
G01 X55.6206 Y61.2844
G01 X55.6694 Y61.2613
G01 X55.7203 Y61.2431
G01 X55.7727 Y61.2300
G01 X55.8261 Y61.2221
G01 X55.8788 Y61.2195
G01 X59.1598 Y61.2195
G01 X59.2150 Y61.2224
G01 X59.2659 Y61.2300
G01 X59.3160 Y61.2425
G01 X59.3692 Y61.2613
G01 X59.4169 Y61.2839
G01 X59.4663 Y61.3136
G01 X59.5077 Y61.3444
G01 X59.5468 Y61.3798
G01 X60.5737 Y62.4066
G01 X60.6083 Y62.4448
G01 X60.6434 Y62.4921
G01 X60.6699 Y62.5363
G01 X60.6930 Y62.5851
G01 X60.7118 Y62.6383
G01 X60.7243 Y62.6884
G01 X60.7322 Y62.7418
G01 X60.7349 Y62.7957
G01 X60.7349 Y74.2607
G01 X60.7322 Y74.3146
G01 X60.7237 Y74.3704
G01 X60.7112 Y74.4204
G01 X60.6938 Y74.4690
G01 X60.6704 Y74.5190
G01 X60.6407 Y74.5684
G01 X60.6099 Y74.6098
G01 X60.5737 Y74.6498
G01 X56.0944 Y79.1291
G01 X56.0544 Y79.1653
G01 X56.0110 Y79.1975
G01 X55.9647 Y79.2253
G01 X55.9170 Y79.2479
G01 X55.8650 Y79.2666
G01 X55.8126 Y79.2797
G01 X55.7592 Y79.2876
G01 X55.7065 Y79.2902
G01 X54.5348 Y79.2903
G01 X54.5198 Y79.3065
G01 X54.4616 Y79.3592
G01 X54.3995 Y79.4052
G01 X54.3310 Y79.4461
G01 X54.2611 Y79.4791
G01 X54.1872 Y79.5056
G01 X54.1111 Y79.5246
G01 X54.0322 Y79.5363
G01 X53.9550 Y79.5400
G01 X51.4550 Y79.5400
G01 X51.3778 Y79.5363
G01 X51.2989 Y79.5246
G01 X51.2251 Y79.5062
G01 X51.1466 Y79.4781
G01 X51.0779 Y79.4455
G01 X51.0105 Y79.4052
G01 X50.9475 Y79.3584
G01 X50.8893 Y79.3057
G01 X50.8366 Y79.2475
G01 X50.7912 Y79.1865
G01 X50.7484 Y79.1149
G01 X50.7159 Y79.0461
G01 X50.6894 Y78.9722
G01 X50.6704 Y78.8961
G01 X50.6592 Y78.8208
G00 Z2.0000
G00 X50.7050 Y82.0800
G01 F60.00
G01 Z-0.1
G01 F200.00
G01 X50.6952 Y82.0790
G01 X50.6859 Y82.0762
G01 X50.6772 Y82.0716
G01 X50.6696 Y82.0654
G01 X50.6634 Y82.0578
G01 X50.6588 Y82.0491
G01 X50.6560 Y82.0398
G01 X50.6550 Y82.0300
G01 X50.6550 Y80.5288
G01 X50.6557 Y80.5215
G01 X50.6575 Y80.5143
G01 X50.6603 Y80.5075
G01 X50.6641 Y80.5012
G01 X50.6688 Y80.4955
G01 X50.6742 Y80.4906
G01 X50.6804 Y80.4865
G01 X50.6870 Y80.4834
G01 X50.6965 Y80.4807
G01 X50.7050 Y80.4800
G01 X54.7050 Y80.4800
G01 X54.7123 Y80.4805
G01 X54.7195 Y80.4822
G01 X54.7264 Y80.4848
G01 X54.7328 Y80.4884
G01 X54.7386 Y80.4930
G01 X54.7437 Y80.4983
G01 X54.7479 Y80.5043
G01 X54.7516 Y80.5120
G01 X54.7540 Y80.5202
G01 X54.7550 Y80.5300
G01 X54.7550 Y82.0312
G01 X54.7543 Y82.0385
G01 X54.7525 Y82.0457
G01 X54.7497 Y82.0525
G01 X54.7459 Y82.0588
G01 X54.7412 Y82.0645
G01 X54.7358 Y82.0694
G01 X54.7296 Y82.0735
G01 X54.7230 Y82.0766
G01 X54.7135 Y82.0793
G01 X54.7050 Y82.0800
G01 X50.7050 Y82.0800
G00 Z2.0000
G00 X36.7189 Y82.7859
G01 F60.00
G01 Z-0.1
G01 F200.00
G01 X36.7150 Y82.7100
G01 X36.7150 Y80.1100
G01 X36.7189 Y80.0341
G01 X36.7294 Y79.9637
G01 X36.7470 Y79.8935
G01 X36.7721 Y79.8230
G01 X36.8036 Y79.7565
G01 X36.8414 Y79.6933
G01 X36.8852 Y79.6342
G01 X36.9347 Y79.5797
G01 X36.9892 Y79.5302
G01 X37.0483 Y79.4864
G01 X37.1115 Y79.4486
G01 X37.1780 Y79.4171
G01 X37.2473 Y79.3923
G01 X37.3187 Y79.3744
G01 X37.3915 Y79.3636
G01 X37.4650 Y79.3600
G01 X37.5385 Y79.3636
G01 X37.6113 Y79.3744
G01 X37.6815 Y79.3920
G01 X37.7543 Y79.4181
G01 X37.8185 Y79.4486
G01 X37.8817 Y79.4864
G01 X37.9408 Y79.5302
G01 X37.9936 Y79.5780
G01 X38.0448 Y79.6342
G01 X38.0899 Y79.6954
G01 X38.1264 Y79.7565
G01 X38.1579 Y79.8230
G01 X38.1834 Y79.8947
G01 X38.2006 Y79.9637
G01 X38.2111 Y80.0341
G01 X38.2150 Y80.1100
G01 X38.2150 Y82.7100
G01 X38.2111 Y82.7859
G01 X38.2006 Y82.8563
G01 X38.1830 Y82.9265
G01 X38.1579 Y82.9970
G01 X38.1275 Y83.0614
G01 X38.0872 Y83.1287
G01 X38.0448 Y83.1858
G01 X37.9953 Y83.2403
G01 X37.9408 Y83.2898
G01 X37.8817 Y83.3336
G01 X37.8185 Y83.3714
G01 X37.7520 Y83.4029
G01 X37.6827 Y83.4277
G01 X37.6137 Y83.4451
G01 X37.5361 Y83.4566
G01 X37.4650 Y83.4600
G01 X37.3915 Y83.4564
G01 X37.3187 Y83.4456
G01 X37.2497 Y83.4284
G01 X37.1757 Y83.4019
G01 X37.1115 Y83.3714
G01 X37.0483 Y83.3336
G01 X36.9892 Y83.2898
G01 X36.9347 Y83.2403
G01 X36.8852 Y83.1858
G01 X36.8428 Y83.1287
G01 X36.8025 Y83.0614
G01 X36.7721 Y82.9970
G01 X36.7473 Y82.9277
G01 X36.7294 Y82.8563
G01 X36.7189 Y82.7859
G00 Z2.0000
G00 X34.1789 Y82.7859
G01 F60.00
G01 Z-0.1
G01 F200.00
G01 X34.1750 Y82.7100
G01 X34.1750 Y80.1100
G01 X34.1789 Y80.0341
G01 X34.1894 Y79.9637
G01 X34.2070 Y79.8935
G01 X34.2321 Y79.8230
G01 X34.2636 Y79.7565
G01 X34.3014 Y79.6933
G01 X34.3452 Y79.6342
G01 X34.3947 Y79.5797
G01 X34.4492 Y79.5302
G01 X34.5083 Y79.4864
G01 X34.5715 Y79.4486
G01 X34.6380 Y79.4171
G01 X34.7073 Y79.3923
G01 X34.7787 Y79.3744
G01 X34.8515 Y79.3636
G01 X34.9250 Y79.3600
G01 X34.9985 Y79.3636
G01 X35.0713 Y79.3744
G01 X35.1415 Y79.3920
G01 X35.2143 Y79.4181
G01 X35.2785 Y79.4486
G01 X35.3417 Y79.4864
G01 X35.4008 Y79.5302
G01 X35.4536 Y79.5780
G01 X35.5048 Y79.6342
G01 X35.5499 Y79.6954
G01 X35.5864 Y79.7565
G01 X35.6179 Y79.8230
G01 X35.6434 Y79.8947
G01 X35.6606 Y79.9637
G01 X35.6711 Y80.0341
G01 X35.6750 Y80.1100
G01 X35.6750 Y82.7100
G01 X35.6711 Y82.7859
G01 X35.6606 Y82.8563
G01 X35.6430 Y82.9265
G01 X35.6179 Y82.9970
G01 X35.5875 Y83.0614
G01 X35.5472 Y83.1287
G01 X35.5048 Y83.1858
G01 X35.4553 Y83.2403
G01 X35.4008 Y83.2898
G01 X35.3417 Y83.3336
G01 X35.2785 Y83.3714
G01 X35.2143 Y83.4019
G01 X35.1403 Y83.4284
G01 X35.0713 Y83.4456
G01 X34.9985 Y83.4564
G01 X34.9250 Y83.4600
G01 X34.8515 Y83.4564
G01 X34.7787 Y83.4456
G01 X34.7097 Y83.4284
G01 X34.6357 Y83.4019
G01 X34.5715 Y83.3714
G01 X34.5083 Y83.3336
G01 X34.4492 Y83.2898
G01 X34.3947 Y83.2403
G01 X34.3452 Y83.1858
G01 X34.3028 Y83.1287
G01 X34.2625 Y83.0614
G01 X34.2321 Y82.9970
G01 X34.2073 Y82.9277
G01 X34.1894 Y82.8563
G01 X34.1789 Y82.7859
G00 Z2.0000
G00 X31.6389 Y82.7859
G01 F60.00
G01 Z-0.1
G01 F200.00
G01 X31.6350 Y82.7100
G01 X31.6350 Y80.1100
G01 X31.6389 Y80.0341
G01 X31.6494 Y79.9637
G01 X31.6670 Y79.8935
G01 X31.6921 Y79.8230
G01 X31.7236 Y79.7565
G01 X31.7614 Y79.6933
G01 X31.8052 Y79.6342
G01 X31.8547 Y79.5797
G01 X31.9092 Y79.5302
G01 X31.9683 Y79.4864
G01 X32.0315 Y79.4486
G01 X32.0980 Y79.4171
G01 X32.1673 Y79.3923
G01 X32.2387 Y79.3744
G01 X32.3115 Y79.3636
G01 X32.3850 Y79.3600
G01 X32.4585 Y79.3636
G01 X32.5313 Y79.3744
G01 X32.6015 Y79.3920
G01 X32.6743 Y79.4181
G01 X32.7385 Y79.4486
G01 X32.8017 Y79.4864
G01 X32.8608 Y79.5302
G01 X32.9136 Y79.5780
G01 X32.9648 Y79.6342
G01 X33.0099 Y79.6954
G01 X33.0464 Y79.7565
G01 X33.0779 Y79.8230
G01 X33.1034 Y79.8947
G01 X33.1206 Y79.9637
G01 X33.1311 Y80.0341
G01 X33.1350 Y80.1100
G01 X33.1350 Y82.7100
G01 X33.1311 Y82.7859
G01 X33.1206 Y82.8563
G01 X33.1030 Y82.9265
G01 X33.0779 Y82.9970
G01 X33.0475 Y83.0614
G01 X33.0072 Y83.1287
G01 X32.9648 Y83.1858
G01 X32.9153 Y83.2403
G01 X32.8608 Y83.2898
G01 X32.8017 Y83.3336
G01 X32.7385 Y83.3714
G01 X32.6743 Y83.4019
G01 X32.6003 Y83.4284
G01 X32.5313 Y83.4456
G01 X32.4585 Y83.4564
G01 X32.3850 Y83.4600
G01 X32.3115 Y83.4564
G01 X32.2387 Y83.4456
G01 X32.1697 Y83.4284
G01 X32.0957 Y83.4019
G01 X32.0315 Y83.3714
G01 X31.9683 Y83.3336
G01 X31.9092 Y83.2898
G01 X31.8547 Y83.2403
G01 X31.8052 Y83.1858
G01 X31.7628 Y83.1287
G01 X31.7225 Y83.0614
G01 X31.6921 Y82.9970
G01 X31.6673 Y82.9277
G01 X31.6494 Y82.8563
G01 X31.6389 Y82.7859
G00 Z2.0000
G00 X29.0989 Y82.7859
G01 F60.00
G01 Z-0.1
G01 F200.00
G01 X29.0950 Y82.7100
G01 X29.0950 Y80.1100
G01 X29.0986 Y80.0365
G01 X29.1099 Y79.9613
G01 X29.1273 Y79.8923
G01 X29.1521 Y79.8230
G01 X29.1836 Y79.7565
G01 X29.2214 Y79.6933
G01 X29.2652 Y79.6342
G01 X29.3147 Y79.5797
G01 X29.3692 Y79.5302
G01 X29.4263 Y79.4878
G01 X29.4915 Y79.4486
G01 X29.5557 Y79.4181
G01 X29.6297 Y79.3916
G01 X29.6987 Y79.3744
G01 X29.7715 Y79.3636
G01 X29.8450 Y79.3600
G01 X29.9173 Y79.3635
G01 X29.9913 Y79.3744
G01 X30.0603 Y79.3916
G01 X30.1343 Y79.4181
G01 X30.1985 Y79.4486
G01 X30.2617 Y79.4864
G01 X30.3208 Y79.5302
G01 X30.3753 Y79.5797
G01 X30.4248 Y79.6342
G01 X30.4686 Y79.6933
G01 X30.5064 Y79.7565
G01 X30.5369 Y79.8207
G01 X30.5634 Y79.8947
G01 X30.5806 Y79.9637
G01 X30.5914 Y80.0365
G01 X30.5950 Y80.1100
G01 X30.5950 Y82.7100
G01 X30.5916 Y82.7811
G01 X30.5801 Y82.8587
G01 X30.5627 Y82.9277
G01 X30.5374 Y82.9981
G01 X30.5064 Y83.0635
G01 X30.4693 Y83.1256
G01 X30.4255 Y83.1848
G01 X30.3953 Y83.2184
G01 X30.3953 Y83.8600
G01 X43.7798 Y83.8600
G01 X43.7786 Y83.8329
G01 X43.7836 Y83.7324
G01 X43.7986 Y83.6305
G01 X43.8238 Y83.5293
G01 X43.8581 Y83.4334
G01 X43.9026 Y83.3391
G01 X43.9556 Y83.2508
G01 X44.0169 Y83.1680
G01 X44.0853 Y83.0925
G01 X44.1625 Y83.0224
G01 X44.2453 Y82.9611
G01 X44.3336 Y82.9081
G01 X44.4268 Y82.8640
G01 X44.5238 Y82.8293
G01 X44.6238 Y82.8043
G01 X44.7257 Y82.7892
G01 X44.8286 Y82.7841
G01 X44.9315 Y82.7892
G01 X45.0334 Y82.8043
G01 X45.1334 Y82.8293
G01 X45.2304 Y82.8640
G01 X45.3236 Y82.9081
G01 X45.4119 Y82.9611
G01 X45.4947 Y83.0224
G01 X45.5728 Y83.0934
G01 X45.6418 Y83.1699
G01 X45.7016 Y83.2508
G01 X45.7534 Y83.3370
G01 X45.7987 Y83.4323
G01 X45.8326 Y83.5270
G01 X45.8584 Y83.6293
G01 X45.8735 Y83.7312
G01 X45.8786 Y83.8341
G01 X45.8736 Y83.9358
G01 X45.8584 Y84.0389
G01 X45.8334 Y84.1389
G01 X45.7987 Y84.2359
G01 X45.7534 Y84.3312
G01 X45.7002 Y84.4195
G01 X45.6403 Y84.5002
G01 X45.5728 Y84.5748
G01 X45.4947 Y84.6458
G01 X45.4119 Y84.7071
G01 X45.3236 Y84.7601
G01 X45.2304 Y84.8042
G01 X45.1334 Y84.8389
G01 X45.0346 Y84.8637
G01 X44.9315 Y84.8790
G01 X44.8274 Y84.8841
G01 X44.7245 Y84.8789
G01 X44.6250 Y84.8641
G01 X44.5786 Y84.8527
G01 X44.5571 Y84.8685
G01 X44.5129 Y84.8950
G01 X44.4618 Y84.9191
G01 X44.4121 Y84.9369
G01 X44.3621 Y84.9494
G01 X44.3051 Y84.9580
G01 X44.2524 Y84.9606
G01 X29.8450 Y84.9606
G01 X29.7923 Y84.9580
G01 X29.7353 Y84.9494
G01 X29.6853 Y84.9369
G01 X29.6344 Y84.9187
G01 X29.5856 Y84.8956
G01 X29.5414 Y84.8691
G01 X29.4959 Y84.8356
G01 X29.4542 Y84.7976
G01 X29.4197 Y84.7594
G01 X29.3875 Y84.7160
G01 X29.3586 Y84.6675
G01 X29.3366 Y84.6209
G01 X29.3188 Y84.5712
G01 X29.3049 Y84.5152
G01 X29.2974 Y84.4642
G01 X29.2948 Y84.4115
G01 X29.2947 Y83.2184
G01 X29.2645 Y83.1848
G01 X29.2207 Y83.1256
G01 X29.1836 Y83.0635
G01 X29.1526 Y82.9981
G01 X29.1266 Y82.9253
G01 X29.1094 Y82.8563
G01 X29.0989 Y82.7859
G00 Z2.0000
G00 X26.5589 Y82.7859
G01 F60.00
G01 Z-0.1
G01 F200.00
G01 X26.5550 Y82.7100
G01 X26.5550 Y80.1100
G01 X26.5589 Y80.0341
G01 X26.5694 Y79.9637
G01 X26.5870 Y79.8935
G01 X26.6121 Y79.8230
G01 X26.6436 Y79.7565
G01 X26.6814 Y79.6933
G01 X26.7252 Y79.6342
G01 X26.7747 Y79.5797
G01 X26.8292 Y79.5302
G01 X26.8883 Y79.4864
G01 X26.9515 Y79.4486
G01 X27.0180 Y79.4171
G01 X27.0873 Y79.3923
G01 X27.1587 Y79.3744
G01 X27.2315 Y79.3636
G01 X27.3050 Y79.3600
G01 X27.3785 Y79.3636
G01 X27.4513 Y79.3744
G01 X27.5215 Y79.3920
G01 X27.5943 Y79.4181
G01 X27.6585 Y79.4486
G01 X27.7217 Y79.4864
G01 X27.7808 Y79.5302
G01 X27.8336 Y79.5780
G01 X27.8848 Y79.6342
G01 X27.9299 Y79.6954
G01 X27.9664 Y79.7565
G01 X27.9979 Y79.8230
G01 X28.0234 Y79.8947
G01 X28.0406 Y79.9637
G01 X28.0511 Y80.0341
G01 X28.0550 Y80.1100
G01 X28.0550 Y82.7100
G01 X28.0511 Y82.7859
G01 X28.0406 Y82.8563
G01 X28.0230 Y82.9265
G01 X27.9979 Y82.9970
G01 X27.9675 Y83.0614
G01 X27.9272 Y83.1287
G01 X27.8848 Y83.1858
G01 X27.8353 Y83.2403
G01 X27.7808 Y83.2898
G01 X27.7217 Y83.3336
G01 X27.6585 Y83.3714
G01 X27.5943 Y83.4019
G01 X27.5203 Y83.4284
G01 X27.4513 Y83.4456
G01 X27.3785 Y83.4564
G01 X27.3050 Y83.4600
G01 X27.2315 Y83.4564
G01 X27.1587 Y83.4456
G01 X27.0873 Y83.4277
G01 X27.0180 Y83.4029
G01 X26.9536 Y83.3725
G01 X26.8863 Y83.3322
G01 X26.8292 Y83.2898
G01 X26.7747 Y83.2403
G01 X26.7252 Y83.1858
G01 X26.6828 Y83.1287
G01 X26.6425 Y83.0614
G01 X26.6121 Y82.9970
G01 X26.5873 Y82.9277
G01 X26.5694 Y82.8563
G01 X26.5589 Y82.7859
G00 Z2.0000
G00 X24.0189 Y82.7859
G01 F60.00
G01 Z-0.1
G01 F200.00
G01 X24.0150 Y82.7100
G01 X24.0150 Y80.1100
G01 X24.0189 Y80.0341
G01 X24.0294 Y79.9637
G01 X24.0470 Y79.8935
G01 X24.0721 Y79.8230
G01 X24.1036 Y79.7565
G01 X24.1414 Y79.6933
G01 X24.1852 Y79.6342
G01 X24.2347 Y79.5797
G01 X24.2892 Y79.5302
G01 X24.3483 Y79.4864
G01 X24.4115 Y79.4486
G01 X24.4780 Y79.4171
G01 X24.5473 Y79.3923
G01 X24.6187 Y79.3744
G01 X24.6915 Y79.3636
G01 X24.7650 Y79.3600
G01 X24.8385 Y79.3636
G01 X24.9113 Y79.3744
G01 X24.9815 Y79.3920
G01 X25.0543 Y79.4181
G01 X25.1185 Y79.4486
G01 X25.1817 Y79.4864
G01 X25.2408 Y79.5302
G01 X25.2936 Y79.5780
G01 X25.3448 Y79.6342
G01 X25.3899 Y79.6954
G01 X25.4264 Y79.7565
G01 X25.4579 Y79.8230
G01 X25.4834 Y79.8947
G01 X25.5006 Y79.9637
G01 X25.5111 Y80.0341
G01 X25.5150 Y80.1100
G01 X25.5150 Y82.7100
G01 X25.5111 Y82.7859
G01 X25.5006 Y82.8563
G01 X25.4830 Y82.9265
G01 X25.4579 Y82.9970
G01 X25.4275 Y83.0614
G01 X25.3872 Y83.1287
G01 X25.3448 Y83.1858
G01 X25.2953 Y83.2403
G01 X25.2408 Y83.2898
G01 X25.1817 Y83.3336
G01 X25.1185 Y83.3714
G01 X25.0543 Y83.4019
G01 X24.9803 Y83.4284
G01 X24.9113 Y83.4456
G01 X24.8385 Y83.4564
G01 X24.7650 Y83.4600
G01 X24.6915 Y83.4564
G01 X24.6187 Y83.4456
G01 X24.5473 Y83.4277
G01 X24.4780 Y83.4029
G01 X24.4136 Y83.3725
G01 X24.3463 Y83.3322
G01 X24.2892 Y83.2898
G01 X24.2347 Y83.2403
G01 X24.1852 Y83.1858
G01 X24.1428 Y83.1287
G01 X24.1025 Y83.0614
G01 X24.0721 Y82.9970
G01 X24.0473 Y82.9277
G01 X24.0294 Y82.8563
G01 X24.0189 Y82.7859
G00 Z2.0000
G00 X21.4789 Y82.7859
G01 F60.00
G01 Z-0.1
G01 F200.00
G01 X21.4750 Y82.7100
G01 X21.4750 Y80.1100
G01 X21.4786 Y80.0365
G01 X21.4899 Y79.9613
G01 X21.5073 Y79.8923
G01 X21.5321 Y79.8230
G01 X21.5636 Y79.7565
G01 X21.6014 Y79.6933
G01 X21.6452 Y79.6342
G01 X21.6947 Y79.5797
G01 X21.7492 Y79.5302
G01 X21.8063 Y79.4878
G01 X21.8715 Y79.4486
G01 X21.9357 Y79.4181
G01 X22.0097 Y79.3916
G01 X22.0787 Y79.3744
G01 X22.1515 Y79.3636
G01 X22.2250 Y79.3600
G01 X22.2973 Y79.3635
G01 X22.3713 Y79.3744
G01 X22.4403 Y79.3916
G01 X22.5143 Y79.4181
G01 X22.5785 Y79.4486
G01 X22.6417 Y79.4864
G01 X22.7008 Y79.5302
G01 X22.7553 Y79.5797
G01 X22.8048 Y79.6342
G01 X22.8486 Y79.6933
G01 X22.8864 Y79.7565
G01 X22.9169 Y79.8207
G01 X22.9434 Y79.8947
G01 X22.9606 Y79.9637
G01 X22.9714 Y80.0365
G01 X22.9750 Y80.1100
G01 X22.9749 Y82.7125
G01 X22.9714 Y82.7835
G01 X22.9606 Y82.8563
G01 X22.9427 Y82.9277
G01 X22.9184 Y82.9959
G01 X22.8864 Y83.0635
G01 X22.8493 Y83.1256
G01 X22.8055 Y83.1848
G01 X22.7753 Y83.2184
G01 X22.7753 Y84.1824
G01 X23.9532 Y85.3603
G01 X45.4426 Y85.3603
G01 X46.3201 Y84.4828
G01 X46.3201 Y52.6984
G01 X46.3117 Y52.6969
G01 X46.2118 Y52.6716
G01 X46.1171 Y52.6377
G01 X46.0218 Y52.5924
G01 X45.9356 Y52.5406
G01 X45.8528 Y52.4793
G01 X45.7764 Y52.4101
G01 X45.7072 Y52.3337
G01 X45.6459 Y52.2509
G01 X45.5929 Y52.1626
G01 X45.5488 Y52.0694
G01 X45.5149 Y51.9747
G01 X45.4887 Y51.8700
G01 X45.4740 Y51.7705
G01 X45.4689 Y51.6664
G01 X45.4740 Y51.5647
G01 X45.4887 Y51.4652
G01 X45.5141 Y51.3628
G01 X45.5498 Y51.2635
G01 X45.5929 Y51.1726
G01 X45.6459 Y51.0843
G01 X45.7072 Y51.0015
G01 X45.7747 Y50.9269
G01 X45.8528 Y50.8559
G01 X45.9376 Y50.7932
G01 X46.0239 Y50.7416
G01 X46.1148 Y50.6985
G01 X46.2165 Y50.6622
G01 X46.3141 Y50.6378
G01 X46.4135 Y50.6230
G01 X46.5189 Y50.6176
G01 X46.6243 Y50.6230
G01 X46.7237 Y50.6378
G01 X46.8213 Y50.6622
G01 X46.9207 Y50.6975
G01 X47.0139 Y50.7416
G01 X47.1002 Y50.7932
G01 X47.1850 Y50.8559
G01 X47.2614 Y50.9251
G01 X47.3321 Y51.0034
G01 X47.3933 Y51.0863
G01 X47.4449 Y51.1726
G01 X47.4880 Y51.2635
G01 X47.5237 Y51.3628
G01 X47.5487 Y51.4628
G01 X47.5638 Y51.5647
G01 X47.5689 Y51.6676
G01 X47.5635 Y51.7730
G01 X47.5487 Y51.8724
G01 X47.5240 Y51.9712
G01 X47.4885 Y52.0705
G01 X47.4455 Y52.1615
G01 X47.4207 Y52.2032
G01 X47.4207 Y84.1604
G01 X48.5825 Y84.1604
G01 X48.6377 Y84.1632
G01 X48.6898 Y84.1710
G01 X48.7399 Y84.1835
G01 X48.7931 Y84.2023
G01 X48.8419 Y84.2254
G01 X48.8861 Y84.2519
G01 X48.9296 Y84.2838
G01 X48.9349 Y84.2883
G01 X48.9763 Y84.2781
G01 X49.0758 Y84.2633
G01 X49.1787 Y84.2581
G01 X49.2828 Y84.2632
G01 X49.3871 Y84.2788
G01 X49.4847 Y84.3033
G01 X49.5817 Y84.3380
G01 X49.6749 Y84.3821
G01 X49.7643 Y84.4358
G01 X49.8460 Y84.4964
G01 X49.9224 Y84.5656
G01 X49.9916 Y84.6420
G01 X50.0543 Y84.7268
G01 X50.1059 Y84.8131
G01 X50.1509 Y84.9086
G01 X50.1853 Y85.0057
G01 X50.2097 Y85.1033
G01 X50.2245 Y85.2027
G01 X50.2299 Y85.3081
G01 X50.2248 Y85.4110
G01 X50.2097 Y85.5129
G01 X50.1847 Y85.6129
G01 X50.1500 Y85.7099
G01 X50.1059 Y85.8031
G01 X50.0529 Y85.8914
G01 X49.9916 Y85.9742
G01 X49.9206 Y86.0523
G01 X49.8460 Y86.1198
G01 X49.7632 Y86.1811
G01 X49.6727 Y86.2352
G01 X49.5817 Y86.2782
G01 X49.4870 Y86.3121
G01 X49.3847 Y86.3379
G01 X49.2804 Y86.3532
G01 X49.1799 Y86.3581
G01 X49.0794 Y86.3532
G01 X48.9727 Y86.3374
G01 X48.8751 Y86.3129
G01 X48.7781 Y86.2782
G01 X48.6849 Y86.2341
G01 X48.5986 Y86.1825
G01 X48.5119 Y86.1182
G01 X48.4374 Y86.0506
G01 X48.3675 Y85.9733
G01 X48.3069 Y85.8914
G01 X48.2539 Y85.8031
G01 X48.2098 Y85.7099
G01 X48.1755 Y85.6141
G01 X48.1501 Y85.5129
G01 X48.1351 Y85.4122
G01 X48.1299 Y85.3093
G01 X48.1322 Y85.2610
G01 X47.0983 Y85.2610
G01 X46.0596 Y86.2997
G01 X46.0205 Y86.3352
G01 X45.9741 Y86.3694
G01 X45.9299 Y86.3959
G01 X45.8811 Y86.4190
G01 X45.8302 Y86.4372
G01 X45.7802 Y86.4497
G01 X45.7220 Y86.4584
G01 X45.6705 Y86.4609
G01 X23.7253 Y86.4609
G01 X23.6701 Y86.4581
G01 X23.6180 Y86.4503
G01 X23.5679 Y86.4378
G01 X23.5125 Y86.4180
G01 X23.4659 Y86.3959
G01 X23.4196 Y86.3681
G01 X23.3762 Y86.3359
G01 X23.3380 Y86.3014
G01 X21.8359 Y84.7994
G01 X21.7981 Y84.7574
G01 X21.7675 Y84.7160
G01 X21.7409 Y84.6718
G01 X21.7166 Y84.6209
G01 X21.6978 Y84.5677
G01 X21.6853 Y84.5176
G01 X21.6777 Y84.4667
G01 X21.6748 Y84.4128
G01 X21.6747 Y83.2184
G01 X21.6445 Y83.1848
G01 X21.6007 Y83.1256
G01 X21.5636 Y83.0635
G01 X21.5326 Y82.9981
G01 X21.5066 Y82.9253
G01 X21.4894 Y82.8563
G01 X21.4789 Y82.7859
G00 Z2.0000
G00 X18.9389 Y82.7859
G01 F60.00
G01 Z-0.1
G01 F200.00
G01 X18.9350 Y82.7100
G01 X18.9350 Y80.1100
G01 X18.9389 Y80.0341
G01 X18.9494 Y79.9637
G01 X18.9670 Y79.8935
G01 X18.9921 Y79.8230
G01 X19.0236 Y79.7565
G01 X19.0614 Y79.6933
G01 X19.1052 Y79.6342
G01 X19.1547 Y79.5797
G01 X19.2092 Y79.5302
G01 X19.2683 Y79.4864
G01 X19.3315 Y79.4486
G01 X19.3980 Y79.4171
G01 X19.4673 Y79.3923
G01 X19.5387 Y79.3744
G01 X19.6115 Y79.3636
G01 X19.6850 Y79.3600
G01 X19.7585 Y79.3636
G01 X19.8313 Y79.3744
G01 X19.9015 Y79.3920
G01 X19.9743 Y79.4181
G01 X20.0385 Y79.4486
G01 X20.1017 Y79.4864
G01 X20.1608 Y79.5302
G01 X20.2136 Y79.5780
G01 X20.2648 Y79.6342
G01 X20.3099 Y79.6954
G01 X20.3464 Y79.7565
G01 X20.3779 Y79.8230
G01 X20.4027 Y79.8923
G01 X20.4201 Y79.9613
G01 X20.4315 Y80.0377
G01 X20.4350 Y80.1100
G01 X20.4349 Y82.7125
G01 X20.4314 Y82.7835
G01 X20.4206 Y82.8563
G01 X20.4027 Y82.9277
G01 X20.3784 Y82.9959
G01 X20.3464 Y83.0635
G01 X20.3093 Y83.1256
G01 X20.2655 Y83.1848
G01 X20.2353 Y83.2184
G01 X20.2353 Y84.1824
G01 X22.9135 Y86.8606
G01 X54.8742 Y86.8606
G01 X61.1659 Y80.5689
G01 X61.1659 Y62.4235
G01 X53.0930 Y54.3506
G01 X52.1757 Y54.3506
G01 X52.1242 Y54.3481
G01 X52.0684 Y54.3400
G01 X52.0160 Y54.3269
G01 X51.9651 Y54.3087
G01 X51.9152 Y54.2850
G01 X51.8680 Y54.2564
G01 X51.8266 Y54.2256
G01 X51.7875 Y54.1902
G01 X51.2006 Y53.6034
G01 X51.1644 Y53.5634
G01 X51.1322 Y53.5200
G01 X51.1044 Y53.4737
G01 X51.0813 Y53.4249
G01 X51.0639 Y53.3764
G01 X51.0496 Y53.3192
G01 X51.0421 Y53.2682
G01 X51.0394 Y53.2143
G01 X51.0394 Y46.5621
G01 X51.0424 Y46.5057
G01 X51.0500 Y46.4548
G01 X51.0625 Y46.4047
G01 X51.0813 Y46.3515
G01 X51.1050 Y46.3016
G01 X51.1322 Y46.2564
G01 X51.1628 Y46.2150
G01 X51.2006 Y46.1730
G01 X60.4097 Y36.9639
G01 X60.4097 Y23.5284
G01 X60.3795 Y23.4948
G01 X60.3357 Y23.4356
G01 X60.2986 Y23.3735
G01 X60.2676 Y23.3081
G01 X60.2416 Y23.2353
G01 X60.2244 Y23.1663
G01 X60.2135 Y23.0923
G01 X60.2100 Y23.0200
G01 X60.2100 Y20.4188
G01 X60.2136 Y20.3465
G01 X60.2244 Y20.2737
G01 X60.2423 Y20.2023
G01 X60.2671 Y20.1330
G01 X60.2986 Y20.0665
G01 X60.3364 Y20.0033
G01 X60.3802 Y19.9442
G01 X60.4297 Y19.8897
G01 X60.4842 Y19.8402
G01 X60.5433 Y19.7964
G01 X60.6065 Y19.7586
G01 X60.6730 Y19.7271
G01 X60.7423 Y19.7023
G01 X60.8137 Y19.6844
G01 X60.8865 Y19.6736
G01 X60.9588 Y19.6700
G01 X61.0335 Y19.6736
G01 X61.1063 Y19.6844
G01 X61.1777 Y19.7023
G01 X61.2470 Y19.7271
G01 X61.3135 Y19.7586
G01 X61.3767 Y19.7964
G01 X61.4358 Y19.8402
G01 X61.4903 Y19.8897
G01 X61.5398 Y19.9442
G01 X61.5836 Y20.0033
G01 X61.6214 Y20.0665
G01 X61.6529 Y20.1330
G01 X61.6777 Y20.2023
G01 X61.6956 Y20.2737
G01 X61.7064 Y20.3465
G01 X61.7100 Y20.4188
G01 X61.7100 Y23.0200
G01 X61.7065 Y23.0923
G01 X61.6956 Y23.1663
G01 X61.6784 Y23.2353
G01 X61.6524 Y23.3081
G01 X61.6214 Y23.3735
G01 X61.5843 Y23.4356
G01 X61.5405 Y23.4948
G01 X61.5103 Y23.5284
G01 X61.5103 Y37.1918
G01 X61.5073 Y37.2482
G01 X61.4997 Y37.2991
G01 X61.4869 Y37.3504
G01 X61.4684 Y37.4024
G01 X61.4441 Y37.4533
G01 X61.4175 Y37.4975
G01 X61.3869 Y37.5389
G01 X61.3491 Y37.5809
G01 X52.1400 Y46.7900
G01 X52.1400 Y52.9864
G01 X52.4036 Y53.2500
G01 X53.3209 Y53.2500
G01 X53.3748 Y53.2527
G01 X53.4282 Y53.2606
G01 X53.4783 Y53.2731
G01 X53.5315 Y53.2919
G01 X53.5803 Y53.3150
G01 X53.6245 Y53.3415
G01 X53.6718 Y53.3766
G01 X53.7100 Y53.4112
G01 X62.1053 Y61.8065
G01 X62.1415 Y61.8465
G01 X62.1737 Y61.8899
G01 X62.2015 Y61.9362
G01 X62.2254 Y61.9873
G01 X62.2428 Y62.0359
G01 X62.2559 Y62.0883
G01 X62.2638 Y62.1417
G01 X62.2665 Y62.1956
G01 X62.2665 Y80.2465
G01 X63.9389 Y80.2466
G01 X63.9941 Y80.2495
G01 X64.0450 Y80.2571
G01 X64.0951 Y80.2696
G01 X64.1483 Y80.2884
G01 X64.1960 Y80.3110
G01 X64.2454 Y80.3407
G01 X64.2868 Y80.3715
G01 X64.3268 Y80.4077
G01 X66.4840 Y82.5649
G01 X66.5227 Y82.5554
G01 X66.6222 Y82.5406
G01 X66.7275 Y82.5354
G01 X66.8317 Y82.5408
G01 X66.9311 Y82.5556
G01 X67.0299 Y82.5803
G01 X67.1281 Y82.6153
G01 X67.2234 Y82.6606
G01 X67.3096 Y82.7124
G01 X67.3905 Y82.7722
G01 X67.4679 Y82.8421
G01 X67.5380 Y82.9193
G01 X67.5993 Y83.0021
G01 X67.6523 Y83.0904
G01 X67.6973 Y83.1859
G01 X67.7317 Y83.2830
G01 X67.7561 Y83.3806
G01 X67.7709 Y83.4800
G01 X67.7763 Y83.5854
G01 X67.7712 Y83.6883
G01 X67.7561 Y83.7902
G01 X67.7303 Y83.8925
G01 X67.6964 Y83.9872
G01 X67.6534 Y84.0782
G01 X67.6000 Y84.1677
G01 X67.5380 Y84.2515
G01 X67.4679 Y84.3287
G01 X67.3915 Y84.3978
G01 X67.3107 Y84.4577
G01 X67.2766 Y84.4784
G01 X67.2766 Y84.8120
G01 X78.6140 Y96.1494
G01 X116.3877 Y96.1494
G01 X128.3547 Y84.1824
G01 X128.3547 Y83.2184
G01 X128.3245 Y83.1848
G01 X128.2807 Y83.1256
G01 X128.2436 Y83.0635
G01 X128.2116 Y82.9959
G01 X128.1873 Y82.9277
G01 X128.1694 Y82.8563
G01 X128.1586 Y82.7835
G01 X128.1551 Y82.7125
G01 X128.1550 Y80.1100
G01 X128.1586 Y80.0365
G01 X128.1690 Y79.9661
G01 X128.1877 Y79.8911
G01 X128.2121 Y79.8230
G01 X128.2436 Y79.7565
G01 X128.2814 Y79.6933
G01 X128.3237 Y79.6361
G01 X128.3764 Y79.5780
G01 X128.4292 Y79.5302
G01 X128.4883 Y79.4864
G01 X128.5515 Y79.4486
G01 X128.6180 Y79.4171
G01 X128.6873 Y79.3923
G01 X128.7563 Y79.3749
G01 X128.8339 Y79.3634
G01 X128.9050 Y79.3600
G01 X128.9809 Y79.3639
G01 X129.0513 Y79.3744
G01 X129.1227 Y79.3923
G01 X129.1920 Y79.4171
G01 X129.2585 Y79.4486
G01 X129.3217 Y79.4864
G01 X129.3808 Y79.5302
G01 X129.4353 Y79.5797
G01 X129.4832 Y79.6323
G01 X129.5299 Y79.6954
G01 X129.5664 Y79.7565
G01 X129.5988 Y79.8253
G01 X129.6227 Y79.8923
G01 X129.6406 Y79.9637
G01 X129.6514 Y80.0365
G01 X129.6550 Y80.1088
G01 X129.6550 Y82.7100
G01 X129.6515 Y82.7823
G01 X129.6406 Y82.8563
G01 X129.6234 Y82.9253
G01 X129.5974 Y82.9981
G01 X129.5664 Y83.0635
G01 X129.5293 Y83.1256
G01 X129.4855 Y83.1848
G01 X129.4553 Y83.2184
G01 X129.4553 Y84.4103
G01 X129.4527 Y84.4630
G01 X129.4441 Y84.5200
G01 X129.4316 Y84.5700
G01 X129.4134 Y84.6209
G01 X129.3891 Y84.6718
G01 X129.3625 Y84.7160
G01 X129.3319 Y84.7574
G01 X129.2941 Y84.7994
G01 X117.0047 Y97.0888
G01 X116.9647 Y97.1250
G01 X116.9213 Y97.1572
G01 X116.8750 Y97.1850
G01 X116.8262 Y97.2081
G01 X116.7753 Y97.2263
G01 X116.7229 Y97.2394
G01 X116.6695 Y97.2473
G01 X116.6168 Y97.2499
G01 X78.3861 Y97.2500
G01 X78.3297 Y97.2470
G01 X78.2788 Y97.2394
G01 X78.2264 Y97.2263
G01 X78.1755 Y97.2081
G01 X78.1246 Y97.1838
G01 X78.0804 Y97.1572
G01 X78.0390 Y97.1266
G01 X77.9970 Y97.0888
G01 X66.3355 Y85.4272
G01 X66.3010 Y85.3890
G01 X66.2702 Y85.3476
G01 X66.2410 Y85.2993
G01 X66.2179 Y85.2505
G01 X66.2005 Y85.2020
G01 X66.1864 Y85.1460
G01 X66.1787 Y85.0938
G01 X66.1761 Y85.0411
G01 X66.1760 Y84.4784
G01 X66.1419 Y84.4577
G01 X66.0592 Y84.3963
G01 X65.9838 Y84.3279
G01 X65.9139 Y84.2506
G01 X65.8533 Y84.1687
G01 X65.8003 Y84.0804
G01 X65.7562 Y83.9872
G01 X65.7215 Y83.8902
G01 X65.6961 Y83.7878
G01 X65.6814 Y83.6883
G01 X65.6763 Y83.5866
G01 X65.6815 Y83.4813
G01 X65.6963 Y83.3818
G01 X65.7058 Y83.3431
G01 X63.7098 Y81.3471
G01 X61.9441 Y81.3471
G01 X55.4903 Y87.8008
G01 X55.4512 Y87.8362
G01 X55.4078 Y87.8684
G01 X55.3615 Y87.8962
G01 X55.3127 Y87.9193
G01 X55.2618 Y87.9375
G01 X55.2094 Y87.9506
G01 X55.1560 Y87.9585
G01 X55.1033 Y87.9611
G01 X22.6856 Y87.9612
G01 X22.6292 Y87.9582
G01 X22.5783 Y87.9506
G01 X22.5259 Y87.9375
G01 X22.4750 Y87.9193
G01 X22.4284 Y87.8973
G01 X22.3779 Y87.8670
G01 X22.3365 Y87.8362
G01 X22.2974 Y87.8008
G01 X19.2959 Y84.7994
G01 X19.2597 Y84.7594
G01 X19.2282 Y84.7170
G01 X19.1986 Y84.6675
G01 X19.1766 Y84.6209
G01 X19.1592 Y84.5724
G01 X19.1453 Y84.5176
G01 X19.1373 Y84.4630
G01 X19.1347 Y84.4103
G01 X19.1347 Y83.2184
G01 X19.1045 Y83.1848
G01 X19.0607 Y83.1256
G01 X19.0236 Y83.0635
G01 X18.9926 Y82.9981
G01 X18.9666 Y82.9253
G01 X18.9494 Y82.8563
G01 X18.9389 Y82.7859
G00 Z2.0000
G00 X16.3989 Y82.7859
G01 F60.00
G01 Z-0.1
G01 F200.00
G01 X16.3950 Y82.7100
G01 X16.3950 Y80.1100
G01 X16.3989 Y80.0341
G01 X16.4094 Y79.9637
G01 X16.4270 Y79.8935
G01 X16.4521 Y79.8230
G01 X16.4836 Y79.7565
G01 X16.5214 Y79.6933
G01 X16.5652 Y79.6342
G01 X16.6147 Y79.5797
G01 X16.6692 Y79.5302
G01 X16.7283 Y79.4864
G01 X16.7915 Y79.4486
G01 X16.8580 Y79.4171
G01 X16.9273 Y79.3923
G01 X16.9987 Y79.3744
G01 X17.0715 Y79.3636
G01 X17.1450 Y79.3600
G01 X17.2185 Y79.3636
G01 X17.2913 Y79.3744
G01 X17.3615 Y79.3920
G01 X17.4343 Y79.4181
G01 X17.4985 Y79.4486
G01 X17.5617 Y79.4864
G01 X17.6208 Y79.5302
G01 X17.6736 Y79.5780
G01 X17.7248 Y79.6342
G01 X17.7699 Y79.6954
G01 X17.8064 Y79.7565
G01 X17.8379 Y79.8230
G01 X17.8634 Y79.8947
G01 X17.8806 Y79.9637
G01 X17.8911 Y80.0341
G01 X17.8950 Y80.1100
G01 X17.8950 Y82.7100
G01 X17.8911 Y82.7859
G01 X17.8806 Y82.8563
G01 X17.8630 Y82.9265
G01 X17.8379 Y82.9970
G01 X17.8075 Y83.0614
G01 X17.7672 Y83.1287
G01 X17.7248 Y83.1858
G01 X17.6753 Y83.2403
G01 X17.6208 Y83.2898
G01 X17.5617 Y83.3336
G01 X17.4985 Y83.3714
G01 X17.4343 Y83.4019
G01 X17.3603 Y83.4284
G01 X17.2913 Y83.4456
G01 X17.2185 Y83.4564
G01 X17.1450 Y83.4600
G01 X17.0715 Y83.4564
G01 X16.9987 Y83.4456
G01 X16.9273 Y83.4277
G01 X16.8580 Y83.4029
G01 X16.7936 Y83.3725
G01 X16.7263 Y83.3322
G01 X16.6692 Y83.2898
G01 X16.6147 Y83.2403
G01 X16.5652 Y83.1858
G01 X16.5228 Y83.1287
G01 X16.4825 Y83.0614
G01 X16.4521 Y82.9970
G01 X16.4273 Y82.9277
G01 X16.4094 Y82.8563
G01 X16.3989 Y82.7859
G00 Z2.0000
G00 X13.8565 Y83.2317
G01 F60.00
G01 Z-0.1
G01 F200.00
G01 X13.8550 Y83.2042
G01 X13.8550 Y79.6158
G01 X13.8562 Y79.5907
G01 X13.8595 Y79.5683
G01 X13.8664 Y79.5404
G01 X13.8745 Y79.5179
G01 X13.8841 Y79.4974
G01 X13.8981 Y79.4737
G01 X13.9131 Y79.4535
G01 X13.9282 Y79.4367
G01 X13.9485 Y79.4181
G01 X13.9708 Y79.4018
G01 X13.9902 Y79.3902
G01 X14.0129 Y79.3795
G01 X14.0389 Y79.3704
G01 X14.0609 Y79.3649
G01 X14.0845 Y79.3614
G01 X14.1108 Y79.3600
G01 X15.0992 Y79.3600
G01 X15.1243 Y79.3612
G01 X15.1467 Y79.3645
G01 X15.1746 Y79.3714
G01 X15.1971 Y79.3795
G01 X15.2176 Y79.3891
G01 X15.2413 Y79.4031
G01 X15.2615 Y79.4181
G01 X15.2783 Y79.4332
G01 X15.2969 Y79.4535
G01 X15.3132 Y79.4758
G01 X15.3248 Y79.4952
G01 X15.3355 Y79.5179
G01 X15.3440 Y79.5415
G01 X15.3495 Y79.5635
G01 X15.3539 Y79.5932
G01 X15.3550 Y79.6158
G01 X15.3550 Y82.6206
G01 X21.1252 Y88.3908
G01 X57.7055 Y88.3908
G01 X62.2067 Y83.8896
G01 X62.1972 Y83.8509
G01 X62.1822 Y83.7490
G01 X62.1772 Y83.6473
G01 X62.1822 Y83.5456
G01 X62.1979 Y83.4401
G01 X62.2224 Y83.3425
G01 X62.2567 Y83.2466
G01 X62.3024 Y83.1502
G01 X62.3542 Y83.0640
G01 X62.4155 Y82.9812
G01 X62.4865 Y82.9031
G01 X62.5611 Y82.8356
G01 X62.6428 Y82.7750
G01 X62.7344 Y82.7202
G01 X62.8254 Y82.6772
G01 X62.9201 Y82.6433
G01 X63.0224 Y82.6175
G01 X63.1267 Y82.6022
G01 X63.2272 Y82.5973
G01 X63.3277 Y82.6022
G01 X63.4320 Y82.6175
G01 X63.5320 Y82.6425
G01 X63.6267 Y82.6763
G01 X63.7222 Y82.7213
G01 X63.8105 Y82.7743
G01 X63.8914 Y82.8341
G01 X63.9697 Y82.9048
G01 X64.0404 Y82.9831
G01 X64.1002 Y83.0640
G01 X64.1520 Y83.1502
G01 X64.1973 Y83.2455
G01 X64.2326 Y83.3449
G01 X64.2570 Y83.4425
G01 X64.2718 Y83.5419
G01 X64.2772 Y83.6473
G01 X64.2721 Y83.7502
G01 X64.2570 Y83.8521
G01 X64.2320 Y83.9521
G01 X64.1973 Y84.0491
G01 X64.1532 Y84.1423
G01 X64.1002 Y84.2306
G01 X64.0389 Y84.3134
G01 X63.9679 Y84.3915
G01 X63.8914 Y84.4605
G01 X63.8105 Y84.5203
G01 X63.7243 Y84.5721
G01 X63.6290 Y84.6174
G01 X63.5308 Y84.6524
G01 X63.4320 Y84.6771
G01 X63.3326 Y84.6919
G01 X63.2284 Y84.6973
G01 X63.1231 Y84.6921
G01 X63.0236 Y84.6773
G01 X62.9849 Y84.6678
G01 X58.3216 Y89.3310
G01 X58.2825 Y89.3664
G01 X58.2411 Y89.3972
G01 X58.1906 Y89.4275
G01 X58.1440 Y89.4495
G01 X58.0931 Y89.4677
G01 X58.0407 Y89.4808
G01 X57.9886 Y89.4886
G01 X57.9334 Y89.4914
G01 X20.8973 Y89.4914
G01 X20.8434 Y89.4887
G01 X20.7900 Y89.4808
G01 X20.7376 Y89.4677
G01 X20.6867 Y89.4495
G01 X20.6379 Y89.4264
G01 X20.5916 Y89.3986
G01 X20.5482 Y89.3664
G01 X20.5091 Y89.3310
G01 X14.6380 Y83.4600
G01 X14.1096 Y83.4600
G01 X14.0857 Y83.4588
G01 X14.0633 Y83.4555
G01 X14.0365 Y83.4490
G01 X14.0107 Y83.4395
G01 X13.9902 Y83.4298
G01 X13.9687 Y83.4169
G01 X13.9485 Y83.4019
G01 X13.9317 Y83.3868
G01 X13.9131 Y83.3665
G01 X13.8968 Y83.3442
G01 X13.8852 Y83.3248
G01 X13.8745 Y83.3021
G01 X13.8654 Y83.2761
G01 X13.8599 Y83.2541
G01 X13.8565 Y83.2317
G00 Z2.0000
G00 X13.8589 Y77.4459
G01 F60.00
G01 Z-0.1
G01 F200.00
G01 X13.8550 Y77.3700
G01 X13.8550 Y74.7700
G01 X13.8589 Y74.6941
G01 X13.8694 Y74.6237
G01 X13.8870 Y74.5535
G01 X13.9121 Y74.4830
G01 X13.9436 Y74.4165
G01 X13.9814 Y74.3533
G01 X14.0252 Y74.2942
G01 X14.0747 Y74.2397
G01 X14.1292 Y74.1902
G01 X14.1883 Y74.1464
G01 X14.2515 Y74.1086
G01 X14.3180 Y74.0771
G01 X14.3873 Y74.0523
G01 X14.4587 Y74.0344
G01 X14.5315 Y74.0236
G01 X14.6050 Y74.0200
G01 X14.6785 Y74.0236
G01 X14.7513 Y74.0344
G01 X14.8215 Y74.0520
G01 X14.8943 Y74.0781
G01 X14.9585 Y74.1086
G01 X15.0217 Y74.1464
G01 X15.0808 Y74.1902
G01 X15.1336 Y74.2380
G01 X15.1848 Y74.2942
G01 X15.2299 Y74.3554
G01 X15.2664 Y74.4165
G01 X15.2979 Y74.4830
G01 X15.3234 Y74.5547
G01 X15.3406 Y74.6237
G01 X15.3511 Y74.6941
G01 X15.3550 Y74.7700
G01 X15.3550 Y77.3700
G01 X15.3511 Y77.4459
G01 X15.3406 Y77.5163
G01 X15.3230 Y77.5865
G01 X15.2979 Y77.6570
G01 X15.2675 Y77.7214
G01 X15.2272 Y77.7887
G01 X15.1848 Y77.8458
G01 X15.1353 Y77.9003
G01 X15.0808 Y77.9498
G01 X15.0217 Y77.9936
G01 X14.9585 Y78.0314
G01 X14.8943 Y78.0619
G01 X14.8203 Y78.0884
G01 X14.7513 Y78.1056
G01 X14.6785 Y78.1164
G01 X14.6050 Y78.1200
G01 X14.5315 Y78.1164
G01 X14.4587 Y78.1056
G01 X14.3897 Y78.0884
G01 X14.3157 Y78.0619
G01 X14.2515 Y78.0314
G01 X14.1883 Y77.9936
G01 X14.1292 Y77.9498
G01 X14.0747 Y77.9003
G01 X14.0252 Y77.8458
G01 X13.9828 Y77.7887
G01 X13.9425 Y77.7214
G01 X13.9121 Y77.6570
G01 X13.8873 Y77.5877
G01 X13.8694 Y77.5163
G01 X13.8589 Y77.4459
G00 Z2.0000
G00 X16.3989 Y77.4459
G01 F60.00
G01 Z-0.1
G01 F200.00
G01 X16.3950 Y77.3700
G01 X16.3950 Y74.7700
G01 X16.3989 Y74.6941
G01 X16.4094 Y74.6237
G01 X16.4270 Y74.5535
G01 X16.4521 Y74.4830
G01 X16.4836 Y74.4165
G01 X16.5214 Y74.3533
G01 X16.5652 Y74.2942
G01 X16.6147 Y74.2397
G01 X16.6692 Y74.1902
G01 X16.7283 Y74.1464
G01 X16.7915 Y74.1086
G01 X16.8580 Y74.0771
G01 X16.9273 Y74.0523
G01 X16.9987 Y74.0344
G01 X17.0715 Y74.0236
G01 X17.1450 Y74.0200
G01 X17.2185 Y74.0236
G01 X17.2913 Y74.0344
G01 X17.3615 Y74.0520
G01 X17.4343 Y74.0781
G01 X17.4985 Y74.1086
G01 X17.5617 Y74.1464
G01 X17.6208 Y74.1902
G01 X17.6736 Y74.2380
G01 X17.7248 Y74.2942
G01 X17.7699 Y74.3554
G01 X17.8064 Y74.4165
G01 X17.8379 Y74.4830
G01 X17.8634 Y74.5547
G01 X17.8806 Y74.6237
G01 X17.8911 Y74.6941
G01 X17.8950 Y74.7700
G01 X17.8950 Y77.3700
G01 X17.8911 Y77.4459
G01 X17.8806 Y77.5163
G01 X17.8630 Y77.5865
G01 X17.8379 Y77.6570
G01 X17.8075 Y77.7214
G01 X17.7672 Y77.7887
G01 X17.7248 Y77.8458
G01 X17.6753 Y77.9003
G01 X17.6208 Y77.9498
G01 X17.5617 Y77.9936
G01 X17.4985 Y78.0314
G01 X17.4343 Y78.0619
G01 X17.3603 Y78.0884
G01 X17.2913 Y78.1056
G01 X17.2185 Y78.1164
G01 X17.1450 Y78.1200
G01 X17.0715 Y78.1164
G01 X16.9987 Y78.1056
G01 X16.9273 Y78.0877
G01 X16.8580 Y78.0629
G01 X16.7936 Y78.0325
G01 X16.7263 Y77.9922
G01 X16.6692 Y77.9498
G01 X16.6147 Y77.9003
G01 X16.5652 Y77.8458
G01 X16.5228 Y77.7887
G01 X16.4825 Y77.7214
G01 X16.4521 Y77.6570
G01 X16.4273 Y77.5877
G01 X16.4094 Y77.5163
G01 X16.3989 Y77.4459
G00 Z2.0000
G00 X18.9389 Y77.4459
G01 F60.00
G01 Z-0.1
G01 F200.00
G01 X18.9350 Y77.3700
G01 X18.9350 Y74.7700
G01 X18.9389 Y74.6941
G01 X18.9494 Y74.6237
G01 X18.9670 Y74.5535
G01 X18.9921 Y74.4830
G01 X19.0236 Y74.4165
G01 X19.0614 Y74.3533
G01 X19.1052 Y74.2942
G01 X19.1547 Y74.2397
G01 X19.2092 Y74.1902
G01 X19.2683 Y74.1464
G01 X19.3315 Y74.1086
G01 X19.3980 Y74.0771
G01 X19.4673 Y74.0523
G01 X19.5387 Y74.0344
G01 X19.6115 Y74.0236
G01 X19.6850 Y74.0200
G01 X19.7585 Y74.0236
G01 X19.8313 Y74.0344
G01 X19.9015 Y74.0520
G01 X19.9743 Y74.0781
G01 X20.0385 Y74.1086
G01 X20.1017 Y74.1464
G01 X20.1608 Y74.1902
G01 X20.2136 Y74.2380
G01 X20.2648 Y74.2942
G01 X20.3099 Y74.3554
G01 X20.3464 Y74.4165
G01 X20.3779 Y74.4830
G01 X20.4034 Y74.5547
G01 X20.4206 Y74.6237
G01 X20.4311 Y74.6941
G01 X20.4350 Y74.7700
G01 X20.4350 Y77.3700
G01 X20.4311 Y77.4459
G01 X20.4206 Y77.5163
G01 X20.4030 Y77.5865
G01 X20.3779 Y77.6570
G01 X20.3475 Y77.7214
G01 X20.3072 Y77.7887
G01 X20.2648 Y77.8458
G01 X20.2153 Y77.9003
G01 X20.1608 Y77.9498
G01 X20.1017 Y77.9936
G01 X20.0385 Y78.0314
G01 X19.9720 Y78.0629
G01 X19.9027 Y78.0877
G01 X19.8337 Y78.1051
G01 X19.7561 Y78.1166
G01 X19.6850 Y78.1200
G01 X19.6115 Y78.1164
G01 X19.5387 Y78.1056
G01 X19.4673 Y78.0877
G01 X19.3980 Y78.0629
G01 X19.3336 Y78.0325
G01 X19.2663 Y77.9922
G01 X19.2092 Y77.9498
G01 X19.1547 Y77.9003
G01 X19.1052 Y77.8458
G01 X19.0628 Y77.7887
