(G-CODE GENERATED BY FLATCAM v8.994 - www.flatcam.org - Version Date: 2020/11/7)

(Name: io-board-mixed-F_Cu.gbr_iso_combined_cnc)
(Type: G-code from Geometry)
(Units: MM)

(Created on Saturday, 08 May 2021 at 09:49)

(This preprocessor is the default preprocessor used by FlatCAM.)
(It is made to work with MACH3 compatible motion controllers.)

(TOOL DIAMETER: 0.1 mm)
(Feedrate_XY: 120.0 mm/min)
(Feedrate_Z: 60.0 mm/min)
(Feedrate rapids 1500.0 mm/min)

(Z_Cut: 0.0 mm)
(Z_Move: 2.0 mm)
(Z Start: None mm)
(Z End: 15.0 mm)
(X,Y End: 0.0000, 0.0000 mm)
(Steps per circle: 64)
(Preprocessor Geometry: default)

(X range:    7.2813 ...  169.3803  mm)
(Y range:    4.7714 ...   98.2487  mm)

(Spindle Speed: 10000.0 RPM)
G21
G90
G94

G01 F120.00

M5
G00 Z15.0000
G00 X0.0000 Y0.0000
T1
M6    
(MSG, Change to Tool Dia = 0.1000)
M0
G00 Z15.0000

M03 S10000.0
G01 F120.00
G00 X7.2815 Y29.2071
G01 F60.00
G01 Z0.0000
G01 F120.00
G01 X7.2843 Y29.1527
G01 X7.2931 Y29.0934
G01 X7.3076 Y29.0354
G01 X7.3278 Y28.9790
G01 X7.3534 Y28.9248
G01 X7.3842 Y28.8735
G01 X7.4199 Y28.8254
G01 X7.4582 Y28.7829
G01 X13.2322 Y23.0089
G01 X13.2766 Y22.9687
G01 X13.3247 Y22.9330
G01 X13.3760 Y22.9022
G01 X13.4252 Y22.8788
G01 X13.4352 Y22.8747
G01 X13.4866 Y22.8564
G01 X13.5394 Y22.8431
G01 X13.5500 Y22.8410
G01 X13.6039 Y22.8331
G01 X13.6610 Y22.8302
G01 X16.8922 Y22.8301
G01 X25.7499 Y13.9725
G01 X25.7943 Y13.9323
G01 X25.8379 Y13.8997
G01 X25.8469 Y13.8937
G01 X25.8890 Y13.8685
G01 X25.8986 Y13.8634
G01 X25.9479 Y13.8402
G01 X26.0043 Y13.8200
G01 X26.0623 Y13.8055
G01 X26.1162 Y13.7973
G01 X26.1270 Y13.7963
G01 X26.1814 Y13.7937
G01 X79.3343 Y13.7937
G01 X79.4286 Y13.7493
G01 X79.5312 Y13.7126
G01 X79.6368 Y13.6861
G01 X79.7392 Y13.6708
G01 X79.7500 Y13.6697
G01 X79.8534 Y13.6648
G01 X79.9568 Y13.6697
G01 X79.9676 Y13.6708
G01 X80.0646 Y13.6852
G01 X80.0773 Y13.6878
G01 X80.1083 Y13.6569
G01 X80.1487 Y13.6203
G01 X80.1550 Y13.6152
G01 X80.1966 Y13.5844
G01 X80.2034 Y13.5800
G01 X80.2502 Y13.5521
G01 X80.3019 Y13.5276
G01 X80.3094 Y13.5246
G01 X80.3608 Y13.5063
G01 X80.4188 Y13.4918
G01 X80.4781 Y13.4830
G01 X80.5379 Y13.4800
G01 X115.5026 Y13.4800
G01 X115.5097 Y13.4692
G01 X115.5715 Y13.3861
G01 X115.6409 Y13.3093
G01 X115.6485 Y13.3017
G01 X115.7253 Y13.2323
G01 X115.8084 Y13.1705
G01 X115.8174 Y13.1645
G01 X115.9062 Y13.1114
G01 X116.0047 Y13.0648
G01 X116.1022 Y13.0298
G01 X116.1125 Y13.0267
G01 X116.2129 Y13.0016
G01 X116.3153 Y12.9863
G01 X116.3261 Y12.9852
G01 X116.4295 Y12.9803
G01 X116.5383 Y12.9856
G01 X116.6461 Y13.0016
G01 X116.7517 Y13.0281
G01 X116.8492 Y13.0629
G01 X116.8592 Y13.0670
G01 X116.9479 Y13.1089
G01 X116.9574 Y13.1140
G01 X117.0462 Y13.1674
G01 X117.1294 Y13.2289
G01 X117.1378 Y13.2358
G01 X117.2144 Y13.3054
G01 X117.2875 Y13.3861
G01 X117.3524 Y13.4736
G01 X117.4084 Y13.5670
G01 X117.4550 Y13.6655
G01 X117.4917 Y13.7681
G01 X117.5182 Y13.8737
G01 X117.5335 Y13.9761
G01 X117.5346 Y13.9869
G01 X117.5395 Y14.0903
G01 X117.5342 Y14.1991
G01 X117.5182 Y14.3069
G01 X117.4917 Y14.4125
G01 X117.4550 Y14.5151
G01 X117.4084 Y14.6136
G01 X117.3524 Y14.7070
G01 X117.2875 Y14.7945
G01 X117.2144 Y14.8752
G01 X117.1337 Y14.9483
G01 X117.0462 Y15.0132
G01 X116.9528 Y15.0692
G01 X116.8543 Y15.1158
G01 X116.7517 Y15.1525
G01 X116.6461 Y15.1790
G01 X116.5437 Y15.1943
G01 X116.5329 Y15.1954
G01 X116.4295 Y15.2003
G01 X116.3261 Y15.1954
G01 X116.3153 Y15.1943
G01 X116.2129 Y15.1790
G01 X116.1125 Y15.1539
G01 X116.1022 Y15.1508
G01 X116.0047 Y15.1158
G01 X115.9111 Y15.0717
G01 X115.9016 Y15.0666
G01 X115.8174 Y15.0161
G01 X115.8084 Y15.0101
G01 X115.7253 Y14.9483
G01 X115.6485 Y14.8789
G01 X115.6409 Y14.8713
G01 X115.5715 Y14.7945
G01 X115.5097 Y14.7114
G01 X115.5026 Y14.7006
G01 X80.9599 Y14.7006
G01 X80.9634 Y14.7748
G01 X80.9585 Y14.8782
G01 X80.9574 Y14.8890
G01 X80.9426 Y14.9887
G01 X80.9409 Y14.9966
G01 X80.9156 Y15.0970
G01 X80.8799 Y15.1971
G01 X80.8767 Y15.2045
G01 X80.8323 Y15.2981
G01 X80.7763 Y15.3915
G01 X80.7114 Y15.4790
G01 X80.6402 Y15.5578
G01 X80.6344 Y15.5634
G01 X80.5576 Y15.6328
G01 X80.4701 Y15.6977
G01 X80.3767 Y15.7537
G01 X80.2782 Y15.8003
G01 X80.1756 Y15.8370
G01 X80.0700 Y15.8635
G01 X79.9622 Y15.8795
G01 X79.8534 Y15.8848
G01 X79.7446 Y15.8795
G01 X79.6368 Y15.8635
G01 X79.5312 Y15.8370
G01 X79.4337 Y15.8022
G01 X79.4237 Y15.7981
G01 X79.3350 Y15.7562
G01 X79.3255 Y15.7511
G01 X79.2367 Y15.6977
G01 X79.1492 Y15.6328
G01 X79.0685 Y15.5597
G01 X78.9989 Y15.4831
G01 X78.9920 Y15.4747
G01 X78.9336 Y15.3959
G01 X78.9276 Y15.3869
G01 X78.8745 Y15.2981
G01 X78.8279 Y15.1996
G01 X78.7912 Y15.0970
G01 X78.7703 Y15.0143
G01 X26.4342 Y15.0143
G01 X17.7553 Y23.6932
G01 X17.7553 Y24.7084
G01 X17.7728 Y24.7282
G01 X17.8154 Y24.7856
G01 X17.8200 Y24.7923
G01 X17.8594 Y24.8582
G01 X17.8912 Y24.9251
G01 X17.8943 Y24.9325
G01 X17.9201 Y25.0049
G01 X17.9394 Y25.0820
G01 X17.9511 Y25.1606
G01 X17.9549 Y25.2346
G01 X17.9550 Y27.8427
G01 X17.9515 Y27.9140
G01 X17.9504 Y27.9248
G01 X17.9394 Y27.9980
G01 X17.9216 Y28.0699
G01 X17.9184 Y28.0803
G01 X17.8933 Y28.1500
G01 X17.8594 Y28.2218
G01 X17.8185 Y28.2900
G01 X17.7745 Y28.3496
G01 X17.7676 Y28.3579
G01 X17.7178 Y28.4128
G01 X17.6629 Y28.4626
G01 X17.6546 Y28.4695
G01 X17.5972 Y28.5120
G01 X17.5905 Y28.5164
G01 X17.5268 Y28.5544
G01 X17.4599 Y28.5862
G01 X17.4499 Y28.5903
G01 X17.3801 Y28.6151
G01 X17.3083 Y28.6333
G01 X17.2977 Y28.6354
G01 X17.2244 Y28.6461
G01 X17.1450 Y28.6500
G01 X17.0710 Y28.6465
G01 X17.0602 Y28.6454
G01 X16.9870 Y28.6344
G01 X16.9151 Y28.6166
G01 X16.9047 Y28.6134
G01 X16.8350 Y28.5883
G01 X16.7632 Y28.5544
G01 X16.6995 Y28.5164
G01 X16.6906 Y28.5104
G01 X16.6311 Y28.4661
G01 X16.5762 Y28.4165
G01 X16.5685 Y28.4088
G01 X16.5189 Y28.3539
G01 X16.4715 Y28.2900
G01 X16.4333 Y28.2265
G01 X16.4282 Y28.2170
G01 X16.3988 Y28.1549
G01 X16.3947 Y28.1449
G01 X16.3699 Y28.0751
G01 X16.3517 Y28.0033
G01 X16.3496 Y27.9927
G01 X16.3389 Y27.9194
G01 X16.3350 Y27.8400
G01 X16.3351 Y25.2346
G01 X16.3389 Y25.1606
G01 X16.3506 Y25.0820
G01 X16.3699 Y25.0049
G01 X16.3957 Y24.9325
G01 X16.3988 Y24.9251
G01 X16.4306 Y24.8582
G01 X16.4700 Y24.7923
G01 X16.4746 Y24.7856
G01 X16.5172 Y24.7282
G01 X16.5347 Y24.7084
G01 X16.5347 Y24.0507
G01 X13.9165 Y24.0507
G01 X8.5019 Y29.4653
G01 X8.5019 Y59.6431
G01 X15.3283 Y66.4695
G01 X15.4364 Y66.4696
G01 X15.4935 Y66.4725
G01 X15.5528 Y66.4813
G01 X15.6056 Y66.4944
G01 X15.6134 Y66.4966
G01 X15.6622 Y66.5141
G01 X15.6722 Y66.5182
G01 X15.7214 Y66.5416
G01 X15.7682 Y66.5695
G01 X15.7772 Y66.5755
G01 X15.8208 Y66.6081
G01 X15.8652 Y66.6483
G01 X29.0065 Y79.7896
G01 X29.0467 Y79.8340
G01 X29.0809 Y79.8798
G01 X29.0853 Y79.8866
G01 X29.1105 Y79.9287
G01 X29.1156 Y79.9383
G01 X29.1388 Y79.9876
G01 X29.1590 Y80.0440
G01 X29.1723 Y80.0968
G01 X29.1744 Y80.1074
G01 X29.1823 Y80.1613
G01 X29.1852 Y80.2184
G01 X29.1853 Y84.3984
G01 X29.2028 Y84.4182
G01 X29.2454 Y84.4756
G01 X29.2500 Y84.4823
G01 X29.2894 Y84.5482
G01 X29.3212 Y84.6151
G01 X29.3243 Y84.6225
G01 X29.3501 Y84.6949
G01 X29.3694 Y84.7720
G01 X29.3811 Y84.8506
G01 X29.3849 Y84.9246
G01 X29.3850 Y87.5300
G01 X29.3815 Y87.6040
G01 X29.3804 Y87.6148
G01 X29.3694 Y87.6880
G01 X29.3516 Y87.7599
G01 X29.3484 Y87.7703
G01 X29.3253 Y87.8349
G01 X29.3212 Y87.8449
G01 X29.2894 Y87.9118
G01 X29.2485 Y87.9800
G01 X29.2011 Y88.0439
G01 X29.1478 Y88.1028
G01 X29.0889 Y88.1561
G01 X29.0294 Y88.2004
G01 X29.0205 Y88.2064
G01 X28.9615 Y88.2417
G01 X28.9520 Y88.2468
G01 X28.8850 Y88.2783
G01 X28.8101 Y88.3051
G01 X28.7330 Y88.3244
G01 X28.6598 Y88.3354
G01 X28.6490 Y88.3365
G01 X28.5750 Y88.3400
G01 X28.4956 Y88.3361
G01 X28.4170 Y88.3244
G01 X28.3399 Y88.3051
G01 X28.2650 Y88.2783
G01 X28.1932 Y88.2444
G01 X28.1250 Y88.2035
G01 X28.0611 Y88.1561
G01 X28.0022 Y88.1028
G01 X27.9489 Y88.0439
G01 X27.9015 Y87.9800
G01 X27.8606 Y87.9118
G01 X27.8267 Y87.8400
G01 X27.7999 Y87.7651
G01 X27.7806 Y87.6880
G01 X27.7689 Y87.6094
G01 X27.7650 Y87.5300
G01 X27.7650 Y84.9300
G01 X27.7685 Y84.8560
G01 X27.7696 Y84.8452
G01 X27.7796 Y84.7773
G01 X27.7817 Y84.7667
G01 X27.7999 Y84.6949
G01 X27.8247 Y84.6251
G01 X27.8277 Y84.6175
G01 X27.8606 Y84.5482
G01 X27.9000 Y84.4823
G01 X27.9046 Y84.4756
G01 X27.9472 Y84.4182
G01 X27.9647 Y84.3984
G01 X27.9647 Y80.4739
G01 X15.1809 Y67.6901
G01 X15.0728 Y67.6900
G01 X15.0157 Y67.6871
G01 X14.9564 Y67.6783
G01 X14.9036 Y67.6652
G01 X14.8958 Y67.6630
G01 X14.8420 Y67.6436
G01 X14.7927 Y67.6204
G01 X14.7831 Y67.6153
G01 X14.7365 Y67.5872
G01 X14.6926 Y67.5549
G01 X14.6843 Y67.5480
G01 X14.6459 Y67.5132
G01 X7.4601 Y60.3274
G01 X7.4199 Y60.2830
G01 X7.3842 Y60.2349
G01 X7.3534 Y60.1836
G01 X7.3300 Y60.1344
G01 X7.3259 Y60.1244
G01 X7.3076 Y60.0730
G01 X7.2931 Y60.0150
G01 X7.2843 Y59.9557
G01 X7.2813 Y59.8959
G01 X7.2815 Y29.2071
G00 Z2.0000
G00 X7.3414 Y29.2100
G01 F60.00
G01 Z0.0000
G01 F120.00
G01 X7.3440 Y29.1586
G01 X7.3519 Y29.1052
G01 X7.3650 Y29.0528
G01 X7.3832 Y29.0019
G01 X7.4063 Y28.9531
G01 X7.4341 Y28.9068
G01 X7.4663 Y28.8634
G01 X7.5017 Y28.8243
G01 X13.2746 Y23.0513
G01 X13.3146 Y23.0151
G01 X13.3580 Y22.9829
G01 X13.4043 Y22.9551
G01 X13.4509 Y22.9330
G01 X13.5040 Y22.9138
G01 X13.5588 Y22.9003
G01 X13.6098 Y22.8928
G01 X13.6625 Y22.8902
G01 X16.9171 Y22.8901
G01 X25.7923 Y14.0149
G01 X25.8323 Y13.9787
G01 X25.8737 Y13.9479
G01 X25.9242 Y13.9176
G01 X25.9708 Y13.8956
G01 X26.0217 Y13.8774
G01 X26.0741 Y13.8643
G01 X26.1250 Y13.8567
G01 X26.1814 Y13.8537
G01 X79.3500 Y13.8537
G01 X79.3606 Y13.8477
G01 X79.4516 Y13.8047
G01 X79.5486 Y13.7700
G01 X79.6486 Y13.7450
G01 X79.7493 Y13.7300
G01 X79.8534 Y13.7248
G01 X79.9551 Y13.7298
G01 X80.0570 Y13.7448
G01 X80.0957 Y13.7543
G01 X80.1497 Y13.7004
G01 X80.1888 Y13.6650
G01 X80.2322 Y13.6328
G01 X80.2807 Y13.6039
G01 X80.3296 Y13.5811
G01 X80.3782 Y13.5637
G01 X80.4282 Y13.5512
G01 X80.4840 Y13.5427
G01 X80.5379 Y13.5400
G01 X115.5365 Y13.5400
G01 X115.5572 Y13.5059
G01 X115.6171 Y13.4251
G01 X115.6879 Y13.3470
G01 X115.7653 Y13.2771
G01 X115.8462 Y13.2173
G01 X115.9335 Y13.1649
G01 X116.0277 Y13.1202
G01 X116.1271 Y13.0849
G01 X116.2247 Y13.0605
G01 X116.3241 Y13.0457
G01 X116.4295 Y13.0403
G01 X116.5324 Y13.0454
G01 X116.6343 Y13.0605
G01 X116.7343 Y13.0855
G01 X116.8290 Y13.1193
G01 X116.9266 Y13.1655
G01 X117.0128 Y13.2173
G01 X117.0975 Y13.2802
G01 X117.1720 Y13.3478
G01 X117.2412 Y13.4242
G01 X117.3025 Y13.5070
G01 X117.3555 Y13.5953
G01 X117.3996 Y13.6885
G01 X117.4343 Y13.7855
G01 X117.4593 Y13.8855
G01 X117.4741 Y13.9849
G01 X117.4795 Y14.0903
G01 X117.4744 Y14.1932
G01 X117.4593 Y14.2951
G01 X117.4343 Y14.3951
G01 X117.3996 Y14.4921
G01 X117.3555 Y14.5853
G01 X117.3025 Y14.6736
G01 X117.2396 Y14.7583
G01 X117.1702 Y14.8345
G01 X117.0956 Y14.9020
G01 X117.0149 Y14.9619
G01 X116.9245 Y15.0163
G01 X116.8336 Y15.0594
G01 X116.7343 Y15.0951
G01 X116.6343 Y15.1201
G01 X116.5324 Y15.1352
G01 X116.4307 Y15.1403
G01 X116.3241 Y15.1349
G01 X116.2247 Y15.1201
G01 X116.1271 Y15.0957
G01 X116.0277 Y15.0604
G01 X115.9335 Y15.0157
G01 X115.8462 Y14.9633
G01 X115.7653 Y14.9035
G01 X115.6879 Y14.8336
G01 X115.6171 Y14.7555
G01 X115.5572 Y14.6747
G01 X115.5365 Y14.6406
G01 X80.8938 Y14.6406
G01 X80.8984 Y14.6731
G01 X80.9034 Y14.7736
G01 X80.8984 Y14.8765
G01 X80.8832 Y14.9796
G01 X80.8585 Y15.0784
G01 X80.8235 Y15.1766
G01 X80.7794 Y15.2698
G01 X80.7264 Y15.3581
G01 X80.6643 Y15.4419
G01 X80.5959 Y15.5173
G01 X80.5176 Y15.5880
G01 X80.4347 Y15.6492
G01 X80.3484 Y15.7008
G01 X80.2575 Y15.7439
G01 X80.1582 Y15.7796
G01 X80.0582 Y15.8046
G01 X79.9563 Y15.8197
G01 X79.8534 Y15.8248
G01 X79.7505 Y15.8197
G01 X79.6486 Y15.8046
G01 X79.5486 Y15.7796
G01 X79.4539 Y15.7458
G01 X79.3563 Y15.6996
G01 X79.2701 Y15.6478
G01 X79.1863 Y15.5857
G01 X79.1109 Y15.5173
G01 X79.0417 Y15.4409
G01 X78.9804 Y15.3581
G01 X78.9280 Y15.2708
G01 X78.8833 Y15.1766
G01 X78.8490 Y15.0808
G01 X78.8238 Y14.9808
G01 X78.8197 Y14.9543
G01 X26.4093 Y14.9543
G01 X17.6953 Y23.6683
G01 X17.6953 Y24.7316
G01 X17.7255 Y24.7652
G01 X17.7693 Y24.8244
G01 X17.8064 Y24.8865
G01 X17.8384 Y24.9541
G01 X17.8627 Y25.0223
G01 X17.8806 Y25.0937
G01 X17.8914 Y25.1665
G01 X17.8949 Y25.2375
G01 X17.8950 Y27.8412
G01 X17.8911 Y27.9159
G01 X17.8806 Y27.9863
G01 X17.8634 Y28.0553
G01 X17.8379 Y28.1270
G01 X17.8064 Y28.1935
G01 X17.7686 Y28.2567
G01 X17.7232 Y28.3177
G01 X17.6753 Y28.3703
G01 X17.6227 Y28.4182
G01 X17.5627 Y28.4629
G01 X17.4985 Y28.5014
G01 X17.4297 Y28.5338
G01 X17.3627 Y28.5577
G01 X17.2937 Y28.5751
G01 X17.2185 Y28.5864
G01 X17.1450 Y28.5900
G01 X17.0691 Y28.5861
G01 X16.9987 Y28.5756
G01 X16.9297 Y28.5584
G01 X16.8580 Y28.5329
G01 X16.7915 Y28.5014
G01 X16.7263 Y28.4622
G01 X16.6692 Y28.4198
G01 X16.6164 Y28.3720
G01 X16.5652 Y28.3158
G01 X16.5214 Y28.2567
G01 X16.4825 Y28.1914
G01 X16.4521 Y28.1270
G01 X16.4281 Y28.0600
G01 X16.4097 Y27.9875
G01 X16.3986 Y27.9135
G01 X16.3950 Y27.8400
G01 X16.3951 Y25.2375
G01 X16.3986 Y25.1665
G01 X16.4094 Y25.0937
G01 X16.4273 Y25.0223
G01 X16.4516 Y24.9541
G01 X16.4836 Y24.8865
G01 X16.5207 Y24.8244
G01 X16.5645 Y24.7652
G01 X16.5947 Y24.7316
G01 X16.5947 Y23.9907
G01 X13.8916 Y23.9907
G01 X8.4419 Y29.4404
G01 X8.4419 Y59.6680
G01 X15.3034 Y66.5295
G01 X15.4349 Y66.5296
G01 X15.4864 Y66.5321
G01 X15.5410 Y66.5401
G01 X15.5934 Y66.5532
G01 X15.6443 Y66.5714
G01 X15.6952 Y66.5957
G01 X15.7394 Y66.6223
G01 X15.7808 Y66.6529
G01 X15.8228 Y66.6907
G01 X28.9641 Y79.8320
G01 X29.0003 Y79.8720
G01 X29.0318 Y79.9144
G01 X29.0614 Y79.9639
G01 X29.0834 Y80.0105
G01 X29.1016 Y80.0614
G01 X29.1151 Y80.1162
G01 X29.1226 Y80.1672
G01 X29.1252 Y80.2199
G01 X29.1253 Y84.4216
G01 X29.1555 Y84.4552
G01 X29.1993 Y84.5144
G01 X29.2364 Y84.5765
G01 X29.2684 Y84.6441
G01 X29.2927 Y84.7123
G01 X29.3106 Y84.7837
G01 X29.3214 Y84.8565
G01 X29.3249 Y84.9275
G01 X29.3249 Y87.5325
G01 X29.3214 Y87.6035
G01 X29.3106 Y87.6763
G01 X29.2927 Y87.7477
G01 X29.2679 Y87.8170
G01 X29.2364 Y87.8835
G01 X29.1986 Y87.9467
G01 X29.1548 Y88.0058
G01 X29.1070 Y88.0586
G01 X29.0508 Y88.1098
G01 X28.9937 Y88.1522
G01 X28.9264 Y88.1925
G01 X28.8620 Y88.2229
G01 X28.7927 Y88.2477
G01 X28.7213 Y88.2656
G01 X28.6509 Y88.2761
G01 X28.5750 Y88.2800
G01 X28.5015 Y88.2764
G01 X28.4287 Y88.2656
G01 X28.3573 Y88.2477
G01 X28.2880 Y88.2229
G01 X28.2215 Y88.1914
G01 X28.1583 Y88.1536
G01 X28.0992 Y88.1098
G01 X28.0447 Y88.0603
G01 X27.9952 Y88.0058
G01 X27.9514 Y87.9467
G01 X27.9136 Y87.8835
G01 X27.8821 Y87.8170
G01 X27.8573 Y87.7477
G01 X27.8394 Y87.6763
G01 X27.8285 Y87.6023
G01 X27.8250 Y87.5300
G01 X27.8250 Y84.9300
G01 X27.8285 Y84.8577
G01 X27.8394 Y84.7837
G01 X27.8566 Y84.7147
G01 X27.8826 Y84.6419
G01 X27.9136 Y84.5765
G01 X27.9507 Y84.5144
G01 X27.9945 Y84.4552
G01 X28.0247 Y84.4216
G01 X28.0247 Y80.4490
G01 X15.2058 Y67.6301
G01 X15.0743 Y67.6300
G01 X15.0228 Y67.6275
G01 X14.9682 Y67.6195
G01 X14.9158 Y67.6064
G01 X14.8649 Y67.5882
G01 X14.8140 Y67.5639
G01 X14.7698 Y67.5373
G01 X14.7284 Y67.5067
G01 X14.6873 Y67.4697
G01 X7.5025 Y60.2850
G01 X7.4663 Y60.2450
G01 X7.4341 Y60.2016
G01 X7.4063 Y60.1553
G01 X7.3824 Y60.1042
G01 X7.3650 Y60.0556
G01 X7.3519 Y60.0032
G01 X7.3440 Y59.9498
G01 X7.3413 Y59.8959
G01 X7.3414 Y29.2100
G00 Z2.0000
G00 X8.7889 Y33.1406
G01 F60.00
G01 Z0.0000
G01 F120.00
G01 X8.7917 Y33.0862
G01 X8.8005 Y33.0269
G01 X8.8150 Y32.9689
G01 X8.8352 Y32.9125
G01 X8.8608 Y32.8583
G01 X8.8916 Y32.8070
G01 X8.9273 Y32.7589
G01 X8.9656 Y32.7164
G01 X13.7950 Y27.8870
G01 X13.7950 Y24.7431
G01 X13.7965 Y24.7148
G01 X13.8006 Y24.6868
G01 X13.8072 Y24.6593
G01 X13.8103 Y24.6490
G01 X13.8190 Y24.6249
G01 X13.8323 Y24.5969
G01 X13.8482 Y24.5704
G01 X13.8634 Y24.5497
G01 X13.8702 Y24.5414
G01 X13.8875 Y24.5225
G01 X13.9105 Y24.5017
G01 X13.9354 Y24.4832
G01 X13.9572 Y24.4700
G01 X13.9643 Y24.4660
G01 X13.9875 Y24.4551
G01 X13.9950 Y24.4521
G01 X14.0191 Y24.4436
G01 X14.0439 Y24.4373
G01 X14.0518 Y24.4356
G01 X14.0772 Y24.4318
G01 X14.1081 Y24.4300
G01 X15.0992 Y24.4300
G01 X15.1248 Y24.4311
G01 X15.1355 Y24.4322
G01 X15.1635 Y24.4366
G01 X15.1909 Y24.4436
G01 X15.2175 Y24.4530
G01 X15.2432 Y24.4649
G01 X15.2528 Y24.4700
G01 X15.2746 Y24.4832
G01 X15.2953 Y24.4984
G01 X15.3036 Y24.5052
G01 X15.3225 Y24.5225
G01 X15.3433 Y24.5455
G01 X15.3618 Y24.5704
G01 X15.3750 Y24.5922
G01 X15.3790 Y24.5993
G01 X15.3899 Y24.6225
G01 X15.3929 Y24.6300
G01 X15.4014 Y24.6541
G01 X15.4077 Y24.6789
G01 X15.4094 Y24.6868
G01 X15.4132 Y24.7122
G01 X15.4150 Y24.7431
G01 X15.4150 Y28.3342
G01 X15.4139 Y28.3598
G01 X15.4128 Y28.3705
G01 X15.4089 Y28.3958
G01 X15.4028 Y28.4207
G01 X15.3997 Y28.4310
G01 X15.3910 Y28.4551
G01 X15.3801 Y28.4782
G01 X15.3750 Y28.4878
G01 X15.3618 Y28.5096
G01 X15.3466 Y28.5303
G01 X15.3416 Y28.5366
G01 X15.3225 Y28.5575
G01 X15.3036 Y28.5748
G01 X15.2974 Y28.5800
G01 X15.2746 Y28.5968
G01 X15.2528 Y28.6100
G01 X15.2457 Y28.6140
G01 X15.2175 Y28.6270
G01 X15.1934 Y28.6356
G01 X15.1857 Y28.6378
G01 X15.1608 Y28.6439
G01 X15.1355 Y28.6478
G01 X15.1275 Y28.6487
G01 X15.1019 Y28.6500
G01 X14.7580 Y28.6500
G01 X10.0093 Y33.3988
G01 X10.0093 Y58.4234
G01 X15.0563 Y63.4705
G01 X15.0680 Y63.4669
G01 X15.1632 Y63.4430
G01 X15.1738 Y63.4409
G01 X15.2762 Y63.4258
G01 X15.3850 Y63.4205
G01 X15.4884 Y63.4254
G01 X15.4992 Y63.4265
G01 X15.6016 Y63.4418
G01 X15.7072 Y63.4683
G01 X15.8047 Y63.5031
G01 X15.8147 Y63.5072
G01 X15.9083 Y63.5516
G01 X16.0017 Y63.6076
G01 X16.0892 Y63.6725
G01 X16.1660 Y63.7419
G01 X16.1736 Y63.7495
G01 X16.2395 Y63.8222
G01 X16.2447 Y63.8284
G01 X16.3048 Y63.9094
G01 X16.3108 Y63.9184
G01 X16.3639 Y64.0072
G01 X16.4083 Y64.1008
G01 X16.4124 Y64.1108
G01 X16.4472 Y64.2083
G01 X16.4725 Y64.3087
G01 X16.4746 Y64.3193
G01 X16.4897 Y64.4217
G01 X16.4949 Y64.5251
G01 X16.4949 Y64.5359
G01 X16.4897 Y64.6393
G01 X16.4746 Y64.7417
G01 X16.4725 Y64.7523
G01 X16.4472 Y64.8527
G01 X16.4124 Y64.9502
G01 X16.4083 Y64.9602
G01 X16.3639 Y65.0538
G01 X16.3108 Y65.1426
G01 X16.3048 Y65.1516
G01 X16.2430 Y65.2347
G01 X16.1736 Y65.3115
G01 X16.1660 Y65.3191
G01 X16.0892 Y65.3885
G01 X16.0061 Y65.4503
G01 X15.9971 Y65.4563
G01 X15.9083 Y65.5094
G01 X15.8147 Y65.5538
G01 X15.8047 Y65.5579
G01 X15.7072 Y65.5927
G01 X15.6016 Y65.6192
G01 X15.4992 Y65.6345
G01 X15.4884 Y65.6356
G01 X15.3850 Y65.6405
G01 X15.2816 Y65.6356
G01 X15.2708 Y65.6345
G01 X15.1684 Y65.6192
G01 X15.0628 Y65.5927
G01 X14.9602 Y65.5560
G01 X14.8666 Y65.5119
G01 X14.8571 Y65.5068
G01 X14.7683 Y65.4534
G01 X14.6851 Y65.3919
G01 X14.6767 Y65.3850
G01 X14.6001 Y65.3154
G01 X14.5270 Y65.2347
G01 X14.4652 Y65.1516
G01 X14.4592 Y65.1426
G01 X14.4061 Y65.0538
G01 X14.3617 Y64.9602
G01 X14.3576 Y64.9502
G01 X14.3245 Y64.8578
G01 X14.3214 Y64.8475
G01 X14.2963 Y64.7471
G01 X14.2803 Y64.6393
G01 X14.2750 Y64.5305
G01 X14.2805 Y64.4207
G01 X8.9656 Y59.1058
G01 X8.9273 Y59.0633
G01 X8.8947 Y59.0197
G01 X8.8887 Y59.0107
G01 X8.8608 Y58.9639
G01 X8.8352 Y58.9097
G01 X8.8167 Y58.8585
G01 X8.8136 Y58.8481
G01 X8.8005 Y58.7953
G01 X8.7917 Y58.7360
G01 X8.7887 Y58.6762
G01 X8.7889 Y33.1406
G00 Z2.0000
G00 X8.8488 Y33.1435
G01 F60.00
G01 Z0.0000
G01 F120.00
G01 X8.8514 Y33.0921
G01 X8.8593 Y33.0387
G01 X8.8724 Y32.9863
G01 X8.8906 Y32.9354
G01 X8.9137 Y32.8866
G01 X8.9415 Y32.8403
G01 X8.9737 Y32.7969
G01 X9.0091 Y32.7578
G01 X13.8550 Y27.9118
G01 X13.8550 Y24.7446
G01 X13.8562 Y24.7207
G01 X13.8595 Y24.6983
G01 X13.8668 Y24.6692
G01 X13.8745 Y24.6479
G01 X13.8852 Y24.6252
G01 X13.8981 Y24.6037
G01 X13.9116 Y24.5855
G01 X13.9299 Y24.5649
G01 X13.9485 Y24.5481
G01 X13.9687 Y24.5331
G01 X13.9924 Y24.5191
G01 X14.0152 Y24.5086
G01 X14.0365 Y24.5010
G01 X14.0585 Y24.4955
G01 X14.0857 Y24.4912
G01 X14.1096 Y24.4900
G01 X15.0992 Y24.4900
G01 X15.1218 Y24.4911
G01 X15.1515 Y24.4955
G01 X15.1735 Y24.5010
G01 X15.1971 Y24.5095
G01 X15.2219 Y24.5214
G01 X15.2413 Y24.5331
G01 X15.2595 Y24.5466
G01 X15.2801 Y24.5649
G01 X15.2969 Y24.5835
G01 X15.3119 Y24.6037
G01 X15.3259 Y24.6274
G01 X15.3364 Y24.6502
G01 X15.3440 Y24.6715
G01 X15.3495 Y24.6935
G01 X15.3538 Y24.7207
G01 X15.3550 Y24.7446
G01 X15.3550 Y28.3342
G01 X15.3538 Y28.3593
G01 X15.3505 Y28.3817
G01 X15.3440 Y28.4085
G01 X15.3345 Y28.4343
G01 X15.3248 Y28.4548
G01 X15.3132 Y28.4742
G01 X15.2969 Y28.4965
G01 X15.2801 Y28.5151
G01 X15.2615 Y28.5319
G01 X15.2413 Y28.5469
G01 X15.2198 Y28.5598
G01 X15.1971 Y28.5705
G01 X15.1735 Y28.5790
G01 X15.1491 Y28.5851
G01 X15.1243 Y28.5888
G01 X15.0992 Y28.5900
G01 X14.7332 Y28.5900
G01 X9.9493 Y33.3739
G01 X9.9493 Y58.4483
G01 X15.0407 Y63.5398
G01 X15.0814 Y63.5254
G01 X15.1814 Y63.5005
G01 X15.2821 Y63.4856
G01 X15.3838 Y63.4805
G01 X15.4904 Y63.4859
G01 X15.5898 Y63.5007
G01 X15.6886 Y63.5254
G01 X15.7891 Y63.5614
G01 X15.8800 Y63.6045
G01 X15.9683 Y63.6575
G01 X16.0511 Y63.7188
G01 X16.1257 Y63.7863
G01 X16.1974 Y63.8653
G01 X16.2594 Y63.9492
G01 X16.3110 Y64.0355
G01 X16.3541 Y64.1264
G01 X16.3898 Y64.2257
G01 X16.4152 Y64.3281
G01 X16.4299 Y64.4276
G01 X16.4349 Y64.5280
G01 X16.4299 Y64.6334
G01 X16.4143 Y64.7377
G01 X16.3898 Y64.8353
G01 X16.3560 Y64.9300
G01 X16.3110 Y65.0255
G01 X16.2566 Y65.1159
G01 X16.1967 Y65.1966
G01 X16.1292 Y65.2712
G01 X16.0511 Y65.3422
G01 X15.9663 Y65.4049
G01 X15.8800 Y65.4565
G01 X15.7891 Y65.4996
G01 X15.6898 Y65.5353
G01 X15.5898 Y65.5603
G01 X15.4855 Y65.5756
G01 X15.3850 Y65.5805
G01 X15.2845 Y65.5756
G01 X15.1802 Y65.5603
G01 X15.0802 Y65.5353
G01 X14.9832 Y65.5006
G01 X14.8879 Y65.4553
G01 X14.8017 Y65.4035
G01 X14.7208 Y65.3437
G01 X14.6425 Y65.2730
G01 X14.5733 Y65.1966
G01 X14.5106 Y65.1118
G01 X14.4590 Y65.0255
G01 X14.4159 Y64.9346
G01 X14.3806 Y64.8365
G01 X14.3552 Y64.7353
G01 X14.3400 Y64.6322
G01 X14.3350 Y64.5293
G01 X14.3400 Y64.4288
G01 X14.3442 Y64.3995
G01 X9.0099 Y59.0653
G01 X8.9737 Y59.0253
G01 X8.9429 Y58.9839
G01 X8.9137 Y58.9356
G01 X8.8906 Y58.8868
G01 X8.8732 Y58.8383
G01 X8.8593 Y58.7835
G01 X8.8514 Y58.7301
G01 X8.8487 Y58.6762
G01 X8.8488 Y33.1435
G00 Z2.0000
G00 X10.3062 Y39.1988
G01 F60.00
G01 Z0.0000
G01 F120.00
G01 X10.3090 Y39.1444
G01 X10.3178 Y39.0851
G01 X10.3323 Y39.0271
G01 X10.3525 Y38.9707
G01 X10.3781 Y38.9165
G01 X10.4089 Y38.8652
G01 X10.4446 Y38.8171
G01 X10.4829 Y38.7746
G01 X14.6299 Y34.6275
G01 X14.6299 Y33.9889
G01 X14.6023 Y33.9900
G01 X14.5283 Y33.9863
G01 X14.5202 Y33.9854
G01 X14.4496 Y33.9749
G01 X14.4417 Y33.9733
G01 X14.3699 Y33.9551
G01 X14.2975 Y33.9293
G01 X14.2901 Y33.9262
G01 X14.2232 Y33.8944
G01 X14.1550 Y33.8535
G01 X14.0911 Y33.8061
G01 X14.0342 Y33.7546
G01 X14.0285 Y33.7488
G01 X13.9789 Y33.6939
G01 X13.9315 Y33.6300
G01 X13.8906 Y33.5618
G01 X13.8567 Y33.4900
G01 X13.8299 Y33.4151
G01 X13.8106 Y33.3380
G01 X13.7989 Y33.2594
G01 X13.7950 Y33.1827
G01 X13.7950 Y30.5800
G01 X13.7989 Y30.5006
G01 X13.8106 Y30.4220
G01 X13.8299 Y30.3449
G01 X13.8547 Y30.2751
G01 X13.8588 Y30.2651
G01 X13.8906 Y30.1982
G01 X13.9286 Y30.1345
G01 X13.9346 Y30.1256
G01 X13.9789 Y30.0661
G01 X14.0322 Y30.0072
G01 X14.0911 Y29.9539
G01 X14.1506 Y29.9096
G01 X14.1595 Y29.9036
G01 X14.2232 Y29.8656
G01 X14.2950 Y29.8317
G01 X14.3647 Y29.8066
G01 X14.3751 Y29.8034
G01 X14.4417 Y29.7867
G01 X14.4523 Y29.7846
G01 X14.5256 Y29.7739
G01 X14.6050 Y29.7700
G01 X14.6844 Y29.7739
G01 X14.7630 Y29.7856
G01 X14.8401 Y29.8049
G01 X14.9150 Y29.8317
G01 X14.9868 Y29.8656
G01 X15.0505 Y29.9036
G01 X15.0594 Y29.9096
G01 X15.1189 Y29.9539
G01 X15.1738 Y30.0035
G01 X15.1815 Y30.0112
G01 X15.2276 Y30.0621
G01 X15.2345 Y30.0704
G01 X15.2785 Y30.1300
G01 X15.3194 Y30.1982
G01 X15.3533 Y30.2700
G01 X15.3801 Y30.3449
G01 X15.3983 Y30.4167
G01 X15.4004 Y30.4273
G01 X15.4111 Y30.5006
G01 X15.4150 Y30.5773
G01 X15.4150 Y32.6272
G01 X15.6717 Y32.8839
G01 X15.7084 Y32.9242
G01 X15.7136 Y32.9304
G01 X15.7476 Y32.9764
G01 X15.7784 Y33.0277
G01 X15.8040 Y33.0819
G01 X15.8225 Y33.1331
G01 X15.8249 Y33.1408
G01 X15.8387 Y33.1963
G01 X15.8469 Y33.2502
G01 X15.8479 Y33.2610
G01 X15.8504 Y33.3127
G01 X15.8505 Y34.2700
G01 X68.6047 Y34.2700
G01 X68.6047 Y33.7116
G01 X68.5872 Y33.6918
G01 X68.5446 Y33.6344
G01 X68.5400 Y33.6277
G01 X68.5006 Y33.5618
G01 X68.4688 Y33.4949
G01 X68.4657 Y33.4875
G01 X68.4399 Y33.4151
G01 X68.4206 Y33.3380
G01 X68.4089 Y33.2594
G01 X68.4051 Y33.1854
G01 X68.4050 Y30.5800
G01 X68.4085 Y30.5060
G01 X68.4096 Y30.4952
G01 X68.4206 Y30.4220
G01 X68.4399 Y30.3449
G01 X68.4647 Y30.2751
G01 X68.4688 Y30.2651
G01 X68.5006 Y30.1982
G01 X68.5386 Y30.1345
G01 X68.5446 Y30.1256
G01 X68.5889 Y30.0661
G01 X68.6385 Y30.0112
G01 X68.6462 Y30.0035
G01 X68.7011 Y29.9539
G01 X68.7606 Y29.9096
G01 X68.7695 Y29.9036
G01 X68.8332 Y29.8656
G01 X68.9001 Y29.8338
G01 X68.9101 Y29.8297
G01 X68.9799 Y29.8049
G01 X69.0570 Y29.7856
G01 X69.1302 Y29.7746
G01 X69.1410 Y29.7735
G01 X69.2150 Y29.7700
G01 X69.2944 Y29.7739
G01 X69.3677 Y29.7846
G01 X69.3783 Y29.7867
G01 X69.4501 Y29.8049
G01 X69.5199 Y29.8297
G01 X69.5299 Y29.8338
G01 X69.5968 Y29.8656
G01 X69.6605 Y29.9036
G01 X69.6694 Y29.9096
G01 X69.7289 Y29.9539
G01 X69.7838 Y30.0035
G01 X69.7915 Y30.0112
G01 X69.8376 Y30.0621
G01 X69.8428 Y30.0682
G01 X69.8885 Y30.1300
G01 X69.9267 Y30.1935
G01 X69.9318 Y30.2030
G01 X69.9633 Y30.2700
G01 X69.9901 Y30.3449
G01 X70.0083 Y30.4167
G01 X70.0104 Y30.4273
G01 X70.0204 Y30.4952
G01 X70.0215 Y30.5060
G01 X70.0250 Y30.5800
G01 X70.0250 Y33.1800
G01 X70.0211 Y33.2594
G01 X70.0094 Y33.3380
G01 X69.9916 Y33.4099
G01 X69.9884 Y33.4203
G01 X69.9653 Y33.4849
G01 X69.9623 Y33.4925
G01 X69.9294 Y33.5618
G01 X69.8900 Y33.6277
G01 X69.8854 Y33.6344
G01 X69.8428 Y33.6918
G01 X69.8253 Y33.7116
G01 X69.8252 Y34.8830
G01 X69.8223 Y34.9401
G01 X69.8144 Y34.9940
G01 X69.8123 Y35.0046
G01 X69.7990 Y35.0574
G01 X69.7807 Y35.1088
G01 X69.7766 Y35.1188
G01 X69.7532 Y35.1680
G01 X69.7224 Y35.2193
G01 X69.6901 Y35.2632
G01 X69.6832 Y35.2715
G01 X69.6465 Y35.3118
G01 X69.6062 Y35.3485
G01 X69.5979 Y35.3554
G01 X69.5540 Y35.3877
G01 X69.5074 Y35.4158
G01 X69.4978 Y35.4209
G01 X69.4485 Y35.4441
G01 X69.3973 Y35.4626
G01 X69.3869 Y35.4657
G01 X69.3393 Y35.4776
G01 X69.3314 Y35.4793
G01 X69.2748 Y35.4876
G01 X69.2150 Y35.4906
G01 X15.4930 Y35.4906
G01 X11.5266 Y39.4570
G01 X11.5266 Y44.9189
G01 X33.8488 Y67.2411
G01 X37.9473 Y67.2412
G01 X38.0044 Y67.2441
G01 X38.0583 Y67.2520
G01 X38.0689 Y67.2541
G01 X38.1217 Y67.2674
G01 X38.1781 Y67.2876
G01 X38.2274 Y67.3108
G01 X38.2370 Y67.3159
G01 X38.2791 Y67.3411
G01 X38.2881 Y67.3471
G01 X38.3317 Y67.3797
G01 X38.3761 Y67.4199
G01 X50.3697 Y79.4135
G01 X50.4064 Y79.4538
G01 X50.4116 Y79.4600
G01 X50.4456 Y79.5060
G01 X50.4764 Y79.5573
G01 X50.5020 Y79.6115
G01 X50.5205 Y79.6627
G01 X50.5236 Y79.6731
G01 X50.5355 Y79.7207
G01 X50.5376 Y79.7313
G01 X50.5455 Y79.7852
G01 X50.5484 Y79.8423
G01 X50.5485 Y84.0537
G01 X55.9586 Y89.4638
G01 X56.0380 Y89.4756
G01 X56.1099 Y89.4934
G01 X56.1203 Y89.4966
G01 X56.1849 Y89.5197
G01 X56.1949 Y89.5238
G01 X56.2618 Y89.5556
G01 X56.3300 Y89.5965
G01 X56.3939 Y89.6439
G01 X56.4528 Y89.6972
G01 X56.5061 Y89.7561
G01 X56.5504 Y89.8156
G01 X56.5564 Y89.8245
G01 X56.5944 Y89.8882
G01 X56.6262 Y89.9551
G01 X56.6303 Y89.9651
G01 X56.6534 Y90.0297
G01 X56.6566 Y90.0401
G01 X56.6733 Y90.1067
G01 X56.6754 Y90.1173
G01 X56.6861 Y90.1906
G01 X56.6900 Y90.2673
G01 X56.6900 Y92.8727
G01 X56.6861 Y92.9494
G01 X56.6744 Y93.0280
G01 X56.6551 Y93.1051
G01 X56.6293 Y93.1775
G01 X56.6262 Y93.1849
G01 X56.5944 Y93.2518
G01 X56.5550 Y93.3177
G01 X56.5504 Y93.3244
G01 X56.5078 Y93.3818
G01 X56.4903 Y93.4016
G01 X56.4903 Y97.0281
G01 X95.1041 Y97.0281
G01 X97.8147 Y94.3175
G01 X97.8147 Y93.4016
G01 X97.7972 Y93.3818
G01 X97.7546 Y93.3244
G01 X97.7500 Y93.3177
G01 X97.7106 Y93.2518
G01 X97.6788 Y93.1849
G01 X97.6757 Y93.1775
G01 X97.6499 Y93.1051
G01 X97.6306 Y93.0280
G01 X97.6189 Y92.9494
G01 X97.6151 Y92.8754
G01 X97.6150 Y90.2700
G01 X97.6185 Y90.1960
G01 X97.6192 Y90.1879
G01 X97.6306 Y90.1120
G01 X97.6499 Y90.0349
G01 X97.6767 Y89.9600
G01 X97.7082 Y89.8930
G01 X97.7133 Y89.8835
G01 X97.7486 Y89.8245
G01 X97.7546 Y89.8156
G01 X97.7989 Y89.7561
G01 X97.8485 Y89.7012
G01 X97.8562 Y89.6935
G01 X97.9111 Y89.6439
G01 X97.9750 Y89.5965
G01 X98.0432 Y89.5556
G01 X98.1150 Y89.5217
G01 X98.1899 Y89.4949
G01 X98.2670 Y89.4756
G01 X98.3456 Y89.4639
G01 X98.4196 Y89.4601
G01 X98.4304 Y89.4601
G01 X98.5044 Y89.4639
G01 X98.5830 Y89.4756
G01 X98.6601 Y89.4949
G01 X98.7299 Y89.5197
G01 X98.7399 Y89.5238
G01 X98.8068 Y89.5556
G01 X98.8705 Y89.5936
G01 X98.8794 Y89.5996
G01 X98.9346 Y89.6405
G01 X98.9429 Y89.6474
G01 X98.9978 Y89.6972
G01 X99.0511 Y89.7561
G01 X99.0985 Y89.8200
G01 X99.1394 Y89.8882
G01 X99.1733 Y89.9600
G01 X99.2001 Y90.0349
G01 X99.2194 Y90.1120
G01 X99.2304 Y90.1852
G01 X99.2315 Y90.1960
G01 X99.2350 Y90.2700
G01 X99.2350 Y92.8700
G01 X99.2315 Y92.9440
G01 X99.2304 Y92.9548
G01 X99.2204 Y93.0227
G01 X99.2183 Y93.0333
G01 X99.2001 Y93.1051
G01 X99.1753 Y93.1749
G01 X99.1723 Y93.1825
G01 X99.1394 Y93.2518
G01 X99.1000 Y93.3177
G01 X99.0954 Y93.3244
G01 X99.0528 Y93.3818
G01 X99.0353 Y93.4016
G01 X99.0353 Y93.9600
G01 X130.2230 Y93.9600
G01 X136.7043 Y87.4787
G01 X136.7043 Y70.4015
G01 X136.7073 Y70.3417
G01 X136.7152 Y70.2878
G01 X136.7173 Y70.2772
G01 X136.7292 Y70.2296
G01 X136.7323 Y70.2192
G01 X136.7508 Y70.1680
G01 X136.7764 Y70.1138
G01 X136.8072 Y70.0625
G01 X136.8395 Y70.0186
G01 X136.8464 Y70.0103
G01 X136.8831 Y69.9700
G01 X161.1043 Y45.7488
G01 X161.1487 Y45.7086
G01 X161.1968 Y45.6729
G01 X161.2434 Y45.6448
G01 X161.2530 Y45.6397
G01 X161.2973 Y45.6187
G01 X161.3073 Y45.6146
G01 X161.3587 Y45.5963
G01 X161.4167 Y45.5818
G01 X161.4760 Y45.5730
G01 X161.5331 Y45.5701
G01 X166.3947 Y45.5700
G01 X166.3947 Y45.0359
G01 X166.3402 Y44.9756
G01 X166.2899 Y44.9078
G01 X166.2465 Y44.8354
G01 X166.2127 Y44.7640
G01 X166.2085 Y44.7541
G01 X166.1837 Y44.6848
G01 X166.1806 Y44.6744
G01 X166.1615 Y44.5978
G01 X166.1498 Y44.5197
G01 X166.1489 Y44.5116
G01 X166.1450 Y44.4300
G01 X166.1450 Y41.9300
G01 X166.1489 Y41.8484
G01 X166.1498 Y41.8403
G01 X166.1606 Y41.7675
G01 X166.1627 Y41.7570
G01 X166.1820 Y41.6804
G01 X166.2105 Y41.6009
G01 X166.2441 Y41.5294
G01 X166.2492 Y41.5199
G01 X166.2899 Y41.4522
G01 X166.3402 Y41.3844
G01 X166.3932 Y41.3258
G01 X166.4008 Y41.3182
G01 X166.4594 Y41.2652
G01 X166.5272 Y41.2149
G01 X166.5949 Y41.1742
G01 X166.6044 Y41.1691
G01 X166.6759 Y41.1355
G01 X166.7528 Y41.1078
G01 X166.7606 Y41.1056
G01 X166.8372 Y41.0865
G01 X166.9207 Y41.0741
G01 X167.0050 Y41.0700
G01 X167.0893 Y41.0741
G01 X167.1728 Y41.0865
G01 X167.2546 Y41.1070
G01 X167.3341 Y41.1355
G01 X167.4104 Y41.1715
G01 X167.4828 Y41.2149
G01 X167.5506 Y41.2652
G01 X167.6131 Y41.3219
G01 X167.6698 Y41.3844
G01 X167.7201 Y41.4522
G01 X167.7635 Y41.5246
G01 X167.7995 Y41.6009
G01 X167.8272 Y41.6778
G01 X167.8294 Y41.6856
G01 X167.8473 Y41.7570
G01 X167.8494 Y41.7675
G01 X167.8609 Y41.8457
G01 X167.8650 Y41.9273
G01 X167.8650 Y44.4327
G01 X167.8609 Y44.5143
G01 X167.8485 Y44.5978
G01 X167.8280 Y44.6796
G01 X167.7995 Y44.7591
G01 X167.7635 Y44.8354
G01 X167.7201 Y44.9078
G01 X167.6698 Y44.9756
G01 X167.6153 Y45.0359
G01 X167.6152 Y46.1830
G01 X167.6127 Y46.2347
G01 X167.6117 Y46.2455
G01 X167.6035 Y46.2994
G01 X167.5897 Y46.3549
G01 X167.5873 Y46.3626
G01 X167.5688 Y46.4138
G01 X167.5456 Y46.4631
G01 X167.5405 Y46.4727
G01 X167.5153 Y46.5148
G01 X167.5093 Y46.5238
G01 X167.4767 Y46.5674
G01 X167.4402 Y46.6079
G01 X167.4326 Y46.6155
G01 X167.3921 Y46.6520
G01 X167.3440 Y46.6877
G01 X167.2927 Y46.7185
G01 X167.2435 Y46.7419
G01 X167.2360 Y46.7451
G01 X167.1821 Y46.7643
G01 X167.1241 Y46.7788
G01 X167.0648 Y46.7876
G01 X167.0050 Y46.7906
G01 X161.7886 Y46.7906
G01 X137.9249 Y70.6543
G01 X137.9249 Y87.4787
G01 X140.0059 Y89.5597
G01 X141.2161 Y89.5597
G01 X141.2280 Y89.5532
G01 X141.2901 Y89.5238
G01 X141.3001 Y89.5197
G01 X141.3699 Y89.4949
G01 X141.4470 Y89.4756
G01 X141.5256 Y89.4639
G01 X141.5996 Y89.4601
G01 X141.6104 Y89.4601
G01 X141.6790 Y89.4635
G01 X141.6871 Y89.4642
G01 X141.7630 Y89.4756
G01 X141.8349 Y89.4934
G01 X141.8453 Y89.4966
G01 X141.9099 Y89.5197
G01 X141.9199 Y89.5238
G01 X141.9868 Y89.5556
G01 X142.0505 Y89.5936
G01 X142.0594 Y89.5996
G01 X142.1189 Y89.6439
G01 X142.1778 Y89.6972
G01 X142.2311 Y89.7561
G01 X142.2754 Y89.8156
G01 X142.2800 Y89.8223
G01 X142.3194 Y89.8882
G01 X142.3512 Y89.9551
G01 X142.3553 Y89.9651
G01 X142.3801 Y90.0349
G01 X142.3983 Y90.1067
G01 X142.4004 Y90.1173
G01 X142.4111 Y90.1906
G01 X142.4149 Y90.2646
G01 X142.4150 Y92.8700
G01 X142.4115 Y92.9440
G01 X142.4108 Y92.9521
G01 X142.3994 Y93.0280
G01 X142.3816 Y93.0999
G01 X142.3784 Y93.1103
G01 X142.3533 Y93.1800
G01 X142.3194 Y93.2518
G01 X142.2814 Y93.3155
G01 X142.2754 Y93.3244
G01 X142.2311 Y93.3839
G01 X142.1815 Y93.4388
G01 X142.1738 Y93.4465
G01 X142.1189 Y93.4961
G01 X142.0550 Y93.5435
G01 X141.9915 Y93.5817
G01 X141.9820 Y93.5868
G01 X141.9150 Y93.6183
G01 X141.8453 Y93.6434
G01 X141.8349 Y93.6466
G01 X141.7630 Y93.6644
G01 X141.6844 Y93.6761
G01 X141.6050 Y93.6800
G01 X141.5256 Y93.6761
G01 X141.4470 Y93.6644
G01 X141.3699 Y93.6451
G01 X141.2950 Y93.6183
G01 X141.2280 Y93.5868
G01 X141.2185 Y93.5817
G01 X141.1595 Y93.5464
G01 X141.1506 Y93.5404
G01 X141.0911 Y93.4961
G01 X141.0362 Y93.4465
G01 X141.0285 Y93.4388
G01 X140.9789 Y93.3839
G01 X140.9315 Y93.3200
G01 X140.8906 Y93.2518
G01 X140.8588 Y93.1849
G01 X140.8547 Y93.1749
G01 X140.8299 Y93.1051
G01 X140.8106 Y93.0280
G01 X140.7989 Y92.9494
G01 X140.7950 Y92.8727
G01 X140.7950 Y90.7803
G01 X139.7531 Y90.7803
G01 X139.6960 Y90.7775
G01 X139.6879 Y90.7767
G01 X139.6340 Y90.7685
G01 X139.5812 Y90.7554
G01 X139.5708 Y90.7523
G01 X139.5196 Y90.7338
G01 X139.4703 Y90.7106
G01 X139.4607 Y90.7055
G01 X139.4163 Y90.6789
G01 X139.4096 Y90.6743
G01 X139.3660 Y90.6417
G01 X139.3216 Y90.6015
G01 X137.3146 Y88.5945
G01 X130.9073 Y95.0018
G01 X130.8629 Y95.0420
G01 X130.8193 Y95.0746
G01 X130.8103 Y95.0806
G01 X130.7635 Y95.1085
G01 X130.7143 Y95.1319
G01 X130.7043 Y95.1360
G01 X130.6529 Y95.1543
G01 X130.5975 Y95.1683
G01 X130.5895 Y95.1697
G01 X130.5356 Y95.1776
G01 X130.4758 Y95.1806
G01 X98.6778 Y95.1806
G01 X95.7865 Y98.0718
G01 X95.7440 Y98.1101
G01 X95.6959 Y98.1458
G01 X95.6446 Y98.1766
G01 X95.5954 Y98.2000
G01 X95.5854 Y98.2041
G01 X95.5392 Y98.2207
G01 X95.5288 Y98.2238
G01 X95.4760 Y98.2369
G01 X95.4221 Y98.2451
G01 X95.4140 Y98.2459
G01 X95.3569 Y98.2487
G01 X16.4004 Y98.2486
G01 X16.3433 Y98.2457
G01 X16.2840 Y98.2369
G01 X16.2260 Y98.2224
G01 X16.1696 Y98.2022
G01 X16.1154 Y98.1766
G01 X16.0641 Y98.1458
G01 X16.0160 Y98.1101
G01 X15.9735 Y98.0718
G01 X12.9035 Y95.0018
G01 X12.8633 Y94.9574
G01 X12.8276 Y94.9093
G01 X12.7968 Y94.8580
G01 X12.7734 Y94.8088
G01 X12.7702 Y94.8013
G01 X12.7510 Y94.7474
G01 X12.7365 Y94.6894
G01 X12.7277 Y94.6301
G01 X12.7248 Y94.5730
G01 X12.7247 Y93.4016
G01 X12.7072 Y93.3818
G01 X12.6646 Y93.3244
G01 X12.6600 Y93.3177
G01 X12.6206 Y93.2518
G01 X12.5877 Y93.1825
G01 X12.5847 Y93.1749
G01 X12.5599 Y93.1051
G01 X12.5417 Y93.0333
G01 X12.5396 Y93.0227
G01 X12.5296 Y92.9548
G01 X12.5285 Y92.9440
G01 X12.5250 Y92.8700
G01 X12.5251 Y90.2646
G01 X12.5289 Y90.1906
G01 X12.5396 Y90.1173
G01 X12.5417 Y90.1067
G01 X12.5599 Y90.0349
G01 X12.5847 Y89.9651
G01 X12.5888 Y89.9551
G01 X12.6206 Y89.8882
G01 X12.6615 Y89.8200
G01 X12.7089 Y89.7561
G01 X12.7585 Y89.7012
G01 X12.7662 Y89.6935
G01 X12.8211 Y89.6439
G01 X12.8850 Y89.5965
G01 X12.9485 Y89.5583
G01 X12.9580 Y89.5532
G01 X13.0201 Y89.5238
G01 X13.0275 Y89.5207
G01 X13.0999 Y89.4949
G01 X13.1717 Y89.4767
G01 X13.1823 Y89.4746
G01 X13.2502 Y89.4646
G01 X13.2610 Y89.4635
G01 X13.3350 Y89.4600
G01 X13.4090 Y89.4635
G01 X13.4198 Y89.4646
G01 X13.4930 Y89.4756
G01 X13.5701 Y89.4949
G01 X13.6450 Y89.5217
G01 X13.7168 Y89.5556
G01 X13.7850 Y89.5965
G01 X13.8446 Y89.6405
G01 X13.8529 Y89.6474
G01 X13.9038 Y89.6935
G01 X13.9115 Y89.7012
G01 X13.9611 Y89.7561
G01 X14.0054 Y89.8156
G01 X14.0114 Y89.8245
G01 X14.0494 Y89.8882
G01 X14.0833 Y89.9600
G01 X14.1101 Y90.0349
G01 X14.1294 Y90.1120
G01 X14.1411 Y90.1906
G01 X14.1450 Y90.2700
G01 X14.1449 Y92.8754
G01 X14.1411 Y92.9494
G01 X14.1294 Y93.0280
G01 X14.1101 Y93.1051
G01 X14.0843 Y93.1775
G01 X14.0812 Y93.1849
G01 X14.0494 Y93.2518
G01 X14.0100 Y93.3177
G01 X14.0054 Y93.3244
G01 X13.9628 Y93.3818
G01 X13.9453 Y93.4016
G01 X13.9453 Y94.3175
G01 X16.6559 Y97.0281
G01 X55.2697 Y97.0281
G01 X55.2697 Y93.4016
G01 X55.2522 Y93.3818
G01 X55.2096 Y93.3244
G01 X55.2050 Y93.3177
G01 X55.1656 Y93.2518
G01 X55.1327 Y93.1825
G01 X55.1297 Y93.1749
G01 X55.1066 Y93.1103
G01 X55.1034 Y93.0999
G01 X55.0856 Y93.0280
G01 X55.0746 Y92.9548
G01 X55.0737 Y92.9467
G01 X55.0700 Y92.8700
G01 X55.0700 Y90.3013
G01 X49.5067 Y84.7380
G01 X49.4700 Y84.6977
G01 X49.4631 Y84.6894
G01 X49.4308 Y84.6455
G01 X49.4013 Y84.5965
G01 X49.3976 Y84.5893
G01 X49.3744 Y84.5400
G01 X49.3559 Y84.4888
G01 X49.3528 Y84.4784
G01 X49.3397 Y84.4256
G01 X49.3315 Y84.3717
G01 X49.3305 Y84.3609
G01 X49.3280 Y84.3092
G01 X49.3279 Y80.0978
G01 X37.6918 Y68.4617
G01 X33.5933 Y68.4616
G01 X33.5362 Y68.4587
G01 X33.4769 Y68.4499
G01 X33.4189 Y68.4354
G01 X33.3675 Y68.4171
G01 X33.3575 Y68.4130
G01 X33.3083 Y68.3896
G01 X33.2615 Y68.3617
G01 X33.2525 Y68.3557
G01 X33.2131 Y68.3265
G01 X33.2048 Y68.3196
G01 X33.1645 Y68.2829
G01 X10.4848 Y45.6032
G01 X10.4463 Y45.5609
G01 X10.4412 Y45.5546
G01 X10.4089 Y45.5107
G01 X10.3808 Y45.4641
G01 X10.3757 Y45.4545
G01 X10.3547 Y45.4102
G01 X10.3506 Y45.4002
G01 X10.3323 Y45.3488
G01 X10.3178 Y45.2908
G01 X10.3090 Y45.2315
G01 X10.3061 Y45.1744
G01 X10.3062 Y39.1988
G00 Z2.0000
G00 X10.3661 Y39.2017
G01 F60.00
G01 Z0.0000
G01 F120.00
G01 X10.3687 Y39.1503
G01 X10.3766 Y39.0969
G01 X10.3897 Y39.0445
G01 X10.4079 Y38.9936
G01 X10.4310 Y38.9448
G01 X10.4588 Y38.8985
G01 X10.4910 Y38.8551
G01 X10.5264 Y38.8160
G01 X14.6899 Y34.6524
G01 X14.6899 Y33.9248
G01 X14.6773 Y33.9265
G01 X14.6050 Y33.9300
G01 X14.5315 Y33.9264
G01 X14.4587 Y33.9156
G01 X14.3873 Y33.8977
G01 X14.3180 Y33.8729
G01 X14.2515 Y33.8414
G01 X14.1883 Y33.8036
G01 X14.1273 Y33.7582
G01 X14.0730 Y33.7086
G01 X14.0252 Y33.6558
G01 X13.9828 Y33.5987
G01 X13.9436 Y33.5335
G01 X13.9131 Y33.4693
G01 X13.8873 Y33.3977
G01 X13.8694 Y33.3263
G01 X13.8586 Y33.2535
G01 X13.8551 Y33.1825
G01 X13.8550 Y30.5800
G01 X13.8586 Y30.5065
G01 X13.8692 Y30.4349
G01 X13.8881 Y30.3600
G01 X13.9121 Y30.2930
G01 X13.9436 Y30.2265
G01 X13.9828 Y30.1613
G01 X14.0252 Y30.1042
G01 X14.0747 Y30.0497
G01 X14.1292 Y30.0002
G01 X14.1863 Y29.9578
G01 X14.2515 Y29.9186
G01 X14.3180 Y29.8871
G01 X14.3850 Y29.8631
G01 X14.4611 Y29.8440
G01 X14.5315 Y29.8336
G01 X14.6050 Y29.8300
G01 X14.6785 Y29.8336
G01 X14.7513 Y29.8444
G01 X14.8227 Y29.8623
G01 X14.8920 Y29.8871
G01 X14.9585 Y29.9186
G01 X15.0196 Y29.9551
G01 X15.0808 Y30.0002
G01 X15.1336 Y30.0480
G01 X15.1863 Y30.1061
G01 X15.2286 Y30.1633
G01 X15.2664 Y30.2265
G01 X15.2979 Y30.2930
G01 X15.3227 Y30.3623
G01 X15.3410 Y30.4361
G01 X15.3514 Y30.5065
G01 X15.3550 Y30.5788
G01 X15.3550 Y32.6520
G01 X15.6293 Y32.9263
G01 X15.6655 Y32.9663
G01 X15.6977 Y33.0097
G01 X15.7255 Y33.0560
G01 X15.7486 Y33.1048
G01 X15.7674 Y33.1580
G01 X15.7799 Y33.2081
G01 X15.7875 Y33.2590
G01 X15.7904 Y33.3142
G01 X15.7905 Y34.3300
G01 X68.6647 Y34.3300
G01 X68.6647 Y33.6884
G01 X68.6345 Y33.6548
G01 X68.5907 Y33.5956
G01 X68.5536 Y33.5335
G01 X68.5216 Y33.4659
G01 X68.4973 Y33.3977
G01 X68.4794 Y33.3263
G01 X68.4686 Y33.2535
G01 X68.4651 Y33.1825
G01 X68.4650 Y30.5800
G01 X68.4689 Y30.5041
G01 X68.4794 Y30.4337
G01 X68.4970 Y30.3635
G01 X68.5231 Y30.2907
G01 X68.5536 Y30.2265
G01 X68.5901 Y30.1654
G01 X68.6352 Y30.1042
G01 X68.6864 Y30.0480
G01 X68.7392 Y30.0002
G01 X68.7963 Y29.9578
G01 X68.8615 Y29.9186
G01 X68.9303 Y29.8862
G01 X68.9973 Y29.8623
G01 X69.0687 Y29.8444
G01 X69.1439 Y29.8334
G01 X69.2150 Y29.8300
G01 X69.2885 Y29.8336
G01 X69.3637 Y29.8449
G01 X69.4327 Y29.8623
G01 X69.4997 Y29.8862
G01 X69.5685 Y29.9186
G01 X69.6337 Y29.9578
G01 X69.6908 Y30.0002
G01 X69.7436 Y30.0480
G01 X69.7955 Y30.1052
G01 X69.8386 Y30.1633
G01 X69.8752 Y30.2243
G01 X69.9079 Y30.2930
G01 X69.9327 Y30.3623
G01 X69.9501 Y30.4313
G01 X69.9616 Y30.5089
G01 X69.9650 Y30.5800
G01 X69.9650 Y33.1800
G01 X69.9614 Y33.2535
G01 X69.9506 Y33.3263
G01 X69.9334 Y33.3953
G01 X69.9074 Y33.4681
G01 X69.8764 Y33.5335
G01 X69.8393 Y33.5956
G01 X69.7955 Y33.6548
G01 X69.7653 Y33.6884
G01 X69.7652 Y34.8815
G01 X69.7626 Y34.9342
G01 X69.7551 Y34.9852
G01 X69.7416 Y35.0400
G01 X69.7224 Y35.0931
G01 X69.7003 Y35.1397
G01 X69.6725 Y35.1860
G01 X69.6387 Y35.2312
G01 X69.6041 Y35.2694
G01 X69.5659 Y35.3040
G01 X69.5207 Y35.3378
G01 X69.4722 Y35.3667
G01 X69.4256 Y35.3887
G01 X69.3771 Y35.4061
G01 X69.3199 Y35.4204
G01 X69.2689 Y35.4279
G01 X69.2150 Y35.4306
G01 X15.4681 Y35.4306
G01 X11.4666 Y39.4321
G01 X11.4666 Y44.9438
G01 X33.8239 Y67.3011
G01 X37.9458 Y67.3012
G01 X37.9985 Y67.3038
G01 X38.0495 Y67.3113
G01 X38.1043 Y67.3248
G01 X38.1552 Y67.3430
G01 X38.2018 Y67.3650
G01 X38.2523 Y67.3953
G01 X38.2937 Y67.4261
G01 X38.3337 Y67.4623
G01 X50.3273 Y79.4559
G01 X50.3643 Y79.4969
G01 X50.3957 Y79.5393
G01 X50.4235 Y79.5856
G01 X50.4466 Y79.6344
G01 X50.4640 Y79.6829
G01 X50.4783 Y79.7401
G01 X50.4858 Y79.7911
G01 X50.4884 Y79.8438
G01 X50.4885 Y84.0786
G01 X55.9324 Y89.5225
G01 X55.9547 Y89.5237
G01 X56.0275 Y89.5347
G01 X56.0977 Y89.5523
G01 X56.1681 Y89.5776
G01 X56.2335 Y89.6086
G01 X56.2967 Y89.6464
G01 X56.3558 Y89.6902
G01 X56.4103 Y89.7397
G01 X56.4598 Y89.7942
G01 X56.5049 Y89.8554
G01 X56.5414 Y89.9165
G01 X56.5719 Y89.9807
G01 X56.5969 Y90.0500
G01 X56.6160 Y90.1261
G01 X56.6264 Y90.1965
G01 X56.6300 Y90.2700
G01 X56.6300 Y92.8712
G01 X56.6264 Y92.9435
G01 X56.6156 Y93.0163
G01 X56.5977 Y93.0877
G01 X56.5734 Y93.1559
G01 X56.5414 Y93.2235
G01 X56.5043 Y93.2856
G01 X56.4605 Y93.3448
G01 X56.4303 Y93.3784
G01 X56.4303 Y97.0881
G01 X95.1290 Y97.0881
G01 X97.8747 Y94.3424
G01 X97.8747 Y93.3784
G01 X97.8445 Y93.3448
G01 X97.8007 Y93.2856
G01 X97.7636 Y93.2235
G01 X97.7316 Y93.1559
G01 X97.7073 Y93.0877
G01 X97.6894 Y93.0163
G01 X97.6786 Y92.9435
G01 X97.6751 Y92.8725
G01 X97.6750 Y90.2700
G01 X97.6787 Y90.1953
G01 X97.6894 Y90.1237
G01 X97.7073 Y90.0523
G01 X97.7321 Y89.9830
G01 X97.7625 Y89.9186
G01 X97.8028 Y89.8513
G01 X97.8452 Y89.7942
G01 X97.8964 Y89.7380
G01 X97.9492 Y89.6902
G01 X98.0083 Y89.6464
G01 X98.0715 Y89.6086
G01 X98.1380 Y89.5771
G01 X98.2073 Y89.5523
G01 X98.2787 Y89.5344
G01 X98.3515 Y89.5236
G01 X98.4225 Y89.5201
G01 X98.4985 Y89.5236
G01 X98.5713 Y89.5344
G01 X98.6427 Y89.5523
G01 X98.7097 Y89.5762
G01 X98.7785 Y89.6086
G01 X98.8396 Y89.6451
G01 X98.9027 Y89.6918
G01 X98.9553 Y89.7397
G01 X99.0048 Y89.7942
G01 X99.0486 Y89.8533
G01 X99.0864 Y89.9165
G01 X99.1179 Y89.9830
G01 X99.1427 Y90.0523
G01 X99.1606 Y90.1237
G01 X99.1713 Y90.1953
G01 X99.1750 Y90.2700
G01 X99.1750 Y92.8700
G01 X99.1716 Y92.9411
G01 X99.1601 Y93.0187
G01 X99.1427 Y93.0877
G01 X99.1174 Y93.1581
G01 X99.0864 Y93.2235
G01 X99.0493 Y93.2856
G01 X99.0055 Y93.3448
G01 X98.9753 Y93.3784
G01 X98.9753 Y94.0200
G01 X130.2479 Y94.0200
G01 X136.7643 Y87.5036
G01 X136.7643 Y70.4015
G01 X136.7670 Y70.3476
G01 X136.7745 Y70.2966
G01 X136.7888 Y70.2394
G01 X136.8062 Y70.1909
G01 X136.8293 Y70.1421
G01 X136.8571 Y70.0958
G01 X136.8877 Y70.0544
G01 X136.9255 Y70.0124
G01 X161.1467 Y45.7912
G01 X161.1867 Y45.7550
G01 X161.2301 Y45.7228
G01 X161.2743 Y45.6962
G01 X161.3275 Y45.6711
G01 X161.3761 Y45.6537
G01 X161.4285 Y45.6406
G01 X161.4819 Y45.6327
G01 X161.5346 Y45.6301
G01 X166.4547 Y45.6300
G01 X166.4547 Y45.0098
G01 X166.4385 Y44.9948
G01 X166.3858 Y44.9366
G01 X166.3398 Y44.8745
G01 X166.2989 Y44.8060
G01 X166.2659 Y44.7361
G01 X166.2394 Y44.6622
G01 X166.2204 Y44.5861
G01 X166.2087 Y44.5072
G01 X166.2050 Y44.4300
G01 X166.2050 Y41.9300
G01 X166.2087 Y41.8528
G01 X166.2209 Y41.7715
G01 X166.2394 Y41.6978
G01 X166.2659 Y41.6239
G01 X166.3007 Y41.5507
G01 X166.3398 Y41.4855
G01 X166.3866 Y41.4225
G01 X166.4411 Y41.3626
G01 X166.4975 Y41.3116
G01 X166.5605 Y41.2648
G01 X166.6301 Y41.2234
G01 X166.6989 Y41.1909
G01 X166.7728 Y41.1644
G01 X166.8489 Y41.1454
G01 X166.9266 Y41.1339
G01 X167.0050 Y41.1300
G01 X167.0834 Y41.1339
G01 X167.1611 Y41.1454
G01 X167.2372 Y41.1644
G01 X167.3111 Y41.1909
G01 X167.3821 Y41.2245
G01 X167.4495 Y41.2648
G01 X167.5125 Y41.3116
G01 X167.5707 Y41.3643
G01 X167.6234 Y41.4225
G01 X167.6702 Y41.4855
G01 X167.7105 Y41.5529
G01 X167.7441 Y41.6239
G01 X167.7706 Y41.6978
G01 X167.7900 Y41.7763
G01 X167.8011 Y41.8516
G01 X167.8050 Y41.9288
G01 X167.8050 Y44.4312
G01 X167.8011 Y44.5084
G01 X167.7896 Y44.5861
G01 X167.7706 Y44.6622
G01 X167.7436 Y44.7373
G01 X167.7105 Y44.8071
G01 X167.6695 Y44.8755
G01 X167.6226 Y44.9385
G01 X167.5715 Y44.9948
G01 X167.5553 Y45.0098
G01 X167.5552 Y46.1815
G01 X167.5523 Y46.2367
G01 X167.5447 Y46.2876
G01 X167.5322 Y46.3377
G01 X167.5134 Y46.3909
G01 X167.4903 Y46.4397
G01 X167.4625 Y46.4860
G01 X167.4287 Y46.5312
G01 X167.3923 Y46.5711
G01 X167.3541 Y46.6056
G01 X167.3127 Y46.6364
G01 X167.2644 Y46.6656
G01 X167.2144 Y46.6891
G01 X167.1647 Y46.7069
G01 X167.1123 Y46.7200
G01 X167.0589 Y46.7279
G01 X167.0050 Y46.7306
G01 X161.7637 Y46.7306
G01 X137.8649 Y70.6294
G01 X137.8649 Y87.5036
G01 X139.9810 Y89.6197
G01 X141.2327 Y89.6197
G01 X141.2525 Y89.6080
G01 X141.3191 Y89.5766
G01 X141.3873 Y89.5523
G01 X141.4575 Y89.5347
G01 X141.5339 Y89.5234
G01 X141.6050 Y89.5200
G01 X141.6785 Y89.5236
G01 X141.7513 Y89.5344
G01 X141.8250 Y89.5531
G01 X141.8943 Y89.5781
G01 X141.9585 Y89.6086
G01 X142.0196 Y89.6451
G01 X142.0808 Y89.6902
G01 X142.1353 Y89.7397
G01 X142.1848 Y89.7942
G01 X142.2286 Y89.8533
G01 X142.2664 Y89.9165
G01 X142.2969 Y89.9807
G01 X142.3227 Y90.0523
G01 X142.3410 Y90.1261
G01 X142.3514 Y90.1965
G01 X142.3549 Y90.2675
G01 X142.3550 Y92.8700
G01 X142.3514 Y92.9435
G01 X142.3406 Y93.0163
G01 X142.3234 Y93.0853
G01 X142.2979 Y93.1570
G01 X142.2664 Y93.2235
G01 X142.2299 Y93.2846
G01 X142.1848 Y93.3458
G01 X142.1336 Y93.4020
G01 X142.0808 Y93.4498
G01 X142.0217 Y93.4936
G01 X141.9564 Y93.5325
G01 X141.8920 Y93.5629
G01 X141.8250 Y93.5869
G01 X141.7513 Y93.6056
G01 X141.6785 Y93.6164
G01 X141.6050 Y93.6200
G01 X141.5315 Y93.6164
G01 X141.4587 Y93.6056
G01 X141.3873 Y93.5877
G01 X141.3180 Y93.5629
G01 X141.2515 Y93.5314
G01 X141.1883 Y93.4936
G01 X141.1292 Y93.4498
G01 X141.0747 Y93.4003
G01 X141.0252 Y93.3458
G01 X140.9814 Y93.2867
G01 X140.9436 Y93.2235
G01 X140.9121 Y93.1570
G01 X140.8877 Y93.0889
G01 X140.8690 Y93.0139
G01 X140.8586 Y92.9435
G01 X140.8550 Y92.8712
G01 X140.8550 Y90.7203
G01 X139.7531 Y90.7203
G01 X139.7004 Y90.7177
G01 X139.6458 Y90.7097
G01 X139.5910 Y90.6958
G01 X139.5425 Y90.6784
G01 X139.4959 Y90.6564
G01 X139.4484 Y90.6282
G01 X139.4040 Y90.5953
G01 X139.3640 Y90.5591
G01 X137.3146 Y88.5097
G01 X130.8649 Y94.9594
G01 X130.8249 Y94.9956
G01 X130.7835 Y95.0264
G01 X130.7352 Y95.0556
G01 X130.6841 Y95.0795
G01 X130.6355 Y95.0969
G01 X130.5843 Y95.1097
G01 X130.5297 Y95.1179
G01 X130.4758 Y95.1206
G01 X98.6529 Y95.1206
G01 X95.7451 Y98.0283
G01 X95.7060 Y98.0637
G01 X95.6626 Y98.0959
G01 X95.6163 Y98.1237
G01 X95.5697 Y98.1458
G01 X95.5143 Y98.1656
G01 X95.4642 Y98.1781
G01 X95.4096 Y98.1861
G01 X95.3569 Y98.1887
G01 X16.4019 Y98.1886
G01 X16.3492 Y98.1860
G01 X16.2958 Y98.1781
G01 X16.2434 Y98.1650
G01 X16.1925 Y98.1468
G01 X16.1437 Y98.1237
G01 X16.0974 Y98.0959
G01 X16.0540 Y98.0637
G01 X16.0149 Y98.0283
G01 X12.9459 Y94.9594
G01 X12.9097 Y94.9194
G01 X12.8775 Y94.8760
G01 X12.8497 Y94.8297
G01 X12.8262 Y94.7797
G01 X12.8084 Y94.7300
G01 X12.7953 Y94.6776
G01 X12.7874 Y94.6242
G01 X12.7848 Y94.5715
G01 X12.7847 Y93.3784
G01 X12.7545 Y93.3448
G01 X12.7107 Y93.2856
G01 X12.6736 Y93.2235
G01 X12.6426 Y93.1581
G01 X12.6173 Y93.0877
G01 X12.5999 Y93.0187
G01 X12.5884 Y92.9411
G01 X12.5850 Y92.8700
G01 X12.5851 Y90.2675
G01 X12.5886 Y90.1965
G01 X12.5990 Y90.1261
G01 X12.6173 Y90.0523
G01 X12.6431 Y89.9807
G01 X12.6736 Y89.9165
G01 X12.7114 Y89.8533
G01 X12.7552 Y89.7942
G01 X12.8030 Y89.7414
G01 X12.8592 Y89.6902
G01 X12.9183 Y89.6464
G01 X12.9793 Y89.6098
G01 X13.0491 Y89.5766
G01 X13.1173 Y89.5523
G01 X13.1911 Y89.5340
G01 X13.2639 Y89.5234
G01 X13.3350 Y89.5200
G01 X13.4061 Y89.5234
G01 X13.4813 Y89.5344
G01 X13.5527 Y89.5523
G01 X13.6220 Y89.5771
G01 X13.6885 Y89.6086
G01 X13.7517 Y89.6464
G01 X13.8127 Y89.6918
G01 X13.8670 Y89.7414
G01 X13.9148 Y89.7942
G01 X13.9572 Y89.8513
G01 X13.9964 Y89.9165
G01 X14.0279 Y89.9830
G01 X14.0527 Y90.0523
G01 X14.0708 Y90.1249
G01 X14.0814 Y90.1965
G01 X14.0850 Y90.2700
G01 X14.0849 Y92.8725
G01 X14.0814 Y92.9435
G01 X14.0706 Y93.0163
G01 X14.0527 Y93.0877
G01 X14.0284 Y93.1559
G01 X13.9964 Y93.2235
G01 X13.9593 Y93.2856
G01 X13.9155 Y93.3448
G01 X13.8853 Y93.3784
G01 X13.8853 Y94.3424
G01 X16.6310 Y97.0881
G01 X55.3297 Y97.0881
G01 X55.3297 Y93.3784
G01 X55.2995 Y93.3448
G01 X55.2557 Y93.2856
G01 X55.2186 Y93.2235
G01 X55.1876 Y93.1581
G01 X55.1616 Y93.0853
G01 X55.1444 Y93.0163
G01 X55.1335 Y92.9423
G01 X55.1300 Y92.8700
G01 X55.1300 Y90.2765
G01 X49.5491 Y84.6956
G01 X49.5113 Y84.6536
G01 X49.4807 Y84.6122
G01 X49.4535 Y84.5670
G01 X49.4298 Y84.5171
G01 X49.4110 Y84.4639
G01 X49.3985 Y84.4138
G01 X49.3909 Y84.3629
G01 X49.3880 Y84.3077
G01 X49.3879 Y80.0729
G01 X37.7167 Y68.4017
G01 X33.5948 Y68.4016
G01 X33.5421 Y68.3990
G01 X33.4887 Y68.3911
G01 X33.4363 Y68.3780
G01 X33.3877 Y68.3606
G01 X33.3366 Y68.3367
G01 X33.2924 Y68.3102
G01 X33.2451 Y68.2751
G01 X33.2069 Y68.2405
G01 X10.5272 Y45.5608
G01 X10.4917 Y45.5217
G01 X10.4588 Y45.4774
G01 X10.4322 Y45.4332
G01 X10.4071 Y45.3800
G01 X10.3897 Y45.3314
G01 X10.3766 Y45.2790
G01 X10.3687 Y45.2256
G01 X10.3661 Y45.1729
G01 X10.3661 Y39.2017
G00 Z2.0000
G00 X11.8448 Y41.8403
G01 F60.00
G01 Z0.0000
G01 F120.00
G01 X11.8565 Y41.7622
G01 X11.8770 Y41.6804
G01 X11.9055 Y41.6009
G01 X11.9391 Y41.5294
G01 X11.9442 Y41.5199
G01 X11.9820 Y41.4568
G01 X11.9880 Y41.4478
G01 X12.0352 Y41.3844
G01 X12.0919 Y41.3219
G01 X12.1544 Y41.2652
G01 X12.2178 Y41.2180
G01 X12.2268 Y41.2120
G01 X12.2899 Y41.1742
G01 X12.2994 Y41.1691
G01 X12.3709 Y41.1355
G01 X12.4504 Y41.1070
G01 X12.5322 Y41.0865
G01 X12.6157 Y41.0741
G01 X12.7000 Y41.0700
G01 X12.7789 Y41.0737
G01 X12.7897 Y41.0748
G01 X12.8625 Y41.0856
G01 X12.8730 Y41.0877
G01 X12.9496 Y41.1070
G01 X13.0291 Y41.1355
G01 X13.1054 Y41.1715
G01 X13.1778 Y41.2149
G01 X13.2456 Y41.2652
G01 X13.3042 Y41.3182
G01 X13.3118 Y41.3258
G01 X13.3613 Y41.3803
G01 X13.3681 Y41.3887
G01 X13.4151 Y41.4522
G01 X13.4585 Y41.5246
G01 X13.4945 Y41.6009
G01 X13.5222 Y41.6778
G01 X13.5244 Y41.6856
G01 X13.5423 Y41.7570
G01 X13.5444 Y41.7675
G01 X13.5559 Y41.8457
G01 X13.5600 Y41.9300
G01 X13.5600 Y44.4300
G01 X13.5559 Y44.5143
G01 X13.5444 Y44.5925
G01 X13.5423 Y44.6030
G01 X13.5244 Y44.6744
G01 X13.5213 Y44.6848
G01 X13.4945 Y44.7591
G01 X13.4609 Y44.8306
G01 X13.4558 Y44.8401
G01 X13.4151 Y44.9078
G01 X13.3681 Y44.9713
G01 X13.3613 Y44.9797
G01 X13.3081 Y45.0381
G01 X13.2497 Y45.0913
G01 X13.2413 Y45.0981
G01 X13.1778 Y45.1451
G01 X13.1101 Y45.1858
G01 X13.1006 Y45.1909
G01 X13.0291 Y45.2245
G01 X12.9522 Y45.2522
G01 X12.9444 Y45.2544
G01 X12.8678 Y45.2735
G01 X12.7843 Y45.2859
G01 X12.7000 Y45.2900
G01 X12.6157 Y45.2859
G01 X12.5322 Y45.2735
G01 X12.4504 Y45.2530
G01 X12.3709 Y45.2245
G01 X12.2946 Y45.1885
G01 X12.2222 Y45.1451
G01 X12.1544 Y45.0948
G01 X12.0919 Y45.0381
G01 X12.0352 Y44.9756
G01 X11.9849 Y44.9078
G01 X11.9415 Y44.8354
G01 X11.9055 Y44.7591
G01 X11.8778 Y44.6822
G01 X11.8756 Y44.6744
G01 X11.8577 Y44.6030
G01 X11.8556 Y44.5925
G01 X11.8441 Y44.5143
G01 X11.8400 Y44.4300
G01 X11.8400 Y41.9300
G01 X11.8437 Y41.8511
G01 X11.8448 Y41.8403
G00 Z2.0000
G00 X11.9042 Y41.8492
G01 F60.00
G01 Z0.0000
G01 F120.00
G01 X11.9154 Y41.7739
G01 X11.9344 Y41.6978
G01 X11.9609 Y41.6239
G01 X11.9934 Y41.5551
G01 X12.0362 Y41.4835
G01 X12.0816 Y41.4225
G01 X12.1343 Y41.3643
G01 X12.1925 Y41.3116
G01 X12.2535 Y41.2662
G01 X12.3251 Y41.2234
G01 X12.3939 Y41.1909
G01 X12.4678 Y41.1644
G01 X12.5439 Y41.1454
G01 X12.6216 Y41.1339
G01 X12.7000 Y41.1300
G01 X12.7760 Y41.1337
G01 X12.8585 Y41.1459
G01 X12.9322 Y41.1644
G01 X13.0061 Y41.1909
G01 X13.0771 Y41.2245
G01 X13.1445 Y41.2648
G01 X13.2075 Y41.3116
G01 X13.2657 Y41.3643
G01 X13.3184 Y41.4225
G01 X13.3638 Y41.4835
G01 X13.4066 Y41.5551
G01 X13.4391 Y41.6239
G01 X13.4656 Y41.6978
G01 X13.4846 Y41.7739
G01 X13.4958 Y41.8492
G01 X13.5000 Y41.9300
G01 X13.5000 Y44.4300
G01 X13.4961 Y44.5084
G01 X13.4850 Y44.5837
G01 X13.4648 Y44.6646
G01 X13.4391 Y44.7361
G01 X13.4066 Y44.8049
G01 X13.3652 Y44.8745
G01 X13.3168 Y44.9394
G01 X13.2657 Y44.9957
G01 X13.2094 Y45.0468
G01 X13.1445 Y45.0952
G01 X13.0749 Y45.1366
G01 X13.0061 Y45.1691
G01 X12.9322 Y45.1956
G01 X12.8561 Y45.2146
G01 X12.7784 Y45.2261
G01 X12.7000 Y45.2300
G01 X12.6216 Y45.2261
G01 X12.5439 Y45.2146
G01 X12.4678 Y45.1956
G01 X12.3939 Y45.1691
G01 X12.3229 Y45.1355
G01 X12.2555 Y45.0952
G01 X12.1925 Y45.0484
G01 X12.1343 Y44.9957
G01 X12.0816 Y44.9375
G01 X12.0348 Y44.8745
G01 X11.9945 Y44.8071
G01 X11.9609 Y44.7361
G01 X11.9344 Y44.6622
G01 X11.9154 Y44.5861
G01 X11.9042 Y44.5108
G01 X11.9000 Y44.4300
G01 X11.9000 Y41.9300
G01 X11.9042 Y41.8492
G00 Z2.0000
G00 X14.3848 Y41.8403
G01 F60.00
G01 Z0.0000
G01 F120.00
G01 X14.3965 Y41.7622
G01 X14.4170 Y41.6804
G01 X14.4455 Y41.6009
G01 X14.4791 Y41.5294
G01 X14.4842 Y41.5199
G01 X14.5220 Y41.4568
G01 X14.5280 Y41.4478
G01 X14.5752 Y41.3844
G01 X14.6297 Y41.3241
G01 X14.6298 Y40.1770
G01 X14.6327 Y40.1199
G01 X14.6415 Y40.0606
G01 X14.6560 Y40.0026
G01 X14.6752 Y39.9487
G01 X14.6784 Y39.9412
G01 X14.6994 Y39.8969
G01 X14.7045 Y39.8873
G01 X14.7326 Y39.8407
G01 X14.7683 Y39.7926
G01 X14.8048 Y39.7521
G01 X14.8124 Y39.7445
G01 X14.8529 Y39.7080
G01 X14.9010 Y39.6723
G01 X14.9523 Y39.6415
G01 X15.0015 Y39.6181
G01 X15.0115 Y39.6140
G01 X15.0629 Y39.5957
G01 X15.1157 Y39.5824
G01 X15.1263 Y39.5803
G01 X15.1802 Y39.5724
G01 X15.2346 Y39.5696
G01 X73.8228 Y39.5694
G01 X78.7647 Y34.6275
G01 X78.7647 Y33.7116
G01 X78.7472 Y33.6918
G01 X78.7046 Y33.6344
G01 X78.7000 Y33.6277
G01 X78.6606 Y33.5618
G01 X78.6288 Y33.4949
G01 X78.6257 Y33.4875
G01 X78.5999 Y33.4151
G01 X78.5806 Y33.3380
G01 X78.5689 Y33.2594
G01 X78.5650 Y33.1827
G01 X78.5651 Y30.5746
G01 X78.5689 Y30.5006
G01 X78.5796 Y30.4273
G01 X78.5817 Y30.4167
G01 X78.5999 Y30.3449
G01 X78.6267 Y30.2700
G01 X78.6582 Y30.2030
G01 X78.6633 Y30.1935
G01 X78.6986 Y30.1345
G01 X78.7030 Y30.1278
G01 X78.7489 Y30.0661
G01 X78.7985 Y30.0112
G01 X78.8062 Y30.0035
G01 X78.8611 Y29.9539
G01 X78.9206 Y29.9096
G01 X78.9295 Y29.9036
G01 X78.9932 Y29.8656
G01 X79.0650 Y29.8317
G01 X79.1347 Y29.8066
G01 X79.1451 Y29.8034
G01 X79.2170 Y29.7856
G01 X79.2956 Y29.7739
G01 X79.3750 Y29.7700
G01 X79.4490 Y29.7735
G01 X79.4598 Y29.7746
G01 X79.5330 Y29.7856
G01 X79.6101 Y29.8049
G01 X79.6799 Y29.8297
G01 X79.6899 Y29.8338
G01 X79.7568 Y29.8656
G01 X79.8205 Y29.9036
G01 X79.8294 Y29.9096
G01 X79.8889 Y29.9539
G01 X79.9478 Y30.0072
G01 X80.0011 Y30.0661
G01 X80.0454 Y30.1256
G01 X80.0514 Y30.1345
G01 X80.0894 Y30.1982
G01 X80.1233 Y30.2700
G01 X80.1484 Y30.3397
G01 X80.1516 Y30.3501
G01 X80.1683 Y30.4167
G01 X80.1699 Y30.4246
G01 X80.1811 Y30.5006
G01 X80.1850 Y30.5800
G01 X80.1850 Y33.1800
G01 X80.1815 Y33.2540
G01 X80.1804 Y33.2648
G01 X80.1704 Y33.3327
G01 X80.1683 Y33.3433
G01 X80.1501 Y33.4151
G01 X80.1253 Y33.4849
G01 X80.1223 Y33.4925
G01 X80.0894 Y33.5618
G01 X80.0500 Y33.6277
G01 X80.0454 Y33.6344
G01 X80.0028 Y33.6918
G01 X79.9853 Y33.7116
G01 X79.9853 Y34.8803
G01 X79.9827 Y34.9347
G01 X79.9817 Y34.9455
G01 X79.9735 Y34.9994
G01 X79.9590 Y35.0574
G01 X79.9388 Y35.1138
G01 X79.9156 Y35.1631
G01 X79.9119 Y35.1703
G01 X79.8824 Y35.2193
G01 X79.8501 Y35.2632
G01 X79.8432 Y35.2715
G01 X79.8065 Y35.3118
G01 X74.5071 Y40.6112
G01 X74.4627 Y40.6514
G01 X74.4191 Y40.6840
G01 X74.4101 Y40.6900
G01 X74.3633 Y40.7179
G01 X74.3141 Y40.7413
G01 X74.3041 Y40.7454
G01 X74.2527 Y40.7637
G01 X74.1947 Y40.7782
G01 X74.1408 Y40.7864
G01 X74.1300 Y40.7874
G01 X74.0756 Y40.7900
G01 X56.4903 Y40.7900
G01 X56.4903 Y41.3241
G01 X56.5448 Y41.3844
G01 X56.5951 Y41.4522
G01 X56.6385 Y41.5246
G01 X56.6723 Y41.5960
G01 X56.6765 Y41.6059
G01 X56.7013 Y41.6752
G01 X56.7044 Y41.6856
G01 X56.7235 Y41.7622
G01 X56.7352 Y41.8403
G01 X56.7361 Y41.8484
G01 X56.7400 Y41.9300
G01 X56.7400 Y44.4300
G01 X56.7359 Y44.5143
G01 X56.7235 Y44.5978
G01 X56.7044 Y44.6744
G01 X56.7013 Y44.6848
G01 X56.6765 Y44.7541
G01 X56.6723 Y44.7640
G01 X56.6385 Y44.8354
G01 X56.5951 Y44.9078
G01 X56.5448 Y44.9756
G01 X56.4918 Y45.0342
G01 X56.4842 Y45.0418
G01 X56.4297 Y45.0913
G01 X56.4213 Y45.0981
G01 X56.3578 Y45.1451
G01 X56.2854 Y45.1885
G01 X56.2091 Y45.2245
G01 X56.1348 Y45.2513
G01 X56.1244 Y45.2544
G01 X56.0530 Y45.2723
G01 X56.0451 Y45.2740
G01 X55.9643 Y45.2859
G01 X55.8800 Y45.2900
G01 X55.7957 Y45.2859
G01 X55.7122 Y45.2735
G01 X55.6304 Y45.2530
G01 X55.5509 Y45.2245
G01 X55.4746 Y45.1885
G01 X55.4022 Y45.1451
G01 X55.3344 Y45.0948
G01 X55.2719 Y45.0381
G01 X55.2152 Y44.9756
G01 X55.1649 Y44.9078
G01 X55.1215 Y44.8354
G01 X55.0855 Y44.7591
G01 X55.0570 Y44.6796
G01 X55.0377 Y44.6030
G01 X55.0360 Y44.5951
G01 X55.0241 Y44.5143
G01 X55.0200 Y44.4300
G01 X55.0200 Y41.9300
G01 X55.0237 Y41.8511
G01 X55.0248 Y41.8403
G01 X55.0365 Y41.7622
G01 X55.0556 Y41.6856
G01 X55.0587 Y41.6752
G01 X55.0835 Y41.6059
G01 X55.0877 Y41.5960
G01 X55.1215 Y41.5246
G01 X55.1649 Y41.4522
G01 X55.2152 Y41.3844
G01 X55.2697 Y41.3241
G01 X55.2697 Y40.7900
G01 X15.8503 Y40.7900
G01 X15.8503 Y41.3241
G01 X15.9048 Y41.3844
G01 X15.9551 Y41.4522
G01 X15.9985 Y41.5246
G01 X16.0323 Y41.5960
G01 X16.0365 Y41.6059
G01 X16.0613 Y41.6752
G01 X16.0644 Y41.6856
G01 X16.0835 Y41.7622
G01 X16.0952 Y41.8403
G01 X16.0961 Y41.8484
G01 X16.1000 Y41.9300
G01 X16.1000 Y44.4300
G01 X16.0963 Y44.5089
G01 X16.0956 Y44.5170
G01 X16.0835 Y44.5978
G01 X16.0630 Y44.6796
G01 X16.0345 Y44.7591
G01 X16.0009 Y44.8306
G01 X15.9958 Y44.8401
G01 X15.9580 Y44.9032
G01 X15.9520 Y44.9122
G01 X15.9048 Y44.9756
G01 X15.8518 Y45.0342
G01 X15.8442 Y45.0418
G01 X15.7856 Y45.0948
G01 X15.7178 Y45.1451
G01 X15.6454 Y45.1885
G01 X15.5691 Y45.2245
G01 X15.4896 Y45.2530
G01 X15.4078 Y45.2735
G01 X15.3243 Y45.2859
G01 X15.2427 Y45.2900
G01 X15.2346 Y45.2899
G01 X15.1557 Y45.2859
G01 X15.0775 Y45.2744
G01 X15.0670 Y45.2723
G01 X14.9956 Y45.2544
G01 X14.9852 Y45.2513
G01 X14.9109 Y45.2245
G01 X14.8346 Y45.1885
G01 X14.7622 Y45.1451
G01 X14.6944 Y45.0948
G01 X14.6319 Y45.0381
G01 X14.5787 Y44.9797
G01 X14.5719 Y44.9713
G01 X14.5280 Y44.9122
G01 X14.5220 Y44.9032
G01 X14.4815 Y44.8354
G01 X14.4455 Y44.7591
G01 X14.4170 Y44.6796
G01 X14.3977 Y44.6030
G01 X14.3956 Y44.5925
G01 X14.3841 Y44.5143
G01 X14.3800 Y44.4300
G01 X14.3800 Y41.9300
G01 X14.3837 Y41.8511
G01 X14.3848 Y41.8403
G00 Z2.0000
G00 X14.4442 Y41.8492
G01 F60.00
G01 Z0.0000
G01 F120.00
G01 X14.4554 Y41.7739
G01 X14.4744 Y41.6978
G01 X14.5009 Y41.6239
G01 X14.5339 Y41.5540
G01 X14.5748 Y41.4855
G01 X14.6208 Y41.4234
G01 X14.6735 Y41.3652
G01 X14.6897 Y41.3502
G01 X14.6898 Y40.1785
G01 X14.6924 Y40.1258
G01 X14.6999 Y40.0748
G01 X14.7142 Y40.0176
G01 X14.7316 Y39.9691
G01 X14.7536 Y39.9225
G01 X14.7839 Y39.8720
G01 X14.8147 Y39.8306
G01 X14.8509 Y39.7906
G01 X14.8909 Y39.7544
G01 X14.9323 Y39.7236
G01 X14.9828 Y39.6933
G01 X15.0294 Y39.6713
G01 X15.0803 Y39.6531
G01 X15.1351 Y39.6396
G01 X15.1861 Y39.6321
G01 X15.2375 Y39.6295
G01 X73.8477 Y39.6294
G01 X78.8247 Y34.6524
G01 X78.8247 Y33.6884
G01 X78.7945 Y33.6548
G01 X78.7507 Y33.5956
G01 X78.7136 Y33.5335
G01 X78.6816 Y33.4659
G01 X78.6573 Y33.3977
G01 X78.6394 Y33.3263
G01 X78.6286 Y33.2535
G01 X78.6251 Y33.1825
G01 X78.6250 Y30.5800
G01 X78.6289 Y30.5041
G01 X78.6394 Y30.4337
G01 X78.6573 Y30.3623
G01 X78.6821 Y30.2930
G01 X78.7125 Y30.2286
G01 X78.7528 Y30.1613
G01 X78.7952 Y30.1042
G01 X78.8447 Y30.0497
G01 X78.8992 Y30.0002
G01 X78.9583 Y29.9564
G01 X79.0215 Y29.9186
G01 X79.0857 Y29.8881
G01 X79.1597 Y29.8616
G01 X79.2287 Y29.8444
G01 X79.3015 Y29.8336
G01 X79.3750 Y29.8300
G01 X79.4461 Y29.8334
G01 X79.5237 Y29.8449
G01 X79.5927 Y29.8623
G01 X79.6620 Y29.8871
G01 X79.7285 Y29.9186
G01 X79.7896 Y29.9551
G01 X79.8527 Y30.0018
G01 X79.9053 Y30.0497
G01 X79.9548 Y30.1042
G01 X79.9986 Y30.1633
G01 X80.0352 Y30.2243
G01 X80.0688 Y30.2953
G01 X80.0927 Y30.3623
G01 X80.1108 Y30.4349
G01 X80.1214 Y30.5065
G01 X80.1250 Y30.5800
G01 X80.1250 Y33.1800
G01 X80.1216 Y33.2511
G01 X80.1101 Y33.3287
G01 X80.0927 Y33.3977
G01 X80.0674 Y33.4681
G01 X80.0364 Y33.5335
G01 X79.9993 Y33.5956
G01 X79.9555 Y33.6548
G01 X79.9253 Y33.6884
G01 X79.9252 Y34.8828
G01 X79.9223 Y34.9367
G01 X79.9147 Y34.9876
G01 X79.9022 Y35.0377
G01 X79.8834 Y35.0909
G01 X79.8597 Y35.1408
G01 X79.8325 Y35.1860
G01 X79.8019 Y35.2274
G01 X79.7641 Y35.2694
G01 X74.4647 Y40.5688
G01 X74.4247 Y40.6050
G01 X74.3792 Y40.6385
G01 X74.3350 Y40.6650
G01 X74.2884 Y40.6871
G01 X74.2353 Y40.7063
G01 X74.1829 Y40.7194
G01 X74.1320 Y40.7270
G01 X74.0756 Y40.7300
G01 X56.4303 Y40.7300
G01 X56.4303 Y41.3502
G01 X56.4465 Y41.3652
G01 X56.4992 Y41.4234
G01 X56.5452 Y41.4855
G01 X56.5861 Y41.5540
G01 X56.6191 Y41.6239
G01 X56.6456 Y41.6978
G01 X56.6646 Y41.7739
G01 X56.6763 Y41.8528
G01 X56.6800 Y41.9300
G01 X56.6800 Y44.4300
G01 X56.6761 Y44.5084
G01 X56.6646 Y44.5861
G01 X56.6462 Y44.6599
G01 X56.6181 Y44.7384
G01 X56.5855 Y44.8071
G01 X56.5452 Y44.8745
G01 X56.4984 Y44.9375
G01 X56.4474 Y44.9939
G01 X56.3856 Y45.0499
G01 X56.3245 Y45.0952
G01 X56.2571 Y45.1355
G01 X56.1861 Y45.1691
G01 X56.1146 Y45.1948
G01 X56.0349 Y45.2149
G01 X55.9584 Y45.2261
G01 X55.8800 Y45.2300
G01 X55.8016 Y45.2261
G01 X55.7239 Y45.2146
G01 X55.6478 Y45.1956
G01 X55.5739 Y45.1691
G01 X55.5029 Y45.1355
G01 X55.4355 Y45.0952
G01 X55.3725 Y45.0484
G01 X55.3143 Y44.9957
G01 X55.2616 Y44.9375
G01 X55.2148 Y44.8745
G01 X55.1745 Y44.8071
G01 X55.1409 Y44.7361
G01 X55.1144 Y44.6622
G01 X55.0950 Y44.5837
G01 X55.0839 Y44.5084
G01 X55.0800 Y44.4300
G01 X55.0800 Y41.9300
G01 X55.0837 Y41.8540
G01 X55.0954 Y41.7739
G01 X55.1144 Y41.6978
G01 X55.1409 Y41.6239
G01 X55.1739 Y41.5540
G01 X55.2148 Y41.4855
G01 X55.2608 Y41.4234
G01 X55.3135 Y41.3652
G01 X55.3297 Y41.3502
G01 X55.3297 Y40.7300
G01 X15.7903 Y40.7300
G01 X15.7903 Y41.3502
G01 X15.8065 Y41.3652
G01 X15.8592 Y41.4234
G01 X15.9052 Y41.4855
G01 X15.9461 Y41.5540
G01 X15.9791 Y41.6239
G01 X16.0056 Y41.6978
G01 X16.0246 Y41.7739
G01 X16.0363 Y41.8528
G01 X16.0400 Y41.9300
G01 X16.0400 Y44.4300
G01 X16.0360 Y44.5096
G01 X16.0246 Y44.5861
G01 X16.0056 Y44.6622
G01 X15.9791 Y44.7361
G01 X15.9466 Y44.8049
G01 X15.9052 Y44.8745
G01 X15.8599 Y44.9356
G01 X15.8039 Y44.9974
G01 X15.7475 Y45.0484
G01 X15.6845 Y45.0952
G01 X15.6171 Y45.1355
G01 X15.5461 Y45.1691
G01 X15.4722 Y45.1956
G01 X15.3961 Y45.2146
G01 X15.3184 Y45.2261
G01 X15.2412 Y45.2300
G01 X15.1616 Y45.2261
G01 X15.0863 Y45.2150
G01 X15.0054 Y45.1948
G01 X14.9339 Y45.1691
G01 X14.8629 Y45.1355
G01 X14.7955 Y45.0952
G01 X14.7325 Y45.0484
G01 X14.6743 Y44.9957
G01 X14.6232 Y44.9394
G01 X14.5735 Y44.8724
G01 X14.5345 Y44.8071
G01 X14.5009 Y44.7361
G01 X14.4744 Y44.6622
G01 X14.4556 Y44.5873
G01 X14.4439 Y44.5084
G01 X14.4400 Y44.4300
G01 X14.4400 Y41.9300
G01 X14.4442 Y41.8492
G00 Z2.0000
G00 X16.9200 Y45.1800
G01 F60.00
G01 Z0.0000
G01 F120.00
G01 X16.9200 Y41.1800
G01 X16.9205 Y41.1692
G01 X16.9221 Y41.1585
G01 X16.9247 Y41.1481
G01 X16.9284 Y41.1379
G01 X16.9317 Y41.1305
G01 X16.9356 Y41.1234
G01 X16.9401 Y41.1167
G01 X16.9450 Y41.1102
G01 X16.9503 Y41.1042
G01 X16.9561 Y41.0985
G01 X16.9623 Y41.0933
G01 X16.9689 Y41.0885
G01 X16.9805 Y41.0817
G01 X16.9879 Y41.0784
G01 X16.9955 Y41.0756
G01 X17.0033 Y41.0733
G01 X17.0112 Y41.0716
G01 X17.0192 Y41.0705
G01 X17.0273 Y41.0700
G01 X18.5300 Y41.0700
G01 X18.5408 Y41.0705
G01 X18.5515 Y41.0721
G01 X18.5619 Y41.0747
G01 X18.5721 Y41.0784
G01 X18.5795 Y41.0817
G01 X18.5866 Y41.0856
G01 X18.5933 Y41.0901
G01 X18.5998 Y41.0950
G01 X18.6058 Y41.1003
G01 X18.6115 Y41.1061
G01 X18.6167 Y41.1123
G01 X18.6215 Y41.1189
G01 X18.6283 Y41.1305
G01 X18.6316 Y41.1379
G01 X18.6344 Y41.1455
G01 X18.6367 Y41.1533
G01 X18.6384 Y41.1612
G01 X18.6395 Y41.1692
G01 X18.6400 Y41.1773
G01 X18.6400 Y45.1800
G01 X18.6395 Y45.1908
G01 X18.6379 Y45.2015
G01 X18.6353 Y45.2119
G01 X18.6316 Y45.2221
G01 X18.6257 Y45.2342
G01 X18.6215 Y45.2411
G01 X18.6167 Y45.2477
G01 X18.6115 Y45.2539
G01 X18.6058 Y45.2597
G01 X18.5998 Y45.2650
G01 X18.5933 Y45.2699
G01 X18.5819 Y45.2770
G01 X18.5746 Y45.2806
G01 X18.5671 Y45.2836
G01 X18.5593 Y45.2860
G01 X18.5515 Y45.2879
G01 X18.5435 Y45.2892
G01 X18.5354 Y45.2899
G01 X17.0273 Y45.2900
G01 X17.0165 Y45.2892
G01 X17.0059 Y45.2873
G01 X16.9955 Y45.2844
G01 X16.9854 Y45.2806
G01 X16.9758 Y45.2757
G01 X16.9667 Y45.2699
G01 X16.9602 Y45.2650
G01 X16.9522 Y45.2578
G01 X16.9450 Y45.2498
G01 X16.9385 Y45.2411
G01 X16.9330 Y45.2319
G01 X16.9284 Y45.2221
G01 X16.9247 Y45.2119
G01 X16.9221 Y45.2015
G01 X16.9205 Y45.1908
G01 X16.9200 Y45.1800
G00 Z2.0000
G00 X16.9800 Y45.1800
G01 F60.00
G01 Z0.0000
G01 F120.00
G01 X16.9800 Y41.1800
G01 X16.9810 Y41.1702
G01 X16.9834 Y41.1620
G01 X16.9865 Y41.1554
G01 X16.9906 Y41.1492
G01 X16.9955 Y41.1438
G01 X17.0012 Y41.1391
G01 X17.0075 Y41.1353
G01 X17.0143 Y41.1325
G01 X17.0215 Y41.1307
G01 X17.0288 Y41.1300
G01 X18.5300 Y41.1300
G01 X18.5385 Y41.1307
G01 X18.5480 Y41.1334
G01 X18.5557 Y41.1371
G01 X18.5617 Y41.1413
G01 X18.5670 Y41.1464
G01 X18.5716 Y41.1522
G01 X18.5752 Y41.1586
G01 X18.5778 Y41.1655
G01 X18.5795 Y41.1727
G01 X18.5800 Y41.1800
G01 X18.5800 Y45.1800
G01 X18.5793 Y45.1885
G01 X18.5766 Y45.1980
G01 X18.5735 Y45.2046
G01 X18.5694 Y45.2108
G01 X18.5645 Y45.2162
G01 X18.5588 Y45.2209
G01 X18.5525 Y45.2247
G01 X18.5457 Y45.2275
G01 X18.5385 Y45.2293
G01 X18.5312 Y45.2300
G01 X17.0300 Y45.2300
G01 X17.0202 Y45.2290
G01 X17.0109 Y45.2262
G01 X17.0022 Y45.2216
G01 X16.9946 Y45.2154
G01 X16.9884 Y45.2078
G01 X16.9838 Y45.1991
G01 X16.9810 Y45.1898
G01 X16.9800 Y45.1800
G00 Z2.0000
G00 X16.2898 Y55.8103
G01 F60.00
G01 Z0.0000
G01 F120.00
G01 X16.3015 Y55.7322
G01 X16.3220 Y55.6504
G01 X16.3505 Y55.5709
G01 X16.3841 Y55.4994
G01 X16.3892 Y55.4899
G01 X16.4270 Y55.4268
G01 X16.4330 Y55.4178
G01 X16.4802 Y55.3544
G01 X16.5369 Y55.2919
G01 X16.5994 Y55.2352
G01 X16.6628 Y55.1880
G01 X16.6718 Y55.1820
G01 X16.7349 Y55.1442
G01 X16.7444 Y55.1391
G01 X16.8159 Y55.1055
G01 X16.8954 Y55.0770
G01 X16.9772 Y55.0565
G01 X17.0607 Y55.0441
G01 X17.1450 Y55.0400
G01 X17.2293 Y55.0441
G01 X17.3128 Y55.0565
G01 X17.3894 Y55.0756
G01 X17.3998 Y55.0787
G01 X17.4691 Y55.1035
G01 X17.4790 Y55.1077
G01 X17.5504 Y55.1415
G01 X17.6228 Y55.1849
G01 X17.6906 Y55.2352
G01 X17.7492 Y55.2882
G01 X17.7568 Y55.2958
G01 X17.8063 Y55.3503
G01 X17.8131 Y55.3587
G01 X17.8601 Y55.4222
G01 X17.9035 Y55.4946
G01 X17.9395 Y55.5709
G01 X17.9672 Y55.6478
G01 X17.9694 Y55.6556
G01 X17.9873 Y55.7270
G01 X17.9894 Y55.7375
G01 X18.0009 Y55.8157
G01 X18.0050 Y55.9000
G01 X18.0050 Y58.4000
G01 X18.0009 Y58.4843
G01 X17.9894 Y58.5625
G01 X17.9873 Y58.5730
G01 X17.9694 Y58.6444
G01 X17.9663 Y58.6548
G01 X17.9395 Y58.7291
G01 X17.9059 Y58.8006
G01 X17.9008 Y58.8101
G01 X17.8601 Y58.8778
G01 X17.8131 Y58.9413
G01 X17.8063 Y58.9497
G01 X17.7531 Y59.0081
G01 X17.6947 Y59.0613
G01 X17.6863 Y59.0681
G01 X17.6228 Y59.1151
G01 X17.5551 Y59.1558
G01 X17.5456 Y59.1609
G01 X17.4741 Y59.1945
G01 X17.3972 Y59.2222
G01 X17.3894 Y59.2244
G01 X17.3128 Y59.2435
G01 X17.2293 Y59.2559
G01 X17.1450 Y59.2600
G01 X17.0607 Y59.2559
G01 X16.9772 Y59.2435
G01 X16.8954 Y59.2230
G01 X16.8159 Y59.1945
G01 X16.7396 Y59.1585
G01 X16.6672 Y59.1151
G01 X16.5994 Y59.0648
G01 X16.5369 Y59.0081
G01 X16.4802 Y58.9456
G01 X16.4299 Y58.8778
G01 X16.3865 Y58.8054
G01 X16.3505 Y58.7291
G01 X16.3228 Y58.6522
G01 X16.3206 Y58.6444
G01 X16.3027 Y58.5730
G01 X16.3006 Y58.5625
G01 X16.2891 Y58.4843
G01 X16.2850 Y58.4000
G01 X16.2850 Y55.9000
G01 X16.2887 Y55.8211
G01 X16.2898 Y55.8103
G00 Z2.0000
G00 X16.3492 Y55.8192
G01 F60.00
G01 Z0.0000
G01 F120.00
G01 X16.3604 Y55.7439
G01 X16.3794 Y55.6678
G01 X16.4059 Y55.5939
G01 X16.4384 Y55.5251
G01 X16.4812 Y55.4535
G01 X16.5266 Y55.3925
G01 X16.5793 Y55.3343
G01 X16.6375 Y55.2816
G01 X16.6985 Y55.2362
G01 X16.7701 Y55.1934
G01 X16.8389 Y55.1609
G01 X16.9128 Y55.1344
G01 X16.9889 Y55.1154
G01 X17.0666 Y55.1039
G01 X17.1450 Y55.1000
G01 X17.2234 Y55.1039
G01 X17.3011 Y55.1154
G01 X17.3749 Y55.1338
G01 X17.4534 Y55.1619
G01 X17.5221 Y55.1945
G01 X17.5895 Y55.2348
G01 X17.6525 Y55.2816
G01 X17.7107 Y55.3343
G01 X17.7634 Y55.3925
G01 X17.8088 Y55.4535
G01 X17.8516 Y55.5251
G01 X17.8841 Y55.5939
G01 X17.9106 Y55.6678
G01 X17.9296 Y55.7439
G01 X17.9408 Y55.8192
G01 X17.9450 Y55.9000
G01 X17.9450 Y58.4000
G01 X17.9411 Y58.4784
G01 X17.9300 Y58.5537
G01 X17.9098 Y58.6346
G01 X17.8841 Y58.7061
G01 X17.8516 Y58.7749
G01 X17.8102 Y58.8445
G01 X17.7618 Y58.9094
G01 X17.7107 Y58.9657
G01 X17.6544 Y59.0168
G01 X17.5895 Y59.0652
G01 X17.5199 Y59.1066
G01 X17.4511 Y59.1391
G01 X17.3772 Y59.1656
G01 X17.3011 Y59.1846
G01 X17.2234 Y59.1961
G01 X17.1450 Y59.2000
G01 X17.0666 Y59.1961
G01 X16.9889 Y59.1846
G01 X16.9128 Y59.1656
G01 X16.8389 Y59.1391
G01 X16.7679 Y59.1055
G01 X16.7005 Y59.0652
G01 X16.6375 Y59.0184
G01 X16.5793 Y58.9657
G01 X16.5266 Y58.9075
G01 X16.4798 Y58.8445
G01 X16.4395 Y58.7771
G01 X16.4059 Y58.7061
G01 X16.3794 Y58.6322
G01 X16.3604 Y58.5561
G01 X16.3492 Y58.4808
G01 X16.3450 Y58.4000
G01 X16.3450 Y55.9000
G01 X16.3492 Y55.8192
G00 Z2.0000
G00 X13.8092 Y55.8192
G01 F60.00
G01 Z0.0000
G01 F120.00
G01 X13.8204 Y55.7439
G01 X13.8394 Y55.6678
G01 X13.8659 Y55.5939
G01 X13.8984 Y55.5251
G01 X13.9412 Y55.4535
G01 X13.9866 Y55.3925
G01 X14.0393 Y55.3343
G01 X14.0975 Y55.2816
G01 X14.1585 Y55.2362
G01 X14.2301 Y55.1934
G01 X14.2989 Y55.1609
G01 X14.3728 Y55.1344
G01 X14.4489 Y55.1154
G01 X14.5266 Y55.1039
G01 X14.6050 Y55.1000
G01 X14.6834 Y55.1039
G01 X14.7611 Y55.1154
G01 X14.8349 Y55.1338
G01 X14.9134 Y55.1619
G01 X14.9821 Y55.1945
G01 X15.0495 Y55.2348
G01 X15.1125 Y55.2816
G01 X15.1707 Y55.3343
G01 X15.2234 Y55.3925
G01 X15.2688 Y55.4535
G01 X15.3116 Y55.5251
G01 X15.3441 Y55.5939
G01 X15.3706 Y55.6678
G01 X15.3896 Y55.7439
G01 X15.4008 Y55.8192
G01 X15.4050 Y55.9000
G01 X15.4050 Y58.4000
G01 X15.4011 Y58.4784
G01 X15.3900 Y58.5537
G01 X15.3698 Y58.6346
G01 X15.3441 Y58.7061
G01 X15.3116 Y58.7749
G01 X15.2702 Y58.8445
G01 X15.2218 Y58.9094
G01 X15.1707 Y58.9657
G01 X15.1144 Y59.0168
G01 X15.0495 Y59.0652
G01 X14.9799 Y59.1066
G01 X14.9111 Y59.1391
G01 X14.8372 Y59.1656
G01 X14.7611 Y59.1846
G01 X14.6834 Y59.1961
G01 X14.6050 Y59.2000
G01 X14.5266 Y59.1961
G01 X14.4489 Y59.1846
G01 X14.3728 Y59.1656
G01 X14.2989 Y59.1391
G01 X14.2279 Y59.1055
G01 X14.1605 Y59.0652
G01 X14.0975 Y59.0184
G01 X14.0393 Y58.9657
G01 X13.9866 Y58.9075
G01 X13.9398 Y58.8445
G01 X13.8995 Y58.7771
G01 X13.8659 Y58.7061
G01 X13.8394 Y58.6322
G01 X13.8204 Y58.5561
G01 X13.8092 Y58.4808
G01 X13.8050 Y58.4000
G01 X13.8050 Y55.9000
G01 X13.8092 Y55.8192
G00 Z2.0000
G00 X13.7498 Y55.8103
G01 F60.00
G01 Z0.0000
G01 F120.00
G01 X13.7615 Y55.7322
G01 X13.7820 Y55.6504
G01 X13.8105 Y55.5709
G01 X13.8441 Y55.4994
G01 X13.8492 Y55.4899
G01 X13.8870 Y55.4268
G01 X13.8930 Y55.4178
G01 X13.9402 Y55.3544
G01 X13.9969 Y55.2919
G01 X14.0594 Y55.2352
G01 X14.1228 Y55.1880
G01 X14.1318 Y55.1820
G01 X14.1949 Y55.1442
G01 X14.2044 Y55.1391
G01 X14.2759 Y55.1055
G01 X14.3554 Y55.0770
G01 X14.4372 Y55.0565
G01 X14.5207 Y55.0441
G01 X14.6050 Y55.0400
G01 X14.6893 Y55.0441
G01 X14.7728 Y55.0565
G01 X14.8494 Y55.0756
G01 X14.8598 Y55.0787
G01 X14.9291 Y55.1035
G01 X14.9390 Y55.1077
G01 X15.0104 Y55.1415
G01 X15.0828 Y55.1849
G01 X15.1506 Y55.2352
G01 X15.2092 Y55.2882
G01 X15.2168 Y55.2958
G01 X15.2663 Y55.3503
G01 X15.2731 Y55.3587
G01 X15.3201 Y55.4222
G01 X15.3635 Y55.4946
G01 X15.3995 Y55.5709
G01 X15.4272 Y55.6478
G01 X15.4294 Y55.6556
G01 X15.4473 Y55.7270
G01 X15.4494 Y55.7375
G01 X15.4609 Y55.8157
G01 X15.4650 Y55.9000
G01 X15.4650 Y58.4000
G01 X15.4609 Y58.4843
G01 X15.4494 Y58.5625
G01 X15.4473 Y58.5730
G01 X15.4294 Y58.6444
G01 X15.4263 Y58.6548
G01 X15.3995 Y58.7291
G01 X15.3659 Y58.8006
G01 X15.3608 Y58.8101
G01 X15.3201 Y58.8778
G01 X15.2731 Y58.9413
G01 X15.2663 Y58.9497
G01 X15.2131 Y59.0081
G01 X15.1547 Y59.0613
G01 X15.1463 Y59.0681
G01 X15.0828 Y59.1151
G01 X15.0151 Y59.1558
G01 X15.0056 Y59.1609
G01 X14.9341 Y59.1945
G01 X14.8572 Y59.2222
G01 X14.8494 Y59.2244
G01 X14.7728 Y59.2435
G01 X14.6893 Y59.2559
G01 X14.6050 Y59.2600
G01 X14.5207 Y59.2559
G01 X14.4372 Y59.2435
G01 X14.3554 Y59.2230
G01 X14.2759 Y59.1945
G01 X14.1996 Y59.1585
G01 X14.1272 Y59.1151
G01 X14.0594 Y59.0648
G01 X13.9969 Y59.0081
G01 X13.9402 Y58.9456
G01 X13.8899 Y58.8778
G01 X13.8465 Y58.8054
G01 X13.8105 Y58.7291
G01 X13.7828 Y58.6522
G01 X13.7806 Y58.6444
G01 X13.7627 Y58.5730
G01 X13.7606 Y58.5625
G01 X13.7491 Y58.4843
G01 X13.7450 Y58.4000
G01 X13.7450 Y55.9000
G01 X13.7487 Y55.8211
G01 X13.7498 Y55.8103
G00 Z2.0000
G00 X11.2650 Y59.1500
G01 F60.00
G01 Z0.0000
G01 F120.00
G01 X11.2650 Y55.1500
G01 X11.2657 Y55.1415
G01 X11.2684 Y55.1320
G01 X11.2715 Y55.1254
G01 X11.2756 Y55.1192
G01 X11.2805 Y55.1138
G01 X11.2862 Y55.1091
G01 X11.2925 Y55.1053
G01 X11.2993 Y55.1025
G01 X11.3065 Y55.1007
G01 X11.3138 Y55.1000
G01 X12.8150 Y55.1000
G01 X12.8248 Y55.1010
G01 X12.8330 Y55.1034
G01 X12.8407 Y55.1071
G01 X12.8467 Y55.1113
G01 X12.8520 Y55.1164
G01 X12.8566 Y55.1222
G01 X12.8602 Y55.1286
G01 X12.8628 Y55.1355
G01 X12.8645 Y55.1427
G01 X12.8650 Y55.1500
G01 X12.8650 Y59.1500
G01 X12.8643 Y59.1585
G01 X12.8616 Y59.1680
G01 X12.8585 Y59.1746
G01 X12.8544 Y59.1808
G01 X12.8495 Y59.1862
G01 X12.8438 Y59.1909
G01 X12.8375 Y59.1947
G01 X12.8307 Y59.1975
G01 X12.8235 Y59.1993
G01 X12.8162 Y59.2000
G01 X11.3150 Y59.2000
G01 X11.3052 Y59.1990
G01 X11.2959 Y59.1962
G01 X11.2872 Y59.1916
G01 X11.2796 Y59.1854
G01 X11.2734 Y59.1778
G01 X11.2688 Y59.1691
G01 X11.2660 Y59.1598
G01 X11.2650 Y59.1500
G00 Z2.0000
G00 X11.2050 Y59.1500
G01 F60.00
G01 Z0.0000
G01 F120.00
G01 X11.2050 Y55.1500
G01 X11.2055 Y55.1392
G01 X11.2071 Y55.1285
G01 X11.2097 Y55.1181
G01 X11.2134 Y55.1079
G01 X11.2167 Y55.1005
G01 X11.2206 Y55.0934
G01 X11.2251 Y55.0867
G01 X11.2300 Y55.0802
G01 X11.2353 Y55.0742
G01 X11.2411 Y55.0685
G01 X11.2473 Y55.0633
G01 X11.2539 Y55.0585
G01 X11.2655 Y55.0517
G01 X11.2729 Y55.0484
G01 X11.2805 Y55.0456
G01 X11.2883 Y55.0433
G01 X11.2962 Y55.0416
G01 X11.3042 Y55.0405
G01 X11.3123 Y55.0400
G01 X12.8150 Y55.0400
G01 X12.8258 Y55.0405
G01 X12.8365 Y55.0421
G01 X12.8469 Y55.0447
G01 X12.8571 Y55.0484
G01 X12.8645 Y55.0517
G01 X12.8716 Y55.0556
G01 X12.8783 Y55.0601
G01 X12.8848 Y55.0650
G01 X12.8908 Y55.0703
G01 X12.8965 Y55.0761
G01 X12.9049 Y55.0867
G01 X12.9094 Y55.0934
G01 X12.9133 Y55.1005
G01 X12.9166 Y55.1079
G01 X12.9194 Y55.1155
G01 X12.9217 Y55.1233
G01 X12.9234 Y55.1312
G01 X12.9245 Y55.1392
G01 X12.9250 Y55.1473
G01 X12.9250 Y59.1500
G01 X12.9245 Y59.1608
G01 X12.9229 Y59.1715
G01 X12.9203 Y59.1819
G01 X12.9166 Y59.1921
G01 X12.9107 Y59.2042
G01 X12.9065 Y59.2111
G01 X12.9017 Y59.2177
G01 X12.8965 Y59.2239
G01 X12.8908 Y59.2297
G01 X12.8848 Y59.2350
G01 X12.8783 Y59.2399
G01 X12.8716 Y59.2444
G01 X12.8645 Y59.2483
G01 X12.8571 Y59.2516
G01 X12.8495 Y59.2544
G01 X12.8365 Y59.2579
G01 X12.8285 Y59.2592
G01 X12.8204 Y59.2599
G01 X11.3123 Y59.2600
G01 X11.3015 Y59.2592
G01 X11.2909 Y59.2573
G01 X11.2805 Y59.2544
G01 X11.2704 Y59.2506
G01 X11.2608 Y59.2457
G01 X11.2517 Y59.2399
G01 X11.2432 Y59.2333
G01 X11.2353 Y59.2258
G01 X11.2300 Y59.2198
G01 X11.2235 Y59.2111
G01 X11.2180 Y59.2019
G01 X11.2134 Y59.1921
G01 X11.2097 Y59.1819
G01 X11.2071 Y59.1715
G01 X11.2055 Y59.1608
G01 X11.2050 Y59.1500
G00 Z2.0000
G00 X10.5748 Y71.0503
G01 F60.00
G01 Z0.0000
G01 F120.00
G01 X10.5865 Y70.9722
G01 X10.6070 Y70.8904
G01 X10.6355 Y70.8109
G01 X10.6691 Y70.7394
G01 X10.6742 Y70.7299
G01 X10.7120 Y70.6668
G01 X10.7180 Y70.6578
G01 X10.7652 Y70.5944
G01 X10.8219 Y70.5319
G01 X10.8844 Y70.4752
G01 X10.9478 Y70.4280
G01 X10.9568 Y70.4220
G01 X11.0199 Y70.3842
G01 X11.0294 Y70.3791
G01 X11.1009 Y70.3455
G01 X11.1804 Y70.3170
G01 X11.2622 Y70.2965
G01 X11.3403 Y70.2848
G01 X11.3511 Y70.2837
G01 X11.4246 Y70.2801
G01 X11.4354 Y70.2801
G01 X11.5143 Y70.2841
G01 X11.5978 Y70.2965
G01 X11.6796 Y70.3170
G01 X11.7541 Y70.3435
G01 X11.7640 Y70.3477
G01 X11.8306 Y70.3791
G01 X11.8401 Y70.3842
G01 X11.9078 Y70.4249
G01 X11.9756 Y70.4752
G01 X12.0381 Y70.5319
G01 X12.0913 Y70.5903
G01 X12.0981 Y70.5987
G01 X12.1420 Y70.6578
G01 X12.1480 Y70.6668
G01 X12.1885 Y70.7346
G01 X12.2223 Y70.8060
G01 X12.2255 Y70.8134
G01 X12.2530 Y70.8904
G01 X12.2735 Y70.9722
G01 X12.2859 Y71.0557
G01 X12.2900 Y71.1373
G01 X12.2899 Y73.6454
G01 X12.2859 Y73.7243
G01 X12.2735 Y73.8078
G01 X12.2530 Y73.8896
G01 X12.2245 Y73.9691
G01 X12.1885 Y74.0454
G01 X12.1451 Y74.1178
G01 X12.0948 Y74.1856
G01 X12.0403 Y74.2459
G01 X12.0403 Y74.7800
G01 X13.1156 Y74.7800
G01 X13.1754 Y74.7830
G01 X13.2347 Y74.7918
G01 X13.2875 Y74.8049
G01 X13.2979 Y74.8080
G01 X13.3491 Y74.8265
G01 X13.4033 Y74.8521
G01 X13.4501 Y74.8800
G01 X13.4591 Y74.8860
G01 X13.4985 Y74.9152
G01 X13.5048 Y74.9203
G01 X13.5471 Y74.9588
G01 X21.3865 Y82.7982
G01 X21.4267 Y82.8426
G01 X21.4593 Y82.8862
G01 X21.4639 Y82.8929
G01 X21.4905 Y82.9373
G01 X21.4956 Y82.9469
G01 X21.5188 Y82.9962
G01 X21.5373 Y83.0474
G01 X21.5404 Y83.0578
G01 X21.5535 Y83.1106
G01 X21.5617 Y83.1645
G01 X21.5625 Y83.1726
G01 X21.5653 Y83.2297
G01 X21.5653 Y84.3984
G01 X21.5828 Y84.4182
G01 X21.6254 Y84.4756
G01 X21.6300 Y84.4823
G01 X21.6694 Y84.5482
G01 X21.7023 Y84.6175
G01 X21.7053 Y84.6251
G01 X21.7284 Y84.6897
G01 X21.7316 Y84.7001
G01 X21.7494 Y84.7720
G01 X21.7604 Y84.8452
G01 X21.7613 Y84.8533
G01 X21.7650 Y84.9300
G01 X21.7650 Y87.5300
G01 X21.7615 Y87.6040
G01 X21.7604 Y87.6148
G01 X21.7494 Y87.6880
G01 X21.7316 Y87.7599
G01 X21.7284 Y87.7703
G01 X21.7033 Y87.8400
G01 X21.6694 Y87.9118
G01 X21.6314 Y87.9755
G01 X21.6254 Y87.9844
G01 X21.5811 Y88.0439
G01 X21.5315 Y88.0988
G01 X21.5238 Y88.1065
G01 X21.4689 Y88.1561
G01 X21.4094 Y88.2004
G01 X21.4027 Y88.2050
G01 X21.3415 Y88.2417
G01 X21.3320 Y88.2468
G01 X21.2650 Y88.2783
G01 X21.1953 Y88.3034
G01 X21.1849 Y88.3066
G01 X21.1130 Y88.3244
G01 X21.0344 Y88.3361
G01 X20.9550 Y88.3400
G01 X20.8810 Y88.3365
G01 X20.8702 Y88.3354
G01 X20.7970 Y88.3244
G01 X20.7251 Y88.3066
G01 X20.7147 Y88.3034
G01 X20.6450 Y88.2783
G01 X20.5732 Y88.2444
G01 X20.5095 Y88.2064
G01 X20.5006 Y88.2004
G01 X20.4411 Y88.1561
G01 X20.3862 Y88.1065
G01 X20.3785 Y88.0988
G01 X20.3289 Y88.0439
G01 X20.2815 Y87.9800
G01 X20.2433 Y87.9165
G01 X20.2382 Y87.9070
G01 X20.2067 Y87.8400
G01 X20.1816 Y87.7703
G01 X20.1784 Y87.7599
G01 X20.1611 Y87.6907
G01 X20.1596 Y87.6827
G01 X20.1489 Y87.6094
G01 X20.1450 Y87.5300
G01 X20.1451 Y84.9246
G01 X20.1489 Y84.8506
G01 X20.1606 Y84.7720
G01 X20.1799 Y84.6949
G01 X20.2057 Y84.6225
G01 X20.2088 Y84.6151
G01 X20.2406 Y84.5482
G01 X20.2800 Y84.4823
G01 X20.2846 Y84.4756
G01 X20.3272 Y84.4182
G01 X20.3447 Y84.3984
G01 X20.3447 Y83.4825
G01 X12.8628 Y76.0006
G01 X11.4300 Y76.0006
G01 X11.3756 Y75.9980
G01 X11.3648 Y75.9970
G01 X11.3109 Y75.9888
G01 X11.2581 Y75.9757
G01 X11.2477 Y75.9726
G01 X11.2015 Y75.9560
G01 X11.1915 Y75.9519
G01 X11.1423 Y75.9285
G01 X11.0955 Y75.9006
G01 X11.0865 Y75.8946
G01 X11.0429 Y75.8620
G01 X10.9985 Y75.8218
G01 X10.9583 Y75.7774
G01 X10.9257 Y75.7338
G01 X10.9211 Y75.7271
G01 X10.8945 Y75.6827
G01 X10.8894 Y75.6731
G01 X10.8662 Y75.6238
G01 X10.8477 Y75.5726
G01 X10.8446 Y75.5622
G01 X10.8315 Y75.5094
G01 X10.8233 Y75.4555
G01 X10.8225 Y75.4474
G01 X10.8197 Y75.3903
G01 X10.8197 Y74.2459
G01 X10.7652 Y74.1856
G01 X10.7149 Y74.1178
G01 X10.6715 Y74.0454
G01 X10.6377 Y73.9740
G01 X10.6335 Y73.9641
G01 X10.6087 Y73.8948
G01 X10.6056 Y73.8844
G01 X10.5865 Y73.8078
G01 X10.5748 Y73.7297
G01 X10.5739 Y73.7216
G01 X10.5700 Y73.6400
G01 X10.5700 Y71.1400
G01 X10.5737 Y71.0611
G01 X10.5748 Y71.0503
G00 Z2.0000
G00 X10.6342 Y71.0592
G01 F60.00
G01 Z0.0000
G01 F120.00
G01 X10.6454 Y70.9839
G01 X10.6644 Y70.9078
G01 X10.6909 Y70.8339
G01 X10.7234 Y70.7651
G01 X10.7662 Y70.6935
G01 X10.8116 Y70.6325
G01 X10.8643 Y70.5743
G01 X10.9225 Y70.5216
G01 X10.9835 Y70.4762
G01 X11.0551 Y70.4334
G01 X11.1239 Y70.4009
G01 X11.1978 Y70.3744
G01 X11.2739 Y70.3554
G01 X11.3516 Y70.3439
G01 X11.4300 Y70.3400
G01 X11.5084 Y70.3439
G01 X11.5861 Y70.3554
G01 X11.6599 Y70.3738
G01 X11.7384 Y70.4019
G01 X11.8071 Y70.4345
G01 X11.8745 Y70.4748
G01 X11.9375 Y70.5216
G01 X11.9939 Y70.5726
G01 X12.0499 Y70.6344
G01 X12.0952 Y70.6955
G01 X12.1355 Y70.7629
G01 X12.1691 Y70.8339
G01 X12.1948 Y70.9054
G01 X12.2150 Y70.9863
G01 X12.2261 Y71.0616
G01 X12.2300 Y71.1400
G01 X12.2300 Y73.6400
G01 X12.2263 Y73.7160
G01 X12.2146 Y73.7961
G01 X12.1956 Y73.8722
G01 X12.1691 Y73.9461
G01 X12.1361 Y74.0160
G01 X12.0952 Y74.0845
G01 X12.0492 Y74.1466
G01 X11.9965 Y74.2048
G01 X11.9803 Y74.2198
G01 X11.9803 Y74.8400
G01 X13.1156 Y74.8400
G01 X13.1683 Y74.8426
G01 X13.2253 Y74.8512
G01 X13.2753 Y74.8637
G01 X13.3262 Y74.8819
G01 X13.3750 Y74.9050
G01 X13.4192 Y74.9315
G01 X13.4656 Y74.9657
G01 X13.5047 Y75.0012
G01 X21.3441 Y82.8406
G01 X21.3803 Y82.8806
G01 X21.4132 Y82.9250
G01 X21.4414 Y82.9725
G01 X21.4634 Y83.0191
G01 X21.4808 Y83.0676
G01 X21.4947 Y83.1224
G01 X21.5027 Y83.1770
G01 X21.5053 Y83.2297
G01 X21.5053 Y84.4216
G01 X21.5355 Y84.4552
G01 X21.5793 Y84.5144
G01 X21.6164 Y84.5765
G01 X21.6474 Y84.6419
G01 X21.6734 Y84.7147
G01 X21.6906 Y84.7837
G01 X21.7015 Y84.8577
G01 X21.7050 Y84.9300
G01 X21.7050 Y87.5300
G01 X21.7011 Y87.6059
G01 X21.6906 Y87.6763
G01 X21.6734 Y87.7453
G01 X21.6479 Y87.8170
G01 X21.6164 Y87.8835
G01 X21.5772 Y87.9487
G01 X21.5348 Y88.0058
G01 X21.4870 Y88.0586
G01 X21.4308 Y88.1098
G01 X21.3706 Y88.1543
G01 X21.3064 Y88.1925
G01 X21.2420 Y88.2229
G01 X21.1750 Y88.2469
G01 X21.1013 Y88.2656
G01 X21.0285 Y88.2764
G01 X20.9550 Y88.2800
G01 X20.8791 Y88.2761
G01 X20.8087 Y88.2656
G01 X20.7397 Y88.2484
G01 X20.6680 Y88.2229
G01 X20.6015 Y88.1914
G01 X20.5363 Y88.1522
G01 X20.4792 Y88.1098
G01 X20.4264 Y88.0620
G01 X20.3752 Y88.0058
G01 X20.3301 Y87.9446
G01 X20.2936 Y87.8835
G01 X20.2631 Y87.8193
G01 X20.2373 Y87.7477
G01 X20.2194 Y87.6763
G01 X20.2086 Y87.6035
G01 X20.2050 Y87.5300
G01 X20.2051 Y84.9275
G01 X20.2086 Y84.8565
G01 X20.2194 Y84.7837
G01 X20.2373 Y84.7123
G01 X20.2616 Y84.6441
G01 X20.2936 Y84.5765
G01 X20.3307 Y84.5144
G01 X20.3745 Y84.4552
G01 X20.4047 Y84.4216
G01 X20.4047 Y83.4576
G01 X12.8877 Y75.9406
G01 X11.4300 Y75.9406
G01 X11.3748 Y75.9378
G01 X11.3227 Y75.9300
G01 X11.2679 Y75.9161
G01 X11.2172 Y75.8977
G01 X11.1706 Y75.8756
G01 X11.1264 Y75.8491
G01 X11.0809 Y75.8156
G01 X11.0409 Y75.7794
G01 X11.0047 Y75.7394
G01 X10.9718 Y75.6950
G01 X10.9436 Y75.6475
G01 X10.9216 Y75.6009
G01 X10.9042 Y75.5524
G01 X10.8903 Y75.4976
G01 X10.8823 Y75.4430
G01 X10.8797 Y75.3903
G01 X10.8797 Y74.2198
G01 X10.8635 Y74.2048
G01 X10.8108 Y74.1466
G01 X10.7648 Y74.0845
G01 X10.7239 Y74.0160
G01 X10.6909 Y73.9461
G01 X10.6644 Y73.8722
G01 X10.6454 Y73.7961
G01 X10.6337 Y73.7172
G01 X10.6300 Y73.6400
G01 X10.6300 Y71.1400
G01 X10.6342 Y71.0592
G00 Z2.0000
G00 X13.1148 Y71.0503
G01 F60.00
G01 Z0.0000
G01 F120.00
G01 X13.1265 Y70.9722
G01 X13.1470 Y70.8904
G01 X13.1755 Y70.8109
G01 X13.2091 Y70.7394
G01 X13.2142 Y70.7299
G01 X13.2520 Y70.6668
G01 X13.2580 Y70.6578
G01 X13.3052 Y70.5944
G01 X13.3619 Y70.5319
G01 X13.4244 Y70.4752
G01 X13.4878 Y70.4280
G01 X13.4968 Y70.4220
G01 X13.5599 Y70.3842
G01 X13.5694 Y70.3791
G01 X13.6409 Y70.3455
G01 X13.7204 Y70.3170
G01 X13.8022 Y70.2965
G01 X13.8857 Y70.2841
G01 X13.9700 Y70.2800
G01 X14.0543 Y70.2841
G01 X14.1378 Y70.2965
G01 X14.2144 Y70.3156
G01 X14.2248 Y70.3187
G01 X14.2941 Y70.3435
G01 X14.3040 Y70.3477
G01 X14.3754 Y70.3815
G01 X14.4478 Y70.4249
G01 X14.5156 Y70.4752
G01 X14.5742 Y70.5282
G01 X14.5818 Y70.5358
G01 X14.6313 Y70.5903
G01 X14.6381 Y70.5987
G01 X14.6851 Y70.6622
G01 X14.7285 Y70.7346
G01 X14.7645 Y70.8109
G01 X14.7922 Y70.8878
G01 X14.7944 Y70.8956
G01 X14.8123 Y70.9670
G01 X14.8144 Y70.9775
G01 X14.8259 Y71.0557
G01 X14.8300 Y71.1400
G01 X14.8300 Y73.6400
G01 X14.8259 Y73.7243
G01 X14.8144 Y73.8025
G01 X14.8123 Y73.8130
G01 X14.7944 Y73.8844
G01 X14.7913 Y73.8948
G01 X14.7645 Y73.9691
G01 X14.7309 Y74.0406
G01 X14.7258 Y74.0501
G01 X14.6851 Y74.1178
G01 X14.6381 Y74.1813
G01 X14.6313 Y74.1897
G01 X14.5781 Y74.2481
G01 X14.5197 Y74.3013
G01 X14.5113 Y74.3081
G01 X14.4478 Y74.3551
G01 X14.3801 Y74.3958
G01 X14.3706 Y74.4009
G01 X14.2991 Y74.4345
G01 X14.2222 Y74.4622
G01 X14.2144 Y74.4644
G01 X14.1378 Y74.4835
G01 X14.0543 Y74.4959
G01 X13.9700 Y74.5000
G01 X13.8857 Y74.4959
G01 X13.8022 Y74.4835
G01 X13.7204 Y74.4630
G01 X13.6409 Y74.4345
G01 X13.5646 Y74.3985
G01 X13.4922 Y74.3551
G01 X13.4244 Y74.3048
G01 X13.3619 Y74.2481
G01 X13.3052 Y74.1856
G01 X13.2549 Y74.1178
G01 X13.2115 Y74.0454
G01 X13.1755 Y73.9691
G01 X13.1478 Y73.8922
G01 X13.1456 Y73.8844
G01 X13.1277 Y73.8130
G01 X13.1256 Y73.8025
G01 X13.1141 Y73.7243
G01 X13.1100 Y73.6400
G01 X13.1100 Y71.1400
G01 X13.1137 Y71.0611
G01 X13.1148 Y71.0503
G00 Z2.0000
G00 X13.1742 Y71.0592
G01 F60.00
G01 Z0.0000
G01 F120.00
G01 X13.1854 Y70.9839
G01 X13.2044 Y70.9078
G01 X13.2309 Y70.8339
G01 X13.2634 Y70.7651
G01 X13.3062 Y70.6935
G01 X13.3516 Y70.6325
G01 X13.4043 Y70.5743
G01 X13.4625 Y70.5216
G01 X13.5235 Y70.4762
G01 X13.5951 Y70.4334
G01 X13.6639 Y70.4009
G01 X13.7378 Y70.3744
G01 X13.8139 Y70.3554
G01 X13.8916 Y70.3439
G01 X13.9700 Y70.3400
G01 X14.0484 Y70.3439
G01 X14.1261 Y70.3554
G01 X14.1999 Y70.3738
G01 X14.2784 Y70.4019
G01 X14.3471 Y70.4345
G01 X14.4145 Y70.4748
G01 X14.4775 Y70.5216
G01 X14.5357 Y70.5743
G01 X14.5884 Y70.6325
G01 X14.6338 Y70.6935
G01 X14.6766 Y70.7651
G01 X14.7091 Y70.8339
G01 X14.7356 Y70.9078
G01 X14.7546 Y70.9839
G01 X14.7658 Y71.0592
G01 X14.7700 Y71.1400
G01 X14.7700 Y73.6400
G01 X14.7661 Y73.7184
G01 X14.7550 Y73.7937
G01 X14.7348 Y73.8746
G01 X14.7091 Y73.9461
G01 X14.6766 Y74.0149
G01 X14.6352 Y74.0845
G01 X14.5868 Y74.1494
G01 X14.5357 Y74.2057
G01 X14.4794 Y74.2568
G01 X14.4145 Y74.3052
G01 X14.3449 Y74.3466
G01 X14.2761 Y74.3791
G01 X14.2022 Y74.4056
G01 X14.1261 Y74.4246
G01 X14.0484 Y74.4361
G01 X13.9700 Y74.4400
G01 X13.8916 Y74.4361
G01 X13.8139 Y74.4246
G01 X13.7378 Y74.4056
G01 X13.6639 Y74.3791
G01 X13.5929 Y74.3455
G01 X13.5255 Y74.3052
G01 X13.4625 Y74.2584
G01 X13.4043 Y74.2057
G01 X13.3516 Y74.1475
G01 X13.3048 Y74.0845
G01 X13.2645 Y74.0171
G01 X13.2309 Y73.9461
G01 X13.2044 Y73.8722
G01 X13.1854 Y73.7961
G01 X13.1742 Y73.7208
G01 X13.1700 Y73.6400
G01 X13.1700 Y71.1400
G01 X13.1742 Y71.0592
G00 Z2.0000
G00 X15.7600 Y70.3400
G01 F60.00
G01 Z0.0000
G01 F120.00
G01 X17.2612 Y70.3400
G01 X17.2685 Y70.3407
G01 X17.2757 Y70.3425
G01 X17.2825 Y70.3453
G01 X17.2888 Y70.3491
G01 X17.2945 Y70.3538
G01 X17.2994 Y70.3592
G01 X17.3035 Y70.3654
G01 X17.3071 Y70.3732
G01 X17.3093 Y70.3815
G01 X17.3100 Y70.3900
G01 X17.3100 Y74.3900
G01 X17.3095 Y74.3973
G01 X17.3078 Y74.4045
G01 X17.3052 Y74.4114
G01 X17.3009 Y74.4188
G01 X17.2962 Y74.4245
G01 X17.2908 Y74.4294
G01 X17.2836 Y74.4341
G01 X17.2768 Y74.4371
G01 X17.2685 Y74.4393
G01 X17.2600 Y74.4400
G01 X15.7588 Y74.4400
G01 X15.7515 Y74.4393
G01 X15.7432 Y74.4371
G01 X15.7364 Y74.4341
G01 X15.7302 Y74.4302
G01 X15.7246 Y74.4254
G01 X15.7198 Y74.4198
G01 X15.7159 Y74.4136
G01 X15.7129 Y74.4068
G01 X15.7107 Y74.3985
G01 X15.7100 Y74.3900
G01 X15.7100 Y70.3900
G01 X15.7110 Y70.3802
G01 X15.7138 Y70.3709
G01 X15.7184 Y70.3622
G01 X15.7246 Y70.3546
G01 X15.7322 Y70.3484
G01 X15.7409 Y70.3438
G01 X15.7502 Y70.3410
G01 X15.7600 Y70.3400
G00 Z2.0000
G00 X15.7600 Y70.2800
G01 F60.00
G01 Z0.0000
G01 F120.00
G01 X17.2654 Y70.2801
G01 X17.2735 Y70.2808
G01 X17.2815 Y70.2821
G01 X17.2893 Y70.2840
G01 X17.2971 Y70.2864
G01 X17.3046 Y70.2894
G01 X17.3119 Y70.2930
G01 X17.3188 Y70.2971
G01 X17.3255 Y70.3016
G01 X17.3318 Y70.3067
G01 X17.3378 Y70.3122
G01 X17.3433 Y70.3182
G01 X17.3484 Y70.3245
G01 X17.3529 Y70.3312
G01 X17.3570 Y70.3381
G01 X17.3606 Y70.3454
G01 X17.3636 Y70.3529
G01 X17.3667 Y70.3633
G01 X17.3684 Y70.3712
G01 X17.3697 Y70.3819
G01 X17.3700 Y70.3900
G01 X17.3700 Y74.3927
G01 X17.3692 Y74.4035
G01 X17.3679 Y74.4115
G01 X17.3660 Y74.4193
G01 X17.3636 Y74.4271
G01 X17.3606 Y74.4346
G01 X17.3570 Y74.4419
G01 X17.3529 Y74.4488
G01 X17.3484 Y74.4555
G01 X17.3433 Y74.4618
G01 X17.3378 Y74.4678
G01 X17.3318 Y74.4733
G01 X17.3255 Y74.4784
G01 X17.3188 Y74.4829
G01 X17.3119 Y74.4870
G01 X17.3046 Y74.4906
G01 X17.2971 Y74.4936
G01 X17.2867 Y74.4967
G01 X17.2788 Y74.4984
G01 X17.2708 Y74.4995
G01 X17.2600 Y74.5000
G01 X15.7546 Y74.4999
G01 X15.7465 Y74.4992
G01 X15.7385 Y74.4979
G01 X15.7307 Y74.4960
G01 X15.7229 Y74.4936
G01 X15.7154 Y74.4906
G01 X15.7081 Y74.4870
G01 X15.7012 Y74.4829
G01 X15.6945 Y74.4784
G01 X15.6882 Y74.4733
G01 X15.6822 Y74.4678
G01 X15.6767 Y74.4618
G01 X15.6716 Y74.4555
G01 X15.6671 Y74.4488
G01 X15.6630 Y74.4419
G01 X15.6594 Y74.4346
G01 X15.6564 Y74.4271
G01 X15.6533 Y74.4167
G01 X15.6516 Y74.4088
G01 X15.6505 Y74.4008
G01 X15.6500 Y74.3900
G01 X15.6500 Y70.3873
G01 X15.6508 Y70.3765
G01 X15.6527 Y70.3659
G01 X15.6556 Y70.3555
G01 X15.6594 Y70.3454
G01 X15.6643 Y70.3358
G01 X15.6701 Y70.3267
G01 X15.6767 Y70.3182
G01 X15.6842 Y70.3103
G01 X15.6923 Y70.3033
G01 X15.7012 Y70.2971
G01 X15.7105 Y70.2917
G01 X15.7204 Y70.2874
G01 X15.7281 Y70.2847
G01 X15.7385 Y70.2821
G01 X15.7492 Y70.2805
G01 X15.7600 Y70.2800
G00 Z2.0000
G00 X12.5864 Y84.4099
G01 F60.00
G01 Z0.0000
G01 F120.00
G01 X12.5894 Y84.3888
G01 X12.5948 Y84.3658
G01 X12.6023 Y84.3434
G01 X12.6118 Y84.3218
G01 X12.6233 Y84.3011
G01 X12.6367 Y84.2816
G01 X12.6518 Y84.2635
G01 X12.6685 Y84.2468
G01 X12.6866 Y84.2317
G01 X12.7061 Y84.2183
G01 X12.7268 Y84.2068
G01 X12.7484 Y84.1973
G01 X12.7708 Y84.1898
G01 X12.7938 Y84.1844
G01 X12.8172 Y84.1811
G01 X12.8396 Y84.1800
G01 X13.8292 Y84.1800
G01 X13.8567 Y84.1815
G01 X13.8791 Y84.1849
G01 X13.9011 Y84.1904
G01 X13.9271 Y84.1995
G01 X13.9498 Y84.2102
G01 X13.9692 Y84.2218
G01 X13.9915 Y84.2381
G01 X14.0118 Y84.2567
G01 X14.0269 Y84.2735
G01 X14.0419 Y84.2937
G01 X14.0559 Y84.3174
G01 X14.0655 Y84.3379
G01 X14.0736 Y84.3604
G01 X14.0805 Y84.3883
G01 X14.0838 Y84.4107
G01 X14.0850 Y84.4358
G01 X14.0849 Y88.0267
G01 X14.0838 Y88.0493
G01 X14.0805 Y88.0717
G01 X14.0732 Y88.1008
G01 X14.0655 Y88.1221
G01 X14.0548 Y88.1448
G01 X14.0419 Y88.1663
G01 X14.0284 Y88.1845
G01 X14.0083 Y88.2068
G01 X13.9915 Y88.2219
G01 X13.9713 Y88.2369
G01 X13.9476 Y88.2509
G01 X13.9271 Y88.2605
G01 X13.9046 Y88.2686
G01 X13.8767 Y88.2755
G01 X13.8543 Y88.2788
G01 X13.8292 Y88.2800
G01 X12.8408 Y88.2800
G01 X12.8145 Y88.2786
G01 X12.7909 Y88.2751
G01 X12.7689 Y88.2696
G01 X12.7429 Y88.2605
G01 X12.7202 Y88.2498
G01 X12.7008 Y88.2382
G01 X12.6785 Y88.2219
G01 X12.6582 Y88.2033
G01 X12.6431 Y88.1865
G01 X12.6281 Y88.1663
G01 X12.6141 Y88.1426
G01 X12.6045 Y88.1221
G01 X12.5964 Y88.0996
G01 X12.5895 Y88.0717
G01 X12.5862 Y88.0493
G01 X12.5850 Y88.0242
G01 X12.5850 Y84.4358
G01 X12.5864 Y84.4099
G00 Z2.0000
G00 X12.5269 Y84.4016
G01 F60.00
G01 Z0.0000
G01 F120.00
G01 X12.5304 Y84.3778
G01 X12.5371 Y84.3494
G01 X12.5463 Y84.3217
G01 X12.5581 Y84.2950
G01 X12.5723 Y84.2696
G01 X12.5888 Y84.2455
G01 X12.6074 Y84.2230
G01 X12.6262 Y84.2042
G01 X12.6505 Y84.1838
G01 X12.6724 Y84.1687
G01 X12.7000 Y84.1531
G01 X12.7220 Y84.1433
G01 X12.7291 Y84.1404
G01 X12.7519 Y84.1328
G01 X12.7778 Y84.1264
G01 X12.7878 Y84.1246
G01 X12.8091 Y84.1216
G01 X12.8167 Y84.1210
G01 X12.8408 Y84.1200
G01 X13.8292 Y84.1200
G01 X13.8602 Y84.1215
G01 X13.8855 Y84.1251
G01 X13.8961 Y84.1273
G01 X13.9209 Y84.1336
G01 X13.9450 Y84.1421
G01 X13.9550 Y84.1462
G01 X13.9781 Y84.1573
G01 X14.0001 Y84.1703
G01 X14.0091 Y84.1763
G01 X14.0295 Y84.1917
G01 X14.0486 Y84.2088
G01 X14.0562 Y84.2164
G01 X14.0733 Y84.2355
G01 X14.0887 Y84.2559
G01 X14.0947 Y84.2649
G01 X14.1077 Y84.2869
G01 X14.1188 Y84.3100
G01 X14.1229 Y84.3200
G01 X14.1314 Y84.3441
G01 X14.1389 Y84.3742
G01 X14.1435 Y84.4048
G01 X14.1450 Y84.4358
G01 X14.1449 Y88.0296
G01 X14.1435 Y88.0552
G01 X14.1399 Y88.0805
G01 X14.1377 Y88.0911
G01 X14.1306 Y88.1184
G01 X14.1210 Y88.1451
G01 X14.1101 Y88.1682
G01 X14.1050 Y88.1778
G01 X14.0903 Y88.2019
G01 X14.0733 Y88.2245
G01 X14.0562 Y88.2436
G01 X14.0486 Y88.2512
G01 X14.0274 Y88.2700
G01 X14.0046 Y88.2868
G01 X13.9804 Y88.3014
G01 X13.9550 Y88.3138
G01 X13.9450 Y88.3179
G01 X13.9209 Y88.3264
G01 X13.8908 Y88.3339
G01 X13.8602 Y88.3385
G01 X13.8319 Y88.3400
G01 X12.8408 Y88.3400
G01 X12.8152 Y88.3389
G01 X12.8072 Y88.3382
G01 X12.7792 Y88.3339
G01 X12.7543 Y88.3278
G01 X12.7440 Y88.3247
G01 X12.7199 Y88.3160
G01 X12.6968 Y88.3051
G01 X12.6872 Y88.3000
G01 X12.6654 Y88.2868
G01 X12.6426 Y88.2700
G01 X12.6214 Y88.2512
G01 X12.6138 Y88.2436
G01 X12.5967 Y88.2245
G01 X12.5813 Y88.2041
G01 X12.5753 Y88.1951
G01 X12.5623 Y88.1731
G01 X12.5512 Y88.1500
G01 X12.5471 Y88.1400
G01 X12.5386 Y88.1159
G01 X12.5311 Y88.0858
G01 X12.5265 Y88.0552
G01 X12.5250 Y88.0242
G01 X12.5250 Y84.4358
G01 X12.5260 Y84.4117
G01 X12.5269 Y84.4016
G00 Z2.0000
G00 X15.0696 Y84.8452
G01 F60.00
G01 Z0.0000
G01 F120.00
G01 X15.0806 Y84.7720
G01 X15.0999 Y84.6949
G01 X15.1267 Y84.6200
G01 X15.1582 Y84.5530
G01 X15.1633 Y84.5435
G01 X15.1986 Y84.4845
G01 X15.2046 Y84.4756
G01 X15.2489 Y84.4161
G01 X15.3022 Y84.3572
G01 X15.3611 Y84.3039
G01 X15.4250 Y84.2565
G01 X15.4932 Y84.2156
G01 X15.5601 Y84.1838
G01 X15.5701 Y84.1797
G01 X15.6347 Y84.1566
G01 X15.6451 Y84.1534
G01 X15.7170 Y84.1356
G01 X15.7956 Y84.1239
G01 X15.8750 Y84.1200
G01 X15.9544 Y84.1239
G01 X16.0330 Y84.1356
G01 X16.1049 Y84.1534
G01 X16.1153 Y84.1566
G01 X16.1799 Y84.1797
G01 X16.1899 Y84.1838
G01 X16.2568 Y84.2156
G01 X16.3250 Y84.2565
G01 X16.3889 Y84.3039
G01 X16.4478 Y84.3572
G01 X16.5011 Y84.4161
G01 X16.5454 Y84.4756
G01 X16.5514 Y84.4845
G01 X16.5867 Y84.5435
G01 X16.5918 Y84.5530
G01 X16.6233 Y84.6200
G01 X16.6501 Y84.6949
G01 X16.6694 Y84.7720
G01 X16.6804 Y84.8452
G01 X16.6815 Y84.8560
G01 X16.6850 Y84.9300
G01 X16.6850 Y87.5300
G01 X16.6811 Y87.6094
G01 X16.6704 Y87.6827
G01 X16.6683 Y87.6933
G01 X16.6501 Y87.7651
G01 X16.6253 Y87.8349
G01 X16.6212 Y87.8449
G01 X16.5894 Y87.9118
G01 X16.5514 Y87.9755
G01 X16.5454 Y87.9844
G01 X16.5045 Y88.0396
G01 X16.4976 Y88.0479
G01 X16.4478 Y88.1028
G01 X16.3929 Y88.1526
G01 X16.3846 Y88.1595
G01 X16.3250 Y88.2035
G01 X16.2568 Y88.2444
G01 X16.1899 Y88.2762
G01 X16.1799 Y88.2803
G01 X16.1101 Y88.3051
G01 X16.0330 Y88.3244
G01 X15.9544 Y88.3361
G01 X15.8750 Y88.3400
G01 X15.7956 Y88.3361
G01 X15.7170 Y88.3244
G01 X15.6399 Y88.3051
G01 X15.5650 Y88.2783
G01 X15.4932 Y88.2444
G01 X15.4250 Y88.2035
G01 X15.3611 Y88.1561
G01 X15.3022 Y88.1028
G01 X15.2489 Y88.0439
G01 X15.2015 Y87.9800
G01 X15.1606 Y87.9118
G01 X15.1267 Y87.8400
G01 X15.0999 Y87.7651
G01 X15.0806 Y87.6880
G01 X15.0696 Y87.6148
G01 X15.0685 Y87.6040
G01 X15.0650 Y87.5300
G01 X15.0650 Y84.9300
G01 X15.0685 Y84.8560
G01 X15.0696 Y84.8452
G00 Z2.0000
G00 X15.1289 Y84.8541
G01 F60.00
G01 Z0.0000
G01 F120.00
G01 X15.1394 Y84.7837
G01 X15.1573 Y84.7123
G01 X15.1821 Y84.6430
G01 X15.2125 Y84.5786
G01 X15.2528 Y84.5113
G01 X15.2952 Y84.4542
G01 X15.3447 Y84.3997
G01 X15.3992 Y84.3502
G01 X15.4583 Y84.3064
G01 X15.5215 Y84.2686
G01 X15.5857 Y84.2381
G01 X15.6597 Y84.2116
G01 X15.7287 Y84.1944
G01 X15.8015 Y84.1836
G01 X15.8750 Y84.1800
G01 X15.9485 Y84.1836
G01 X16.0213 Y84.1944
G01 X16.0903 Y84.2116
G01 X16.1643 Y84.2381
G01 X16.2285 Y84.2686
G01 X16.2917 Y84.3064
G01 X16.3508 Y84.3502
G01 X16.4053 Y84.3997
G01 X16.4548 Y84.4542
G01 X16.4972 Y84.5113
G01 X16.5375 Y84.5786
G01 X16.5679 Y84.6430
G01 X16.5930 Y84.7135
G01 X16.6106 Y84.7837
G01 X16.6211 Y84.8541
G01 X16.6250 Y84.9300
G01 X16.6250 Y87.5300
G01 X16.6211 Y87.6059
G01 X16.6106 Y87.6763
G01 X16.5934 Y87.7453
G01 X16.5679 Y87.8170
G01 X16.5364 Y87.8835
G01 X16.4999 Y87.9446
G01 X16.4548 Y88.0058
G01 X16.4036 Y88.0620
G01 X16.3508 Y88.1098
G01 X16.2917 Y88.1536
G01 X16.2285 Y88.1914
G01 X16.1643 Y88.2219
G01 X16.0915 Y88.2480
G01 X16.0213 Y88.2656
G01 X15.9485 Y88.2764
G01 X15.8750 Y88.2800
G01 X15.8015 Y88.2764
G01 X15.7287 Y88.2656
G01 X15.6573 Y88.2477
G01 X15.5880 Y88.2229
G01 X15.5215 Y88.1914
G01 X15.4583 Y88.1536
G01 X15.3992 Y88.1098
G01 X15.3447 Y88.0603
G01 X15.2952 Y88.0058
G01 X15.2514 Y87.9467
G01 X15.2136 Y87.8835
G01 X15.1821 Y87.8170
G01 X15.1570 Y87.7465
G01 X15.1394 Y87.6763
G01 X15.1289 Y87.6059
G01 X15.1250 Y87.5300
G01 X15.1250 Y84.9300
G01 X15.1289 Y84.8541
G00 Z2.0000
G00 X17.6096 Y84.8452
G01 F60.00
G01 Z0.0000
G01 F120.00
G01 X17.6206 Y84.7720
G01 X17.6399 Y84.6949
G01 X17.6667 Y84.6200
G01 X17.6982 Y84.5530
G01 X17.7033 Y84.5435
G01 X17.7386 Y84.4845
G01 X17.7446 Y84.4756
G01 X17.7889 Y84.4161
G01 X17.8422 Y84.3572
G01 X17.9011 Y84.3039
G01 X17.9650 Y84.2565
G01 X18.0332 Y84.2156
G01 X18.1001 Y84.1838
G01 X18.1101 Y84.1797
G01 X18.1747 Y84.1566
G01 X18.1851 Y84.1534
G01 X18.2570 Y84.1356
G01 X18.3356 Y84.1239
G01 X18.4150 Y84.1200
G01 X18.4944 Y84.1239
G01 X18.5730 Y84.1356
G01 X18.6449 Y84.1534
G01 X18.6553 Y84.1566
G01 X18.7199 Y84.1797
G01 X18.7299 Y84.1838
G01 X18.7968 Y84.2156
G01 X18.8650 Y84.2565
G01 X18.9289 Y84.3039
G01 X18.9878 Y84.3572
G01 X19.0411 Y84.4161
G01 X19.0854 Y84.4756
G01 X19.0914 Y84.4845
G01 X19.1267 Y84.5435
G01 X19.1318 Y84.5530
G01 X19.1633 Y84.6200
G01 X19.1901 Y84.6949
G01 X19.2094 Y84.7720
G01 X19.2204 Y84.8452
G01 X19.2215 Y84.8560
G01 X19.2250 Y84.9300
G01 X19.2250 Y87.5300
G01 X19.2211 Y87.6094
G01 X19.2104 Y87.6827
G01 X19.2083 Y87.6933
G01 X19.1901 Y87.7651
G01 X19.1653 Y87.8349
G01 X19.1612 Y87.8449
G01 X19.1294 Y87.9118
G01 X19.0914 Y87.9755
G01 X19.0854 Y87.9844
G01 X19.0445 Y88.0396
G01 X19.0376 Y88.0479
G01 X18.9878 Y88.1028
G01 X18.9329 Y88.1526
G01 X18.9246 Y88.1595
G01 X18.8650 Y88.2035
G01 X18.7968 Y88.2444
G01 X18.7299 Y88.2762
G01 X18.7199 Y88.2803
G01 X18.6501 Y88.3051
G01 X18.5730 Y88.3244
G01 X18.4944 Y88.3361
G01 X18.4150 Y88.3400
G01 X18.3356 Y88.3361
G01 X18.2570 Y88.3244
G01 X18.1799 Y88.3051
G01 X18.1050 Y88.2783
G01 X18.0332 Y88.2444
G01 X17.9650 Y88.2035
G01 X17.9011 Y88.1561
G01 X17.8422 Y88.1028
G01 X17.7889 Y88.0439
G01 X17.7415 Y87.9800
G01 X17.7006 Y87.9118
G01 X17.6667 Y87.8400
G01 X17.6399 Y87.7651
G01 X17.6206 Y87.6880
G01 X17.6096 Y87.6148
G01 X17.6085 Y87.6040
G01 X17.6050 Y87.5300
G01 X17.6050 Y84.9300
G01 X17.6085 Y84.8560
G01 X17.6096 Y84.8452
G00 Z2.0000
G00 X17.6689 Y84.8541
G01 F60.00
G01 Z0.0000
G01 F120.00
G01 X17.6794 Y84.7837
G01 X17.6973 Y84.7123
G01 X17.7221 Y84.6430
G01 X17.7525 Y84.5786
G01 X17.7928 Y84.5113
G01 X17.8352 Y84.4542
G01 X17.8847 Y84.3997
G01 X17.9392 Y84.3502
G01 X17.9983 Y84.3064
G01 X18.0615 Y84.2686
G01 X18.1257 Y84.2381
G01 X18.1997 Y84.2116
G01 X18.2687 Y84.1944
G01 X18.3415 Y84.1836
G01 X18.4150 Y84.1800
G01 X18.4885 Y84.1836
G01 X18.5613 Y84.1944
G01 X18.6303 Y84.2116
G01 X18.7043 Y84.2381
G01 X18.7685 Y84.2686
G01 X18.8317 Y84.3064
G01 X18.8908 Y84.3502
G01 X18.9453 Y84.3997
G01 X18.9948 Y84.4542
G01 X19.0372 Y84.5113
G01 X19.0775 Y84.5786
G01 X19.1079 Y84.6430
G01 X19.1330 Y84.7135
G01 X19.1506 Y84.7837
G01 X19.1611 Y84.8541
G01 X19.1650 Y84.9300
G01 X19.1650 Y87.5300
G01 X19.1611 Y87.6059
G01 X19.1506 Y87.6763
G01 X19.1334 Y87.7453
G01 X19.1079 Y87.8170
G01 X19.0764 Y87.8835
G01 X19.0399 Y87.9446
G01 X18.9948 Y88.0058
G01 X18.9436 Y88.0620
G01 X18.8908 Y88.1098
G01 X18.8317 Y88.1536
G01 X18.7685 Y88.1914
G01 X18.7043 Y88.2219
G01 X18.6315 Y88.2480
G01 X18.5613 Y88.2656
G01 X18.4885 Y88.2764
G01 X18.4150 Y88.2800
G01 X18.3415 Y88.2764
G01 X18.2687 Y88.2656
G01 X18.1973 Y88.2477
G01 X18.1280 Y88.2229
G01 X18.0615 Y88.1914
G01 X17.9983 Y88.1536
G01 X17.9392 Y88.1098
G01 X17.8847 Y88.0603
G01 X17.8352 Y88.0058
G01 X17.7914 Y87.9467
G01 X17.7536 Y87.8835
G01 X17.7221 Y87.8170
G01 X17.6970 Y87.7465
G01 X17.6794 Y87.6763
G01 X17.6689 Y87.6059
G01 X17.6650 Y87.5300
G01 X17.6650 Y84.9300
G01 X17.6689 Y84.8541
G00 Z2.0000
G00 X22.6896 Y84.8452
G01 F60.00
G01 Z0.0000
G01 F120.00
G01 X22.7006 Y84.7720
G01 X22.7199 Y84.6949
G01 X22.7467 Y84.6200
G01 X22.7782 Y84.5530
G01 X22.7833 Y84.5435
G01 X22.8186 Y84.4845
G01 X22.8246 Y84.4756
G01 X22.8689 Y84.4161
G01 X22.9222 Y84.3572
G01 X22.9811 Y84.3039
G01 X23.0450 Y84.2565
G01 X23.1132 Y84.2156
G01 X23.1801 Y84.1838
G01 X23.1901 Y84.1797
G01 X23.2547 Y84.1566
G01 X23.2651 Y84.1534
G01 X23.3370 Y84.1356
G01 X23.4156 Y84.1239
G01 X23.4950 Y84.1200
G01 X23.5744 Y84.1239
G01 X23.6530 Y84.1356
G01 X23.7249 Y84.1534
G01 X23.7353 Y84.1566
G01 X23.7999 Y84.1797
G01 X23.8099 Y84.1838
G01 X23.8768 Y84.2156
G01 X23.9450 Y84.2565
