(G-CODE GENERATED BY FLATCAM v8.994 - www.flatcam.org - Version Date: 2020/11/7)

(Name: io-board-mixed-B_Cu.gbr_iso_combined_cnc)
(Type: G-code from Geometry)
(Units: MM)

(Created on Saturday, 08 May 2021 at 09:51)

(This preprocessor is the default preprocessor used by FlatCAM.)
(It is made to work with MACH3 compatible motion controllers.)

(TOOL DIAMETER: 0.1 mm)
(Feedrate_XY: 120.0 mm/min)
(Feedrate_Z: 60.0 mm/min)
(Feedrate rapids 1500.0 mm/min)

(Z_Cut: 0.0 mm)
(Z_Move: 2.0 mm)
(Z Start: None mm)
(Z End: 15.0 mm)
(X,Y End: 0.0000, 0.0000 mm)
(Steps per circle: 64)
(Preprocessor Geometry: default)

(X range:    7.5089 ...  170.9023  mm)
(Y range:    6.7682 ...   97.3100  mm)

(Spindle Speed: 10000.0 RPM)
G21
G90
G94

G01 F120.00

M5
G00 Z15.0000
G00 X0.0000 Y0.0000
T1
M6    
(MSG, Change to Tool Dia = 0.1000)
M0
G00 Z15.0000

M03 S10000.0
G01 F120.00
G00 X12.5296 Y17.7648
G01 F60.00
G01 Z0.0000
G01 F120.00
G01 X12.5285 Y17.7540
G01 X12.5250 Y17.6800
G01 X12.5250 Y15.0800
G01 X12.5285 Y15.0060
G01 X12.5296 Y14.9952
G01 X12.5406 Y14.9220
G01 X12.5599 Y14.8449
G01 X12.5867 Y14.7700
G01 X12.6206 Y14.6982
G01 X12.6615 Y14.6300
G01 X12.7089 Y14.5661
G01 X12.7622 Y14.5072
G01 X12.8211 Y14.4539
G01 X12.8850 Y14.4065
G01 X12.9532 Y14.3656
G01 X13.0250 Y14.3317
G01 X13.0999 Y14.3049
G01 X13.1770 Y14.2856
G01 X13.2556 Y14.2739
G01 X13.3350 Y14.2700
G01 X13.4144 Y14.2739
G01 X13.4930 Y14.2856
G01 X13.5701 Y14.3049
G01 X13.6399 Y14.3297
G01 X13.6499 Y14.3338
G01 X13.7168 Y14.3656
G01 X13.7850 Y14.4065
G01 X13.8446 Y14.4505
G01 X13.8529 Y14.4574
G01 X13.9078 Y14.5072
G01 X13.9576 Y14.5621
G01 X13.9645 Y14.5704
G01 X14.0054 Y14.6256
G01 X14.0114 Y14.6345
G01 X14.0494 Y14.6982
G01 X14.0812 Y14.7651
G01 X14.0853 Y14.7751
G01 X14.1101 Y14.8449
G01 X14.1283 Y14.9167
G01 X14.1304 Y14.9273
G01 X14.1411 Y15.0006
G01 X14.1450 Y15.0800
G01 X14.1450 Y17.6800
G01 X14.1415 Y17.7540
G01 X14.1404 Y17.7648
G01 X14.1294 Y17.8380
G01 X14.1101 Y17.9151
G01 X14.0833 Y17.9900
G01 X14.0518 Y18.0570
G01 X14.0467 Y18.0665
G01 X14.0114 Y18.1255
G01 X14.0054 Y18.1344
G01 X13.9611 Y18.1939
G01 X13.9078 Y18.2528
G01 X13.8489 Y18.3061
G01 X13.7850 Y18.3535
G01 X13.7168 Y18.3944
G01 X13.6450 Y18.4283
G01 X13.5701 Y18.4551
G01 X13.4983 Y18.4733
G01 X13.4877 Y18.4754
G01 X13.4198 Y18.4854
G01 X13.4090 Y18.4865
G01 X13.3350 Y18.4900
G01 X13.2556 Y18.4861
G01 X13.1770 Y18.4744
G01 X13.1051 Y18.4566
G01 X13.0947 Y18.4534
G01 X13.0301 Y18.4303
G01 X13.0201 Y18.4262
G01 X12.9532 Y18.3944
G01 X12.8850 Y18.3535
G01 X12.8211 Y18.3061
G01 X12.7622 Y18.2528
G01 X12.7089 Y18.1939
G01 X12.6646 Y18.1344
G01 X12.6586 Y18.1255
G01 X12.6233 Y18.0665
G01 X12.6182 Y18.0570
G01 X12.5867 Y17.9900
G01 X12.5599 Y17.9151
G01 X12.5406 Y17.8380
G01 X12.5296 Y17.7648
G00 Z2.0000
G00 X12.5889 Y17.7559
G01 F60.00
G01 Z0.0000
G01 F120.00
G01 X12.5850 Y17.6800
G01 X12.5850 Y15.0800
G01 X12.5889 Y15.0041
G01 X12.5994 Y14.9337
G01 X12.6170 Y14.8635
G01 X12.6421 Y14.7930
G01 X12.6736 Y14.7265
G01 X12.7114 Y14.6633
G01 X12.7552 Y14.6042
G01 X12.8047 Y14.5497
G01 X12.8592 Y14.5002
G01 X12.9183 Y14.4564
G01 X12.9815 Y14.4186
G01 X13.0480 Y14.3871
G01 X13.1173 Y14.3623
G01 X13.1887 Y14.3444
G01 X13.2615 Y14.3336
G01 X13.3350 Y14.3300
G01 X13.4085 Y14.3336
G01 X13.4813 Y14.3444
G01 X13.5515 Y14.3620
G01 X13.6243 Y14.3881
G01 X13.6885 Y14.4186
G01 X13.7517 Y14.4564
G01 X13.8108 Y14.5002
G01 X13.8636 Y14.5480
G01 X13.9148 Y14.6042
G01 X13.9599 Y14.6654
G01 X13.9964 Y14.7265
G01 X14.0279 Y14.7930
G01 X14.0534 Y14.8647
G01 X14.0706 Y14.9337
G01 X14.0811 Y15.0041
G01 X14.0850 Y15.0800
G01 X14.0850 Y17.6800
G01 X14.0811 Y17.7559
G01 X14.0706 Y17.8263
G01 X14.0530 Y17.8965
G01 X14.0279 Y17.9670
G01 X13.9975 Y18.0314
G01 X13.9572 Y18.0987
G01 X13.9148 Y18.1558
G01 X13.8653 Y18.2103
G01 X13.8108 Y18.2598
G01 X13.7517 Y18.3036
G01 X13.6885 Y18.3414
G01 X13.6220 Y18.3729
G01 X13.5527 Y18.3977
G01 X13.4837 Y18.4151
G01 X13.4061 Y18.4266
G01 X13.3350 Y18.4300
G01 X13.2615 Y18.4264
G01 X13.1887 Y18.4156
G01 X13.1197 Y18.3984
G01 X13.0457 Y18.3719
G01 X12.9815 Y18.3414
G01 X12.9183 Y18.3036
G01 X12.8592 Y18.2598
G01 X12.8047 Y18.2103
G01 X12.7552 Y18.1558
G01 X12.7128 Y18.0987
G01 X12.6725 Y18.0314
G01 X12.6421 Y17.9670
G01 X12.6173 Y17.8977
G01 X12.5994 Y17.8263
G01 X12.5889 Y17.7559
G00 Z2.0000
G00 X15.0696 Y17.7648
G01 F60.00
G01 Z0.0000
G01 F120.00
G01 X15.0685 Y17.7540
G01 X15.0650 Y17.6800
G01 X15.0650 Y15.0800
G01 X15.0685 Y15.0060
G01 X15.0696 Y14.9952
G01 X15.0806 Y14.9220
G01 X15.0999 Y14.8449
G01 X15.1267 Y14.7700
G01 X15.1606 Y14.6982
G01 X15.2015 Y14.6300
G01 X15.2489 Y14.5661
G01 X15.3022 Y14.5072
G01 X15.3611 Y14.4539
G01 X15.4250 Y14.4065
G01 X15.4932 Y14.3656
G01 X15.5650 Y14.3317
G01 X15.6399 Y14.3049
G01 X15.7170 Y14.2856
G01 X15.7956 Y14.2739
G01 X15.8750 Y14.2700
G01 X15.9544 Y14.2739
G01 X16.0330 Y14.2856
G01 X16.1101 Y14.3049
G01 X16.1799 Y14.3297
G01 X16.1899 Y14.3338
G01 X16.2568 Y14.3656
G01 X16.3250 Y14.4065
G01 X16.3846 Y14.4505
G01 X16.3929 Y14.4574
G01 X16.4478 Y14.5072
G01 X16.4976 Y14.5621
G01 X16.5045 Y14.5704
G01 X16.5454 Y14.6256
G01 X16.5514 Y14.6345
G01 X16.5894 Y14.6982
G01 X16.6212 Y14.7651
G01 X16.6253 Y14.7751
G01 X16.6501 Y14.8449
G01 X16.6683 Y14.9167
G01 X16.6704 Y14.9273
G01 X16.6811 Y15.0006
G01 X16.6850 Y15.0800
G01 X16.6850 Y17.6800
G01 X16.6815 Y17.7540
G01 X16.6804 Y17.7648
G01 X16.6694 Y17.8380
G01 X16.6501 Y17.9151
G01 X16.6233 Y17.9900
G01 X16.5918 Y18.0570
G01 X16.5867 Y18.0665
G01 X16.5514 Y18.1255
G01 X16.5454 Y18.1344
G01 X16.5011 Y18.1939
G01 X16.4478 Y18.2528
G01 X16.3889 Y18.3061
G01 X16.3250 Y18.3535
G01 X16.2568 Y18.3944
G01 X16.1850 Y18.4283
G01 X16.1101 Y18.4551
G01 X16.0383 Y18.4733
G01 X16.0277 Y18.4754
G01 X15.9598 Y18.4854
G01 X15.9490 Y18.4865
G01 X15.8750 Y18.4900
G01 X15.7956 Y18.4861
G01 X15.7170 Y18.4744
G01 X15.6451 Y18.4566
G01 X15.6347 Y18.4534
G01 X15.5701 Y18.4303
G01 X15.5601 Y18.4262
G01 X15.4932 Y18.3944
G01 X15.4250 Y18.3535
G01 X15.3611 Y18.3061
G01 X15.3022 Y18.2528
G01 X15.2489 Y18.1939
G01 X15.2046 Y18.1344
G01 X15.1986 Y18.1255
G01 X15.1633 Y18.0665
G01 X15.1582 Y18.0570
G01 X15.1267 Y17.9900
G01 X15.0999 Y17.9151
G01 X15.0806 Y17.8380
G01 X15.0696 Y17.7648
G00 Z2.0000
G00 X15.1289 Y17.7559
G01 F60.00
G01 Z0.0000
G01 F120.00
G01 X15.1250 Y17.6800
G01 X15.1250 Y15.0800
G01 X15.1289 Y15.0041
G01 X15.1394 Y14.9337
G01 X15.1570 Y14.8635
G01 X15.1821 Y14.7930
G01 X15.2136 Y14.7265
G01 X15.2514 Y14.6633
G01 X15.2952 Y14.6042
G01 X15.3447 Y14.5497
G01 X15.3992 Y14.5002
G01 X15.4583 Y14.4564
G01 X15.5215 Y14.4186
G01 X15.5880 Y14.3871
G01 X15.6573 Y14.3623
G01 X15.7287 Y14.3444
G01 X15.8015 Y14.3336
G01 X15.8750 Y14.3300
G01 X15.9485 Y14.3336
G01 X16.0213 Y14.3444
G01 X16.0915 Y14.3620
G01 X16.1643 Y14.3881
G01 X16.2285 Y14.4186
G01 X16.2917 Y14.4564
G01 X16.3508 Y14.5002
G01 X16.4036 Y14.5480
G01 X16.4548 Y14.6042
G01 X16.4999 Y14.6654
G01 X16.5364 Y14.7265
G01 X16.5679 Y14.7930
G01 X16.5934 Y14.8647
G01 X16.6106 Y14.9337
G01 X16.6211 Y15.0041
G01 X16.6250 Y15.0800
G01 X16.6250 Y17.6800
G01 X16.6211 Y17.7559
G01 X16.6106 Y17.8263
G01 X16.5930 Y17.8965
G01 X16.5679 Y17.9670
G01 X16.5375 Y18.0314
G01 X16.4972 Y18.0987
G01 X16.4548 Y18.1558
G01 X16.4053 Y18.2103
G01 X16.3508 Y18.2598
G01 X16.2917 Y18.3036
G01 X16.2285 Y18.3414
G01 X16.1620 Y18.3729
G01 X16.0927 Y18.3977
G01 X16.0237 Y18.4151
G01 X15.9461 Y18.4266
G01 X15.8750 Y18.4300
G01 X15.8015 Y18.4264
G01 X15.7287 Y18.4156
G01 X15.6597 Y18.3984
G01 X15.5857 Y18.3719
G01 X15.5215 Y18.3414
G01 X15.4583 Y18.3036
G01 X15.3992 Y18.2598
G01 X15.3447 Y18.2103
G01 X15.2952 Y18.1558
G01 X15.2528 Y18.0987
G01 X15.2125 Y18.0314
G01 X15.1821 Y17.9670
G01 X15.1573 Y17.8977
G01 X15.1394 Y17.8263
G01 X15.1289 Y17.7559
G00 Z2.0000
G00 X12.5864 Y23.5401
G01 F60.00
G01 Z0.0000
G01 F120.00
G01 X12.5850 Y23.5142
G01 X12.5850 Y19.9258
G01 X12.5862 Y19.9007
G01 X12.5895 Y19.8783
G01 X12.5964 Y19.8504
G01 X12.6045 Y19.8279
G01 X12.6141 Y19.8074
G01 X12.6281 Y19.7837
G01 X12.6431 Y19.7635
G01 X12.6582 Y19.7467
G01 X12.6785 Y19.7281
G01 X12.7008 Y19.7118
G01 X12.7202 Y19.7002
G01 X12.7429 Y19.6895
G01 X12.7689 Y19.6804
G01 X12.7909 Y19.6749
G01 X12.8145 Y19.6714
G01 X12.8408 Y19.6700
G01 X13.8292 Y19.6700
G01 X13.8543 Y19.6712
G01 X13.8767 Y19.6745
G01 X13.9046 Y19.6814
G01 X13.9271 Y19.6895
G01 X13.9476 Y19.6991
G01 X13.9713 Y19.7131
G01 X13.9915 Y19.7281
G01 X14.0083 Y19.7432
G01 X14.0284 Y19.7655
G01 X14.0419 Y19.7837
G01 X14.0548 Y19.8052
G01 X14.0655 Y19.8279
G01 X14.0732 Y19.8492
G01 X14.0805 Y19.8783
G01 X14.0838 Y19.9007
G01 X14.0849 Y19.9233
G01 X14.0850 Y23.5142
G01 X14.0838 Y23.5393
G01 X14.0805 Y23.5617
G01 X14.0732 Y23.5908
G01 X14.0655 Y23.6121
G01 X14.0548 Y23.6348
G01 X14.0419 Y23.6563
G01 X14.0269 Y23.6765
G01 X14.0101 Y23.6951
G01 X13.9933 Y23.7103
G01 X13.9692 Y23.7282
G01 X13.9498 Y23.7398
G01 X13.9271 Y23.7505
G01 X13.9035 Y23.7590
G01 X13.8853 Y23.7636
G01 X13.8853 Y26.7726
G01 X16.8999 Y29.7873
G01 X16.9369 Y29.8284
G01 X16.9675 Y29.8698
G01 X16.9941 Y29.9140
G01 X17.0184 Y29.9649
G01 X17.0366 Y30.0158
G01 X17.0497 Y30.0682
G01 X17.0573 Y30.1191
G01 X17.0603 Y30.1755
G01 X17.0603 Y33.5100
G01 X17.2600 Y33.5100
G01 X17.2698 Y33.5110
G01 X17.2780 Y33.5134
G01 X17.2857 Y33.5171
G01 X17.2917 Y33.5213
G01 X17.2979 Y33.5273
G01 X17.3029 Y33.5343
G01 X17.3066 Y33.5420
G01 X17.3090 Y33.5502
G01 X17.3100 Y33.5588
G01 X17.3100 Y37.5600
G01 X17.3095 Y37.5673
G01 X17.3075 Y37.5757
G01 X17.3041 Y37.5836
G01 X17.3002 Y37.5898
G01 X17.2954 Y37.5954
G01 X17.2888 Y37.6009
G01 X17.2825 Y37.6047
G01 X17.2757 Y37.6075
G01 X17.2673 Y37.6095
G01 X17.2600 Y37.6100
G01 X15.7588 Y37.6100
G01 X15.7515 Y37.6093
G01 X15.7443 Y37.6075
G01 X15.7375 Y37.6047
G01 X15.7302 Y37.6002
G01 X15.7238 Y37.5945
G01 X15.7191 Y37.5888
G01 X15.7153 Y37.5825
G01 X15.7125 Y37.5757
G01 X15.7107 Y37.5685
G01 X15.7100 Y37.5600
G01 X15.7100 Y33.5588
G01 X15.7110 Y33.5502
G01 X15.7134 Y33.5420
G01 X15.7171 Y33.5343
G01 X15.7221 Y33.5273
G01 X15.7283 Y33.5213
G01 X15.7354 Y33.5165
G01 X15.7432 Y33.5129
G01 X15.7502 Y33.5110
G01 X15.7600 Y33.5100
G01 X15.9597 Y33.5100
G01 X15.9597 Y30.4034
G01 X12.9459 Y27.3896
G01 X12.9097 Y27.3496
G01 X12.8789 Y27.3082
G01 X12.8492 Y27.2588
G01 X12.8266 Y27.2111
G01 X12.8078 Y27.1579
G01 X12.7953 Y27.1078
G01 X12.7877 Y27.0569
G01 X12.7848 Y27.0017
G01 X12.7847 Y23.7636
G01 X12.7697 Y23.7599
G01 X12.7473 Y23.7523
G01 X12.7268 Y23.7432
G01 X12.7071 Y23.7323
G01 X12.6866 Y23.7183
G01 X12.6702 Y23.7048
G01 X12.6510 Y23.6857
G01 X12.6367 Y23.6684
G01 X12.6246 Y23.6508
G01 X12.6108 Y23.6261
G01 X12.6023 Y23.6066
G01 X12.5948 Y23.5842
G01 X12.5894 Y23.5612
G01 X12.5864 Y23.5401
G00 Z2.0000
G00 X12.5269 Y23.5484
G01 F60.00
G01 Z0.0000
G01 F120.00
G01 X12.5260 Y23.5383
G01 X12.5250 Y23.5142
G01 X12.5250 Y19.9258
G01 X12.5265 Y19.8948
G01 X12.5311 Y19.8642
G01 X12.5386 Y19.8341
G01 X12.5471 Y19.8100
G01 X12.5512 Y19.8000
G01 X12.5623 Y19.7769
G01 X12.5753 Y19.7549
G01 X12.5813 Y19.7459
G01 X12.5967 Y19.7255
G01 X12.6138 Y19.7064
G01 X12.6214 Y19.6988
G01 X12.6426 Y19.6800
G01 X12.6654 Y19.6632
G01 X12.6872 Y19.6500
G01 X12.6968 Y19.6449
G01 X12.7199 Y19.6340
G01 X12.7440 Y19.6253
G01 X12.7543 Y19.6222
G01 X12.7792 Y19.6161
G01 X12.8072 Y19.6118
G01 X12.8152 Y19.6111
G01 X12.8408 Y19.6100
G01 X13.8319 Y19.6100
G01 X13.8602 Y19.6115
G01 X13.8908 Y19.6161
G01 X13.9209 Y19.6236
G01 X13.9450 Y19.6321
G01 X13.9550 Y19.6362
G01 X13.9757 Y19.6460
G01 X13.9828 Y19.6500
G01 X14.0046 Y19.6632
G01 X14.0295 Y19.6817
G01 X14.0486 Y19.6988
G01 X14.0562 Y19.7064
G01 X14.0733 Y19.7255
G01 X14.0918 Y19.7504
G01 X14.1077 Y19.7769
G01 X14.1188 Y19.8000
G01 X14.1229 Y19.8100
G01 X14.1314 Y19.8341
G01 X14.1389 Y19.8642
G01 X14.1428 Y19.8895
G01 X14.1439 Y19.9002
G01 X14.1450 Y19.9258
G01 X14.1450 Y23.5169
G01 X14.1435 Y23.5452
G01 X14.1399 Y23.5705
G01 X14.1377 Y23.5811
G01 X14.1314 Y23.6059
G01 X14.1210 Y23.6351
G01 X14.1101 Y23.6582
G01 X14.1050 Y23.6678
G01 X14.0903 Y23.6919
G01 X14.0733 Y23.7145
G01 X14.0562 Y23.7336
G01 X14.0486 Y23.7412
G01 X14.0274 Y23.7600
G01 X14.0046 Y23.7768
G01 X13.9804 Y23.7914
G01 X13.9550 Y23.8038
G01 X13.9453 Y23.8078
G01 X13.9453 Y26.7477
G01 X16.9434 Y29.7459
G01 X16.9782 Y29.7843
G01 X16.9851 Y29.7926
G01 X17.0174 Y29.8365
G01 X17.0455 Y29.8831
G01 X17.0506 Y29.8927
G01 X17.0738 Y29.9420
G01 X17.0940 Y29.9984
G01 X17.1085 Y30.0564
G01 X17.1167 Y30.1103
G01 X17.1177 Y30.1211
G01 X17.1203 Y30.1755
G01 X17.1203 Y33.4500
G01 X17.2654 Y33.4501
G01 X17.2761 Y33.4512
G01 X17.2867 Y33.4533
G01 X17.2945 Y33.4556
G01 X17.3046 Y33.4594
G01 X17.3119 Y33.4630
G01 X17.3188 Y33.4671
G01 X17.3255 Y33.4716
G01 X17.3318 Y33.4767
G01 X17.3415 Y33.4861
G01 X17.3467 Y33.4923
G01 X17.3515 Y33.4989
G01 X17.3557 Y33.5058
G01 X17.3594 Y33.5130
G01 X17.3626 Y33.5204
G01 X17.3653 Y33.5281
G01 X17.3684 Y33.5412
G01 X17.3695 Y33.5492
G01 X17.3700 Y33.5573
G01 X17.3700 Y37.5627
G01 X17.3695 Y37.5708
G01 X17.3684 Y37.5788
G01 X17.3667 Y37.5867
G01 X17.3636 Y37.5971
G01 X17.3606 Y37.6046
G01 X17.3570 Y37.6119
G01 X17.3529 Y37.6188
G01 X17.3484 Y37.6255
G01 X17.3433 Y37.6318
G01 X17.3378 Y37.6378
G01 X17.3298 Y37.6450
G01 X17.3233 Y37.6499
G01 X17.3166 Y37.6544
G01 X17.3095 Y37.6583
G01 X17.3021 Y37.6616
G01 X17.2945 Y37.6644
G01 X17.2867 Y37.6667
G01 X17.2761 Y37.6688
G01 X17.2681 Y37.6697
G01 X17.2600 Y37.6700
G01 X15.7546 Y37.6699
G01 X15.7465 Y37.6692
G01 X15.7385 Y37.6679
G01 X15.7307 Y37.6660
G01 X15.7229 Y37.6636
G01 X15.7154 Y37.6606
G01 X15.7081 Y37.6570
G01 X15.7012 Y37.6529
G01 X15.6945 Y37.6484
G01 X15.6882 Y37.6433
G01 X15.6803 Y37.6358
G01 X15.6750 Y37.6298
G01 X15.6701 Y37.6233
G01 X15.6656 Y37.6166
G01 X15.6617 Y37.6095
G01 X15.6584 Y37.6021
G01 X15.6556 Y37.5945
G01 X15.6533 Y37.5867
G01 X15.6512 Y37.5761
G01 X15.6503 Y37.5681
G01 X15.6500 Y37.5600
G01 X15.6500 Y33.5573
G01 X15.6505 Y33.5492
G01 X15.6516 Y33.5412
G01 X15.6547 Y33.5281
G01 X15.6574 Y33.5204
G01 X15.6606 Y33.5130
G01 X15.6643 Y33.5058
G01 X15.6685 Y33.4989
G01 X15.6733 Y33.4923
G01 X15.6785 Y33.4861
G01 X15.6842 Y33.4803
G01 X15.6902 Y33.4750
G01 X15.7012 Y33.4671
G01 X15.7081 Y33.4630
G01 X15.7154 Y33.4594
G01 X15.7255 Y33.4556
G01 X15.7359 Y33.4527
G01 X15.7465 Y33.4508
G01 X15.7546 Y33.4501
G01 X15.8997 Y33.4500
G01 X15.8997 Y30.4283
G01 X12.9035 Y27.4320
G01 X12.8633 Y27.3876
G01 X12.8307 Y27.3440
G01 X12.8247 Y27.3350
G01 X12.7995 Y27.2929
G01 X12.7956 Y27.2858
G01 X12.7712 Y27.2340
G01 X12.7527 Y27.1828
G01 X12.7496 Y27.1724
G01 X12.7365 Y27.1196
G01 X12.7283 Y27.0657
G01 X12.7273 Y27.0549
G01 X12.7248 Y27.0032
G01 X12.7247 Y23.8079
G01 X12.7000 Y23.7969
G01 X12.6789 Y23.7853
G01 X12.6703 Y23.7799
G01 X12.6505 Y23.7662
G01 X12.6319 Y23.7509
G01 X12.6244 Y23.7441
G01 X12.6074 Y23.7270
G01 X12.5888 Y23.7045
G01 X12.5751 Y23.6847
G01 X12.5697 Y23.6761
G01 X12.5581 Y23.6550
G01 X12.5463 Y23.6283
G01 X12.5386 Y23.6055
G01 X12.5358 Y23.5957
G01 X12.5304 Y23.5722
G01 X12.5269 Y23.5484
G00 Z2.0000
G00 X20.1496 Y23.1048
G01 F60.00
G01 Z0.0000
G01 F120.00
G01 X20.1485 Y23.0940
G01 X20.1450 Y23.0200
G01 X20.1450 Y20.4200
G01 X20.1485 Y20.3460
G01 X20.1496 Y20.3352
G01 X20.1606 Y20.2620
G01 X20.1799 Y20.1849
G01 X20.2067 Y20.1100
G01 X20.2406 Y20.0382
G01 X20.2815 Y19.9700
G01 X20.3289 Y19.9061
G01 X20.3822 Y19.8472
G01 X20.4411 Y19.7939
G01 X20.5050 Y19.7465
G01 X20.5732 Y19.7056
G01 X20.6450 Y19.6717
G01 X20.7199 Y19.6449
G01 X20.7970 Y19.6256
G01 X20.8756 Y19.6139
G01 X20.9550 Y19.6100
G01 X21.0344 Y19.6139
G01 X21.1130 Y19.6256
G01 X21.1901 Y19.6449
G01 X21.2599 Y19.6697
G01 X21.2699 Y19.6738
G01 X21.3368 Y19.7056
G01 X21.4050 Y19.7465
G01 X21.4646 Y19.7905
G01 X21.4729 Y19.7974
G01 X21.5278 Y19.8472
G01 X21.5776 Y19.9021
G01 X21.5845 Y19.9104
G01 X21.6254 Y19.9656
G01 X21.6314 Y19.9745
G01 X21.6694 Y20.0382
G01 X21.7012 Y20.1051
G01 X21.7053 Y20.1151
G01 X21.7301 Y20.1849
G01 X21.7483 Y20.2567
G01 X21.7504 Y20.2673
G01 X21.7611 Y20.3406
G01 X21.7650 Y20.4200
G01 X21.7650 Y23.0200
G01 X21.7615 Y23.0940
G01 X21.7604 Y23.1048
G01 X21.7494 Y23.1780
G01 X21.7301 Y23.2551
G01 X21.7033 Y23.3300
G01 X21.6718 Y23.3970
G01 X21.6667 Y23.4065
G01 X21.6314 Y23.4655
G01 X21.6254 Y23.4744
G01 X21.5811 Y23.5339
G01 X21.5278 Y23.5928
G01 X21.4689 Y23.6461
G01 X21.4050 Y23.6935
G01 X21.3368 Y23.7344
G01 X21.2699 Y23.7662
G01 X21.2599 Y23.7703
G01 X21.1953 Y23.7934
G01 X21.1849 Y23.7966
G01 X21.1130 Y23.8144
G01 X21.0344 Y23.8261
G01 X20.9550 Y23.8300
G01 X20.8756 Y23.8261
G01 X20.7970 Y23.8144
G01 X20.7251 Y23.7966
G01 X20.7147 Y23.7934
G01 X20.6501 Y23.7703
G01 X20.6401 Y23.7662
G01 X20.5732 Y23.7344
G01 X20.5050 Y23.6935
G01 X20.4411 Y23.6461
G01 X20.3822 Y23.5928
G01 X20.3289 Y23.5339
G01 X20.2846 Y23.4744
G01 X20.2786 Y23.4655
G01 X20.2433 Y23.4065
G01 X20.2382 Y23.3970
G01 X20.2067 Y23.3300
G01 X20.1799 Y23.2551
G01 X20.1606 Y23.1780
G01 X20.1496 Y23.1048
G00 Z2.0000
G00 X20.2089 Y23.0959
G01 F60.00
G01 Z0.0000
G01 F120.00
G01 X20.2050 Y23.0200
G01 X20.2050 Y20.4200
G01 X20.2089 Y20.3441
G01 X20.2194 Y20.2737
G01 X20.2370 Y20.2035
G01 X20.2621 Y20.1330
G01 X20.2936 Y20.0665
G01 X20.3314 Y20.0033
G01 X20.3752 Y19.9442
G01 X20.4247 Y19.8897
G01 X20.4792 Y19.8402
G01 X20.5383 Y19.7964
G01 X20.6015 Y19.7586
G01 X20.6680 Y19.7271
G01 X20.7373 Y19.7023
G01 X20.8087 Y19.6844
G01 X20.8815 Y19.6736
G01 X20.9550 Y19.6700
G01 X21.0285 Y19.6736
G01 X21.1013 Y19.6844
G01 X21.1715 Y19.7020
G01 X21.2443 Y19.7281
G01 X21.3085 Y19.7586
G01 X21.3717 Y19.7964
G01 X21.4308 Y19.8402
G01 X21.4836 Y19.8880
G01 X21.5348 Y19.9442
G01 X21.5799 Y20.0054
G01 X21.6164 Y20.0665
G01 X21.6479 Y20.1330
G01 X21.6734 Y20.2047
G01 X21.6906 Y20.2737
G01 X21.7011 Y20.3441
G01 X21.7050 Y20.4200
G01 X21.7050 Y23.0200
G01 X21.7011 Y23.0959
G01 X21.6906 Y23.1663
G01 X21.6730 Y23.2365
G01 X21.6479 Y23.3070
G01 X21.6175 Y23.3714
G01 X21.5772 Y23.4387
G01 X21.5348 Y23.4958
G01 X21.4853 Y23.5503
G01 X21.4308 Y23.5998
G01 X21.3717 Y23.6436
G01 X21.3085 Y23.6814
G01 X21.2443 Y23.7119
G01 X21.1703 Y23.7384
G01 X21.1013 Y23.7556
G01 X21.0285 Y23.7664
G01 X20.9550 Y23.7700
G01 X20.8815 Y23.7664
G01 X20.8087 Y23.7556
G01 X20.7397 Y23.7384
G01 X20.6657 Y23.7119
G01 X20.6015 Y23.6814
G01 X20.5383 Y23.6436
G01 X20.4792 Y23.5998
G01 X20.4247 Y23.5503
G01 X20.3752 Y23.4958
G01 X20.3328 Y23.4387
G01 X20.2925 Y23.3714
G01 X20.2621 Y23.3070
G01 X20.2373 Y23.2377
G01 X20.2194 Y23.1663
G01 X20.2089 Y23.0959
G00 Z2.0000
G00 X22.6896 Y17.7648
G01 F60.00
G01 Z0.0000
G01 F120.00
G01 X22.6885 Y17.7540
G01 X22.6850 Y17.6800
G01 X22.6850 Y15.0800
G01 X22.6885 Y15.0060
G01 X22.6896 Y14.9952
G01 X22.6996 Y14.9273
G01 X22.7017 Y14.9167
G01 X22.7199 Y14.8449
G01 X22.7447 Y14.7751
G01 X22.7477 Y14.7675
G01 X22.7806 Y14.6982
G01 X22.8200 Y14.6323
G01 X22.8246 Y14.6256
G01 X22.8672 Y14.5682
G01 X22.8847 Y14.5484
G01 X22.8848 Y13.3770
G01 X22.8877 Y13.3199
G01 X22.8965 Y13.2606
G01 X22.9110 Y13.2026
G01 X22.9293 Y13.1512
G01 X22.9334 Y13.1412
G01 X22.9568 Y13.0920
G01 X22.9876 Y13.0407
G01 X23.0233 Y12.9926
G01 X23.0635 Y12.9482
G01 X26.0671 Y9.9446
G01 X26.1096 Y9.9063
G01 X26.1532 Y9.8737
G01 X26.1622 Y9.8677
G01 X26.2043 Y9.8425
G01 X26.2139 Y9.8374
G01 X26.2632 Y9.8142
G01 X26.3196 Y9.7940
G01 X26.3776 Y9.7795
G01 X26.4342 Y9.7710
G01 X26.4423 Y9.7703
G01 X26.4967 Y9.7677
G01 X63.0383 Y9.7677
G01 X63.0954 Y9.7705
G01 X63.1035 Y9.7713
G01 X63.1574 Y9.7795
G01 X63.2102 Y9.7926
G01 X63.2206 Y9.7957
G01 X63.2668 Y9.8123
G01 X63.2768 Y9.8164
G01 X63.3260 Y9.8398
G01 X63.3773 Y9.8706
G01 X63.4254 Y9.9063
G01 X63.4679 Y9.9446
G01 X66.0400 Y12.5167
G01 X68.6228 Y9.9339
G01 X68.6653 Y9.8956
G01 X68.7134 Y9.8599
G01 X68.7647 Y9.8291
G01 X68.8139 Y9.8057
G01 X68.8239 Y9.8016
G01 X68.8701 Y9.7850
G01 X68.8805 Y9.7819
G01 X68.9333 Y9.7688
G01 X68.9872 Y9.7606
G01 X68.9953 Y9.7598
G01 X69.0524 Y9.7570
G01 X89.5451 Y9.7570
G01 X89.5995 Y9.7596
G01 X89.6103 Y9.7606
G01 X89.6588 Y9.7679
G01 X89.6694 Y9.7700
G01 X89.7222 Y9.7833
G01 X89.7786 Y9.8035
G01 X89.8328 Y9.8291
G01 X89.8796 Y9.8570
G01 X89.8886 Y9.8630
G01 X89.9280 Y9.8922
G01 X89.9343 Y9.8973
G01 X89.9766 Y9.9358
G01 X91.0454 Y11.0046
G01 X92.1259 Y9.9241
G01 X92.1682 Y9.8856
G01 X92.1745 Y9.8805
G01 X92.2139 Y9.8513
G01 X92.2229 Y9.8453
G01 X92.2697 Y9.8174
G01 X92.3239 Y9.7918
G01 X92.3803 Y9.7716
G01 X92.4331 Y9.7583
G01 X92.4437 Y9.7562
G01 X92.4922 Y9.7489
G01 X92.5003 Y9.7481
G01 X92.5574 Y9.7453
G01 X108.3322 Y9.7453
G01 X111.1345 Y6.9433
G01 X111.1750 Y6.9068
G01 X111.2231 Y6.8711
G01 X111.2744 Y6.8403
G01 X111.3286 Y6.8147
G01 X111.3850 Y6.7945
G01 X111.4430 Y6.7800
G01 X111.5023 Y6.7712
G01 X111.5594 Y6.7683
G01 X145.7638 Y6.7682
G01 X145.8236 Y6.7712
G01 X145.8829 Y6.7800
G01 X145.9357 Y6.7931
G01 X145.9461 Y6.7962
G01 X145.9973 Y6.8147
G01 X146.0515 Y6.8403
G01 X146.0983 Y6.8682
G01 X146.1073 Y6.8742
G01 X146.1509 Y6.9068
G01 X146.1953 Y6.9470
G01 X152.1965 Y12.9482
G01 X152.2367 Y12.9926
G01 X152.2693 Y13.0362
G01 X152.2753 Y13.0452
G01 X152.3032 Y13.0920
G01 X152.3288 Y13.1462
G01 X152.3473 Y13.1974
G01 X152.3504 Y13.2078
G01 X152.3635 Y13.2606
G01 X152.3723 Y13.3199
G01 X152.3753 Y13.3797
G01 X152.3753 Y14.5484
G01 X152.3928 Y14.5682
G01 X152.4354 Y14.6256
G01 X152.4400 Y14.6323
G01 X152.4794 Y14.6982
G01 X152.5112 Y14.7651
G01 X152.5143 Y14.7725
G01 X152.5401 Y14.8449
G01 X152.5594 Y14.9220
G01 X152.5711 Y15.0006
G01 X152.5750 Y15.0773
G01 X152.5750 Y17.6827
G01 X152.5711 Y17.7594
G01 X152.5604 Y17.8327
G01 X152.5583 Y17.8433
G01 X152.5401 Y17.9151
G01 X152.5133 Y17.9900
G01 X152.4794 Y18.0618
G01 X152.4385 Y18.1300
G01 X152.3911 Y18.1939
G01 X152.3378 Y18.2528
G01 X152.2789 Y18.3061
G01 X152.2150 Y18.3535
G01 X152.1468 Y18.3944
G01 X152.0750 Y18.4283
G01 X152.0001 Y18.4551
G01 X151.9230 Y18.4744
G01 X151.8444 Y18.4861
G01 X151.7650 Y18.4900
G01 X151.6856 Y18.4861
G01 X151.6070 Y18.4744
G01 X151.5299 Y18.4551
G01 X151.4601 Y18.4303
G01 X151.4501 Y18.4262
G01 X151.3832 Y18.3944
G01 X151.3150 Y18.3535
G01 X151.2511 Y18.3061
G01 X151.1962 Y18.2565
G01 X151.1885 Y18.2488
G01 X151.1389 Y18.1939
G01 X151.0946 Y18.1344
G01 X151.0886 Y18.1255
G01 X151.0506 Y18.0618
G01 X151.0167 Y17.9900
G01 X150.9899 Y17.9151
G01 X150.9717 Y17.8433
G01 X150.9696 Y17.8327
G01 X150.9596 Y17.7648
G01 X150.9587 Y17.7567
G01 X150.9550 Y17.6800
G01 X150.9551 Y15.0746
G01 X150.9589 Y15.0006
G01 X150.9706 Y14.9220
G01 X150.9899 Y14.8449
G01 X151.0157 Y14.7725
G01 X151.0188 Y14.7651
G01 X151.0506 Y14.6982
G01 X151.0900 Y14.6323
G01 X151.0946 Y14.6256
G01 X151.1372 Y14.5682
G01 X151.1547 Y14.5484
G01 X151.1547 Y13.6325
G01 X145.5110 Y7.9888
G01 X111.8149 Y7.9888
G01 X109.1953 Y10.6084
G01 X109.1953 Y14.5484
G01 X109.2128 Y14.5682
G01 X109.2554 Y14.6256
G01 X109.2600 Y14.6323
G01 X109.2994 Y14.6982
G01 X109.3323 Y14.7675
G01 X109.3353 Y14.7751
G01 X109.3601 Y14.8449
G01 X109.3783 Y14.9167
G01 X109.3804 Y14.9273
G01 X109.3904 Y14.9952
G01 X109.3915 Y15.0060
G01 X109.3950 Y15.0800
G01 X109.3950 Y17.6800
G01 X109.3913 Y17.7567
G01 X109.3904 Y17.7648
G01 X109.3794 Y17.8380
G01 X109.3616 Y17.9099
G01 X109.3584 Y17.9203
G01 X109.3353 Y17.9849
G01 X109.3312 Y17.9949
G01 X109.2994 Y18.0618
G01 X109.2585 Y18.1300
G01 X109.2111 Y18.1939
G01 X109.1578 Y18.2528
G01 X109.0989 Y18.3061
G01 X109.0350 Y18.3535
G01 X108.9668 Y18.3944
G01 X108.8999 Y18.4262
G01 X108.8899 Y18.4303
G01 X108.8201 Y18.4551
G01 X108.7483 Y18.4733
G01 X108.7377 Y18.4754
G01 X108.6698 Y18.4854
G01 X108.6590 Y18.4865
G01 X108.5850 Y18.4900
G01 X108.5056 Y18.4861
G01 X108.4270 Y18.4744
G01 X108.3499 Y18.4551
G01 X108.2750 Y18.4283
G01 X108.2032 Y18.3944
G01 X108.1350 Y18.3535
G01 X108.0711 Y18.3061
G01 X108.0122 Y18.2528
G01 X107.9589 Y18.1939
G01 X107.9115 Y18.1300
G01 X107.8706 Y18.0618
G01 X107.8367 Y17.9900
G01 X107.8099 Y17.9151
G01 X107.7906 Y17.8380
G01 X107.7789 Y17.7594
G01 X107.7750 Y17.6800
G01 X107.7750 Y15.0800
G01 X107.7785 Y15.0060
G01 X107.7796 Y14.9952
G01 X107.7896 Y14.9273
G01 X107.7917 Y14.9167
G01 X107.8099 Y14.8449
G01 X107.8347 Y14.7751
G01 X107.8377 Y14.7675
G01 X107.8706 Y14.6982
G01 X107.9100 Y14.6323
G01 X107.9146 Y14.6256
G01 X107.9572 Y14.5682
G01 X107.9747 Y14.5484
G01 X107.9747 Y10.9659
G01 X92.8102 Y10.9659
G01 X91.6557 Y12.1204
G01 X91.6557 Y56.2375
G01 X96.5776 Y61.1594
G01 X98.4250 Y61.1594
G01 X98.4848 Y61.1624
G01 X98.5441 Y61.1712
G01 X98.6021 Y61.1857
G01 X98.6585 Y61.2059
G01 X98.7127 Y61.2315
G01 X98.7640 Y61.2623
G01 X98.8121 Y61.2980
G01 X98.8565 Y61.3382
G01 X98.8932 Y61.3785
G01 X98.8984 Y61.3847
G01 X98.9324 Y61.4307
G01 X98.9605 Y61.4773
G01 X98.9656 Y61.4869
G01 X98.9888 Y61.5362
G01 X99.0073 Y61.5874
G01 X99.0104 Y61.5978
G01 X99.0235 Y61.6506
G01 X99.0323 Y61.7099
G01 X99.0353 Y61.7697
G01 X99.0353 Y62.9141
G01 X99.0898 Y62.9744
G01 X99.1401 Y63.0422
G01 X99.1835 Y63.1146
G01 X99.2173 Y63.1860
G01 X99.2215 Y63.1959
G01 X99.2463 Y63.2652
G01 X99.2494 Y63.2756
G01 X99.2685 Y63.3522
G01 X99.2802 Y63.4303
G01 X99.2811 Y63.4384
G01 X99.2850 Y63.5200
G01 X99.2850 Y66.0200
G01 X99.2809 Y66.1043
G01 X99.2685 Y66.1878
G01 X99.2494 Y66.2644
G01 X99.2463 Y66.2748
G01 X99.2195 Y66.3491
G01 X99.1835 Y66.4254
G01 X99.1401 Y66.4978
G01 X99.0931 Y66.5613
G01 X99.0863 Y66.5697
G01 X99.0368 Y66.6242
G01 X99.0292 Y66.6318
G01 X98.9706 Y66.6848
G01 X98.9028 Y66.7351
G01 X98.8304 Y66.7785
G01 X98.7590 Y66.8123
G01 X98.7491 Y66.8165
G01 X98.6798 Y66.8413
G01 X98.6694 Y66.8444
G01 X98.5928 Y66.8635
G01 X98.5093 Y66.8759
G01 X98.4250 Y66.8800
G01 X98.3461 Y66.8763
G01 X98.3353 Y66.8752
G01 X98.2625 Y66.8644
G01 X98.2520 Y66.8623
G01 X98.1754 Y66.8430
G01 X98.0959 Y66.8145
G01 X98.0196 Y66.7785
G01 X97.9518 Y66.7380
G01 X97.9428 Y66.7320
G01 X97.8837 Y66.6881
G01 X97.8753 Y66.6813
G01 X97.8169 Y66.6281
G01 X97.7602 Y66.5656
G01 X97.7099 Y66.4978
G01 X97.6692 Y66.4301
G01 X97.6641 Y66.4206
G01 X97.6327 Y66.3540
G01 X97.6295 Y66.3466
G01 X97.6020 Y66.2696
G01 X97.5815 Y66.1878
G01 X97.5691 Y66.1043
G01 X97.5650 Y66.0227
G01 X97.5651 Y63.5146
G01 X97.5691 Y63.4357
G01 X97.5815 Y63.3522
G01 X97.6020 Y63.2704
G01 X97.6305 Y63.1909
G01 X97.6665 Y63.1146
G01 X97.7099 Y63.0422
G01 X97.7602 Y62.9744
G01 X97.8147 Y62.9141
G01 X97.8147 Y62.3800
G01 X96.3194 Y62.3798
G01 X96.2704 Y62.3774
G01 X96.2596 Y62.3764
G01 X96.2057 Y62.3682
G01 X96.1529 Y62.3551
G01 X96.1425 Y62.3520
G01 X96.0913 Y62.3335
G01 X96.0420 Y62.3103
G01 X96.0324 Y62.3052
G01 X95.9858 Y62.2771
G01 X95.9419 Y62.2448
G01 X95.9336 Y62.2379
G01 X95.8933 Y62.2012
G01 X93.4999 Y59.8078
G01 X79.9853 Y73.3225
G01 X79.9853 Y74.2384
G01 X80.0028 Y74.2582
G01 X80.0454 Y74.3156
G01 X80.0500 Y74.3223
G01 X80.0894 Y74.3882
G01 X80.1212 Y74.4551
G01 X80.1243 Y74.4625
G01 X80.1501 Y74.5349
G01 X80.1694 Y74.6120
G01 X80.1811 Y74.6906
G01 X80.1849 Y74.7646
G01 X80.1850 Y77.3700
G01 X80.1815 Y77.4440
G01 X80.1808 Y77.4521
G01 X80.1694 Y77.5280
G01 X80.1501 Y77.6051
G01 X80.1233 Y77.6800
G01 X80.0918 Y77.7470
G01 X80.0867 Y77.7565
G01 X80.0514 Y77.8155
G01 X80.0454 Y77.8244
G01 X80.0011 Y77.8839
G01 X79.9515 Y77.9388
G01 X79.9438 Y77.9465
G01 X79.8889 Y77.9961
G01 X79.8250 Y78.0435
G01 X79.7568 Y78.0844
G01 X79.6850 Y78.1183
G01 X79.6101 Y78.1451
G01 X79.5330 Y78.1644
G01 X79.4544 Y78.1761
G01 X79.3777 Y78.1800
G01 X79.3696 Y78.1799
G01 X79.2956 Y78.1761
G01 X79.2170 Y78.1644
G01 X79.1399 Y78.1451
G01 X79.0701 Y78.1203
G01 X79.0601 Y78.1162
G01 X78.9932 Y78.0844
G01 X78.9295 Y78.0464
G01 X78.9206 Y78.0404
G01 X78.8654 Y77.9995
G01 X78.8571 Y77.9926
G01 X78.8022 Y77.9428
G01 X78.7489 Y77.8839
G01 X78.7015 Y77.8200
G01 X78.6606 Y77.7518
G01 X78.6267 Y77.6800
G01 X78.5999 Y77.6051
G01 X78.5806 Y77.5280
G01 X78.5689 Y77.4494
G01 X78.5650 Y77.3700
G01 X78.5650 Y74.7700
G01 X78.5687 Y74.6933
G01 X78.5696 Y74.6852
G01 X78.5806 Y74.6120
G01 X78.5984 Y74.5401
G01 X78.6016 Y74.5297
G01 X78.6247 Y74.4651
G01 X78.6277 Y74.4575
G01 X78.6606 Y74.3882
G01 X78.7000 Y74.3223
G01 X78.7046 Y74.3156
G01 X78.7472 Y74.2582
G01 X78.7647 Y74.2384
G01 X78.7647 Y73.0697
G01 X78.7675 Y73.0126
G01 X78.7683 Y73.0045
G01 X78.7765 Y72.9506
G01 X78.7896 Y72.8978
G01 X78.7927 Y72.8874
G01 X78.8112 Y72.8362
G01 X78.8344 Y72.7869
G01 X78.8395 Y72.7773
G01 X78.8647 Y72.7352
G01 X78.8691 Y72.7284
G01 X78.9033 Y72.6826
G01 X78.9435 Y72.6382
G01 X92.6369 Y58.9448
G01 X90.6139 Y56.9218
G01 X90.5772 Y56.8815
G01 X90.5703 Y56.8732
G01 X90.5411 Y56.8338
G01 X90.5351 Y56.8248
G01 X90.5072 Y56.7780
G01 X90.4838 Y56.7288
G01 X90.4797 Y56.7188
G01 X90.4614 Y56.6674
G01 X90.4469 Y56.6094
G01 X90.4381 Y56.5501
G01 X90.4353 Y56.4957
G01 X90.4351 Y12.1204
G01 X89.2923 Y10.9776
G01 X69.3052 Y10.9776
G01 X66.6503 Y13.6325
G01 X66.6503 Y14.5484
G01 X66.6678 Y14.5682
G01 X66.7104 Y14.6256
G01 X66.7150 Y14.6323
G01 X66.7544 Y14.6982
G01 X66.7862 Y14.7651
G01 X66.7893 Y14.7725
G01 X66.8151 Y14.8449
G01 X66.8344 Y14.9220
G01 X66.8461 Y15.0006
G01 X66.8499 Y15.0746
G01 X66.8500 Y17.6800
G01 X66.8465 Y17.7540
G01 X66.8458 Y17.7621
G01 X66.8344 Y17.8380
G01 X66.8151 Y17.9151
G01 X66.7883 Y17.9900
G01 X66.7544 Y18.0618
G01 X66.7135 Y18.1300
G01 X66.6661 Y18.1939
G01 X66.6128 Y18.2528
G01 X66.5579 Y18.3026
G01 X66.5496 Y18.3095
G01 X66.4944 Y18.3504
G01 X66.4855 Y18.3564
G01 X66.4218 Y18.3944
G01 X66.3549 Y18.4262
G01 X66.3449 Y18.4303
G01 X66.2751 Y18.4551
G01 X66.1980 Y18.4744
G01 X66.1194 Y18.4861
G01 X66.0454 Y18.4899
G01 X66.0373 Y18.4900
G01 X65.9606 Y18.4861
G01 X65.8820 Y18.4744
G01 X65.8049 Y18.4551
G01 X65.7300 Y18.4283
G01 X65.6582 Y18.3944
G01 X65.5900 Y18.3535
G01 X65.5261 Y18.3061
G01 X65.4712 Y18.2565
G01 X65.4635 Y18.2488
G01 X65.4139 Y18.1939
G01 X65.3696 Y18.1344
G01 X65.3636 Y18.1255
G01 X65.3283 Y18.0665
G01 X65.3232 Y18.0570
G01 X65.2917 Y17.9900
G01 X65.2649 Y17.9151
G01 X65.2456 Y17.8380
G01 X65.2342 Y17.7621
G01 X65.2335 Y17.7540
G01 X65.2300 Y17.6800
G01 X65.2301 Y15.0746
G01 X65.2339 Y15.0006
G01 X65.2456 Y14.9220
G01 X65.2649 Y14.8449
G01 X65.2907 Y14.7725
G01 X65.2938 Y14.7651
G01 X65.3256 Y14.6982
G01 X65.3650 Y14.6323
G01 X65.3696 Y14.6256
G01 X65.4122 Y14.5682
G01 X65.4297 Y14.5484
G01 X65.4297 Y13.6325
G01 X62.7855 Y10.9883
G01 X26.7495 Y10.9883
G01 X24.1053 Y13.6325
G01 X24.1053 Y14.5484
G01 X24.1228 Y14.5682
G01 X24.1654 Y14.6256
G01 X24.1700 Y14.6323
G01 X24.2094 Y14.6982
G01 X24.2412 Y14.7651
G01 X24.2443 Y14.7725
G01 X24.2701 Y14.8449
G01 X24.2894 Y14.9220
G01 X24.3011 Y15.0006
G01 X24.3050 Y15.0773
G01 X24.3050 Y17.6827
G01 X24.3015 Y17.7540
G01 X24.3004 Y17.7648
G01 X24.2894 Y17.8380
G01 X24.2716 Y17.9099
G01 X24.2684 Y17.9203
G01 X24.2433 Y17.9900
G01 X24.2118 Y18.0570
G01 X24.2067 Y18.0665
G01 X24.1685 Y18.1300
G01 X24.1245 Y18.1896
G01 X24.1176 Y18.1979
G01 X24.0715 Y18.2488
G01 X24.0638 Y18.2565
G01 X24.0089 Y18.3061
G01 X23.9450 Y18.3535
G01 X23.8768 Y18.3944
G01 X23.8099 Y18.4262
G01 X23.7999 Y18.4303
G01 X23.7353 Y18.4534
G01 X23.7249 Y18.4566
G01 X23.6530 Y18.4744
G01 X23.5744 Y18.4861
G01 X23.4950 Y18.4900
G01 X23.4210 Y18.4865
G01 X23.4102 Y18.4854
G01 X23.3370 Y18.4744
G01 X23.2599 Y18.4551
G01 X23.1901 Y18.4303
G01 X23.1801 Y18.4262
G01 X23.1132 Y18.3944
G01 X23.0450 Y18.3535
G01 X22.9854 Y18.3095
G01 X22.9771 Y18.3026
G01 X22.9262 Y18.2565
G01 X22.9185 Y18.2488
G01 X22.8689 Y18.1939
G01 X22.8215 Y18.1300
G01 X22.7806 Y18.0618
G01 X22.7488 Y17.9949
G01 X22.7447 Y17.9849
G01 X22.7216 Y17.9203
G01 X22.7184 Y17.9099
G01 X22.7006 Y17.8380
G01 X22.6896 Y17.7648
G00 Z2.0000
G00 X22.7489 Y17.7559
G01 F60.00
G01 Z0.0000
G01 F120.00
G01 X22.7450 Y17.6800
G01 X22.7450 Y15.0800
G01 X22.7484 Y15.0089
G01 X22.7599 Y14.9313
G01 X22.7773 Y14.8623
G01 X22.8026 Y14.7919
G01 X22.8336 Y14.7265
G01 X22.8707 Y14.6644
G01 X22.9145 Y14.6052
G01 X22.9447 Y14.5716
G01 X22.9448 Y13.3785
G01 X22.9474 Y13.3258
G01 X22.9553 Y13.2724
G01 X22.9684 Y13.2200
G01 X22.9876 Y13.1669
G01 X23.0097 Y13.1203
G01 X23.0375 Y13.0740
G01 X23.0697 Y13.0306
G01 X23.1059 Y12.9906
G01 X26.1085 Y9.9881
G01 X26.1476 Y9.9527
G01 X26.1890 Y9.9219
G01 X26.2395 Y9.8916
G01 X26.2861 Y9.8696
G01 X26.3370 Y9.8514
G01 X26.3894 Y9.8383
G01 X26.4415 Y9.8305
G01 X26.4967 Y9.8277
G01 X63.0383 Y9.8277
G01 X63.0910 Y9.8303
G01 X63.1456 Y9.8383
G01 X63.1957 Y9.8508
G01 X63.2511 Y9.8706
G01 X63.2977 Y9.8927
G01 X63.3440 Y9.9205
G01 X63.3874 Y9.9527
G01 X63.4265 Y9.9881
G01 X66.0400 Y12.6015
G01 X68.6642 Y9.9774
G01 X68.7033 Y9.9420
G01 X68.7467 Y9.9098
G01 X68.7930 Y9.8820
G01 X68.8396 Y9.8599
G01 X68.8950 Y9.8401
G01 X68.9451 Y9.8276
G01 X68.9997 Y9.8196
G01 X69.0524 Y9.8170
G01 X89.5451 Y9.8170
G01 X89.5966 Y9.8195
G01 X89.6548 Y9.8282
G01 X89.7048 Y9.8407
G01 X89.7557 Y9.8589
G01 X89.8045 Y9.8820
G01 X89.8487 Y9.9085
G01 X89.8951 Y9.9427
G01 X89.9342 Y9.9782
G01 X91.0454 Y11.0894
G01 X92.1683 Y9.9665
G01 X92.2074 Y9.9310
G01 X92.2538 Y9.8968
G01 X92.2980 Y9.8703
G01 X92.3468 Y9.8472
G01 X92.3977 Y9.8290
G01 X92.4477 Y9.8165
G01 X92.5047 Y9.8079
G01 X92.5574 Y9.8053
G01 X108.3571 Y9.8053
G01 X111.1739 Y6.9886
G01 X111.2130 Y6.9532
G01 X111.2564 Y6.9210
G01 X111.3027 Y6.8932
G01 X111.3515 Y6.8701
G01 X111.4024 Y6.8519
G01 X111.4548 Y6.8388
G01 X111.5082 Y6.8309
G01 X111.5609 Y6.8283
G01 X145.7638 Y6.8282
G01 X145.8177 Y6.8309
G01 X145.8711 Y6.8388
G01 X145.9259 Y6.8527
G01 X145.9744 Y6.8701
G01 X146.0232 Y6.8932
G01 X146.0715 Y6.9224
G01 X146.1129 Y6.9532
G01 X146.1529 Y6.9894
G01 X152.1541 Y12.9906
G01 X152.1903 Y13.0306
G01 X152.2238 Y13.0761
G01 X152.2503 Y13.1203
G01 X152.2734 Y13.1691
G01 X152.2916 Y13.2200
G01 X152.3041 Y13.2700
G01 X152.3127 Y13.3270
G01 X152.3153 Y13.3797
G01 X152.3153 Y14.5716
G01 X152.3455 Y14.6052
G01 X152.3893 Y14.6644
G01 X152.4264 Y14.7265
G01 X152.4584 Y14.7941
G01 X152.4827 Y14.8623
G01 X152.5006 Y14.9337
G01 X152.5114 Y15.0065
G01 X152.5150 Y15.0788
G01 X152.5150 Y17.6800
G01 X152.5111 Y17.7559
G01 X152.5006 Y17.8263
G01 X152.4827 Y17.8977
G01 X152.4579 Y17.9670
G01 X152.4264 Y18.0335
G01 X152.3886 Y18.0967
G01 X152.3448 Y18.1558
G01 X152.2953 Y18.2103
G01 X152.2408 Y18.2598
G01 X152.1817 Y18.3036
G01 X152.1185 Y18.3414
G01 X152.0520 Y18.3729
G01 X151.9827 Y18.3977
G01 X151.9113 Y18.4156
G01 X151.8385 Y18.4264
G01 X151.7650 Y18.4300
G01 X151.6915 Y18.4264
G01 X151.6187 Y18.4156
G01 X151.5473 Y18.3977
G01 X151.4757 Y18.3719
G01 X151.4115 Y18.3414
G01 X151.3483 Y18.3036
G01 X151.2892 Y18.2598
G01 X151.2364 Y18.2120
G01 X151.1852 Y18.1558
G01 X151.1401 Y18.0946
G01 X151.1036 Y18.0335
G01 X151.0721 Y17.9670
G01 X151.0473 Y17.8977
G01 X151.0299 Y17.8287
G01 X151.0185 Y17.7523
G01 X151.0150 Y17.6800
G01 X151.0151 Y15.0775
G01 X151.0186 Y15.0065
G01 X151.0294 Y14.9337
G01 X151.0473 Y14.8623
G01 X151.0716 Y14.7941
G01 X151.1036 Y14.7265
G01 X151.1407 Y14.6644
G01 X151.1845 Y14.6052
G01 X151.2147 Y14.5716
G01 X151.2147 Y13.6076
G01 X145.5359 Y7.9288
G01 X111.7900 Y7.9288
G01 X109.1353 Y10.5835
G01 X109.1353 Y14.5716
G01 X109.1655 Y14.6052
G01 X109.2093 Y14.6644
G01 X109.2464 Y14.7265
G01 X109.2774 Y14.7919
G01 X109.3034 Y14.8647
G01 X109.3206 Y14.9337
G01 X109.3315 Y15.0077
G01 X109.3350 Y15.0800
G01 X109.3350 Y17.6800
G01 X109.3316 Y17.7511
G01 X109.3206 Y17.8263
G01 X109.3034 Y17.8953
G01 X109.2769 Y17.9693
G01 X109.2464 Y18.0335
G01 X109.2086 Y18.0967
G01 X109.1648 Y18.1558
G01 X109.1153 Y18.2103
G01 X109.0608 Y18.2598
G01 X109.0017 Y18.3036
G01 X108.9385 Y18.3414
G01 X108.8743 Y18.3719
G01 X108.8027 Y18.3977
G01 X108.7337 Y18.4151
G01 X108.6561 Y18.4266
G01 X108.5850 Y18.4300
G01 X108.5115 Y18.4264
G01 X108.4387 Y18.4156
G01 X108.3673 Y18.3977
G01 X108.2980 Y18.3729
G01 X108.2315 Y18.3414
G01 X108.1683 Y18.3036
G01 X108.1092 Y18.2598
G01 X108.0547 Y18.2103
G01 X108.0052 Y18.1558
G01 X107.9614 Y18.0967
G01 X107.9236 Y18.0335
G01 X107.8921 Y17.9670
G01 X107.8673 Y17.8977
G01 X107.8494 Y17.8263
G01 X107.8385 Y17.7523
G01 X107.8350 Y17.6800
G01 X107.8350 Y15.0800
G01 X107.8385 Y15.0077
G01 X107.8494 Y14.9337
G01 X107.8666 Y14.8647
G01 X107.8926 Y14.7919
G01 X107.9236 Y14.7265
G01 X107.9607 Y14.6644
G01 X108.0045 Y14.6052
G01 X108.0347 Y14.5716
G01 X108.0347 Y10.9059
G01 X92.7853 Y10.9059
G01 X91.5957 Y12.0955
G01 X91.5957 Y56.2624
G01 X96.5527 Y61.2194
G01 X98.4250 Y61.2194
G01 X98.4789 Y61.2221
G01 X98.5323 Y61.2300
G01 X98.5847 Y61.2431
G01 X98.6356 Y61.2613
G01 X98.6844 Y61.2844
G01 X98.7307 Y61.3122
G01 X98.7741 Y61.3444
G01 X98.8141 Y61.3806
G01 X98.8511 Y61.4216
G01 X98.8825 Y61.4640
G01 X98.9091 Y61.5082
G01 X98.9334 Y61.5591
G01 X98.9516 Y61.6100
G01 X98.9641 Y61.6600
G01 X98.9727 Y61.7170
G01 X98.9753 Y61.7697
G01 X98.9753 Y62.9402
G01 X98.9915 Y62.9552
G01 X99.0442 Y63.0134
G01 X99.0902 Y63.0755
G01 X99.1311 Y63.1440
G01 X99.1641 Y63.2139
G01 X99.1906 Y63.2878
G01 X99.2096 Y63.3639
G01 X99.2213 Y63.4428
G01 X99.2250 Y63.5200
G01 X99.2250 Y66.0200
G01 X99.2211 Y66.0984
G01 X99.2096 Y66.1761
G01 X99.1906 Y66.2522
G01 X99.1650 Y66.3239
G01 X99.1293 Y66.3993
G01 X99.0902 Y66.4645
G01 X99.0434 Y66.5275
G01 X98.9907 Y66.5857
G01 X98.9344 Y66.6368
G01 X98.8674 Y66.6865
G01 X98.8021 Y66.7255
G01 X98.7311 Y66.7591
G01 X98.6572 Y66.7856
G01 X98.5835 Y66.8041
G01 X98.5010 Y66.8163
G01 X98.4250 Y66.8200
G01 X98.3466 Y66.8161
G01 X98.2689 Y66.8046
G01 X98.1951 Y66.7862
G01 X98.1166 Y66.7581
G01 X98.0479 Y66.7255
G01 X97.9805 Y66.6852
G01 X97.9175 Y66.6384
G01 X97.8611 Y66.5874
G01 X97.8051 Y66.5256
G01 X97.7598 Y66.4645
G01 X97.7195 Y66.3971
G01 X97.6859 Y66.3261
G01 X97.6602 Y66.2546
G01 X97.6400 Y66.1737
G01 X97.6289 Y66.0984
G01 X97.6250 Y66.0200
G01 X97.6250 Y63.5200
G01 X97.6287 Y63.4440
G01 X97.6404 Y63.3639
G01 X97.6594 Y63.2878
G01 X97.6859 Y63.2139
G01 X97.7189 Y63.1440
G01 X97.7598 Y63.0755
G01 X97.8058 Y63.0134
G01 X97.8585 Y62.9552
G01 X97.8747 Y62.9402
G01 X97.8747 Y62.3200
G01 X96.3236 Y62.3199
G01 X96.2684 Y62.3170
G01 X96.2175 Y62.3094
G01 X96.1674 Y62.2969
G01 X96.1142 Y62.2781
G01 X96.0633 Y62.2538
G01 X96.0191 Y62.2272
G01 X95.9777 Y62.1966
G01 X95.9357 Y62.1588
G01 X93.4999 Y59.7230
G01 X79.9253 Y73.2976
G01 X79.9253 Y74.2616
G01 X79.9555 Y74.2952
G01 X79.9993 Y74.3544
G01 X80.0364 Y74.4165
G01 X80.0684 Y74.4841
G01 X80.0927 Y74.5523
G01 X80.1106 Y74.6237
G01 X80.1214 Y74.6965
G01 X80.1249 Y74.7675
G01 X80.1250 Y77.3700
G01 X80.1213 Y77.4447
G01 X80.1106 Y77.5163
G01 X80.0927 Y77.5877
G01 X80.0679 Y77.6570
G01 X80.0375 Y77.7214
G01 X79.9972 Y77.7887
G01 X79.9548 Y77.8458
G01 X79.9036 Y77.9020
G01 X79.8508 Y77.9498
G01 X79.7917 Y77.9936
G01 X79.7285 Y78.0314
G01 X79.6620 Y78.0629
G01 X79.5927 Y78.0877
G01 X79.5213 Y78.1056
G01 X79.4485 Y78.1164
G01 X79.3762 Y78.1200
G01 X79.3015 Y78.1164
G01 X79.2287 Y78.1056
G01 X79.1573 Y78.0877
G01 X79.0880 Y78.0629
G01 X79.0215 Y78.0314
G01 X78.9583 Y77.9936
G01 X78.8992 Y77.9498
G01 X78.8464 Y77.9020
G01 X78.7952 Y77.8458
G01 X78.7528 Y77.7887
G01 X78.7125 Y77.7214
G01 X78.6821 Y77.6570
G01 X78.6573 Y77.5877
G01 X78.6394 Y77.5163
G01 X78.6285 Y77.4423
G01 X78.6250 Y77.3700
G01 X78.6250 Y74.7700
G01 X78.6285 Y74.6977
G01 X78.6394 Y74.6237
G01 X78.6566 Y74.5547
G01 X78.6826 Y74.4819
G01 X78.7136 Y74.4165
G01 X78.7507 Y74.3544
G01 X78.7945 Y74.2952
G01 X78.8247 Y74.2616
G01 X78.8247 Y73.0697
G01 X78.8273 Y73.0170
G01 X78.8353 Y72.9624
G01 X78.8492 Y72.9076
G01 X78.8666 Y72.8591
G01 X78.8886 Y72.8125
G01 X78.9182 Y72.7630
G01 X78.9497 Y72.7206
G01 X78.9859 Y72.6806
G01 X92.7217 Y58.9448
G01 X90.6546 Y56.8776
G01 X90.6201 Y56.8394
G01 X90.5879 Y56.7960
G01 X90.5601 Y56.7497
G01 X90.5370 Y56.7009
G01 X90.5188 Y56.6500
G01 X90.5057 Y56.5976
G01 X90.4978 Y56.5442
G01 X90.4952 Y56.4928
G01 X90.4951 Y12.0955
G01 X89.3172 Y10.9176
G01 X69.2803 Y10.9176
G01 X66.5903 Y13.6076
G01 X66.5903 Y14.5716
G01 X66.6205 Y14.6052
G01 X66.6643 Y14.6644
G01 X66.7014 Y14.7265
G01 X66.7334 Y14.7941
G01 X66.7577 Y14.8623
G01 X66.7756 Y14.9337
G01 X66.7864 Y15.0065
G01 X66.7899 Y15.0775
G01 X66.7900 Y17.6800
G01 X66.7863 Y17.7547
G01 X66.7756 Y17.8263
G01 X66.7577 Y17.8977
G01 X66.7329 Y17.9670
G01 X66.7014 Y18.0335
G01 X66.6636 Y18.0967
G01 X66.6198 Y18.1558
G01 X66.5703 Y18.2103
G01 X66.5177 Y18.2582
G01 X66.4546 Y18.3049
G01 X66.3935 Y18.3414
G01 X66.3247 Y18.3738
G01 X66.2577 Y18.3977
G01 X66.1863 Y18.4156
G01 X66.1135 Y18.4264
G01 X66.0388 Y18.4300
G01 X65.9665 Y18.4264
G01 X65.8937 Y18.4156
G01 X65.8223 Y18.3977
G01 X65.7530 Y18.3729
G01 X65.6865 Y18.3414
G01 X65.6233 Y18.3036
G01 X65.5642 Y18.2598
G01 X65.5114 Y18.2120
G01 X65.4602 Y18.1558
G01 X65.4178 Y18.0987
G01 X65.3775 Y18.0314
G01 X65.3471 Y17.9670
G01 X65.3223 Y17.8977
G01 X65.3044 Y17.8263
G01 X65.2937 Y17.7547
G01 X65.2900 Y17.6800
G01 X65.2901 Y15.0775
G01 X65.2936 Y15.0065
G01 X65.3044 Y14.9337
G01 X65.3223 Y14.8623
G01 X65.3466 Y14.7941
G01 X65.3786 Y14.7265
G01 X65.4157 Y14.6644
G01 X65.4595 Y14.6052
G01 X65.4897 Y14.5716
G01 X65.4897 Y13.6076
G01 X62.8104 Y10.9283
G01 X26.7246 Y10.9283
G01 X24.0453 Y13.6076
G01 X24.0453 Y14.5716
G01 X24.0755 Y14.6052
G01 X24.1193 Y14.6644
G01 X24.1564 Y14.7265
G01 X24.1884 Y14.7941
G01 X24.2127 Y14.8623
G01 X24.2306 Y14.9337
G01 X24.2414 Y15.0065
G01 X24.2450 Y15.0788
G01 X24.2450 Y17.6812
G01 X24.2411 Y17.7559
G01 X24.2306 Y17.8263
G01 X24.2134 Y17.8953
G01 X24.1879 Y17.9670
G01 X24.1558 Y18.0346
G01 X24.1186 Y18.0967
G01 X24.0763 Y18.1539
G01 X24.0236 Y18.2120
G01 X23.9708 Y18.2598
G01 X23.9117 Y18.3036
G01 X23.8485 Y18.3414
G01 X23.7843 Y18.3719
G01 X23.7103 Y18.3984
G01 X23.6413 Y18.4156
G01 X23.5685 Y18.4264
G01 X23.4950 Y18.4300
G01 X23.4239 Y18.4266
G01 X23.3487 Y18.4156
G01 X23.2773 Y18.3977
G01 X23.2103 Y18.3738
G01 X23.1415 Y18.3414
G01 X23.0783 Y18.3036
G01 X23.0211 Y18.2613
G01 X22.9630 Y18.2086
G01 X22.9152 Y18.1558
G01 X22.8714 Y18.0967
G01 X22.8336 Y18.0335
G01 X22.8031 Y17.9693
G01 X22.7766 Y17.8953
G01 X22.7594 Y17.8263
G01 X22.7489 Y17.7559
G00 Z2.0000
G00 X25.2296 Y17.7648
G01 F60.00
G01 Z0.0000
G01 F120.00
G01 X25.2285 Y17.7540
G01 X25.2250 Y17.6800
G01 X25.2250 Y15.0800
G01 X25.2285 Y15.0060
G01 X25.2296 Y14.9952
G01 X25.2406 Y14.9220
G01 X25.2599 Y14.8449
G01 X25.2867 Y14.7700
G01 X25.3206 Y14.6982
G01 X25.3615 Y14.6300
G01 X25.4089 Y14.5661
G01 X25.4622 Y14.5072
G01 X25.5211 Y14.4539
G01 X25.5850 Y14.4065
G01 X25.6532 Y14.3656
G01 X25.7250 Y14.3317
G01 X25.7999 Y14.3049
G01 X25.8770 Y14.2856
G01 X25.9556 Y14.2739
G01 X26.0350 Y14.2700
G01 X26.1144 Y14.2739
G01 X26.1930 Y14.2856
G01 X26.2701 Y14.3049
G01 X26.3399 Y14.3297
G01 X26.3499 Y14.3338
G01 X26.4168 Y14.3656
G01 X26.4850 Y14.4065
G01 X26.5446 Y14.4505
G01 X26.5529 Y14.4574
G01 X26.6078 Y14.5072
G01 X26.6576 Y14.5621
G01 X26.6645 Y14.5704
G01 X26.7054 Y14.6256
G01 X26.7114 Y14.6345
G01 X26.7494 Y14.6982
G01 X26.7812 Y14.7651
G01 X26.7853 Y14.7751
G01 X26.8101 Y14.8449
G01 X26.8283 Y14.9167
G01 X26.8304 Y14.9273
G01 X26.8411 Y15.0006
G01 X26.8450 Y15.0800
G01 X26.8450 Y17.6800
G01 X26.8415 Y17.7540
G01 X26.8404 Y17.7648
G01 X26.8294 Y17.8380
G01 X26.8101 Y17.9151
G01 X26.7833 Y17.9900
G01 X26.7518 Y18.0570
G01 X26.7467 Y18.0665
G01 X26.7114 Y18.1255
G01 X26.7054 Y18.1344
G01 X26.6611 Y18.1939
G01 X26.6078 Y18.2528
G01 X26.5489 Y18.3061
G01 X26.4850 Y18.3535
G01 X26.4168 Y18.3944
G01 X26.3450 Y18.4283
G01 X26.2701 Y18.4551
G01 X26.1983 Y18.4733
G01 X26.1877 Y18.4754
G01 X26.1198 Y18.4854
G01 X26.1090 Y18.4865
G01 X26.0350 Y18.4900
G01 X25.9556 Y18.4861
G01 X25.8770 Y18.4744
G01 X25.8051 Y18.4566
G01 X25.7947 Y18.4534
G01 X25.7301 Y18.4303
G01 X25.7201 Y18.4262
G01 X25.6532 Y18.3944
G01 X25.5850 Y18.3535
G01 X25.5211 Y18.3061
G01 X25.4622 Y18.2528
G01 X25.4089 Y18.1939
G01 X25.3646 Y18.1344
G01 X25.3586 Y18.1255
G01 X25.3233 Y18.0665
G01 X25.3182 Y18.0570
G01 X25.2867 Y17.9900
G01 X25.2599 Y17.9151
G01 X25.2406 Y17.8380
G01 X25.2296 Y17.7648
G00 Z2.0000
G00 X25.2889 Y17.7559
G01 F60.00
G01 Z0.0000
G01 F120.00
G01 X25.2850 Y17.6800
G01 X25.2850 Y15.0800
G01 X25.2889 Y15.0041
G01 X25.2994 Y14.9337
G01 X25.3170 Y14.8635
G01 X25.3421 Y14.7930
G01 X25.3736 Y14.7265
G01 X25.4114 Y14.6633
G01 X25.4552 Y14.6042
G01 X25.5047 Y14.5497
G01 X25.5592 Y14.5002
G01 X25.6183 Y14.4564
G01 X25.6815 Y14.4186
G01 X25.7480 Y14.3871
G01 X25.8173 Y14.3623
G01 X25.8887 Y14.3444
G01 X25.9615 Y14.3336
G01 X26.0350 Y14.3300
G01 X26.1085 Y14.3336
G01 X26.1813 Y14.3444
G01 X26.2515 Y14.3620
G01 X26.3243 Y14.3881
G01 X26.3885 Y14.4186
G01 X26.4517 Y14.4564
G01 X26.5108 Y14.5002
G01 X26.5636 Y14.5480
G01 X26.6148 Y14.6042
G01 X26.6599 Y14.6654
G01 X26.6964 Y14.7265
G01 X26.7279 Y14.7930
G01 X26.7534 Y14.8647
G01 X26.7706 Y14.9337
G01 X26.7811 Y15.0041
G01 X26.7850 Y15.0800
G01 X26.7850 Y17.6800
G01 X26.7811 Y17.7559
G01 X26.7706 Y17.8263
G01 X26.7530 Y17.8965
G01 X26.7279 Y17.9670
G01 X26.6975 Y18.0314
G01 X26.6572 Y18.0987
G01 X26.6148 Y18.1558
G01 X26.5653 Y18.2103
G01 X26.5108 Y18.2598
G01 X26.4517 Y18.3036
G01 X26.3885 Y18.3414
G01 X26.3220 Y18.3729
G01 X26.2527 Y18.3977
G01 X26.1837 Y18.4151
G01 X26.1061 Y18.4266
G01 X26.0350 Y18.4300
G01 X25.9615 Y18.4264
G01 X25.8887 Y18.4156
G01 X25.8197 Y18.3984
G01 X25.7457 Y18.3719
G01 X25.6815 Y18.3414
G01 X25.6183 Y18.3036
G01 X25.5592 Y18.2598
G01 X25.5047 Y18.2103
G01 X25.4552 Y18.1558
G01 X25.4128 Y18.0987
G01 X25.3725 Y18.0314
G01 X25.3421 Y17.9670
G01 X25.3173 Y17.8977
G01 X25.2994 Y17.8263
G01 X25.2889 Y17.7559
G00 Z2.0000
G00 X27.7696 Y17.7648
G01 F60.00
G01 Z0.0000
G01 F120.00
G01 X27.7685 Y17.7540
G01 X27.7650 Y17.6800
G01 X27.7650 Y15.0800
G01 X27.7685 Y15.0060
G01 X27.7696 Y14.9952
G01 X27.7806 Y14.9220
G01 X27.7999 Y14.8449
G01 X27.8267 Y14.7700
G01 X27.8606 Y14.6982
G01 X27.9015 Y14.6300
G01 X27.9489 Y14.5661
G01 X28.0022 Y14.5072
G01 X28.0611 Y14.4539
G01 X28.1250 Y14.4065
G01 X28.1932 Y14.3656
G01 X28.2650 Y14.3317
G01 X28.3399 Y14.3049
G01 X28.4170 Y14.2856
G01 X28.4956 Y14.2739
G01 X28.5750 Y14.2700
G01 X28.6544 Y14.2739
G01 X28.7330 Y14.2856
G01 X28.8101 Y14.3049
G01 X28.8799 Y14.3297
G01 X28.8899 Y14.3338
G01 X28.9568 Y14.3656
G01 X29.0250 Y14.4065
G01 X29.0846 Y14.4505
G01 X29.0929 Y14.4574
G01 X29.1478 Y14.5072
G01 X29.1976 Y14.5621
G01 X29.2045 Y14.5704
G01 X29.2454 Y14.6256
G01 X29.2514 Y14.6345
G01 X29.2894 Y14.6982
G01 X29.3212 Y14.7651
G01 X29.3253 Y14.7751
G01 X29.3501 Y14.8449
G01 X29.3683 Y14.9167
G01 X29.3704 Y14.9273
G01 X29.3811 Y15.0006
G01 X29.3850 Y15.0800
G01 X29.3850 Y17.6800
G01 X29.3815 Y17.7540
G01 X29.3804 Y17.7648
G01 X29.3694 Y17.8380
G01 X29.3501 Y17.9151
G01 X29.3233 Y17.9900
G01 X29.2918 Y18.0570
G01 X29.2867 Y18.0665
G01 X29.2514 Y18.1255
G01 X29.2454 Y18.1344
G01 X29.2011 Y18.1939
G01 X29.1478 Y18.2528
G01 X29.0889 Y18.3061
G01 X29.0250 Y18.3535
G01 X28.9568 Y18.3944
G01 X28.8850 Y18.4283
G01 X28.8101 Y18.4551
G01 X28.7383 Y18.4733
G01 X28.7277 Y18.4754
G01 X28.6598 Y18.4854
G01 X28.6490 Y18.4865
G01 X28.5750 Y18.4900
G01 X28.4956 Y18.4861
G01 X28.4170 Y18.4744
G01 X28.3451 Y18.4566
G01 X28.3347 Y18.4534
G01 X28.2701 Y18.4303
G01 X28.2601 Y18.4262
G01 X28.1932 Y18.3944
G01 X28.1250 Y18.3535
G01 X28.0611 Y18.3061
G01 X28.0022 Y18.2528
G01 X27.9489 Y18.1939
G01 X27.9046 Y18.1344
G01 X27.8986 Y18.1255
G01 X27.8633 Y18.0665
G01 X27.8582 Y18.0570
G01 X27.8267 Y17.9900
G01 X27.7999 Y17.9151
G01 X27.7806 Y17.8380
G01 X27.7696 Y17.7648
G00 Z2.0000
G00 X27.8289 Y17.7559
G01 F60.00
G01 Z0.0000
G01 F120.00
G01 X27.8250 Y17.6800
G01 X27.8250 Y15.0800
G01 X27.8289 Y15.0041
G01 X27.8394 Y14.9337
G01 X27.8570 Y14.8635
G01 X27.8821 Y14.7930
G01 X27.9136 Y14.7265
G01 X27.9514 Y14.6633
G01 X27.9952 Y14.6042
G01 X28.0447 Y14.5497
G01 X28.0992 Y14.5002
G01 X28.1583 Y14.4564
G01 X28.2215 Y14.4186
G01 X28.2880 Y14.3871
G01 X28.3573 Y14.3623
G01 X28.4287 Y14.3444
G01 X28.5015 Y14.3336
G01 X28.5750 Y14.3300
G01 X28.6485 Y14.3336
G01 X28.7213 Y14.3444
G01 X28.7915 Y14.3620
G01 X28.8643 Y14.3881
G01 X28.9285 Y14.4186
G01 X28.9917 Y14.4564
G01 X29.0508 Y14.5002
G01 X29.1036 Y14.5480
G01 X29.1548 Y14.6042
G01 X29.1999 Y14.6654
G01 X29.2364 Y14.7265
G01 X29.2679 Y14.7930
G01 X29.2934 Y14.8647
G01 X29.3106 Y14.9337
G01 X29.3211 Y15.0041
G01 X29.3250 Y15.0800
G01 X29.3250 Y17.6800
G01 X29.3211 Y17.7559
G01 X29.3106 Y17.8263
G01 X29.2930 Y17.8965
G01 X29.2679 Y17.9670
G01 X29.2375 Y18.0314
G01 X29.1972 Y18.0987
G01 X29.1548 Y18.1558
G01 X29.1053 Y18.2103
G01 X29.0508 Y18.2598
G01 X28.9917 Y18.3036
G01 X28.9285 Y18.3414
G01 X28.8620 Y18.3729
G01 X28.7927 Y18.3977
G01 X28.7237 Y18.4151
G01 X28.6461 Y18.4266
G01 X28.5750 Y18.4300
G01 X28.5015 Y18.4264
G01 X28.4287 Y18.4156
G01 X28.3597 Y18.3984
G01 X28.2857 Y18.3719
G01 X28.2215 Y18.3414
G01 X28.1583 Y18.3036
G01 X28.0992 Y18.2598
G01 X28.0447 Y18.2103
G01 X27.9952 Y18.1558
G01 X27.9528 Y18.0987
G01 X27.9125 Y18.0314
G01 X27.8821 Y17.9670
G01 X27.8573 Y17.8977
G01 X27.8394 Y17.8263
G01 X27.8289 Y17.7559
G00 Z2.0000
G00 X30.3096 Y17.7648
G01 F60.00
G01 Z0.0000
G01 F120.00
G01 X30.3085 Y17.7540
G01 X30.3050 Y17.6800
G01 X30.3051 Y15.0746
G01 X30.3089 Y15.0006
G01 X30.3206 Y14.9220
G01 X30.3399 Y14.8449
G01 X30.3657 Y14.7725
G01 X30.3688 Y14.7651
G01 X30.4006 Y14.6982
G01 X30.4400 Y14.6323
G01 X30.4446 Y14.6256
G01 X30.4872 Y14.5682
G01 X30.5047 Y14.5484
G01 X30.5048 Y13.3770
G01 X30.5077 Y13.3199
G01 X30.5156 Y13.2660
G01 X30.5177 Y13.2554
G01 X30.5296 Y13.2078
G01 X30.5327 Y13.1974
G01 X30.5493 Y13.1512
G01 X30.5534 Y13.1412
G01 X30.5768 Y13.0920
G01 X30.6047 Y13.0452
G01 X30.6107 Y13.0362
G01 X30.6433 Y12.9926
G01 X30.6816 Y12.9501
G01 X32.1867 Y11.4450
G01 X32.2292 Y11.4067
G01 X32.2728 Y11.3741
G01 X32.2818 Y11.3681
G01 X32.3239 Y11.3429
G01 X32.3335 Y11.3378
G01 X32.3828 Y11.3146
G01 X32.4392 Y11.2944
G01 X32.4972 Y11.2799
G01 X32.5538 Y11.2714
G01 X32.5619 Y11.2707
G01 X32.6163 Y11.2681
G01 X37.5306 Y11.2682
G01 X37.5823 Y11.2707
G01 X37.5931 Y11.2717
G01 X37.6470 Y11.2799
G01 X37.6998 Y11.2930
G01 X37.7102 Y11.2961
G01 X37.7614 Y11.3146
G01 X37.8132 Y11.3390
G01 X37.8203 Y11.3429
G01 X37.8624 Y11.3681
G01 X37.8714 Y11.3741
G01 X37.9150 Y11.4067
G01 X37.9594 Y11.4469
G01 X42.4307 Y15.9182
G01 X42.4709 Y15.9626
G01 X42.5035 Y16.0062
G01 X42.5095 Y16.0152
G01 X42.5374 Y16.0620
G01 X42.5630 Y16.1162
G01 X42.5815 Y16.1674
G01 X42.5846 Y16.1778
G01 X42.5965 Y16.2254
G01 X42.5982 Y16.2333
G01 X42.6065 Y16.2899
G01 X42.6095 Y16.3497
G01 X42.6095 Y41.9955
G01 X42.6065 Y42.0553
G01 X42.5982 Y42.1119
G01 X42.5965 Y42.1198
G01 X42.5846 Y42.1674
G01 X42.5815 Y42.1778
G01 X42.5630 Y42.2290
G01 X42.5374 Y42.2832
G01 X42.5095 Y42.3300
G01 X42.5035 Y42.3390
G01 X42.4709 Y42.3826
G01 X42.4326 Y42.4251
G01 X36.8053 Y48.0525
G01 X36.8053 Y48.9441
G01 X36.8598 Y49.0044
G01 X36.9101 Y49.0722
G01 X36.9535 Y49.1446
G01 X36.9873 Y49.2160
G01 X36.9915 Y49.2259
G01 X37.0163 Y49.2952
G01 X37.0194 Y49.3056
G01 X37.0385 Y49.3822
G01 X37.0502 Y49.4603
G01 X37.0513 Y49.4711
G01 X37.0550 Y49.5500
G01 X37.0550 Y52.0500
G01 X37.0509 Y52.1343
G01 X37.0385 Y52.2178
G01 X37.0194 Y52.2944
G01 X37.0163 Y52.3048
G01 X36.9915 Y52.3741
G01 X36.9873 Y52.3840
G01 X36.9535 Y52.4554
G01 X36.9101 Y52.5278
G01 X36.8598 Y52.5956
G01 X36.8068 Y52.6542
G01 X36.7992 Y52.6618
G01 X36.7447 Y52.7113
G01 X36.7363 Y52.7181
G01 X36.6728 Y52.7651
G01 X36.6004 Y52.8085
G01 X36.5241 Y52.8445
G01 X36.4498 Y52.8713
G01 X36.4394 Y52.8744
G01 X36.3680 Y52.8923
G01 X36.3601 Y52.8940
G01 X36.2793 Y52.9059
G01 X36.1950 Y52.9100
G01 X36.1107 Y52.9059
G01 X36.0272 Y52.8935
G01 X35.9454 Y52.8730
G01 X35.8659 Y52.8445
G01 X35.7896 Y52.8085
G01 X35.7218 Y52.7680
G01 X35.7128 Y52.7620
G01 X35.6494 Y52.7148
G01 X35.5908 Y52.6618
G01 X35.5832 Y52.6542
G01 X35.5337 Y52.5997
G01 X35.5269 Y52.5913
G01 X35.4799 Y52.5278
G01 X35.4392 Y52.4601
G01 X35.4341 Y52.4506
G01 X35.4005 Y52.3791
G01 X35.3720 Y52.2996
G01 X35.3515 Y52.2178
G01 X35.3398 Y52.1397
G01 X35.3387 Y52.1289
G01 X35.3350 Y52.0500
G01 X35.3350 Y49.5500
G01 X35.3389 Y49.4684
G01 X35.3398 Y49.4603
G01 X35.3515 Y49.3822
G01 X35.3706 Y49.3056
G01 X35.3737 Y49.2952
G01 X35.3985 Y49.2259
G01 X35.4027 Y49.2160
G01 X35.4365 Y49.1446
G01 X35.4799 Y49.0722
G01 X35.5302 Y49.0044
G01 X35.5847 Y48.9441
G01 X35.5848 Y47.7970
G01 X35.5877 Y47.7399
G01 X35.5965 Y47.6806
G01 X35.6110 Y47.6226
G01 X35.6293 Y47.5712
G01 X35.6323 Y47.5637
G01 X35.6568 Y47.5120
G01 X35.6876 Y47.4607
G01 X35.7233 Y47.4126
G01 X35.7635 Y47.3682
G01 X41.3889 Y41.7427
G01 X41.3889 Y16.6025
G01 X37.2751 Y12.4887
G01 X32.8691 Y12.4887
G01 X31.7253 Y13.6325
G01 X31.7253 Y14.5484
G01 X31.7428 Y14.5682
G01 X31.7854 Y14.6256
G01 X31.7900 Y14.6323
G01 X31.8294 Y14.6982
G01 X31.8612 Y14.7651
G01 X31.8643 Y14.7725
G01 X31.8901 Y14.8449
G01 X31.9094 Y14.9220
G01 X31.9211 Y15.0006
G01 X31.9250 Y15.0773
G01 X31.9250 Y17.6827
G01 X31.9211 Y17.7594
G01 X31.9104 Y17.8327
G01 X31.9083 Y17.8433
G01 X31.8901 Y17.9151
G01 X31.8653 Y17.9849
G01 X31.8612 Y17.9949
G01 X31.8318 Y18.0570
G01 X31.8267 Y18.0665
G01 X31.7914 Y18.1255
G01 X31.7854 Y18.1344
G01 X31.7411 Y18.1939
G01 X31.6878 Y18.2528
G01 X31.6289 Y18.3061
G01 X31.5694 Y18.3504
G01 X31.5605 Y18.3564
G01 X31.5015 Y18.3917
G01 X31.4920 Y18.3968
G01 X31.4250 Y18.4283
G01 X31.3501 Y18.4551
G01 X31.2730 Y18.4744
G01 X31.1998 Y18.4854
G01 X31.1890 Y18.4865
G01 X31.1204 Y18.4899
G01 X31.1096 Y18.4899
G01 X31.0356 Y18.4861
G01 X30.9570 Y18.4744
G01 X30.8799 Y18.4551
G01 X30.8101 Y18.4303
G01 X30.8001 Y18.4262
G01 X30.7332 Y18.3944
G01 X30.6650 Y18.3535
G01 X30.6054 Y18.3095
G01 X30.5971 Y18.3026
G01 X30.5462 Y18.2565
G01 X30.5385 Y18.2488
G01 X30.4889 Y18.1939
G01 X30.4415 Y18.1300
G01 X30.4006 Y18.0618
G01 X30.3688 Y17.9949
G01 X30.3647 Y17.9849
G01 X30.3416 Y17.9203
G01 X30.3384 Y17.9099
G01 X30.3206 Y17.8380
G01 X30.3096 Y17.7648
G00 Z2.0000
G00 X30.3689 Y17.7559
G01 F60.00
G01 Z0.0000
G01 F120.00
G01 X30.3650 Y17.6800
G01 X30.3651 Y15.0775
G01 X30.3686 Y15.0065
G01 X30.3794 Y14.9337
G01 X30.3973 Y14.8623
G01 X30.4216 Y14.7941
G01 X30.4536 Y14.7265
G01 X30.4907 Y14.6644
G01 X30.5345 Y14.6052
G01 X30.5647 Y14.5716
G01 X30.5648 Y13.3785
G01 X30.5674 Y13.3258
G01 X30.5749 Y13.2748
G01 X30.5888 Y13.2188
G01 X30.6066 Y13.1691
G01 X30.6309 Y13.1182
G01 X30.6575 Y13.0740
G01 X30.6881 Y13.0326
G01 X30.7251 Y12.9915
G01 X32.2281 Y11.4885
G01 X32.2672 Y11.4531
G01 X32.3086 Y11.4223
G01 X32.3591 Y11.3920
G01 X32.4057 Y11.3700
G01 X32.4566 Y11.3518
G01 X32.5090 Y11.3387
G01 X32.5611 Y11.3309
G01 X32.6163 Y11.3281
G01 X37.5279 Y11.3281
G01 X37.5818 Y11.3308
G01 X37.6376 Y11.3393
G01 X37.6876 Y11.3518
G01 X37.7362 Y11.3692
G01 X37.7862 Y11.3926
G01 X37.8356 Y11.4223
G01 X37.8770 Y11.4531
G01 X37.9170 Y11.4893
G01 X42.3883 Y15.9606
G01 X42.4245 Y16.0006
G01 X42.4553 Y16.0420
G01 X42.4845 Y16.0903
G01 X42.5076 Y16.1391
G01 X42.5250 Y16.1876
G01 X42.5391 Y16.2436
G01 X42.5468 Y16.2958
G01 X42.5495 Y16.3497
G01 X42.5495 Y41.9955
G01 X42.5468 Y42.0494
G01 X42.5391 Y42.1016
G01 X42.5250 Y42.1576
G01 X42.5076 Y42.2061
G01 X42.4845 Y42.2549
G01 X42.4553 Y42.3032
G01 X42.4245 Y42.3446
G01 X42.3883 Y42.3846
G01 X36.7453 Y48.0276
G01 X36.7453 Y48.9702
G01 X36.7615 Y48.9852
G01 X36.8142 Y49.0434
G01 X36.8602 Y49.1055
G01 X36.9011 Y49.1740
G01 X36.9341 Y49.2439
G01 X36.9606 Y49.3178
G01 X36.9796 Y49.3939
G01 X36.9913 Y49.4740
G01 X36.9950 Y49.5500
G01 X36.9950 Y52.0500
G01 X36.9913 Y52.1272
G01 X36.9796 Y52.2061
G01 X36.9612 Y52.2799
G01 X36.9331 Y52.3584
G01 X36.9005 Y52.4271
G01 X36.8602 Y52.4945
G01 X36.8134 Y52.5575
G01 X36.7624 Y52.6139
G01 X36.7006 Y52.6699
G01 X36.6395 Y52.7152
G01 X36.5721 Y52.7555
G01 X36.5011 Y52.7891
G01 X36.4296 Y52.8148
G01 X36.3499 Y52.8349
G01 X36.2734 Y52.8461
G01 X36.1950 Y52.8500
G01 X36.1166 Y52.8461
G01 X36.0389 Y52.8346
G01 X35.9628 Y52.8156
G01 X35.8889 Y52.7891
G01 X35.8179 Y52.7555
G01 X35.7485 Y52.7138
G01 X35.6875 Y52.6684
G01 X35.6276 Y52.6139
G01 X35.5751 Y52.5556
G01 X35.5298 Y52.4945
G01 X35.4907 Y52.4293
G01 X35.4559 Y52.3561
G01 X35.4294 Y52.2822
G01 X35.4104 Y52.2061
G01 X35.3990 Y52.1296
G01 X35.3950 Y52.0500
G01 X35.3950 Y49.5500
G01 X35.3987 Y49.4728
G01 X35.4104 Y49.3939
G01 X35.4294 Y49.3178
G01 X35.4559 Y49.2439
G01 X35.4889 Y49.1740
G01 X35.5298 Y49.1055
G01 X35.5758 Y49.0434
G01 X35.6285 Y48.9852
G01 X35.6447 Y48.9702
G01 X35.6448 Y47.7985
G01 X35.6474 Y47.7458
G01 X35.6553 Y47.6924
G01 X35.6684 Y47.6400
G01 X35.6876 Y47.5869
G01 X35.7097 Y47.5403
G01 X35.7375 Y47.4940
G01 X35.7697 Y47.4506
G01 X35.8059 Y47.4106
G01 X41.4489 Y41.7676
G01 X41.4489 Y16.5776
G01 X37.3000 Y12.4287
G01 X32.8442 Y12.4287
G01 X31.6653 Y13.6076
G01 X31.6653 Y14.5716
G01 X31.6955 Y14.6052
G01 X31.7393 Y14.6644
G01 X31.7764 Y14.7265
G01 X31.8084 Y14.7941
G01 X31.8327 Y14.8623
G01 X31.8506 Y14.9337
G01 X31.8614 Y15.0065
G01 X31.8650 Y15.0788
G01 X31.8650 Y17.6812
G01 X31.8614 Y17.7535
G01 X31.8506 Y17.8263
G01 X31.8327 Y17.8977
G01 X31.8069 Y17.9693
G01 X31.7764 Y18.0335
G01 X31.7386 Y18.0967
G01 X31.6948 Y18.1558
G01 X31.6470 Y18.2086
G01 X31.5889 Y18.2613
G01 X31.5317 Y18.3036
G01 X31.4707 Y18.3402
G01 X31.3997 Y18.3738
G01 X31.3327 Y18.3977
G01 X31.2613 Y18.4156
G01 X31.1885 Y18.4264
G01 X31.1175 Y18.4299
G01 X31.0391 Y18.4261
G01 X30.9687 Y18.4156
G01 X30.8973 Y18.3977
G01 X30.8280 Y18.3729
G01 X30.7636 Y18.3425
G01 X30.6963 Y18.3022
G01 X30.6392 Y18.2598
G01 X30.5847 Y18.2103
G01 X30.5352 Y18.1558
G01 X30.4928 Y18.0987
G01 X30.4525 Y18.0314
G01 X30.4221 Y17.9670
G01 X30.3973 Y17.8977
G01 X30.3794 Y17.8263
G01 X30.3689 Y17.7559
G00 Z2.0000
G00 X32.8496 Y23.1048
G01 F60.00
G01 Z0.0000
G01 F120.00
G01 X32.8485 Y23.0940
G01 X32.8450 Y23.0200
G01 X32.8450 Y20.4200
G01 X32.8485 Y20.3460
G01 X32.8496 Y20.3352
G01 X32.8606 Y20.2620
G01 X32.8799 Y20.1849
G01 X32.9067 Y20.1100
G01 X32.9406 Y20.0382
G01 X32.9815 Y19.9700
G01 X33.0289 Y19.9061
G01 X33.0822 Y19.8472
G01 X33.1411 Y19.7939
G01 X33.2050 Y19.7465
G01 X33.2732 Y19.7056
G01 X33.3450 Y19.6717
G01 X33.4199 Y19.6449
G01 X33.4970 Y19.6256
G01 X33.5756 Y19.6139
G01 X33.6550 Y19.6100
G01 X33.7344 Y19.6139
G01 X33.8130 Y19.6256
G01 X33.8901 Y19.6449
G01 X33.9599 Y19.6697
G01 X33.9699 Y19.6738
G01 X34.0368 Y19.7056
G01 X34.1050 Y19.7465
G01 X34.1646 Y19.7905
G01 X34.1729 Y19.7974
G01 X34.2278 Y19.8472
G01 X34.2776 Y19.9021
G01 X34.2845 Y19.9104
G01 X34.3254 Y19.9656
G01 X34.3314 Y19.9745
G01 X34.3694 Y20.0382
G01 X34.4012 Y20.1051
G01 X34.4053 Y20.1151
G01 X34.4301 Y20.1849
G01 X34.4483 Y20.2567
G01 X34.4504 Y20.2673
G01 X34.4611 Y20.3406
G01 X34.4650 Y20.4200
G01 X34.4650 Y23.0200
G01 X34.4615 Y23.0940
G01 X34.4604 Y23.1048
G01 X34.4494 Y23.1780
G01 X34.4301 Y23.2551
G01 X34.4033 Y23.3300
G01 X34.3718 Y23.3970
G01 X34.3667 Y23.4065
G01 X34.3314 Y23.4655
G01 X34.3254 Y23.4744
G01 X34.2811 Y23.5339
G01 X34.2278 Y23.5928
G01 X34.1689 Y23.6461
G01 X34.1050 Y23.6935
G01 X34.0368 Y23.7344
G01 X33.9699 Y23.7662
G01 X33.9599 Y23.7703
G01 X33.8953 Y23.7934
G01 X33.8849 Y23.7966
G01 X33.8130 Y23.8144
G01 X33.7344 Y23.8261
G01 X33.6550 Y23.8300
G01 X33.5756 Y23.8261
G01 X33.4970 Y23.8144
G01 X33.4251 Y23.7966
G01 X33.4147 Y23.7934
G01 X33.3501 Y23.7703
G01 X33.3401 Y23.7662
G01 X33.2732 Y23.7344
G01 X33.2050 Y23.6935
G01 X33.1411 Y23.6461
G01 X33.0822 Y23.5928
G01 X33.0289 Y23.5339
G01 X32.9846 Y23.4744
G01 X32.9786 Y23.4655
G01 X32.9433 Y23.4065
G01 X32.9382 Y23.3970
G01 X32.9067 Y23.3300
G01 X32.8799 Y23.2551
G01 X32.8606 Y23.1780
G01 X32.8496 Y23.1048
G00 Z2.0000
G00 X32.9089 Y23.0959
G01 F60.00
G01 Z0.0000
G01 F120.00
G01 X32.9050 Y23.0200
G01 X32.9050 Y20.4200
G01 X32.9089 Y20.3441
G01 X32.9194 Y20.2737
G01 X32.9370 Y20.2035
G01 X32.9621 Y20.1330
G01 X32.9936 Y20.0665
G01 X33.0314 Y20.0033
G01 X33.0752 Y19.9442
G01 X33.1247 Y19.8897
G01 X33.1792 Y19.8402
G01 X33.2383 Y19.7964
G01 X33.3015 Y19.7586
G01 X33.3680 Y19.7271
G01 X33.4373 Y19.7023
G01 X33.5087 Y19.6844
G01 X33.5815 Y19.6736
G01 X33.6550 Y19.6700
G01 X33.7285 Y19.6736
G01 X33.8013 Y19.6844
G01 X33.8715 Y19.7020
G01 X33.9443 Y19.7281
G01 X34.0085 Y19.7586
G01 X34.0717 Y19.7964
G01 X34.1308 Y19.8402
G01 X34.1836 Y19.8880
G01 X34.2348 Y19.9442
G01 X34.2799 Y20.0054
G01 X34.3164 Y20.0665
G01 X34.3479 Y20.1330
G01 X34.3734 Y20.2047
G01 X34.3906 Y20.2737
G01 X34.4011 Y20.3441
G01 X34.4050 Y20.4200
G01 X34.4050 Y23.0200
G01 X34.4011 Y23.0959
G01 X34.3906 Y23.1663
G01 X34.3730 Y23.2365
G01 X34.3479 Y23.3070
G01 X34.3175 Y23.3714
G01 X34.2772 Y23.4387
G01 X34.2348 Y23.4958
G01 X34.1853 Y23.5503
G01 X34.1308 Y23.5998
G01 X34.0717 Y23.6436
G01 X34.0085 Y23.6814
G01 X33.9443 Y23.7119
G01 X33.8703 Y23.7384
G01 X33.8013 Y23.7556
G01 X33.7285 Y23.7664
G01 X33.6550 Y23.7700
G01 X33.5815 Y23.7664
G01 X33.5087 Y23.7556
G01 X33.4397 Y23.7384
G01 X33.3657 Y23.7119
G01 X33.3015 Y23.6814
G01 X33.2383 Y23.6436
G01 X33.1792 Y23.5998
G01 X33.1247 Y23.5503
G01 X33.0752 Y23.4958
G01 X33.0328 Y23.4387
G01 X32.9925 Y23.3714
G01 X32.9621 Y23.3070
G01 X32.9373 Y23.2377
G01 X32.9194 Y23.1663
G01 X32.9089 Y23.0959
G00 Z2.0000
G00 X35.3896 Y23.1048
G01 F60.00
G01 Z0.0000
G01 F120.00
G01 X35.3885 Y23.0940
G01 X35.3850 Y23.0200
G01 X35.3850 Y20.4200
G01 X35.3885 Y20.3460
G01 X35.3896 Y20.3352
G01 X35.4006 Y20.2620
G01 X35.4199 Y20.1849
G01 X35.4467 Y20.1100
G01 X35.4806 Y20.0382
G01 X35.5215 Y19.9700
G01 X35.5689 Y19.9061
G01 X35.6222 Y19.8472
G01 X35.6811 Y19.7939
G01 X35.7450 Y19.7465
G01 X35.8132 Y19.7056
G01 X35.8850 Y19.6717
G01 X35.9599 Y19.6449
G01 X36.0370 Y19.6256
G01 X36.1156 Y19.6139
G01 X36.1950 Y19.6100
G01 X36.2744 Y19.6139
G01 X36.3530 Y19.6256
G01 X36.4301 Y19.6449
G01 X36.4999 Y19.6697
G01 X36.5099 Y19.6738
G01 X36.5768 Y19.7056
G01 X36.6450 Y19.7465
G01 X36.7046 Y19.7905
G01 X36.7129 Y19.7974
G01 X36.7678 Y19.8472
G01 X36.8176 Y19.9021
G01 X36.8245 Y19.9104
G01 X36.8654 Y19.9656
G01 X36.8714 Y19.9745
G01 X36.9094 Y20.0382
G01 X36.9412 Y20.1051
G01 X36.9453 Y20.1151
G01 X36.9701 Y20.1849
G01 X36.9883 Y20.2567
G01 X36.9904 Y20.2673
G01 X37.0011 Y20.3406
G01 X37.0050 Y20.4200
G01 X37.0050 Y23.0200
G01 X37.0015 Y23.0940
G01 X37.0004 Y23.1048
G01 X36.9894 Y23.1780
G01 X36.9701 Y23.2551
G01 X36.9433 Y23.3300
G01 X36.9118 Y23.3970
G01 X36.9067 Y23.4065
G01 X36.8714 Y23.4655
G01 X36.8654 Y23.4744
G01 X36.8211 Y23.5339
G01 X36.7678 Y23.5928
G01 X36.7089 Y23.6461
G01 X36.6450 Y23.6935
G01 X36.5768 Y23.7344
G01 X36.5099 Y23.7662
G01 X36.4999 Y23.7703
G01 X36.4353 Y23.7934
G01 X36.4249 Y23.7966
G01 X36.3530 Y23.8144
G01 X36.2744 Y23.8261
G01 X36.1950 Y23.8300
G01 X36.1156 Y23.8261
G01 X36.0370 Y23.8144
G01 X35.9651 Y23.7966
G01 X35.9547 Y23.7934
G01 X35.8901 Y23.7703
G01 X35.8801 Y23.7662
G01 X35.8132 Y23.7344
G01 X35.7450 Y23.6935
G01 X35.6811 Y23.6461
G01 X35.6222 Y23.5928
G01 X35.5689 Y23.5339
G01 X35.5246 Y23.4744
G01 X35.5186 Y23.4655
G01 X35.4833 Y23.4065
G01 X35.4782 Y23.3970
G01 X35.4467 Y23.3300
G01 X35.4199 Y23.2551
G01 X35.4006 Y23.1780
G01 X35.3896 Y23.1048
G00 Z2.0000
G00 X35.4489 Y23.0959
G01 F60.00
G01 Z0.0000
G01 F120.00
G01 X35.4450 Y23.0200
G01 X35.4450 Y20.4200
G01 X35.4489 Y20.3441
G01 X35.4594 Y20.2737
G01 X35.4770 Y20.2035
G01 X35.5021 Y20.1330
G01 X35.5336 Y20.0665
G01 X35.5714 Y20.0033
G01 X35.6152 Y19.9442
G01 X35.6647 Y19.8897
G01 X35.7192 Y19.8402
G01 X35.7783 Y19.7964
G01 X35.8415 Y19.7586
G01 X35.9080 Y19.7271
G01 X35.9773 Y19.7023
G01 X36.0487 Y19.6844
G01 X36.1215 Y19.6736
G01 X36.1950 Y19.6700
G01 X36.2685 Y19.6736
G01 X36.3413 Y19.6844
G01 X36.4115 Y19.7020
G01 X36.4843 Y19.7281
G01 X36.5485 Y19.7586
G01 X36.6117 Y19.7964
G01 X36.6708 Y19.8402
G01 X36.7236 Y19.8880
G01 X36.7748 Y19.9442
G01 X36.8199 Y20.0054
G01 X36.8564 Y20.0665
G01 X36.8879 Y20.1330
G01 X36.9134 Y20.2047
G01 X36.9306 Y20.2737
G01 X36.9411 Y20.3441
G01 X36.9450 Y20.4200
G01 X36.9450 Y23.0200
G01 X36.9411 Y23.0959
G01 X36.9306 Y23.1663
G01 X36.9130 Y23.2365
G01 X36.8879 Y23.3070
G01 X36.8575 Y23.3714
G01 X36.8172 Y23.4387
G01 X36.7748 Y23.4958
G01 X36.7253 Y23.5503
G01 X36.6708 Y23.5998
G01 X36.6117 Y23.6436
G01 X36.5485 Y23.6814
G01 X36.4843 Y23.7119
G01 X36.4103 Y23.7384
G01 X36.3413 Y23.7556
G01 X36.2685 Y23.7664
G01 X36.1950 Y23.7700
G01 X36.1215 Y23.7664
G01 X36.0487 Y23.7556
G01 X35.9797 Y23.7384
G01 X35.9057 Y23.7119
G01 X35.8415 Y23.6814
G01 X35.7783 Y23.6436
G01 X35.7192 Y23.5998
G01 X35.6647 Y23.5503
G01 X35.6152 Y23.4958
G01 X35.5728 Y23.4387
G01 X35.5325 Y23.3714
G01 X35.5021 Y23.3070
G01 X35.4773 Y23.2377
G01 X35.4594 Y23.1663
G01 X35.4489 Y23.0959
G00 Z2.0000
G00 X27.8289 Y23.0959
G01 F60.00
G01 Z0.0000
G01 F120.00
G01 X27.8250 Y23.0200
G01 X27.8250 Y20.4200
G01 X27.8289 Y20.3441
G01 X27.8394 Y20.2737
G01 X27.8570 Y20.2035
G01 X27.8821 Y20.1330
G01 X27.9136 Y20.0665
G01 X27.9514 Y20.0033
G01 X27.9952 Y19.9442
G01 X28.0447 Y19.8897
G01 X28.0992 Y19.8402
G01 X28.1583 Y19.7964
G01 X28.2215 Y19.7586
G01 X28.2880 Y19.7271
G01 X28.3573 Y19.7023
G01 X28.4287 Y19.6844
G01 X28.5015 Y19.6736
G01 X28.5750 Y19.6700
G01 X28.6485 Y19.6736
G01 X28.7213 Y19.6844
G01 X28.7915 Y19.7020
G01 X28.8643 Y19.7281
G01 X28.9285 Y19.7586
G01 X28.9917 Y19.7964
G01 X29.0508 Y19.8402
G01 X29.1036 Y19.8880
G01 X29.1548 Y19.9442
G01 X29.1999 Y20.0054
G01 X29.2364 Y20.0665
G01 X29.2679 Y20.1330
G01 X29.2934 Y20.2047
G01 X29.3106 Y20.2737
G01 X29.3211 Y20.3441
G01 X29.3250 Y20.4200
G01 X29.3250 Y23.0200
G01 X29.3211 Y23.0959
G01 X29.3106 Y23.1663
G01 X29.2930 Y23.2365
G01 X29.2679 Y23.3070
G01 X29.2375 Y23.3714
G01 X29.1972 Y23.4387
G01 X29.1548 Y23.4958
G01 X29.1053 Y23.5503
G01 X29.0508 Y23.5998
G01 X28.9917 Y23.6436
G01 X28.9285 Y23.6814
G01 X28.8643 Y23.7119
G01 X28.7903 Y23.7384
G01 X28.7213 Y23.7556
G01 X28.6485 Y23.7664
G01 X28.5750 Y23.7700
G01 X28.5015 Y23.7664
G01 X28.4287 Y23.7556
G01 X28.3597 Y23.7384
G01 X28.2857 Y23.7119
G01 X28.2215 Y23.6814
G01 X28.1583 Y23.6436
G01 X28.0992 Y23.5998
G01 X28.0447 Y23.5503
G01 X27.9952 Y23.4958
G01 X27.9528 Y23.4387
G01 X27.9125 Y23.3714
G01 X27.8821 Y23.3070
G01 X27.8573 Y23.2377
G01 X27.8394 Y23.1663
G01 X27.8289 Y23.0959
G00 Z2.0000
G00 X27.7696 Y23.1048
G01 F60.00
G01 Z0.0000
G01 F120.00
G01 X27.7685 Y23.0940
G01 X27.7650 Y23.0200
G01 X27.7650 Y20.4200
G01 X27.7685 Y20.3460
G01 X27.7696 Y20.3352
G01 X27.7806 Y20.2620
G01 X27.7999 Y20.1849
G01 X27.8267 Y20.1100
G01 X27.8606 Y20.0382
G01 X27.9015 Y19.9700
G01 X27.9489 Y19.9061
G01 X28.0022 Y19.8472
G01 X28.0611 Y19.7939
G01 X28.1250 Y19.7465
G01 X28.1932 Y19.7056
G01 X28.2650 Y19.6717
G01 X28.3399 Y19.6449
G01 X28.4170 Y19.6256
G01 X28.4956 Y19.6139
G01 X28.5750 Y19.6100
G01 X28.6544 Y19.6139
G01 X28.7330 Y19.6256
G01 X28.8101 Y19.6449
G01 X28.8799 Y19.6697
G01 X28.8899 Y19.6738
G01 X28.9568 Y19.7056
G01 X29.0250 Y19.7465
G01 X29.0846 Y19.7905
G01 X29.0929 Y19.7974
G01 X29.1478 Y19.8472
G01 X29.1976 Y19.9021
G01 X29.2045 Y19.9104
G01 X29.2454 Y19.9656
G01 X29.2514 Y19.9745
G01 X29.2894 Y20.0382
G01 X29.3212 Y20.1051
G01 X29.3253 Y20.1151
G01 X29.3501 Y20.1849
G01 X29.3683 Y20.2567
G01 X29.3704 Y20.2673
G01 X29.3811 Y20.3406
G01 X29.3850 Y20.4200
G01 X29.3850 Y23.0200
G01 X29.3815 Y23.0940
G01 X29.3804 Y23.1048
G01 X29.3694 Y23.1780
G01 X29.3501 Y23.2551
G01 X29.3233 Y23.3300
G01 X29.2918 Y23.3970
G01 X29.2867 Y23.4065
G01 X29.2514 Y23.4655
G01 X29.2454 Y23.4744
G01 X29.2011 Y23.5339
G01 X29.1478 Y23.5928
G01 X29.0889 Y23.6461
G01 X29.0250 Y23.6935
G01 X28.9568 Y23.7344
G01 X28.8899 Y23.7662
G01 X28.8799 Y23.7703
G01 X28.8153 Y23.7934
G01 X28.8049 Y23.7966
G01 X28.7330 Y23.8144
G01 X28.6544 Y23.8261
G01 X28.5750 Y23.8300
G01 X28.4956 Y23.8261
G01 X28.4170 Y23.8144
G01 X28.3451 Y23.7966
G01 X28.3347 Y23.7934
G01 X28.2701 Y23.7703
G01 X28.2601 Y23.7662
G01 X28.1932 Y23.7344
G01 X28.1250 Y23.6935
G01 X28.0611 Y23.6461
G01 X28.0022 Y23.5928
G01 X27.9489 Y23.5339
G01 X27.9046 Y23.4744
G01 X27.8986 Y23.4655
G01 X27.8633 Y23.4065
G01 X27.8582 Y23.3970
G01 X27.8267 Y23.3300
G01 X27.7999 Y23.2551
G01 X27.7806 Y23.1780
G01 X27.7696 Y23.1048
G00 Z2.0000
G00 X31.2356 Y31.8520
G01 F60.00
G01 Z0.0000
G01 F120.00
G01 X31.2386 Y31.7922
G01 X31.2474 Y31.7329
G01 X31.2619 Y31.6749
G01 X31.2821 Y31.6185
G01 X31.3077 Y31.5643
G01 X31.3385 Y31.5130
G01 X31.3742 Y31.4649
G01 X31.4125 Y31.4224
G01 X37.3237 Y25.5111
G01 X37.3237 Y19.7718
G01 X36.0231 Y18.4711
G01 X35.9599 Y18.4551
G01 X35.8901 Y18.4303
G01 X35.8801 Y18.4262
G01 X35.8132 Y18.3944
G01 X35.7450 Y18.3535
G01 X35.6854 Y18.3095
G01 X35.6771 Y18.3026
G01 X35.6262 Y18.2565
G01 X35.6204 Y18.2508
G01 X35.5689 Y18.1939
G01 X35.5215 Y18.1300
G01 X35.4806 Y18.0618
G01 X35.4488 Y17.9949
G01 X35.4447 Y17.9849
G01 X35.4216 Y17.9203
G01 X35.4184 Y17.9099
G01 X35.4006 Y17.8380
G01 X35.3896 Y17.7648
G01 X35.3887 Y17.7567
G01 X35.3850 Y17.6800
G01 X35.3850 Y15.0800
G01 X35.3885 Y15.0060
G01 X35.3896 Y14.9952
G01 X35.4006 Y14.9220
G01 X35.4199 Y14.8449
G01 X35.4467 Y14.7700
G01 X35.4806 Y14.6982
G01 X35.5215 Y14.6300
G01 X35.5689 Y14.5661
G01 X35.6222 Y14.5072
G01 X35.6811 Y14.4539
G01 X35.7450 Y14.4065
G01 X35.8132 Y14.3656
G01 X35.8850 Y14.3317
G01 X35.9599 Y14.3049
G01 X36.0370 Y14.2856
G01 X36.1156 Y14.2739
G01 X36.1950 Y14.2700
G01 X36.2744 Y14.2739
G01 X36.3530 Y14.2856
G01 X36.4301 Y14.3049
G01 X36.4999 Y14.3297
G01 X36.5099 Y14.3338
G01 X36.5768 Y14.3656
G01 X36.6450 Y14.4065
G01 X36.7046 Y14.4505
G01 X36.7129 Y14.4574
G01 X36.7678 Y14.5072
G01 X36.8176 Y14.5621
G01 X36.8245 Y14.5704
G01 X36.8685 Y14.6300
G01 X36.9067 Y14.6935
G01 X36.9118 Y14.7030
G01 X36.9433 Y14.7700
G01 X36.9684 Y14.8397
G01 X36.9716 Y14.8501
G01 X36.9883 Y14.9167
G01 X36.9899 Y14.9246
G01 X37.0011 Y15.0006
G01 X37.0050 Y15.0800
G01 X37.0050 Y17.6800
G01 X37.0029 Y17.7249
G01 X38.3692 Y19.0914
G01 X38.4057 Y19.1319
G01 X38.4383 Y19.1755
G01 X38.4443 Y19.1845
G01 X38.4722 Y19.2313
G01 X38.4978 Y19.2855
G01 X38.5163 Y19.3367
G01 X38.5194 Y19.3471
G01 X38.5313 Y19.3947
G01 X38.5330 Y19.4026
G01 X38.5413 Y19.4592
G01 X38.5443 Y19.5190
G01 X38.5443 Y25.7639
G01 X38.5413 Y25.8237
G01 X38.5325 Y25.8830
G01 X38.5194 Y25.9358
G01 X38.5163 Y25.9462
G01 X38.4997 Y25.9924
G01 X38.4956 Y26.0024
G01 X38.4722 Y26.0516
G01 X38.4414 Y26.1029
G01 X38.4057 Y26.1510
G01 X38.3674 Y26.1935
G01 X32.4562 Y32.1048
G01 X32.4562 Y52.9080
G01 X39.0616 Y59.5134
G01 X41.6179 Y56.9570
G01 X41.6153 Y56.9443
G01 X41.6009 Y56.8473
G01 X41.5998 Y56.8365
G01 X41.5949 Y56.7331
G01 X41.6002 Y56.6243
G01 X41.6162 Y56.5165
G01 X41.6413 Y56.4161
G01 X41.6444 Y56.4058
G01 X41.6775 Y56.3134
G01 X41.6816 Y56.3034
G01 X41.7260 Y56.2098
G01 X41.7791 Y56.1210
G01 X41.7851 Y56.1120
G01 X41.8435 Y56.0332
G01 X41.8504 Y56.0248
G01 X41.9200 Y55.9482
G01 X42.0007 Y55.8751
G01 X42.0882 Y55.8102
G01 X42.1770 Y55.7568
G01 X42.1865 Y55.7517
G01 X42.2801 Y55.7076
G01 X42.3776 Y55.6726
G01 X42.3879 Y55.6695
G01 X42.4883 Y55.6444
G01 X42.5907 Y55.6291
G01 X42.6015 Y55.6280
G01 X42.7049 Y55.6231
G01 X42.8083 Y55.6280
G01 X42.8191 Y55.6291
G01 X42.9215 Y55.6444
G01 X43.0219 Y55.6695
G01 X43.0322 Y55.6726
G01 X43.1297 Y55.7076
G01 X43.2233 Y55.7517
G01 X43.2328 Y55.7568
G01 X43.3216 Y55.8102
G01 X43.4048 Y55.8717
G01 X43.4132 Y55.8786
G01 X43.4898 Y55.9482
G01 X43.5594 Y56.0248
G01 X43.5663 Y56.0332
G01 X43.6278 Y56.1164
G01 X43.6812 Y56.2052
G01 X43.6863 Y56.2147
G01 X43.7304 Y56.3083
G01 X43.7654 Y56.4058
G01 X43.7685 Y56.4161
G01 X43.7936 Y56.5165
G01 X43.8089 Y56.6189
G01 X43.8100 Y56.6297
G01 X43.8149 Y56.7304
G01 X43.8148 Y56.7385
G01 X43.8096 Y56.8419
G01 X43.7936 Y56.9497
G01 X43.7671 Y57.0553
G01 X43.7304 Y57.1579
G01 X43.6838 Y57.2564
G01 X43.6278 Y57.3498
G01 X43.5629 Y57.4373
G01 X43.4935 Y57.5141
G01 X43.4879 Y57.5199
G01 X43.4132 Y57.5876
G01 X43.4048 Y57.5945
G01 X43.3216 Y57.6560
G01 X43.2328 Y57.7094
G01 X43.2233 Y57.7145
G01 X43.1297 Y57.7586
G01 X43.0271 Y57.7953
G01 X42.9267 Y57.8206
G01 X42.9161 Y57.8227
G01 X42.8137 Y57.8378
G01 X42.7103 Y57.8430
G01 X42.6995 Y57.8430
G01 X42.5961 Y57.8378
G01 X42.4937 Y57.8227
G01 X42.4810 Y57.8201
G01 X38.0753 Y62.2258
G01 X38.0753 Y74.2384
G01 X38.0928 Y74.2582
G01 X38.1354 Y74.3156
G01 X38.1400 Y74.3223
G01 X38.1794 Y74.3882
G01 X38.2123 Y74.4575
G01 X38.2153 Y74.4651
G01 X38.2384 Y74.5297
G01 X38.2416 Y74.5401
G01 X38.2594 Y74.6120
G01 X38.2704 Y74.6852
G01 X38.2713 Y74.6933
G01 X38.2750 Y74.7700
G01 X38.2750 Y77.3727
G01 X38.2711 Y77.4494
G01 X38.2594 Y77.5280
G01 X38.2401 Y77.6051
G01 X38.2153 Y77.6749
G01 X38.2112 Y77.6849
G01 X38.1794 Y77.7518
G01 X38.1414 Y77.8155
G01 X38.1354 Y77.8244
G01 X38.0945 Y77.8796
G01 X38.0876 Y77.8879
G01 X38.0378 Y77.9428
G01 X37.9789 Y77.9961
G01 X37.9150 Y78.0435
G01 X37.8468 Y78.0844
G01 X37.7750 Y78.1183
G01 X37.7001 Y78.1451
G01 X37.6230 Y78.1644
G01 X37.5498 Y78.1754
G01 X37.5390 Y78.1765
G01 X37.4650 Y78.1800
G01 X37.3856 Y78.1761
G01 X37.3070 Y78.1644
G01 X37.2299 Y78.1451
G01 X37.1550 Y78.1183
G01 X37.0832 Y78.0844
G01 X37.0150 Y78.0435
G01 X36.9554 Y77.9995
G01 X36.9471 Y77.9926
G01 X36.8962 Y77.9465
G01 X36.8885 Y77.9388
G01 X36.8389 Y77.8839
G01 X36.7946 Y77.8244
G01 X36.7886 Y77.8155
G01 X36.7506 Y77.7518
G01 X36.7188 Y77.6849
G01 X36.7147 Y77.6749
G01 X36.6899 Y77.6051
G01 X36.6706 Y77.5280
G01 X36.6589 Y77.4494
G01 X36.6551 Y77.3754
G01 X36.6550 Y74.7700
G01 X36.6587 Y74.6933
G01 X36.6596 Y74.6852
G01 X36.6706 Y74.6120
G01 X36.6884 Y74.5401
G01 X36.6916 Y74.5297
G01 X36.7147 Y74.4651
G01 X36.7177 Y74.4575
G01 X36.7506 Y74.3882
G01 X36.7900 Y74.3223
G01 X36.7946 Y74.3156
G01 X36.8372 Y74.2582
G01 X36.8547 Y74.2384
G01 X36.8548 Y61.9703
G01 X36.8577 Y61.9132
G01 X36.8665 Y61.8539
G01 X36.8810 Y61.7959
G01 X36.8993 Y61.7445
G01 X36.9034 Y61.7345
G01 X36.9244 Y61.6902
G01 X36.9295 Y61.6806
G01 X36.9576 Y61.6340
G01 X36.9899 Y61.5901
G01 X36.9950 Y61.5838
G01 X37.0335 Y61.5415
G01 X38.1986 Y60.3764
G01 X31.4144 Y53.5923
G01 X31.3742 Y53.5479
G01 X31.3416 Y53.5043
G01 X31.3356 Y53.4953
G01 X31.3077 Y53.4485
G01 X31.2843 Y53.3993
G01 X31.2802 Y53.3893
G01 X31.2619 Y53.3380
G01 X31.2486 Y53.2851
G01 X31.2465 Y53.2745
G01 X31.2386 Y53.2206
G01 X31.2356 Y53.1608
G01 X31.2356 Y31.8520
G00 Z2.0000
G00 X31.2956 Y31.8520
G01 F60.00
G01 Z0.0000
G01 F120.00
G01 X31.2983 Y31.7981
G01 X31.3062 Y31.7447
G01 X31.3193 Y31.6923
G01 X31.3375 Y31.6414
G01 X31.3606 Y31.5926
G01 X31.3884 Y31.5463
G01 X31.4206 Y31.5029
G01 X31.4560 Y31.4638
G01 X37.3837 Y25.5360
G01 X37.3837 Y19.7469
G01 X36.0531 Y18.4163
G01 X36.0463 Y18.4151
G01 X35.9750 Y18.3969
G01 X35.9080 Y18.3729
G01 X35.8415 Y18.3414
G01 X35.7783 Y18.3036
G01 X35.7211 Y18.2613
G01 X35.6638 Y18.2095
G01 X35.6152 Y18.1558
G01 X35.5714 Y18.0967
G01 X35.5336 Y18.0335
G01 X35.5031 Y17.9693
G01 X35.4766 Y17.8953
G01 X35.4594 Y17.8263
G01 X35.4486 Y17.7535
G01 X35.4450 Y17.6800
G01 X35.4450 Y15.0800
G01 X35.4489 Y15.0041
G01 X35.4594 Y14.9337
G01 X35.4770 Y14.8635
G01 X35.5021 Y14.7930
G01 X35.5336 Y14.7265
G01 X35.5714 Y14.6633
G01 X35.6152 Y14.6042
G01 X35.6647 Y14.5497
G01 X35.7192 Y14.5002
G01 X35.7783 Y14.4564
G01 X35.8415 Y14.4186
G01 X35.9080 Y14.3871
G01 X35.9773 Y14.3623
G01 X36.0487 Y14.3444
G01 X36.1215 Y14.3336
G01 X36.1950 Y14.3300
G01 X36.2685 Y14.3336
G01 X36.3413 Y14.3444
G01 X36.4127 Y14.3623
G01 X36.4843 Y14.3881
G01 X36.5485 Y14.4186
G01 X36.6117 Y14.4564
G01 X36.6727 Y14.5018
G01 X36.7253 Y14.5497
G01 X36.7732 Y14.6023
G01 X36.8199 Y14.6654
G01 X36.8564 Y14.7265
G01 X36.8869 Y14.7907
G01 X36.9127 Y14.8623
G01 X36.9310 Y14.9361
G01 X36.9414 Y15.0065
G01 X36.9450 Y15.0800
G01 X36.9450 Y17.6800
G01 X36.9417 Y17.7485
G01 X38.3248 Y19.1317
G01 X38.3593 Y19.1699
G01 X38.3901 Y19.2113
G01 X38.4193 Y19.2596
G01 X38.4424 Y19.3084
G01 X38.4598 Y19.3569
G01 X38.4739 Y19.4129
G01 X38.4816 Y19.4651
G01 X38.4843 Y19.5190
G01 X38.4843 Y25.7639
G01 X38.4816 Y25.8178
G01 X38.4737 Y25.8712
G01 X38.4612 Y25.9213
G01 X38.4414 Y25.9767
G01 X38.4193 Y26.0233
G01 X38.3915 Y26.0696
G01 X38.3593 Y26.1130
G01 X38.3239 Y26.1521
G01 X32.3962 Y32.0799
G01 X32.3962 Y52.9329
G01 X39.0616 Y59.5982
G01 X41.6844 Y56.9754
G01 X41.6749 Y56.9367
G01 X41.6599 Y56.8348
G01 X41.6549 Y56.7331
G01 X41.6599 Y56.6314
G01 X41.6756 Y56.5259
G01 X41.7001 Y56.4283
G01 X41.7344 Y56.3324
G01 X41.7801 Y56.2360
G01 X41.8319 Y56.1498
G01 X41.8932 Y56.0670
G01 X41.9624 Y55.9906
G01 X42.0369 Y55.9230
G01 X42.1236 Y55.8587
G01 X42.2099 Y55.8071
G01 X42.3008 Y55.7640
G01 X42.4001 Y55.7283
G01 X42.5025 Y55.7029
G01 X42.6020 Y55.6882
G01 X42.7024 Y55.6832
G01 X42.8078 Y55.6882
G01 X42.9121 Y55.7038
G01 X43.0097 Y55.7283
G01 X43.1044 Y55.7621
G01 X43.1999 Y55.8071
G01 X43.2903 Y55.8615
G01 X43.3710 Y55.9214
G01 X43.4456 Y55.9889
G01 X43.5166 Y56.0670
G01 X43.5793 Y56.1518
G01 X43.6309 Y56.2381
G01 X43.6740 Y56.3290
G01 X43.7097 Y56.4283
G01 X43.7351 Y56.5307
G01 X43.7498 Y56.6302
G01 X43.7549 Y56.7319
G01 X43.7498 Y56.8360
G01 X43.7347 Y56.9379
G01 X43.7097 Y57.0379
G01 X43.6750 Y57.1349
G01 X43.6309 Y57.2281
G01 X43.5779 Y57.3164
G01 X43.5166 Y57.3992
G01 X43.4465 Y57.4764
G01 X43.3691 Y57.5463
G01 X43.2882 Y57.6061
G01 X43.2020 Y57.6579
G01 X43.1067 Y57.7032
G01 X43.0085 Y57.7382
G01 X42.9097 Y57.7629
G01 X42.8103 Y57.7777
G01 X42.7061 Y57.7831
G01 X42.6008 Y57.7779
G01 X42.5013 Y57.7631
G01 X42.4626 Y57.7536
G01 X38.0153 Y62.2009
G01 X38.0153 Y74.2616
G01 X38.0455 Y74.2952
G01 X38.0893 Y74.3544
G01 X38.1264 Y74.4165
G01 X38.1574 Y74.4819
G01 X38.1834 Y74.5547
G01 X38.2006 Y74.6237
G01 X38.2115 Y74.6977
G01 X38.2150 Y74.7700
G01 X38.2150 Y77.3712
G01 X38.2114 Y77.4435
G01 X38.2006 Y77.5163
G01 X38.1827 Y77.5877
G01 X38.1579 Y77.6570
G01 X38.1264 Y77.7235
G01 X38.0886 Y77.7867
G01 X38.0448 Y77.8458
G01 X37.9970 Y77.8986
G01 X37.9408 Y77.9498
G01 X37.8837 Y77.9922
G01 X37.8164 Y78.0325
G01 X37.7520 Y78.0629
G01 X37.6827 Y78.0877
G01 X37.6113 Y78.1056
G01 X37.5397 Y78.1163
G01 X37.4650 Y78.1200
G01 X37.3915 Y78.1164
G01 X37.3187 Y78.1056
G01 X37.2473 Y78.0877
G01 X37.1780 Y78.0629
G01 X37.1115 Y78.0314
G01 X37.0483 Y77.9936
G01 X36.9873 Y77.9482
G01 X36.9330 Y77.8986
G01 X36.8852 Y77.8458
G01 X36.8428 Y77.7887
G01 X36.8036 Y77.7235
G01 X36.7731 Y77.6593
G01 X36.7473 Y77.5877
G01 X36.7294 Y77.5163
G01 X36.7186 Y77.4435
G01 X36.7151 Y77.3725
G01 X36.7150 Y74.7700
G01 X36.7185 Y74.6977
G01 X36.7294 Y74.6237
G01 X36.7466 Y74.5547
G01 X36.7726 Y74.4819
G01 X36.8036 Y74.4165
G01 X36.8407 Y74.3544
G01 X36.8845 Y74.2952
G01 X36.9147 Y74.2616
G01 X36.9148 Y61.9705
G01 X36.9174 Y61.9191
G01 X36.9253 Y61.8657
G01 X36.9384 Y61.8133
G01 X36.9558 Y61.7647
G01 X36.9809 Y61.7115
G01 X37.0075 Y61.6673
G01 X37.0404 Y61.6230
G01 X37.0759 Y61.5839
G01 X38.2834 Y60.3764
G01 X31.4568 Y53.5499
G01 X31.4206 Y53.5099
G01 X31.3898 Y53.4685
G01 X31.3606 Y53.4202
G01 X31.3367 Y53.3691
G01 X31.3193 Y53.3205
G01 X31.3068 Y53.2705
G01 X31.2983 Y53.2147
G01 X31.2956 Y53.1608
G01 X31.2956 Y31.8520
G00 Z2.0000
G00 X32.9050 Y37.6100
G01 F60.00
G01 Z0.0000
G01 F120.00
G01 X32.8952 Y37.6090
G01 X32.8859 Y37.6062
G01 X32.8772 Y37.6016
G01 X32.8696 Y37.5954
G01 X32.8634 Y37.5878
G01 X32.8588 Y37.5791
G01 X32.8560 Y37.5698
G01 X32.8550 Y37.5600
G01 X32.8550 Y33.5600
G01 X32.8557 Y33.5515
G01 X32.8579 Y33.5432
G01 X32.8609 Y33.5364
G01 X32.8648 Y33.5302
G01 X32.8696 Y33.5246
G01 X32.8752 Y33.5198
G01 X32.8825 Y33.5153
G01 X32.8893 Y33.5125
G01 X32.8965 Y33.5107
G01 X32.9038 Y33.5100
G01 X34.4050 Y33.5100
G01 X34.4135 Y33.5107
G01 X34.4218 Y33.5129
G01 X34.4286 Y33.5159
G01 X34.4348 Y33.5198
G01 X34.4404 Y33.5246
G01 X34.4459 Y33.5312
G01 X34.4502 Y33.5386
G01 X34.4528 Y33.5455
G01 X34.4545 Y33.5527
G01 X34.4550 Y33.5600
G01 X34.4550 Y37.5600
G01 X34.4543 Y37.5685
G01 X34.4521 Y37.5768
G01 X34.4491 Y37.5836
G01 X34.4452 Y37.5898
G01 X34.4404 Y37.5954
G01 X34.4348 Y37.6002
G01 X34.4275 Y37.6047
G01 X34.4207 Y37.6075
G01 X34.4135 Y37.6093
G01 X34.4062 Y37.6100
G01 X32.9050 Y37.6100
G00 Z2.0000
G00 X32.9050 Y37.6700
G01 F60.00
G01 Z0.0000
G01 F120.00
G01 X32.8942 Y37.6695
G01 X32.8835 Y37.6679
G01 X32.8731 Y37.6653
G01 X32.8629 Y37.6616
G01 X32.8531 Y37.6570
G01 X32.8439 Y37.6515
G01 X32.8352 Y37.6450
G01 X32.8272 Y37.6378
G01 X32.8200 Y37.6298
G01 X32.8135 Y37.6211
G01 X32.8093 Y37.6142
G01 X32.8044 Y37.6046
G01 X32.8006 Y37.5945
G01 X32.7977 Y37.5841
G01 X32.7958 Y37.5735
G01 X32.7950 Y37.5627
G01 X32.7950 Y33.5600
G01 X32.7955 Y33.5492
G01 X32.7966 Y33.5412
G01 X32.7990 Y33.5307
G01 X32.8014 Y33.5229
G01 X32.8044 Y33.5154
G01 X32.8080 Y33.5081
G01 X32.8121 Y33.5012
G01 X32.8166 Y33.4945
G01 X32.8217 Y33.4882
G01 X32.8272 Y33.4822
G01 X32.8332 Y33.4767
G01 X32.8395 Y33.4716
G01 X32.8462 Y33.4671
G01 X32.8531 Y33.4630
G01 X32.8604 Y33.4594
G01 X32.8679 Y33.4564
G01 X32.8757 Y33.4540
G01 X32.8835 Y33.4521
G01 X32.8915 Y33.4508
G01 X32.8996 Y33.4501
G01 X34.4050 Y33.4500
G01 X34.4131 Y33.4503
G01 X34.4238 Y33.4516
G01 X34.4343 Y33.4540
G01 X34.4421 Y33.4564
G01 X34.4496 Y33.4594
G01 X34.4569 Y33.4630
G01 X34.4638 Y33.4671
G01 X34.4705 Y33.4716
G01 X34.4768 Y33.4767
G01 X34.4828 Y33.4822
G01 X34.4883 Y33.4882
G01 X34.4934 Y33.4945
G01 X34.4979 Y33.5012
G01 X34.5020 Y33.5081
G01 X34.5066 Y33.5179
G01 X34.5094 Y33.5255
G01 X34.5117 Y33.5333
G01 X34.5134 Y33.5412
G01 X34.5145 Y33.5492
G01 X34.5150 Y33.5573
G01 X34.5150 Y37.5600
G01 X34.5145 Y37.5708
G01 X34.5134 Y37.5788
G01 X34.5117 Y37.5867
G01 X34.5086 Y37.5971
G01 X34.5056 Y37.6046
G01 X34.5020 Y37.6119
G01 X34.4979 Y37.6188
G01 X34.4934 Y37.6255
G01 X34.4883 Y37.6318
G01 X34.4828 Y37.6378
G01 X34.4768 Y37.6433
G01 X34.4705 Y37.6484
G01 X34.4638 Y37.6529
G01 X34.4569 Y37.6570
G01 X34.4496 Y37.6606
G01 X34.4421 Y37.6636
G01 X34.4343 Y37.6660
G01 X34.4265 Y37.6679
G01 X34.4185 Y37.6692
G01 X34.4104 Y37.6699
G01 X32.9050 Y37.6700
G00 Z2.0000
G00 X35.3398 Y36.8997
G01 F60.00
G01 Z0.0000
G01 F120.00
G01 X35.3387 Y36.8889
G01 X35.3350 Y36.8100
G01 X35.3350 Y34.3100
G01 X35.3391 Y34.2257
G01 X35.3506 Y34.1475
G01 X35.3527 Y34.1370
G01 X35.3706 Y34.0656
G01 X35.3728 Y34.0578
G01 X35.4005 Y33.9809
G01 X35.4365 Y33.9046
G01 X35.4799 Y33.8322
G01 X35.5302 Y33.7644
G01 X35.5869 Y33.7019
G01 X35.6494 Y33.6452
G01 X35.7172 Y33.5949
G01 X35.7896 Y33.5515
G01 X35.8659 Y33.5155
G01 X35.9454 Y33.4870
G01 X36.0272 Y33.4665
G01 X36.1107 Y33.4541
G01 X36.1950 Y33.4500
G01 X36.2793 Y33.4541
G01 X36.3628 Y33.4665
G01 X36.4394 Y33.4856
G01 X36.4472 Y33.4878
G01 X36.5241 Y33.5155
G01 X36.5956 Y33.5491
G01 X36.6051 Y33.5542
G01 X36.6728 Y33.5949
G01 X36.7363 Y33.6419
G01 X36.7447 Y33.6487
G01 X36.8031 Y33.7019
G01 X36.8563 Y33.7603
G01 X36.8631 Y33.7687
G01 X36.9101 Y33.8322
G01 X36.9508 Y33.8999
G01 X36.9559 Y33.9094
G01 X36.9895 Y33.9809
G01 X37.0163 Y34.0552
G01 X37.0194 Y34.0656
G01 X37.0373 Y34.1370
G01 X37.0394 Y34.1475
G01 X37.0509 Y34.2257
G01 X37.0550 Y34.3100
G01 X37.0550 Y36.8100
G01 X37.0509 Y36.8943
G01 X37.0394 Y36.9725
G01 X37.0373 Y36.9830
G01 X37.0194 Y37.0544
G01 X37.0172 Y37.0622
G01 X36.9895 Y37.1391
G01 X36.9535 Y37.2154
G01 X36.9101 Y37.2878
G01 X36.8631 Y37.3513
G01 X36.8563 Y37.3597
G01 X36.8068 Y37.4142
G01 X36.7992 Y37.4218
G01 X36.7406 Y37.4748
G01 X36.6728 Y37.5251
G01 X36.6004 Y37.5685
G01 X36.5290 Y37.6023
G01 X36.5191 Y37.6065
G01 X36.4498 Y37.6313
G01 X36.4394 Y37.6344
G01 X36.3628 Y37.6535
G01 X36.2793 Y37.6659
G01 X36.1950 Y37.6700
G01 X36.1107 Y37.6659
G01 X36.0272 Y37.6535
G01 X35.9454 Y37.6330
G01 X35.8659 Y37.6045
G01 X35.7944 Y37.5709
G01 X35.7849 Y37.5658
G01 X35.7218 Y37.5280
G01 X35.7128 Y37.5220
G01 X35.6494 Y37.4748
G01 X35.5869 Y37.4181
G01 X35.5302 Y37.3556
G01 X35.4830 Y37.2922
G01 X35.4770 Y37.2832
G01 X35.4392 Y37.2201
G01 X35.4341 Y37.2106
G01 X35.4005 Y37.1391
G01 X35.3720 Y37.0596
G01 X35.3515 Y36.9778
G01 X35.3398 Y36.8997
G00 Z2.0000
G00 X35.3992 Y36.8908
G01 F60.00
G01 Z0.0000
G01 F120.00
G01 X35.3950 Y36.8100
G01 X35.3950 Y34.3100
G01 X35.3992 Y34.2292
G01 X35.4104 Y34.1539
G01 X35.4294 Y34.0778
G01 X35.4559 Y34.0039
G01 X35.4895 Y33.9329
G01 X35.5298 Y33.8655
G01 X35.5766 Y33.8025
G01 X35.6293 Y33.7443
G01 X35.6875 Y33.6916
G01 X35.7505 Y33.6448
G01 X35.8179 Y33.6045
G01 X35.8889 Y33.5709
G01 X35.9628 Y33.5444
G01 X36.0389 Y33.5254
G01 X36.1166 Y33.5139
G01 X36.1950 Y33.5100
G01 X36.2734 Y33.5139
G01 X36.3511 Y33.5254
G01 X36.4272 Y33.5444
G01 X36.5011 Y33.5709
G01 X36.5699 Y33.6034
G01 X36.6395 Y33.6448
G01 X36.7044 Y33.6932
G01 X36.7607 Y33.7443
G01 X36.8118 Y33.8006
G01 X36.8602 Y33.8655
G01 X36.9016 Y33.9351
G01 X36.9341 Y34.0039
G01 X36.9598 Y34.0754
G01 X36.9800 Y34.1563
G01 X36.9911 Y34.2316
G01 X36.9950 Y34.3100
G01 X36.9950 Y36.8100
G01 X36.9908 Y36.8908
G01 X36.9796 Y36.9661
G01 X36.9606 Y37.0422
G01 X36.9341 Y37.1161
G01 X36.9016 Y37.1849
G01 X36.8588 Y37.2565
G01 X36.8134 Y37.3175
G01 X36.7607 Y37.3757
G01 X36.7025 Y37.4284
G01 X36.6395 Y37.4752
G01 X36.5721 Y37.5155
G01 X36.5034 Y37.5481
G01 X36.4249 Y37.5762
G01 X36.3511 Y37.5946
G01 X36.2734 Y37.6061
G01 X36.1950 Y37.6100
G01 X36.1166 Y37.6061
G01 X36.0389 Y37.5946
G01 X35.9628 Y37.5756
G01 X35.8889 Y37.5491
G01 X35.8201 Y37.5166
G01 X35.7485 Y37.4738
G01 X35.6875 Y37.4284
G01 X35.6293 Y37.3757
G01 X35.5766 Y37.3175
G01 X35.5312 Y37.2565
G01 X35.4884 Y37.1849
G01 X35.4559 Y37.1161
G01 X35.4294 Y37.0422
G01 X35.4104 Y36.9661
G01 X35.3992 Y36.8908
G00 Z2.0000
G00 X37.8798 Y36.8997
G01 F60.00
G01 Z0.0000
G01 F120.00
G01 X37.8787 Y36.8889
G01 X37.8750 Y36.8100
G01 X37.8750 Y34.3100
G01 X37.8791 Y34.2257
G01 X37.8906 Y34.1475
G01 X37.8927 Y34.1370
G01 X37.9106 Y34.0656
G01 X37.9128 Y34.0578
G01 X37.9405 Y33.9809
G01 X37.9765 Y33.9046
G01 X38.0199 Y33.8322
G01 X38.0702 Y33.7644
G01 X38.1269 Y33.7019
G01 X38.1894 Y33.6452
G01 X38.2572 Y33.5949
G01 X38.3296 Y33.5515
G01 X38.4059 Y33.5155
G01 X38.4854 Y33.4870
G01 X38.5672 Y33.4665
G01 X38.6507 Y33.4541
G01 X38.7350 Y33.4500
G01 X38.8193 Y33.4541
G01 X38.9028 Y33.4665
G01 X38.9794 Y33.4856
G01 X38.9872 Y33.4878
G01 X39.0641 Y33.5155
G01 X39.1356 Y33.5491
G01 X39.1451 Y33.5542
G01 X39.2128 Y33.5949
G01 X39.2763 Y33.6419
G01 X39.2847 Y33.6487
G01 X39.3431 Y33.7019
G01 X39.3963 Y33.7603
G01 X39.4031 Y33.7687
G01 X39.4501 Y33.8322
G01 X39.4908 Y33.8999
G01 X39.4959 Y33.9094
G01 X39.5295 Y33.9809
G01 X39.5563 Y34.0552
G01 X39.5594 Y34.0656
G01 X39.5773 Y34.1370
G01 X39.5794 Y34.1475
G01 X39.5909 Y34.2257
G01 X39.5950 Y34.3100
G01 X39.5950 Y36.8100
G01 X39.5909 Y36.8943
G01 X39.5794 Y36.9725
G01 X39.5773 Y36.9830
G01 X39.5594 Y37.0544
G01 X39.5572 Y37.0622
G01 X39.5295 Y37.1391
G01 X39.4935 Y37.2154
G01 X39.4501 Y37.2878
G01 X39.4031 Y37.3513
G01 X39.3963 Y37.3597
G01 X39.3468 Y37.4142
G01 X39.3392 Y37.4218
G01 X39.2806 Y37.4748
G01 X39.2128 Y37.5251
G01 X39.1404 Y37.5685
G01 X39.0690 Y37.6023
G01 X39.0591 Y37.6065
G01 X38.9898 Y37.6313
G01 X38.9794 Y37.6344
G01 X38.9028 Y37.6535
G01 X38.8193 Y37.6659
G01 X38.7350 Y37.6700
G01 X38.6507 Y37.6659
G01 X38.5672 Y37.6535
G01 X38.4854 Y37.6330
G01 X38.4059 Y37.6045
G01 X38.3344 Y37.5709
G01 X38.3249 Y37.5658
G01 X38.2618 Y37.5280
G01 X38.2528 Y37.5220
G01 X38.1894 Y37.4748
G01 X38.1269 Y37.4181
G01 X38.0702 Y37.3556
G01 X38.0230 Y37.2922
G01 X38.0170 Y37.2832
G01 X37.9792 Y37.2201
G01 X37.9741 Y37.2106
G01 X37.9405 Y37.1391
G01 X37.9120 Y37.0596
G01 X37.8915 Y36.9778
G01 X37.8798 Y36.8997
G00 Z2.0000
G00 X37.9392 Y36.8908
G01 F60.00
G01 Z0.0000
G01 F120.00
G01 X37.9350 Y36.8100
G01 X37.9350 Y34.3100
G01 X37.9392 Y34.2292
G01 X37.9504 Y34.1539
G01 X37.9694 Y34.0778
G01 X37.9959 Y34.0039
G01 X38.0295 Y33.9329
G01 X38.0698 Y33.8655
G01 X38.1166 Y33.8025
G01 X38.1693 Y33.7443
G01 X38.2275 Y33.6916
G01 X38.2905 Y33.6448
G01 X38.3579 Y33.6045
G01 X38.4289 Y33.5709
G01 X38.5028 Y33.5444
G01 X38.5789 Y33.5254
G01 X38.6566 Y33.5139
G01 X38.7350 Y33.5100
G01 X38.8134 Y33.5139
G01 X38.8911 Y33.5254
G01 X38.9672 Y33.5444
G01 X39.0411 Y33.5709
G01 X39.1099 Y33.6034
G01 X39.1795 Y33.6448
G01 X39.2444 Y33.6932
G01 X39.3007 Y33.7443
G01 X39.3518 Y33.8006
G01 X39.4002 Y33.8655
G01 X39.4416 Y33.9351
G01 X39.4741 Y34.0039
G01 X39.4998 Y34.0754
G01 X39.5200 Y34.1563
G01 X39.5311 Y34.2316
G01 X39.5350 Y34.3100
G01 X39.5350 Y36.8100
G01 X39.5308 Y36.8908
G01 X39.5196 Y36.9661
G01 X39.5006 Y37.0422
G01 X39.4741 Y37.1161
G01 X39.4416 Y37.1849
G01 X39.3988 Y37.2565
G01 X39.3534 Y37.3175
G01 X39.3007 Y37.3757
G01 X39.2425 Y37.4284
G01 X39.1795 Y37.4752
G01 X39.1121 Y37.5155
G01 X39.0434 Y37.5481
G01 X38.9649 Y37.5762
G01 X38.8911 Y37.5946
G01 X38.8134 Y37.6061
G01 X38.7350 Y37.6100
G01 X38.6566 Y37.6061
G01 X38.5789 Y37.5946
G01 X38.5028 Y37.5756
G01 X38.4289 Y37.5491
G01 X38.3601 Y37.5166
G01 X38.2885 Y37.4738
G01 X38.2275 Y37.4284
G01 X38.1693 Y37.3757
G01 X38.1166 Y37.3175
G01 X38.0712 Y37.2565
G01 X38.0284 Y37.1849
G01 X37.9959 Y37.1161
G01 X37.9694 Y37.0422
G01 X37.9504 Y36.9661
G01 X37.9392 Y36.8908
G00 Z2.0000
G00 X32.8550 Y48.8000
G01 F60.00
G01 Z0.0000
G01 F120.00
G01 X32.8557 Y48.7915
G01 X32.8579 Y48.7832
G01 X32.8615 Y48.7754
G01 X32.8663 Y48.7683
G01 X32.8723 Y48.7621
G01 X32.8793 Y48.7571
G01 X32.8870 Y48.7534
G01 X32.8952 Y48.7510
G01 X32.9050 Y48.7500
G01 X33.1047 Y48.7500
G01 X33.1047 Y47.7997
G01 X33.1074 Y47.7458
G01 X33.1153 Y47.6924
G01 X33.1278 Y47.6423
G01 X33.1466 Y47.5891
G01 X33.1697 Y47.5403
G01 X33.1962 Y47.4961
G01 X33.2304 Y47.4497
G01 X33.2659 Y47.4106
G01 X39.9485 Y40.7280
G01 X39.9485 Y17.1991
G01 X36.6794 Y13.9300
G01 X34.2053 Y13.9300
G01 X34.2053 Y14.5716
G01 X34.2355 Y14.6052
G01 X34.2793 Y14.6644
G01 X34.3164 Y14.7265
G01 X34.3484 Y14.7941
G01 X34.3727 Y14.8623
G01 X34.3906 Y14.9337
G01 X34.4014 Y15.0065
G01 X34.4049 Y15.0775
G01 X34.4050 Y17.6800
G01 X34.4014 Y17.7535
G01 X34.3910 Y17.8239
G01 X34.3723 Y17.8989
G01 X34.3479 Y17.9670
G01 X34.3164 Y18.0335
G01 X34.2786 Y18.0967
G01 X34.2363 Y18.1539
G01 X34.1836 Y18.2120
G01 X34.1308 Y18.2598
G01 X34.0717 Y18.3036
G01 X34.0085 Y18.3414
G01 X33.9420 Y18.3729
G01 X33.8727 Y18.3977
G01 X33.8037 Y18.4151
G01 X33.7261 Y18.4266
G01 X33.6550 Y18.4300
G01 X33.5815 Y18.4264
G01 X33.5087 Y18.4156
G01 X33.4397 Y18.3984
G01 X33.3657 Y18.3719
G01 X33.3015 Y18.3414
G01 X33.2383 Y18.3036
G01 X33.1792 Y18.2598
G01 X33.1247 Y18.2103
G01 X33.0752 Y18.1558
G01 X33.0314 Y18.0967
G01 X32.9936 Y18.0335
G01 X32.9631 Y17.9693
G01 X32.9366 Y17.8953
G01 X32.9194 Y17.8263
G01 X32.9086 Y17.7535
G01 X32.9050 Y17.6800
G01 X32.9050 Y15.0800
G01 X32.9085 Y15.0077
G01 X32.9194 Y14.9337
G01 X32.9366 Y14.8647
G01 X32.9626 Y14.7919
G01 X32.9936 Y14.7265
G01 X33.0307 Y14.6644
G01 X33.0745 Y14.6052
G01 X33.1047 Y14.5716
G01 X33.1047 Y13.3797
G01 X33.1073 Y13.3270
G01 X33.1159 Y13.2700
G01 X33.1284 Y13.2200
G01 X33.1466 Y13.1691
G01 X33.1697 Y13.1203
G01 X33.1962 Y13.0761
G01 X33.2297 Y13.0306
G01 X33.2659 Y12.9906
G01 X33.3059 Y12.9544
G01 X33.3493 Y12.9222
G01 X33.3956 Y12.8944
G01 X33.4444 Y12.8713
G01 X33.4953 Y12.8531
G01 X33.5477 Y12.8400
G01 X33.6035 Y12.8319
G01 X33.6550 Y12.8294
G01 X36.9073 Y12.8294
G01 X36.9625 Y12.8322
G01 X37.0146 Y12.8400
G01 X37.0670 Y12.8531
G01 X37.1179 Y12.8713
G01 X37.1645 Y12.8933
G01 X37.2150 Y12.9236
G01 X37.2564 Y12.9544
G01 X37.2964 Y12.9906
G01 X40.8887 Y16.5830
G01 X40.9241 Y16.6221
G01 X40.9549 Y16.6635
G01 X40.9852 Y16.7140
G01 X41.0072 Y16.7606
G01 X41.0254 Y16.8115
G01 X41.0385 Y16.8639
G01 X41.0461 Y16.9148
G01 X41.0491 Y16.9712
G01 X41.0491 Y40.9559
G01 X41.0463 Y41.0111
G01 X41.0385 Y41.0632
G01 X41.0254 Y41.1156
G01 X41.0072 Y41.1665
G01 X40.9852 Y41.2131
G01 X40.9549 Y41.2636
G01 X40.9241 Y41.3050
G01 X40.8887 Y41.3441
G01 X34.2053 Y48.0276
G01 X34.2053 Y48.7500
G01 X34.4050 Y48.7500
G01 X34.4148 Y48.7510
G01 X34.4230 Y48.7534
G01 X34.4307 Y48.7571
G01 X34.4367 Y48.7613
G01 X34.4429 Y48.7673
G01 X34.4472 Y48.7733
G01 X34.4512 Y48.7809
G01 X34.4538 Y48.7890
G01 X34.4549 Y48.7975
G01 X34.4550 Y52.8000
G01 X34.4545 Y52.8073
G01 X34.4528 Y52.8145
G01 X34.4502 Y52.8214
G01 X34.4466 Y52.8278
G01 X34.4420 Y52.8336
G01 X34.4367 Y52.8387
G01 X34.4307 Y52.8429
G01 X34.4230 Y52.8466
G01 X34.4148 Y52.8490
G01 X34.4050 Y52.8500
G01 X32.9038 Y52.8500
G01 X32.8965 Y52.8493
G01 X32.8893 Y52.8475
G01 X32.8825 Y52.8447
G01 X32.8762 Y52.8409
G01 X32.8705 Y52.8362
G01 X32.8656 Y52.8308
G01 X32.8615 Y52.8246
G01 X32.8584 Y52.8180
G01 X32.8560 Y52.8098
G01 X32.8550 Y52.8000
G01 X32.8550 Y48.8000
G00 Z2.0000
G00 X32.7950 Y48.8000
G01 F60.00
G01 Z0.0000
G01 F120.00
G01 X32.7953 Y48.7919
G01 X32.7962 Y48.7839
G01 X32.7990 Y48.7707
G01 X32.8014 Y48.7629
G01 X32.8044 Y48.7554
G01 X32.8080 Y48.7481
G01 X32.8121 Y48.7412
G01 X32.8166 Y48.7345
G01 X32.8217 Y48.7282
G01 X32.8272 Y48.7222
G01 X32.8332 Y48.7167
G01 X32.8395 Y48.7116
G01 X32.8462 Y48.7071
G01 X32.8531 Y48.7030
G01 X32.8604 Y48.6994
G01 X32.8705 Y48.6956
G01 X32.8809 Y48.6927
G01 X32.8915 Y48.6908
G01 X32.8996 Y48.6901
G01 X33.0447 Y48.6900
G01 X33.0447 Y47.7997
G01 X33.0477 Y47.7399
G01 X33.0565 Y47.6806
G01 X33.0696 Y47.6278
G01 X33.0727 Y47.6174
G01 X33.0912 Y47.5662
G01 X33.1168 Y47.5120
G01 X33.1447 Y47.4652
G01 X33.1507 Y47.4562
G01 X33.1799 Y47.4168
G01 X33.1850 Y47.4105
G01 X33.2235 Y47.3682
G01 X39.8885 Y40.7031
G01 X39.8885 Y17.2240
G01 X36.6545 Y13.9900
G01 X34.2653 Y13.9900
G01 X34.2653 Y14.5484
G01 X34.2828 Y14.5682
G01 X34.3254 Y14.6256
G01 X34.3300 Y14.6323
G01 X34.3694 Y14.6982
G01 X34.4012 Y14.7651
G01 X34.4043 Y14.7725
G01 X34.4301 Y14.8449
G01 X34.4494 Y14.9220
G01 X34.4611 Y15.0006
G01 X34.4650 Y15.0773
G01 X34.4650 Y17.6827
G01 X34.4611 Y17.7594
G01 X34.4494 Y17.8380
G01 X34.4301 Y17.9151
G01 X34.4043 Y17.9875
G01 X34.4012 Y17.9949
G01 X34.3694 Y18.0618
G01 X34.3314 Y18.1255
G01 X34.3254 Y18.1344
G01 X34.2845 Y18.1896
G01 X34.2776 Y18.1979
G01 X34.2278 Y18.2528
G01 X34.1689 Y18.3061
G01 X34.1050 Y18.3535
G01 X34.0415 Y18.3917
G01 X34.0320 Y18.3968
G01 X33.9699 Y18.4262
G01 X33.9599 Y18.4303
G01 X33.8901 Y18.4551
G01 X33.8130 Y18.4744
G01 X33.7344 Y18.4861
G01 X33.6604 Y18.4899
G01 X33.6496 Y18.4899
G01 X33.5810 Y18.4865
G01 X33.5702 Y18.4854
G01 X33.4970 Y18.4744
G01 X33.4199 Y18.4551
G01 X33.3450 Y18.4283
G01 X33.2780 Y18.3968
G01 X33.2685 Y18.3917
G01 X33.2095 Y18.3564
G01 X33.2006 Y18.3504
G01 X33.1411 Y18.3061
G01 X33.0822 Y18.2528
G01 X33.0289 Y18.1939
G01 X32.9815 Y18.1300
G01 X32.9406 Y18.0618
G01 X32.9088 Y17.9949
G01 X32.9047 Y17.9849
G01 X32.8816 Y17.9203
G01 X32.8784 Y17.9099
G01 X32.8606 Y17.8380
G01 X32.8489 Y17.7594
G01 X32.8450 Y17.6800
G01 X32.8450 Y15.0800
G01 X32.8487 Y15.0033
G01 X32.8496 Y14.9952
G01 X32.8606 Y14.9220
G01 X32.8784 Y14.8501
G01 X32.8816 Y14.8397
G01 X32.9047 Y14.7751
G01 X32.9077 Y14.7675
G01 X32.9406 Y14.6982
G01 X32.9800 Y14.6323
G01 X32.9846 Y14.6256
G01 X33.0272 Y14.5682
G01 X33.0447 Y14.5484
G01 X33.0447 Y13.3797
G01 X33.0477 Y13.3199
G01 X33.0565 Y13.2606
G01 X33.0696 Y13.2078
G01 X33.0727 Y13.1974
G01 X33.0912 Y13.1462
G01 X33.1168 Y13.0920
G01 X33.1447 Y13.0452
G01 X33.1507 Y13.0362
G01 X33.1833 Y12.9926
G01 X33.2235 Y12.9482
G01 X33.2679 Y12.9080
G01 X33.3160 Y12.8723
G01 X33.3673 Y12.8415
G01 X33.4215 Y12.8159
G01 X33.4779 Y12.7957
G01 X33.5359 Y12.7812
G01 X33.5898 Y12.7730
G01 X33.6006 Y12.7720
G01 X33.6550 Y12.7694
G01 X36.9073 Y12.7694
G01 X36.9617 Y12.7720
G01 X36.9698 Y12.7727
G01 X37.0264 Y12.7812
G01 X37.0844 Y12.7957
G01 X37.1408 Y12.8159
G01 X37.1901 Y12.8391
G01 X37.1997 Y12.8442
G01 X37.2418 Y12.8694
G01 X37.2508 Y12.8754
G01 X37.2944 Y12.9080
G01 X37.3388 Y12.9482
G01 X40.9322 Y16.5416
G01 X40.9705 Y16.5841
G01 X41.0031 Y16.6277
G01 X41.0091 Y16.6367
G01 X41.0343 Y16.6788
G01 X41.0394 Y16.6884
G01 X41.0626 Y16.7377
G01 X41.0828 Y16.7941
G01 X41.0973 Y16.8521
G01 X41.1055 Y16.9060
G01 X41.1065 Y16.9168
G01 X41.1091 Y16.9712
G01 X41.1091 Y40.9559
G01 X41.1065 Y41.0103
G01 X41.1058 Y41.0184
G01 X41.0973 Y41.0750
G01 X41.0828 Y41.1330
G01 X41.0626 Y41.1894
G01 X41.0394 Y41.2387
G01 X41.0343 Y41.2483
G01 X41.0091 Y41.2904
G01 X41.0031 Y41.2994
G01 X40.9705 Y41.3430
G01 X40.9322 Y41.3855
G01 X34.2653 Y48.0525
G01 X34.2653 Y48.6900
G01 X34.4104 Y48.6901
G01 X34.4211 Y48.6912
G01 X34.4291 Y48.6927
G01 X34.4395 Y48.6956
G01 X34.4471 Y48.6984
G01 X34.4545 Y48.7017
G01 X34.4616 Y48.7056
G01 X34.4727 Y48.7133
G01 X34.4789 Y48.7185
G01 X34.4847 Y48.7242
G01 X34.4900 Y48.7302
G01 X34.4949 Y48.7367
G01 X34.4994 Y48.7434
G01 X34.5033 Y48.7505
G01 X34.5066 Y48.7579
G01 X34.5094 Y48.7655
G01 X34.5129 Y48.7785
G01 X34.5142 Y48.7865
G01 X34.5149 Y48.7946
G01 X34.5150 Y52.8027
G01 X34.5145 Y52.8108
G01 X34.5134 Y52.8188
G01 X34.5117 Y52.8267
G01 X34.5094 Y52.8345
G01 X34.5066 Y52.8421
G01 X34.5033 Y52.8495
G01 X34.4994 Y52.8566
G01 X34.4949 Y52.8633
G01 X34.4865 Y52.8739
G01 X34.4808 Y52.8797
G01 X34.4748 Y52.8850
G01 X34.4683 Y52.8899
G01 X34.4616 Y52.8944
G01 X34.4545 Y52.8983
G01 X34.4471 Y52.9016
G01 X34.4369 Y52.9053
G01 X34.4265 Y52.9079
G01 X34.4158 Y52.9095
G01 X34.4050 Y52.9100
G01 X32.9023 Y52.9100
G01 X32.8942 Y52.9095
G01 X32.8862 Y52.9084
G01 X32.8783 Y52.9067
G01 X32.8705 Y52.9044
G01 X32.8629 Y52.9016
G01 X32.8555 Y52.8983
G01 X32.8439 Y52.8915
G01 X32.8373 Y52.8867
G01 X32.8311 Y52.8815
G01 X32.8253 Y52.8758
G01 X32.8200 Y52.8698
G01 X32.8151 Y52.8633
G01 X32.8106 Y52.8566
G01 X32.8067 Y52.8495
G01 X32.8034 Y52.8421
G01 X32.7997 Y52.8319
G01 X32.7971 Y52.8215
G01 X32.7955 Y52.8108
G01 X32.7950 Y52.8000
G01 X32.7950 Y48.8000
G00 Z2.0000
G00 X37.8798 Y52.1397
G01 F60.00
G01 Z0.0000
G01 F120.00
G01 X37.8787 Y52.1289
G01 X37.8750 Y52.0500
G01 X37.8750 Y49.5500
G01 X37.8791 Y49.4657
G01 X37.8906 Y49.3875
G01 X37.8927 Y49.3770
G01 X37.9106 Y49.3056
G01 X37.9128 Y49.2978
G01 X37.9405 Y49.2209
G01 X37.9765 Y49.1446
G01 X38.0199 Y49.0722
G01 X38.0702 Y49.0044
G01 X38.1269 Y48.9419
G01 X38.1894 Y48.8852
G01 X38.2572 Y48.8349
G01 X38.3296 Y48.7915
G01 X38.4059 Y48.7555
G01 X38.4854 Y48.7270
G01 X38.5672 Y48.7065
G01 X38.6507 Y48.6941
G01 X38.7350 Y48.6900
G01 X38.8193 Y48.6941
G01 X38.9028 Y48.7065
G01 X38.9794 Y48.7256
G01 X38.9872 Y48.7278
G01 X39.0641 Y48.7555
G01 X39.1356 Y48.7891
G01 X39.1451 Y48.7942
G01 X39.2128 Y48.8349
G01 X39.2763 Y48.8819
G01 X39.2847 Y48.8887
G01 X39.3431 Y48.9419
G01 X39.3963 Y49.0003
G01 X39.4031 Y49.0087
G01 X39.4501 Y49.0722
G01 X39.4908 Y49.1399
G01 X39.4959 Y49.1494
G01 X39.5295 Y49.2209
G01 X39.5563 Y49.2952
G01 X39.5594 Y49.3056
G01 X39.5773 Y49.3770
G01 X39.5794 Y49.3875
G01 X39.5909 Y49.4657
G01 X39.5950 Y49.5500
G01 X39.5950 Y52.0500
G01 X39.5909 Y52.1343
G01 X39.5794 Y52.2125
G01 X39.5773 Y52.2230
G01 X39.5594 Y52.2944
G01 X39.5572 Y52.3022
G01 X39.5295 Y52.3791
G01 X39.4935 Y52.4554
G01 X39.4501 Y52.5278
G01 X39.4031 Y52.5913
G01 X39.3963 Y52.5997
G01 X39.3468 Y52.6542
G01 X39.3392 Y52.6618
G01 X39.2806 Y52.7148
G01 X39.2128 Y52.7651
G01 X39.1404 Y52.8085
G01 X39.0641 Y52.8445
G01 X38.9846 Y52.8730
G01 X38.9080 Y52.8923
G01 X38.8975 Y52.8944
G01 X38.8247 Y52.9052
G01 X38.8139 Y52.9063
G01 X38.7350 Y52.9100
G01 X38.6507 Y52.9059
G01 X38.5672 Y52.8935
G01 X38.4854 Y52.8730
G01 X38.4059 Y52.8445
G01 X38.3344 Y52.8109
G01 X38.3249 Y52.8058
G01 X38.2618 Y52.7680
G01 X38.2528 Y52.7620
G01 X38.1894 Y52.7148
G01 X38.1269 Y52.6581
G01 X38.0702 Y52.5956
G01 X38.0230 Y52.5322
G01 X38.0170 Y52.5232
G01 X37.9792 Y52.4601
G01 X37.9741 Y52.4506
G01 X37.9405 Y52.3791
G01 X37.9120 Y52.2996
G01 X37.8915 Y52.2178
G01 X37.8798 Y52.1397
G00 Z2.0000
G00 X37.9392 Y52.1308
G01 F60.00
G01 Z0.0000
G01 F120.00
G01 X37.9350 Y52.0500
G01 X37.9350 Y49.5500
G01 X37.9392 Y49.4692
G01 X37.9504 Y49.3939
G01 X37.9694 Y49.3178
G01 X37.9959 Y49.2439
G01 X38.0295 Y49.1729
G01 X38.0698 Y49.1055
G01 X38.1166 Y49.0425
G01 X38.1693 Y48.9843
G01 X38.2275 Y48.9316
G01 X38.2905 Y48.8848
G01 X38.3579 Y48.8445
G01 X38.4289 Y48.8109
G01 X38.5028 Y48.7844
G01 X38.5789 Y48.7654
G01 X38.6566 Y48.7539
G01 X38.7350 Y48.7500
G01 X38.8134 Y48.7539
G01 X38.8911 Y48.7654
G01 X38.9672 Y48.7844
G01 X39.0411 Y48.8109
G01 X39.1099 Y48.8434
G01 X39.1795 Y48.8848
G01 X39.2444 Y48.9332
G01 X39.3007 Y48.9843
G01 X39.3518 Y49.0406
G01 X39.4002 Y49.1055
G01 X39.4416 Y49.1751
G01 X39.4741 Y49.2439
G01 X39.4998 Y49.3154
G01 X39.5200 Y49.3963
G01 X39.5311 Y49.4716
G01 X39.5350 Y49.5500
G01 X39.5350 Y52.0500
G01 X39.5308 Y52.1308
G01 X39.5196 Y52.2061
G01 X39.5006 Y52.2822
G01 X39.4741 Y52.3561
G01 X39.4416 Y52.4249
G01 X39.3988 Y52.4965
G01 X39.3534 Y52.5575
G01 X39.3007 Y52.6157
G01 X39.2425 Y52.6684
G01 X39.1795 Y52.7152
G01 X39.1121 Y52.7555
G01 X39.0411 Y52.7891
G01 X38.9672 Y52.8156
G01 X38.8935 Y52.8341
G01 X38.8110 Y52.8463
G01 X38.7350 Y52.8500
G01 X38.6566 Y52.8461
G01 X38.5789 Y52.8346
G01 X38.5028 Y52.8156
G01 X38.4289 Y52.7891
G01 X38.3601 Y52.7566
G01 X38.2885 Y52.7138
G01 X38.2275 Y52.6684
G01 X38.1693 Y52.6157
G01 X38.1166 Y52.5575
G01 X38.0712 Y52.4965
G01 X38.0284 Y52.4249
G01 X37.9959 Y52.3561
G01 X37.9694 Y52.2822
G01 X37.9504 Y52.2061
G01 X37.9392 Y52.1308
G00 Z2.0000
G00 X52.4800 Y48.8000
G01 F60.00
G01 Z0.0000
G01 F120.00
G01 X52.4803 Y48.7919
G01 X52.4812 Y48.7839
G01 X52.4840 Y48.7707
G01 X52.4864 Y48.7629
G01 X52.4894 Y48.7554
G01 X52.4930 Y48.7481
G01 X52.4971 Y48.7412
G01 X52.5016 Y48.7345
G01 X52.5067 Y48.7282
G01 X52.5122 Y48.7222
G01 X52.5182 Y48.7167
G01 X52.5245 Y48.7116
G01 X52.5312 Y48.7071
G01 X52.5381 Y48.7030
G01 X52.5454 Y48.6994
G01 X52.5555 Y48.6956
G01 X52.5659 Y48.6927
G01 X52.5765 Y48.6908
G01 X52.5846 Y48.6901
G01 X52.7297 Y48.6900
G01 X52.7297 Y47.7997
G01 X52.7323 Y47.7453
G01 X52.7330 Y47.7372
G01 X52.7415 Y47.6806
G01 X52.7546 Y47.6278
G01 X52.7577 Y47.6174
G01 X52.7743 Y47.5712
G01 X52.7784 Y47.5612
G01 X52.8018 Y47.5120
G01 X52.8326 Y47.4607
G01 X52.8683 Y47.4126
G01 X52.9048 Y47.3721
G01 X65.4297 Y34.8469
G01 X65.4297 Y23.5516
G01 X65.4122 Y23.5318
