(G-CODE GENERATED BY FLATCAM v8.994 - www.flatcam.org - Version Date: 2020/11/7)

(Name: io-board-mixed-F_Cu.gbr_iso_combined_cnc)
(Type: G-code from Geometry)
(Units: MM)

(Created on Saturday, 08 May 2021 at 13:32)

(This preprocessor is the default preprocessor used by FlatCAM.)
(It is made to work with MACH3 compatible motion controllers.)

(TOOL DIAMETER: 0.1 mm)
(Feedrate_XY: 200.0 mm/min)
(Feedrate_Z: 60.0 mm/min)
(Feedrate rapids 1500.0 mm/min)

(Z_Cut: 0.0 mm)
(Z_Move: 2.0 mm)
(Z Start: None mm)
(Z End: 20.0 mm)
(X,Y End: 0.0000, 0.0000 mm)
(Steps per circle: 64)
(Preprocessor Geometry: default)

(X range:    7.3413 ...  169.3203  mm)
(Y range:    4.8314 ...   98.1887  mm)

(Spindle Speed: 10000.0 RPM)
G21
G90
G94

G01 F200.00

M5
G00 Z15.0000
G00 X0.0000 Y0.0000
T1
M6    
(MSG, Change to Tool Dia = 0.1000)
M0
G00 Z15.0000

M03 S10000.0
G01 F200.00
G00 X7.3414 Y29.2100
G01 F60.00
G01 Z-0.15
G01 F200.00
G01 X7.3440 Y29.1586
G01 X7.3519 Y29.1052
G01 X7.3650 Y29.0528
G01 X7.3832 Y29.0019
G01 X7.4063 Y28.9531
G01 X7.4341 Y28.9068
G01 X7.4663 Y28.8634
G01 X7.5017 Y28.8243
G01 X13.2746 Y23.0513
G01 X13.3146 Y23.0151
G01 X13.3580 Y22.9829
G01 X13.4043 Y22.9551
G01 X13.4509 Y22.9330
G01 X13.5040 Y22.9138
G01 X13.5588 Y22.9003
G01 X13.6098 Y22.8928
G01 X13.6625 Y22.8902
G01 X16.9171 Y22.8901
G01 X25.7923 Y14.0149
G01 X25.8323 Y13.9787
G01 X25.8737 Y13.9479
G01 X25.9242 Y13.9176
G01 X25.9708 Y13.8956
G01 X26.0217 Y13.8774
G01 X26.0741 Y13.8643
G01 X26.1250 Y13.8567
G01 X26.1814 Y13.8537
G01 X79.3500 Y13.8537
G01 X79.3606 Y13.8477
G01 X79.4516 Y13.8047
G01 X79.5486 Y13.7700
G01 X79.6486 Y13.7450
G01 X79.7493 Y13.7300
G01 X79.8534 Y13.7248
G01 X79.9551 Y13.7298
G01 X80.0570 Y13.7448
G01 X80.0957 Y13.7543
G01 X80.1497 Y13.7004
G01 X80.1888 Y13.6650
G01 X80.2322 Y13.6328
G01 X80.2807 Y13.6039
G01 X80.3296 Y13.5811
G01 X80.3782 Y13.5637
G01 X80.4282 Y13.5512
G01 X80.4840 Y13.5427
G01 X80.5379 Y13.5400
G01 X115.5365 Y13.5400
G01 X115.5572 Y13.5059
G01 X115.6171 Y13.4251
G01 X115.6879 Y13.3470
G01 X115.7653 Y13.2771
G01 X115.8462 Y13.2173
G01 X115.9335 Y13.1649
G01 X116.0277 Y13.1202
G01 X116.1271 Y13.0849
G01 X116.2247 Y13.0605
G01 X116.3241 Y13.0457
G01 X116.4295 Y13.0403
G01 X116.5324 Y13.0454
G01 X116.6343 Y13.0605
G01 X116.7343 Y13.0855
G01 X116.8290 Y13.1193
G01 X116.9266 Y13.1655
G01 X117.0128 Y13.2173
G01 X117.0975 Y13.2802
G01 X117.1720 Y13.3478
G01 X117.2412 Y13.4242
G01 X117.3025 Y13.5070
G01 X117.3555 Y13.5953
G01 X117.3996 Y13.6885
G01 X117.4343 Y13.7855
G01 X117.4593 Y13.8855
G01 X117.4741 Y13.9849
G01 X117.4795 Y14.0903
G01 X117.4744 Y14.1932
G01 X117.4593 Y14.2951
G01 X117.4343 Y14.3951
G01 X117.3996 Y14.4921
G01 X117.3555 Y14.5853
G01 X117.3025 Y14.6736
G01 X117.2396 Y14.7583
G01 X117.1702 Y14.8345
G01 X117.0956 Y14.9020
G01 X117.0149 Y14.9619
G01 X116.9245 Y15.0163
G01 X116.8336 Y15.0594
G01 X116.7343 Y15.0951
G01 X116.6343 Y15.1201
G01 X116.5324 Y15.1352
G01 X116.4307 Y15.1403
G01 X116.3241 Y15.1349
G01 X116.2247 Y15.1201
G01 X116.1271 Y15.0957
G01 X116.0277 Y15.0604
G01 X115.9335 Y15.0157
G01 X115.8462 Y14.9633
G01 X115.7653 Y14.9035
G01 X115.6879 Y14.8336
G01 X115.6171 Y14.7555
G01 X115.5572 Y14.6747
G01 X115.5365 Y14.6406
G01 X80.8938 Y14.6406
G01 X80.8984 Y14.6731
G01 X80.9034 Y14.7736
G01 X80.8984 Y14.8765
G01 X80.8832 Y14.9796
G01 X80.8585 Y15.0784
G01 X80.8235 Y15.1766
G01 X80.7794 Y15.2698
G01 X80.7264 Y15.3581
G01 X80.6643 Y15.4419
G01 X80.5959 Y15.5173
G01 X80.5176 Y15.5880
G01 X80.4347 Y15.6492
G01 X80.3484 Y15.7008
G01 X80.2575 Y15.7439
G01 X80.1582 Y15.7796
G01 X80.0582 Y15.8046
G01 X79.9563 Y15.8197
G01 X79.8534 Y15.8248
G01 X79.7505 Y15.8197
G01 X79.6486 Y15.8046
G01 X79.5486 Y15.7796
G01 X79.4539 Y15.7458
G01 X79.3563 Y15.6996
G01 X79.2701 Y15.6478
G01 X79.1863 Y15.5857
G01 X79.1109 Y15.5173
G01 X79.0417 Y15.4409
G01 X78.9804 Y15.3581
G01 X78.9280 Y15.2708
G01 X78.8833 Y15.1766
G01 X78.8490 Y15.0808
G01 X78.8238 Y14.9808
G01 X78.8197 Y14.9543
G01 X26.4093 Y14.9543
G01 X17.6953 Y23.6683
G01 X17.6953 Y24.7316
G01 X17.7255 Y24.7652
G01 X17.7693 Y24.8244
G01 X17.8064 Y24.8865
G01 X17.8384 Y24.9541
G01 X17.8627 Y25.0223
G01 X17.8806 Y25.0937
G01 X17.8914 Y25.1665
G01 X17.8949 Y25.2375
G01 X17.8950 Y27.8412
G01 X17.8911 Y27.9159
G01 X17.8806 Y27.9863
G01 X17.8634 Y28.0553
G01 X17.8379 Y28.1270
G01 X17.8064 Y28.1935
G01 X17.7686 Y28.2567
G01 X17.7232 Y28.3177
G01 X17.6753 Y28.3703
G01 X17.6227 Y28.4182
G01 X17.5627 Y28.4629
G01 X17.4985 Y28.5014
G01 X17.4297 Y28.5338
G01 X17.3627 Y28.5577
G01 X17.2937 Y28.5751
G01 X17.2185 Y28.5864
G01 X17.1450 Y28.5900
G01 X17.0691 Y28.5861
G01 X16.9987 Y28.5756
G01 X16.9297 Y28.5584
G01 X16.8580 Y28.5329
G01 X16.7915 Y28.5014
G01 X16.7263 Y28.4622
G01 X16.6692 Y28.4198
G01 X16.6164 Y28.3720
G01 X16.5652 Y28.3158
G01 X16.5214 Y28.2567
G01 X16.4825 Y28.1914
G01 X16.4521 Y28.1270
G01 X16.4281 Y28.0600
G01 X16.4097 Y27.9875
G01 X16.3986 Y27.9135
G01 X16.3950 Y27.8400
G01 X16.3951 Y25.2375
G01 X16.3986 Y25.1665
G01 X16.4094 Y25.0937
G01 X16.4273 Y25.0223
G01 X16.4516 Y24.9541
G01 X16.4836 Y24.8865
G01 X16.5207 Y24.8244
G01 X16.5645 Y24.7652
G01 X16.5947 Y24.7316
G01 X16.5947 Y23.9907
G01 X13.8916 Y23.9907
G01 X8.4419 Y29.4404
G01 X8.4419 Y59.6680
G01 X15.3034 Y66.5295
G01 X15.4349 Y66.5296
G01 X15.4864 Y66.5321
G01 X15.5410 Y66.5401
G01 X15.5934 Y66.5532
G01 X15.6443 Y66.5714
G01 X15.6952 Y66.5957
G01 X15.7394 Y66.6223
G01 X15.7808 Y66.6529
G01 X15.8228 Y66.6907
G01 X28.9641 Y79.8320
G01 X29.0003 Y79.8720
G01 X29.0318 Y79.9144
G01 X29.0614 Y79.9639
G01 X29.0834 Y80.0105
G01 X29.1016 Y80.0614
G01 X29.1151 Y80.1162
G01 X29.1226 Y80.1672
G01 X29.1252 Y80.2199
G01 X29.1253 Y84.4216
G01 X29.1555 Y84.4552
G01 X29.1993 Y84.5144
G01 X29.2364 Y84.5765
G01 X29.2684 Y84.6441
G01 X29.2927 Y84.7123
G01 X29.3106 Y84.7837
G01 X29.3214 Y84.8565
G01 X29.3249 Y84.9275
G01 X29.3249 Y87.5325
G01 X29.3214 Y87.6035
G01 X29.3106 Y87.6763
G01 X29.2927 Y87.7477
G01 X29.2679 Y87.8170
G01 X29.2364 Y87.8835
G01 X29.1986 Y87.9467
G01 X29.1548 Y88.0058
G01 X29.1070 Y88.0586
G01 X29.0508 Y88.1098
G01 X28.9937 Y88.1522
G01 X28.9264 Y88.1925
G01 X28.8620 Y88.2229
G01 X28.7927 Y88.2477
G01 X28.7213 Y88.2656
G01 X28.6509 Y88.2761
G01 X28.5750 Y88.2800
G01 X28.5015 Y88.2764
G01 X28.4287 Y88.2656
G01 X28.3573 Y88.2477
G01 X28.2880 Y88.2229
G01 X28.2215 Y88.1914
G01 X28.1583 Y88.1536
G01 X28.0992 Y88.1098
G01 X28.0447 Y88.0603
G01 X27.9952 Y88.0058
G01 X27.9514 Y87.9467
G01 X27.9136 Y87.8835
G01 X27.8821 Y87.8170
G01 X27.8573 Y87.7477
G01 X27.8394 Y87.6763
G01 X27.8285 Y87.6023
G01 X27.8250 Y87.5300
G01 X27.8250 Y84.9300
G01 X27.8285 Y84.8577
G01 X27.8394 Y84.7837
G01 X27.8566 Y84.7147
G01 X27.8826 Y84.6419
G01 X27.9136 Y84.5765
G01 X27.9507 Y84.5144
G01 X27.9945 Y84.4552
G01 X28.0247 Y84.4216
G01 X28.0247 Y80.4490
G01 X15.2058 Y67.6301
G01 X15.0743 Y67.6300
G01 X15.0228 Y67.6275
G01 X14.9682 Y67.6195
G01 X14.9158 Y67.6064
G01 X14.8649 Y67.5882
G01 X14.8140 Y67.5639
G01 X14.7698 Y67.5373
G01 X14.7284 Y67.5067
G01 X14.6873 Y67.4697
G01 X7.5025 Y60.2850
G01 X7.4663 Y60.2450
G01 X7.4341 Y60.2016
G01 X7.4063 Y60.1553
G01 X7.3824 Y60.1042
G01 X7.3650 Y60.0556
G01 X7.3519 Y60.0032
G01 X7.3440 Y59.9498
G01 X7.3413 Y59.8959
G01 X7.3414 Y29.2100
G00 Z2.0000
G00 X8.8488 Y33.1435
G01 F60.00
G01 Z-0.15
G01 F200.00
G01 X8.8514 Y33.0921
G01 X8.8593 Y33.0387
G01 X8.8724 Y32.9863
G01 X8.8906 Y32.9354
G01 X8.9137 Y32.8866
G01 X8.9415 Y32.8403
G01 X8.9737 Y32.7969
G01 X9.0091 Y32.7578
G01 X13.8550 Y27.9118
G01 X13.8550 Y24.7446
G01 X13.8562 Y24.7207
G01 X13.8595 Y24.6983
G01 X13.8668 Y24.6692
G01 X13.8745 Y24.6479
G01 X13.8852 Y24.6252
G01 X13.8981 Y24.6037
G01 X13.9116 Y24.5855
G01 X13.9299 Y24.5649
G01 X13.9485 Y24.5481
G01 X13.9687 Y24.5331
G01 X13.9924 Y24.5191
G01 X14.0152 Y24.5086
G01 X14.0365 Y24.5010
G01 X14.0585 Y24.4955
G01 X14.0857 Y24.4912
G01 X14.1096 Y24.4900
G01 X15.0992 Y24.4900
G01 X15.1218 Y24.4911
G01 X15.1515 Y24.4955
G01 X15.1735 Y24.5010
G01 X15.1971 Y24.5095
G01 X15.2219 Y24.5214
G01 X15.2413 Y24.5331
G01 X15.2595 Y24.5466
G01 X15.2801 Y24.5649
G01 X15.2969 Y24.5835
G01 X15.3119 Y24.6037
G01 X15.3259 Y24.6274
G01 X15.3364 Y24.6502
G01 X15.3440 Y24.6715
G01 X15.3495 Y24.6935
G01 X15.3538 Y24.7207
G01 X15.3550 Y24.7446
G01 X15.3550 Y28.3342
G01 X15.3538 Y28.3593
G01 X15.3505 Y28.3817
G01 X15.3440 Y28.4085
G01 X15.3345 Y28.4343
G01 X15.3248 Y28.4548
G01 X15.3132 Y28.4742
G01 X15.2969 Y28.4965
G01 X15.2801 Y28.5151
G01 X15.2615 Y28.5319
G01 X15.2413 Y28.5469
G01 X15.2198 Y28.5598
G01 X15.1971 Y28.5705
G01 X15.1735 Y28.5790
G01 X15.1491 Y28.5851
G01 X15.1243 Y28.5888
G01 X15.0992 Y28.5900
G01 X14.7332 Y28.5900
G01 X9.9493 Y33.3739
G01 X9.9493 Y58.4483
G01 X15.0407 Y63.5398
G01 X15.0814 Y63.5254
G01 X15.1814 Y63.5005
G01 X15.2821 Y63.4856
G01 X15.3838 Y63.4805
G01 X15.4904 Y63.4859
G01 X15.5898 Y63.5007
G01 X15.6886 Y63.5254
G01 X15.7891 Y63.5614
G01 X15.8800 Y63.6045
G01 X15.9683 Y63.6575
G01 X16.0511 Y63.7188
G01 X16.1257 Y63.7863
G01 X16.1974 Y63.8653
G01 X16.2594 Y63.9492
G01 X16.3110 Y64.0355
G01 X16.3541 Y64.1264
G01 X16.3898 Y64.2257
G01 X16.4152 Y64.3281
G01 X16.4299 Y64.4276
G01 X16.4349 Y64.5280
G01 X16.4299 Y64.6334
G01 X16.4143 Y64.7377
G01 X16.3898 Y64.8353
G01 X16.3560 Y64.9300
G01 X16.3110 Y65.0255
G01 X16.2566 Y65.1159
G01 X16.1967 Y65.1966
G01 X16.1292 Y65.2712
G01 X16.0511 Y65.3422
G01 X15.9663 Y65.4049
G01 X15.8800 Y65.4565
G01 X15.7891 Y65.4996
G01 X15.6898 Y65.5353
G01 X15.5898 Y65.5603
G01 X15.4855 Y65.5756
G01 X15.3850 Y65.5805
G01 X15.2845 Y65.5756
G01 X15.1802 Y65.5603
G01 X15.0802 Y65.5353
G01 X14.9832 Y65.5006
G01 X14.8879 Y65.4553
G01 X14.8017 Y65.4035
G01 X14.7208 Y65.3437
G01 X14.6425 Y65.2730
G01 X14.5733 Y65.1966
G01 X14.5106 Y65.1118
G01 X14.4590 Y65.0255
G01 X14.4159 Y64.9346
G01 X14.3806 Y64.8365
G01 X14.3552 Y64.7353
G01 X14.3400 Y64.6322
G01 X14.3350 Y64.5293
G01 X14.3400 Y64.4288
G01 X14.3442 Y64.3995
G01 X9.0099 Y59.0653
G01 X8.9737 Y59.0253
G01 X8.9429 Y58.9839
G01 X8.9137 Y58.9356
G01 X8.8906 Y58.8868
G01 X8.8732 Y58.8383
G01 X8.8593 Y58.7835
G01 X8.8514 Y58.7301
G01 X8.8487 Y58.6762
G01 X8.8488 Y33.1435
G00 Z2.0000
G00 X10.3661 Y39.2017
G01 F60.00
G01 Z-0.15
G01 F200.00
G01 X10.3687 Y39.1503
G01 X10.3766 Y39.0969
G01 X10.3897 Y39.0445
G01 X10.4079 Y38.9936
G01 X10.4310 Y38.9448
G01 X10.4588 Y38.8985
G01 X10.4910 Y38.8551
G01 X10.5264 Y38.8160
G01 X14.6899 Y34.6524
G01 X14.6899 Y33.9248
G01 X14.6773 Y33.9265
G01 X14.6050 Y33.9300
G01 X14.5315 Y33.9264
G01 X14.4587 Y33.9156
G01 X14.3873 Y33.8977
G01 X14.3180 Y33.8729
G01 X14.2515 Y33.8414
G01 X14.1883 Y33.8036
G01 X14.1273 Y33.7582
G01 X14.0730 Y33.7086
G01 X14.0252 Y33.6558
G01 X13.9828 Y33.5987
G01 X13.9436 Y33.5335
G01 X13.9131 Y33.4693
G01 X13.8873 Y33.3977
G01 X13.8694 Y33.3263
G01 X13.8586 Y33.2535
G01 X13.8551 Y33.1825
G01 X13.8550 Y30.5800
G01 X13.8586 Y30.5065
G01 X13.8692 Y30.4349
G01 X13.8881 Y30.3600
G01 X13.9121 Y30.2930
G01 X13.9436 Y30.2265
G01 X13.9828 Y30.1613
G01 X14.0252 Y30.1042
G01 X14.0747 Y30.0497
G01 X14.1292 Y30.0002
G01 X14.1863 Y29.9578
G01 X14.2515 Y29.9186
G01 X14.3180 Y29.8871
G01 X14.3850 Y29.8631
G01 X14.4611 Y29.8440
G01 X14.5315 Y29.8336
G01 X14.6050 Y29.8300
G01 X14.6785 Y29.8336
G01 X14.7513 Y29.8444
G01 X14.8227 Y29.8623
G01 X14.8920 Y29.8871
G01 X14.9585 Y29.9186
G01 X15.0196 Y29.9551
G01 X15.0808 Y30.0002
G01 X15.1336 Y30.0480
G01 X15.1863 Y30.1061
G01 X15.2286 Y30.1633
G01 X15.2664 Y30.2265
G01 X15.2979 Y30.2930
G01 X15.3227 Y30.3623
G01 X15.3410 Y30.4361
G01 X15.3514 Y30.5065
G01 X15.3550 Y30.5788
G01 X15.3550 Y32.6520
G01 X15.6293 Y32.9263
G01 X15.6655 Y32.9663
G01 X15.6977 Y33.0097
G01 X15.7255 Y33.0560
G01 X15.7486 Y33.1048
G01 X15.7674 Y33.1580
G01 X15.7799 Y33.2081
G01 X15.7875 Y33.2590
G01 X15.7904 Y33.3142
G01 X15.7905 Y34.3300
G01 X68.6647 Y34.3300
G01 X68.6647 Y33.6884
G01 X68.6345 Y33.6548
G01 X68.5907 Y33.5956
G01 X68.5536 Y33.5335
G01 X68.5216 Y33.4659
G01 X68.4973 Y33.3977
G01 X68.4794 Y33.3263
G01 X68.4686 Y33.2535
G01 X68.4651 Y33.1825
G01 X68.4650 Y30.5800
G01 X68.4689 Y30.5041
G01 X68.4794 Y30.4337
G01 X68.4970 Y30.3635
G01 X68.5231 Y30.2907
G01 X68.5536 Y30.2265
G01 X68.5901 Y30.1654
G01 X68.6352 Y30.1042
G01 X68.6864 Y30.0480
G01 X68.7392 Y30.0002
G01 X68.7963 Y29.9578
G01 X68.8615 Y29.9186
G01 X68.9303 Y29.8862
G01 X68.9973 Y29.8623
G01 X69.0687 Y29.8444
G01 X69.1439 Y29.8334
G01 X69.2150 Y29.8300
G01 X69.2885 Y29.8336
G01 X69.3637 Y29.8449
G01 X69.4327 Y29.8623
G01 X69.4997 Y29.8862
G01 X69.5685 Y29.9186
G01 X69.6337 Y29.9578
G01 X69.6908 Y30.0002
G01 X69.7436 Y30.0480
G01 X69.7955 Y30.1052
G01 X69.8386 Y30.1633
G01 X69.8752 Y30.2243
G01 X69.9079 Y30.2930
G01 X69.9327 Y30.3623
G01 X69.9501 Y30.4313
G01 X69.9616 Y30.5089
G01 X69.9650 Y30.5800
G01 X69.9650 Y33.1800
G01 X69.9614 Y33.2535
G01 X69.9506 Y33.3263
G01 X69.9334 Y33.3953
G01 X69.9074 Y33.4681
G01 X69.8764 Y33.5335
G01 X69.8393 Y33.5956
G01 X69.7955 Y33.6548
G01 X69.7653 Y33.6884
G01 X69.7652 Y34.8815
G01 X69.7626 Y34.9342
G01 X69.7551 Y34.9852
G01 X69.7416 Y35.0400
G01 X69.7224 Y35.0931
G01 X69.7003 Y35.1397
G01 X69.6725 Y35.1860
G01 X69.6387 Y35.2312
G01 X69.6041 Y35.2694
G01 X69.5659 Y35.3040
G01 X69.5207 Y35.3378
G01 X69.4722 Y35.3667
G01 X69.4256 Y35.3887
G01 X69.3771 Y35.4061
G01 X69.3199 Y35.4204
G01 X69.2689 Y35.4279
G01 X69.2150 Y35.4306
G01 X15.4681 Y35.4306
G01 X11.4666 Y39.4321
G01 X11.4666 Y44.9438
G01 X33.8239 Y67.3011
G01 X37.9458 Y67.3012
G01 X37.9985 Y67.3038
G01 X38.0495 Y67.3113
G01 X38.1043 Y67.3248
G01 X38.1552 Y67.3430
G01 X38.2018 Y67.3650
G01 X38.2523 Y67.3953
G01 X38.2937 Y67.4261
G01 X38.3337 Y67.4623
G01 X50.3273 Y79.4559
G01 X50.3643 Y79.4969
G01 X50.3957 Y79.5393
G01 X50.4235 Y79.5856
G01 X50.4466 Y79.6344
G01 X50.4640 Y79.6829
G01 X50.4783 Y79.7401
G01 X50.4858 Y79.7911
G01 X50.4884 Y79.8438
G01 X50.4885 Y84.0786
G01 X55.9324 Y89.5225
G01 X55.9547 Y89.5237
G01 X56.0275 Y89.5347
G01 X56.0977 Y89.5523
G01 X56.1681 Y89.5776
G01 X56.2335 Y89.6086
G01 X56.2967 Y89.6464
G01 X56.3558 Y89.6902
G01 X56.4103 Y89.7397
G01 X56.4598 Y89.7942
G01 X56.5049 Y89.8554
G01 X56.5414 Y89.9165
G01 X56.5719 Y89.9807
G01 X56.5969 Y90.0500
G01 X56.6160 Y90.1261
G01 X56.6264 Y90.1965
G01 X56.6300 Y90.2700
G01 X56.6300 Y92.8712
G01 X56.6264 Y92.9435
G01 X56.6156 Y93.0163
G01 X56.5977 Y93.0877
G01 X56.5734 Y93.1559
G01 X56.5414 Y93.2235
G01 X56.5043 Y93.2856
G01 X56.4605 Y93.3448
G01 X56.4303 Y93.3784
G01 X56.4303 Y97.0881
G01 X95.1290 Y97.0881
G01 X97.8747 Y94.3424
G01 X97.8747 Y93.3784
G01 X97.8445 Y93.3448
G01 X97.8007 Y93.2856
G01 X97.7636 Y93.2235
G01 X97.7316 Y93.1559
G01 X97.7073 Y93.0877
G01 X97.6894 Y93.0163
G01 X97.6786 Y92.9435
G01 X97.6751 Y92.8725
G01 X97.6750 Y90.2700
G01 X97.6787 Y90.1953
G01 X97.6894 Y90.1237
G01 X97.7073 Y90.0523
G01 X97.7321 Y89.9830
G01 X97.7625 Y89.9186
G01 X97.8028 Y89.8513
G01 X97.8452 Y89.7942
G01 X97.8964 Y89.7380
G01 X97.9492 Y89.6902
G01 X98.0083 Y89.6464
G01 X98.0715 Y89.6086
G01 X98.1380 Y89.5771
G01 X98.2073 Y89.5523
G01 X98.2787 Y89.5344
G01 X98.3515 Y89.5236
G01 X98.4225 Y89.5201
G01 X98.4985 Y89.5236
G01 X98.5713 Y89.5344
G01 X98.6427 Y89.5523
G01 X98.7097 Y89.5762
G01 X98.7785 Y89.6086
G01 X98.8396 Y89.6451
G01 X98.9027 Y89.6918
G01 X98.9553 Y89.7397
G01 X99.0048 Y89.7942
G01 X99.0486 Y89.8533
G01 X99.0864 Y89.9165
G01 X99.1179 Y89.9830
G01 X99.1427 Y90.0523
G01 X99.1606 Y90.1237
G01 X99.1713 Y90.1953
G01 X99.1750 Y90.2700
G01 X99.1750 Y92.8700
G01 X99.1716 Y92.9411
G01 X99.1601 Y93.0187
G01 X99.1427 Y93.0877
G01 X99.1174 Y93.1581
G01 X99.0864 Y93.2235
G01 X99.0493 Y93.2856
G01 X99.0055 Y93.3448
G01 X98.9753 Y93.3784
G01 X98.9753 Y94.0200
G01 X130.2479 Y94.0200
G01 X136.7643 Y87.5036
G01 X136.7643 Y70.4015
G01 X136.7670 Y70.3476
G01 X136.7745 Y70.2966
G01 X136.7888 Y70.2394
G01 X136.8062 Y70.1909
G01 X136.8293 Y70.1421
G01 X136.8571 Y70.0958
G01 X136.8877 Y70.0544
G01 X136.9255 Y70.0124
G01 X161.1467 Y45.7912
G01 X161.1867 Y45.7550
G01 X161.2301 Y45.7228
G01 X161.2743 Y45.6962
G01 X161.3275 Y45.6711
G01 X161.3761 Y45.6537
G01 X161.4285 Y45.6406
G01 X161.4819 Y45.6327
G01 X161.5346 Y45.6301
G01 X166.4547 Y45.6300
G01 X166.4547 Y45.0098
G01 X166.4385 Y44.9948
G01 X166.3858 Y44.9366
G01 X166.3398 Y44.8745
G01 X166.2989 Y44.8060
G01 X166.2659 Y44.7361
G01 X166.2394 Y44.6622
G01 X166.2204 Y44.5861
G01 X166.2087 Y44.5072
G01 X166.2050 Y44.4300
G01 X166.2050 Y41.9300
G01 X166.2087 Y41.8528
G01 X166.2209 Y41.7715
G01 X166.2394 Y41.6978
G01 X166.2659 Y41.6239
G01 X166.3007 Y41.5507
G01 X166.3398 Y41.4855
G01 X166.3866 Y41.4225
G01 X166.4411 Y41.3626
G01 X166.4975 Y41.3116
G01 X166.5605 Y41.2648
G01 X166.6301 Y41.2234
G01 X166.6989 Y41.1909
G01 X166.7728 Y41.1644
G01 X166.8489 Y41.1454
G01 X166.9266 Y41.1339
G01 X167.0050 Y41.1300
G01 X167.0834 Y41.1339
G01 X167.1611 Y41.1454
G01 X167.2372 Y41.1644
G01 X167.3111 Y41.1909
G01 X167.3821 Y41.2245
G01 X167.4495 Y41.2648
G01 X167.5125 Y41.3116
G01 X167.5707 Y41.3643
G01 X167.6234 Y41.4225
G01 X167.6702 Y41.4855
G01 X167.7105 Y41.5529
G01 X167.7441 Y41.6239
G01 X167.7706 Y41.6978
G01 X167.7900 Y41.7763
G01 X167.8011 Y41.8516
G01 X167.8050 Y41.9288
G01 X167.8050 Y44.4312
G01 X167.8011 Y44.5084
G01 X167.7896 Y44.5861
G01 X167.7706 Y44.6622
G01 X167.7436 Y44.7373
G01 X167.7105 Y44.8071
G01 X167.6695 Y44.8755
G01 X167.6226 Y44.9385
G01 X167.5715 Y44.9948
G01 X167.5553 Y45.0098
G01 X167.5552 Y46.1815
G01 X167.5523 Y46.2367
G01 X167.5447 Y46.2876
G01 X167.5322 Y46.3377
G01 X167.5134 Y46.3909
G01 X167.4903 Y46.4397
G01 X167.4625 Y46.4860
G01 X167.4287 Y46.5312
G01 X167.3923 Y46.5711
G01 X167.3541 Y46.6056
G01 X167.3127 Y46.6364
G01 X167.2644 Y46.6656
G01 X167.2144 Y46.6891
G01 X167.1647 Y46.7069
G01 X167.1123 Y46.7200
G01 X167.0589 Y46.7279
G01 X167.0050 Y46.7306
G01 X161.7637 Y46.7306
G01 X137.8649 Y70.6294
G01 X137.8649 Y87.5036
G01 X139.9810 Y89.6197
G01 X141.2327 Y89.6197
G01 X141.2525 Y89.6080
G01 X141.3191 Y89.5766
G01 X141.3873 Y89.5523
G01 X141.4575 Y89.5347
G01 X141.5339 Y89.5234
G01 X141.6050 Y89.5200
G01 X141.6785 Y89.5236
G01 X141.7513 Y89.5344
G01 X141.8250 Y89.5531
G01 X141.8943 Y89.5781
G01 X141.9585 Y89.6086
G01 X142.0196 Y89.6451
G01 X142.0808 Y89.6902
G01 X142.1353 Y89.7397
G01 X142.1848 Y89.7942
G01 X142.2286 Y89.8533
G01 X142.2664 Y89.9165
G01 X142.2969 Y89.9807
G01 X142.3227 Y90.0523
G01 X142.3410 Y90.1261
G01 X142.3514 Y90.1965
G01 X142.3549 Y90.2675
G01 X142.3550 Y92.8700
G01 X142.3514 Y92.9435
G01 X142.3406 Y93.0163
G01 X142.3234 Y93.0853
G01 X142.2979 Y93.1570
G01 X142.2664 Y93.2235
G01 X142.2299 Y93.2846
G01 X142.1848 Y93.3458
G01 X142.1336 Y93.4020
G01 X142.0808 Y93.4498
G01 X142.0217 Y93.4936
G01 X141.9564 Y93.5325
G01 X141.8920 Y93.5629
G01 X141.8250 Y93.5869
G01 X141.7513 Y93.6056
G01 X141.6785 Y93.6164
G01 X141.6050 Y93.6200
G01 X141.5315 Y93.6164
G01 X141.4587 Y93.6056
G01 X141.3873 Y93.5877
G01 X141.3180 Y93.5629
G01 X141.2515 Y93.5314
G01 X141.1883 Y93.4936
G01 X141.1292 Y93.4498
G01 X141.0747 Y93.4003
G01 X141.0252 Y93.3458
G01 X140.9814 Y93.2867
G01 X140.9436 Y93.2235
G01 X140.9121 Y93.1570
G01 X140.8877 Y93.0889
G01 X140.8690 Y93.0139
G01 X140.8586 Y92.9435
G01 X140.8550 Y92.8712
G01 X140.8550 Y90.7203
G01 X139.7531 Y90.7203
G01 X139.7004 Y90.7177
G01 X139.6458 Y90.7097
G01 X139.5910 Y90.6958
G01 X139.5425 Y90.6784
G01 X139.4959 Y90.6564
G01 X139.4484 Y90.6282
G01 X139.4040 Y90.5953
G01 X139.3640 Y90.5591
G01 X137.3146 Y88.5097
G01 X130.8649 Y94.9594
G01 X130.8249 Y94.9956
G01 X130.7835 Y95.0264
G01 X130.7352 Y95.0556
G01 X130.6841 Y95.0795
G01 X130.6355 Y95.0969
G01 X130.5843 Y95.1097
G01 X130.5297 Y95.1179
G01 X130.4758 Y95.1206
G01 X98.6529 Y95.1206
G01 X95.7451 Y98.0283
G01 X95.7060 Y98.0637
G01 X95.6626 Y98.0959
G01 X95.6163 Y98.1237
G01 X95.5697 Y98.1458
G01 X95.5143 Y98.1656
G01 X95.4642 Y98.1781
G01 X95.4096 Y98.1861
G01 X95.3569 Y98.1887
G01 X16.4019 Y98.1886
G01 X16.3492 Y98.1860
G01 X16.2958 Y98.1781
G01 X16.2434 Y98.1650
G01 X16.1925 Y98.1468
G01 X16.1437 Y98.1237
G01 X16.0974 Y98.0959
G01 X16.0540 Y98.0637
G01 X16.0149 Y98.0283
G01 X12.9459 Y94.9594
G01 X12.9097 Y94.9194
G01 X12.8775 Y94.8760
G01 X12.8497 Y94.8297
G01 X12.8262 Y94.7797
G01 X12.8084 Y94.7300
G01 X12.7953 Y94.6776
G01 X12.7874 Y94.6242
G01 X12.7848 Y94.5715
G01 X12.7847 Y93.3784
G01 X12.7545 Y93.3448
G01 X12.7107 Y93.2856
G01 X12.6736 Y93.2235
G01 X12.6426 Y93.1581
G01 X12.6173 Y93.0877
G01 X12.5999 Y93.0187
G01 X12.5884 Y92.9411
G01 X12.5850 Y92.8700
G01 X12.5851 Y90.2675
G01 X12.5886 Y90.1965
G01 X12.5990 Y90.1261
G01 X12.6173 Y90.0523
G01 X12.6431 Y89.9807
G01 X12.6736 Y89.9165
G01 X12.7114 Y89.8533
G01 X12.7552 Y89.7942
G01 X12.8030 Y89.7414
G01 X12.8592 Y89.6902
G01 X12.9183 Y89.6464
G01 X12.9793 Y89.6098
G01 X13.0491 Y89.5766
G01 X13.1173 Y89.5523
G01 X13.1911 Y89.5340
G01 X13.2639 Y89.5234
G01 X13.3350 Y89.5200
G01 X13.4061 Y89.5234
G01 X13.4813 Y89.5344
G01 X13.5527 Y89.5523
G01 X13.6220 Y89.5771
G01 X13.6885 Y89.6086
G01 X13.7517 Y89.6464
G01 X13.8127 Y89.6918
G01 X13.8670 Y89.7414
G01 X13.9148 Y89.7942
G01 X13.9572 Y89.8513
G01 X13.9964 Y89.9165
G01 X14.0279 Y89.9830
G01 X14.0527 Y90.0523
G01 X14.0708 Y90.1249
G01 X14.0814 Y90.1965
G01 X14.0850 Y90.2700
G01 X14.0849 Y92.8725
G01 X14.0814 Y92.9435
G01 X14.0706 Y93.0163
G01 X14.0527 Y93.0877
G01 X14.0284 Y93.1559
G01 X13.9964 Y93.2235
G01 X13.9593 Y93.2856
G01 X13.9155 Y93.3448
G01 X13.8853 Y93.3784
G01 X13.8853 Y94.3424
G01 X16.6310 Y97.0881
G01 X55.3297 Y97.0881
G01 X55.3297 Y93.3784
G01 X55.2995 Y93.3448
G01 X55.2557 Y93.2856
G01 X55.2186 Y93.2235
G01 X55.1876 Y93.1581
G01 X55.1616 Y93.0853
G01 X55.1444 Y93.0163
G01 X55.1335 Y92.9423
G01 X55.1300 Y92.8700
G01 X55.1300 Y90.2765
G01 X49.5491 Y84.6956
G01 X49.5113 Y84.6536
G01 X49.4807 Y84.6122
G01 X49.4535 Y84.5670
G01 X49.4298 Y84.5171
G01 X49.4110 Y84.4639
G01 X49.3985 Y84.4138
G01 X49.3909 Y84.3629
G01 X49.3880 Y84.3077
G01 X49.3879 Y80.0729
G01 X37.7167 Y68.4017
G01 X33.5948 Y68.4016
G01 X33.5421 Y68.3990
G01 X33.4887 Y68.3911
G01 X33.4363 Y68.3780
G01 X33.3877 Y68.3606
G01 X33.3366 Y68.3367
G01 X33.2924 Y68.3102
G01 X33.2451 Y68.2751
G01 X33.2069 Y68.2405
G01 X10.5272 Y45.5608
G01 X10.4917 Y45.5217
G01 X10.4588 Y45.4774
G01 X10.4322 Y45.4332
G01 X10.4071 Y45.3800
G01 X10.3897 Y45.3314
G01 X10.3766 Y45.2790
G01 X10.3687 Y45.2256
G01 X10.3661 Y45.1729
G01 X10.3661 Y39.2017
G00 Z2.0000
G00 X11.9042 Y41.8492
G01 F60.00
G01 Z-0.15
G01 F200.00
G01 X11.9154 Y41.7739
G01 X11.9344 Y41.6978
G01 X11.9609 Y41.6239
G01 X11.9934 Y41.5551
G01 X12.0362 Y41.4835
G01 X12.0816 Y41.4225
G01 X12.1343 Y41.3643
G01 X12.1925 Y41.3116
G01 X12.2535 Y41.2662
G01 X12.3251 Y41.2234
G01 X12.3939 Y41.1909
G01 X12.4678 Y41.1644
G01 X12.5439 Y41.1454
G01 X12.6216 Y41.1339
G01 X12.7000 Y41.1300
G01 X12.7760 Y41.1337
G01 X12.8585 Y41.1459
G01 X12.9322 Y41.1644
G01 X13.0061 Y41.1909
G01 X13.0771 Y41.2245
G01 X13.1445 Y41.2648
G01 X13.2075 Y41.3116
G01 X13.2657 Y41.3643
G01 X13.3184 Y41.4225
G01 X13.3638 Y41.4835
G01 X13.4066 Y41.5551
G01 X13.4391 Y41.6239
G01 X13.4656 Y41.6978
G01 X13.4846 Y41.7739
G01 X13.4958 Y41.8492
G01 X13.5000 Y41.9300
G01 X13.5000 Y44.4300
G01 X13.4961 Y44.5084
G01 X13.4850 Y44.5837
G01 X13.4648 Y44.6646
G01 X13.4391 Y44.7361
G01 X13.4066 Y44.8049
G01 X13.3652 Y44.8745
G01 X13.3168 Y44.9394
G01 X13.2657 Y44.9957
G01 X13.2094 Y45.0468
G01 X13.1445 Y45.0952
G01 X13.0749 Y45.1366
G01 X13.0061 Y45.1691
G01 X12.9322 Y45.1956
G01 X12.8561 Y45.2146
G01 X12.7784 Y45.2261
G01 X12.7000 Y45.2300
G01 X12.6216 Y45.2261
G01 X12.5439 Y45.2146
G01 X12.4678 Y45.1956
G01 X12.3939 Y45.1691
G01 X12.3229 Y45.1355
G01 X12.2555 Y45.0952
G01 X12.1925 Y45.0484
G01 X12.1343 Y44.9957
G01 X12.0816 Y44.9375
G01 X12.0348 Y44.8745
G01 X11.9945 Y44.8071
G01 X11.9609 Y44.7361
G01 X11.9344 Y44.6622
G01 X11.9154 Y44.5861
G01 X11.9042 Y44.5108
G01 X11.9000 Y44.4300
G01 X11.9000 Y41.9300
G01 X11.9042 Y41.8492
G00 Z2.0000
G00 X14.4442 Y41.8492
G01 F60.00
G01 Z-0.15
G01 F200.00
G01 X14.4554 Y41.7739
G01 X14.4744 Y41.6978
G01 X14.5009 Y41.6239
G01 X14.5339 Y41.5540
G01 X14.5748 Y41.4855
G01 X14.6208 Y41.4234
G01 X14.6735 Y41.3652
G01 X14.6897 Y41.3502
G01 X14.6898 Y40.1785
G01 X14.6924 Y40.1258
G01 X14.6999 Y40.0748
G01 X14.7142 Y40.0176
G01 X14.7316 Y39.9691
G01 X14.7536 Y39.9225
G01 X14.7839 Y39.8720
G01 X14.8147 Y39.8306
G01 X14.8509 Y39.7906
G01 X14.8909 Y39.7544
G01 X14.9323 Y39.7236
G01 X14.9828 Y39.6933
G01 X15.0294 Y39.6713
G01 X15.0803 Y39.6531
G01 X15.1351 Y39.6396
G01 X15.1861 Y39.6321
G01 X15.2375 Y39.6295
G01 X73.8477 Y39.6294
G01 X78.8247 Y34.6524
G01 X78.8247 Y33.6884
G01 X78.7945 Y33.6548
G01 X78.7507 Y33.5956
G01 X78.7136 Y33.5335
G01 X78.6816 Y33.4659
G01 X78.6573 Y33.3977
G01 X78.6394 Y33.3263
G01 X78.6286 Y33.2535
G01 X78.6251 Y33.1825
G01 X78.6250 Y30.5800
G01 X78.6289 Y30.5041
G01 X78.6394 Y30.4337
G01 X78.6573 Y30.3623
G01 X78.6821 Y30.2930
G01 X78.7125 Y30.2286
G01 X78.7528 Y30.1613
G01 X78.7952 Y30.1042
G01 X78.8447 Y30.0497
G01 X78.8992 Y30.0002
G01 X78.9583 Y29.9564
G01 X79.0215 Y29.9186
G01 X79.0857 Y29.8881
G01 X79.1597 Y29.8616
G01 X79.2287 Y29.8444
G01 X79.3015 Y29.8336
G01 X79.3750 Y29.8300
G01 X79.4461 Y29.8334
G01 X79.5237 Y29.8449
G01 X79.5927 Y29.8623
G01 X79.6620 Y29.8871
G01 X79.7285 Y29.9186
G01 X79.7896 Y29.9551
G01 X79.8527 Y30.0018
G01 X79.9053 Y30.0497
G01 X79.9548 Y30.1042
G01 X79.9986 Y30.1633
G01 X80.0352 Y30.2243
G01 X80.0688 Y30.2953
G01 X80.0927 Y30.3623
G01 X80.1108 Y30.4349
G01 X80.1214 Y30.5065
G01 X80.1250 Y30.5800
G01 X80.1250 Y33.1800
G01 X80.1216 Y33.2511
G01 X80.1101 Y33.3287
G01 X80.0927 Y33.3977
G01 X80.0674 Y33.4681
G01 X80.0364 Y33.5335
G01 X79.9993 Y33.5956
G01 X79.9555 Y33.6548
G01 X79.9253 Y33.6884
G01 X79.9252 Y34.8828
G01 X79.9223 Y34.9367
G01 X79.9147 Y34.9876
G01 X79.9022 Y35.0377
G01 X79.8834 Y35.0909
G01 X79.8597 Y35.1408
G01 X79.8325 Y35.1860
G01 X79.8019 Y35.2274
G01 X79.7641 Y35.2694
G01 X74.4647 Y40.5688
G01 X74.4247 Y40.6050
G01 X74.3792 Y40.6385
G01 X74.3350 Y40.6650
G01 X74.2884 Y40.6871
G01 X74.2353 Y40.7063
G01 X74.1829 Y40.7194
G01 X74.1320 Y40.7270
G01 X74.0756 Y40.7300
G01 X56.4303 Y40.7300
G01 X56.4303 Y41.3502
G01 X56.4465 Y41.3652
G01 X56.4992 Y41.4234
G01 X56.5452 Y41.4855
G01 X56.5861 Y41.5540
G01 X56.6191 Y41.6239
G01 X56.6456 Y41.6978
G01 X56.6646 Y41.7739
G01 X56.6763 Y41.8528
G01 X56.6800 Y41.9300
G01 X56.6800 Y44.4300
G01 X56.6761 Y44.5084
G01 X56.6646 Y44.5861
G01 X56.6462 Y44.6599
G01 X56.6181 Y44.7384
G01 X56.5855 Y44.8071
G01 X56.5452 Y44.8745
G01 X56.4984 Y44.9375
G01 X56.4474 Y44.9939
G01 X56.3856 Y45.0499
G01 X56.3245 Y45.0952
G01 X56.2571 Y45.1355
G01 X56.1861 Y45.1691
G01 X56.1146 Y45.1948
G01 X56.0349 Y45.2149
G01 X55.9584 Y45.2261
G01 X55.8800 Y45.2300
G01 X55.8016 Y45.2261
G01 X55.7239 Y45.2146
G01 X55.6478 Y45.1956
G01 X55.5739 Y45.1691
G01 X55.5029 Y45.1355
G01 X55.4355 Y45.0952
G01 X55.3725 Y45.0484
G01 X55.3143 Y44.9957
G01 X55.2616 Y44.9375
G01 X55.2148 Y44.8745
G01 X55.1745 Y44.8071
G01 X55.1409 Y44.7361
G01 X55.1144 Y44.6622
G01 X55.0950 Y44.5837
G01 X55.0839 Y44.5084
G01 X55.0800 Y44.4300
G01 X55.0800 Y41.9300
G01 X55.0837 Y41.8540
G01 X55.0954 Y41.7739
G01 X55.1144 Y41.6978
G01 X55.1409 Y41.6239
G01 X55.1739 Y41.5540
G01 X55.2148 Y41.4855
G01 X55.2608 Y41.4234
G01 X55.3135 Y41.3652
G01 X55.3297 Y41.3502
G01 X55.3297 Y40.7300
G01 X15.7903 Y40.7300
G01 X15.7903 Y41.3502
G01 X15.8065 Y41.3652
G01 X15.8592 Y41.4234
G01 X15.9052 Y41.4855
G01 X15.9461 Y41.5540
G01 X15.9791 Y41.6239
G01 X16.0056 Y41.6978
G01 X16.0246 Y41.7739
G01 X16.0363 Y41.8528
G01 X16.0400 Y41.9300
G01 X16.0400 Y44.4300
G01 X16.0360 Y44.5096
G01 X16.0246 Y44.5861
G01 X16.0056 Y44.6622
G01 X15.9791 Y44.7361
G01 X15.9466 Y44.8049
G01 X15.9052 Y44.8745
G01 X15.8599 Y44.9356
G01 X15.8039 Y44.9974
G01 X15.7475 Y45.0484
G01 X15.6845 Y45.0952
G01 X15.6171 Y45.1355
G01 X15.5461 Y45.1691
G01 X15.4722 Y45.1956
G01 X15.3961 Y45.2146
G01 X15.3184 Y45.2261
G01 X15.2412 Y45.2300
G01 X15.1616 Y45.2261
G01 X15.0863 Y45.2150
G01 X15.0054 Y45.1948
G01 X14.9339 Y45.1691
G01 X14.8629 Y45.1355
G01 X14.7955 Y45.0952
G01 X14.7325 Y45.0484
G01 X14.6743 Y44.9957
G01 X14.6232 Y44.9394
G01 X14.5735 Y44.8724
G01 X14.5345 Y44.8071
G01 X14.5009 Y44.7361
G01 X14.4744 Y44.6622
G01 X14.4556 Y44.5873
G01 X14.4439 Y44.5084
G01 X14.4400 Y44.4300
G01 X14.4400 Y41.9300
G01 X14.4442 Y41.8492
G00 Z2.0000
G00 X16.9800 Y45.1800
G01 F60.00
G01 Z-0.15
G01 F200.00
G01 X16.9800 Y41.1800
G01 X16.9810 Y41.1702
G01 X16.9834 Y41.1620
G01 X16.9865 Y41.1554
G01 X16.9906 Y41.1492
G01 X16.9955 Y41.1438
G01 X17.0012 Y41.1391
G01 X17.0075 Y41.1353
G01 X17.0143 Y41.1325
G01 X17.0215 Y41.1307
G01 X17.0288 Y41.1300
G01 X18.5300 Y41.1300
G01 X18.5385 Y41.1307
G01 X18.5480 Y41.1334
G01 X18.5557 Y41.1371
G01 X18.5617 Y41.1413
G01 X18.5670 Y41.1464
G01 X18.5716 Y41.1522
G01 X18.5752 Y41.1586
G01 X18.5778 Y41.1655
G01 X18.5795 Y41.1727
G01 X18.5800 Y41.1800
G01 X18.5800 Y45.1800
G01 X18.5793 Y45.1885
G01 X18.5766 Y45.1980
G01 X18.5735 Y45.2046
G01 X18.5694 Y45.2108
G01 X18.5645 Y45.2162
G01 X18.5588 Y45.2209
G01 X18.5525 Y45.2247
G01 X18.5457 Y45.2275
G01 X18.5385 Y45.2293
G01 X18.5312 Y45.2300
G01 X17.0300 Y45.2300
G01 X17.0202 Y45.2290
G01 X17.0109 Y45.2262
G01 X17.0022 Y45.2216
G01 X16.9946 Y45.2154
G01 X16.9884 Y45.2078
G01 X16.9838 Y45.1991
G01 X16.9810 Y45.1898
G01 X16.9800 Y45.1800
G00 Z2.0000
G00 X16.3492 Y55.8192
G01 F60.00
G01 Z-0.15
G01 F200.00
G01 X16.3604 Y55.7439
G01 X16.3794 Y55.6678
G01 X16.4059 Y55.5939
G01 X16.4384 Y55.5251
G01 X16.4812 Y55.4535
G01 X16.5266 Y55.3925
G01 X16.5793 Y55.3343
G01 X16.6375 Y55.2816
G01 X16.6985 Y55.2362
G01 X16.7701 Y55.1934
G01 X16.8389 Y55.1609
G01 X16.9128 Y55.1344
G01 X16.9889 Y55.1154
G01 X17.0666 Y55.1039
G01 X17.1450 Y55.1000
G01 X17.2234 Y55.1039
G01 X17.3011 Y55.1154
G01 X17.3749 Y55.1338
G01 X17.4534 Y55.1619
G01 X17.5221 Y55.1945
G01 X17.5895 Y55.2348
G01 X17.6525 Y55.2816
G01 X17.7107 Y55.3343
G01 X17.7634 Y55.3925
G01 X17.8088 Y55.4535
G01 X17.8516 Y55.5251
G01 X17.8841 Y55.5939
G01 X17.9106 Y55.6678
G01 X17.9296 Y55.7439
G01 X17.9408 Y55.8192
G01 X17.9450 Y55.9000
G01 X17.9450 Y58.4000
G01 X17.9411 Y58.4784
G01 X17.9300 Y58.5537
G01 X17.9098 Y58.6346
G01 X17.8841 Y58.7061
G01 X17.8516 Y58.7749
G01 X17.8102 Y58.8445
G01 X17.7618 Y58.9094
G01 X17.7107 Y58.9657
G01 X17.6544 Y59.0168
G01 X17.5895 Y59.0652
G01 X17.5199 Y59.1066
G01 X17.4511 Y59.1391
G01 X17.3772 Y59.1656
G01 X17.3011 Y59.1846
G01 X17.2234 Y59.1961
G01 X17.1450 Y59.2000
G01 X17.0666 Y59.1961
G01 X16.9889 Y59.1846
G01 X16.9128 Y59.1656
G01 X16.8389 Y59.1391
G01 X16.7679 Y59.1055
G01 X16.7005 Y59.0652
G01 X16.6375 Y59.0184
G01 X16.5793 Y58.9657
G01 X16.5266 Y58.9075
G01 X16.4798 Y58.8445
G01 X16.4395 Y58.7771
G01 X16.4059 Y58.7061
G01 X16.3794 Y58.6322
G01 X16.3604 Y58.5561
G01 X16.3492 Y58.4808
G01 X16.3450 Y58.4000
G01 X16.3450 Y55.9000
G01 X16.3492 Y55.8192
G00 Z2.0000
G00 X13.8092 Y55.8192
G01 F60.00
G01 Z-0.15
G01 F200.00
G01 X13.8204 Y55.7439
G01 X13.8394 Y55.6678
G01 X13.8659 Y55.5939
G01 X13.8984 Y55.5251
G01 X13.9412 Y55.4535
G01 X13.9866 Y55.3925
G01 X14.0393 Y55.3343
G01 X14.0975 Y55.2816
G01 X14.1585 Y55.2362
G01 X14.2301 Y55.1934
G01 X14.2989 Y55.1609
G01 X14.3728 Y55.1344
G01 X14.4489 Y55.1154
G01 X14.5266 Y55.1039
G01 X14.6050 Y55.1000
G01 X14.6834 Y55.1039
G01 X14.7611 Y55.1154
G01 X14.8349 Y55.1338
G01 X14.9134 Y55.1619
G01 X14.9821 Y55.1945
G01 X15.0495 Y55.2348
G01 X15.1125 Y55.2816
G01 X15.1707 Y55.3343
G01 X15.2234 Y55.3925
G01 X15.2688 Y55.4535
G01 X15.3116 Y55.5251
G01 X15.3441 Y55.5939
G01 X15.3706 Y55.6678
G01 X15.3896 Y55.7439
G01 X15.4008 Y55.8192
G01 X15.4050 Y55.9000
G01 X15.4050 Y58.4000
G01 X15.4011 Y58.4784
G01 X15.3900 Y58.5537
G01 X15.3698 Y58.6346
G01 X15.3441 Y58.7061
G01 X15.3116 Y58.7749
G01 X15.2702 Y58.8445
G01 X15.2218 Y58.9094
G01 X15.1707 Y58.9657
G01 X15.1144 Y59.0168
G01 X15.0495 Y59.0652
G01 X14.9799 Y59.1066
G01 X14.9111 Y59.1391
G01 X14.8372 Y59.1656
G01 X14.7611 Y59.1846
G01 X14.6834 Y59.1961
G01 X14.6050 Y59.2000
G01 X14.5266 Y59.1961
G01 X14.4489 Y59.1846
G01 X14.3728 Y59.1656
G01 X14.2989 Y59.1391
G01 X14.2279 Y59.1055
G01 X14.1605 Y59.0652
G01 X14.0975 Y59.0184
G01 X14.0393 Y58.9657
G01 X13.9866 Y58.9075
G01 X13.9398 Y58.8445
G01 X13.8995 Y58.7771
G01 X13.8659 Y58.7061
G01 X13.8394 Y58.6322
G01 X13.8204 Y58.5561
G01 X13.8092 Y58.4808
G01 X13.8050 Y58.4000
G01 X13.8050 Y55.9000
G01 X13.8092 Y55.8192
G00 Z2.0000
G00 X11.2650 Y59.1500
G01 F60.00
G01 Z-0.15
G01 F200.00
G01 X11.2650 Y55.1500
G01 X11.2657 Y55.1415
G01 X11.2684 Y55.1320
G01 X11.2715 Y55.1254
G01 X11.2756 Y55.1192
G01 X11.2805 Y55.1138
G01 X11.2862 Y55.1091
G01 X11.2925 Y55.1053
G01 X11.2993 Y55.1025
G01 X11.3065 Y55.1007
G01 X11.3138 Y55.1000
G01 X12.8150 Y55.1000
G01 X12.8248 Y55.1010
G01 X12.8330 Y55.1034
G01 X12.8407 Y55.1071
G01 X12.8467 Y55.1113
G01 X12.8520 Y55.1164
G01 X12.8566 Y55.1222
G01 X12.8602 Y55.1286
G01 X12.8628 Y55.1355
G01 X12.8645 Y55.1427
G01 X12.8650 Y55.1500
G01 X12.8650 Y59.1500
G01 X12.8643 Y59.1585
G01 X12.8616 Y59.1680
G01 X12.8585 Y59.1746
G01 X12.8544 Y59.1808
G01 X12.8495 Y59.1862
G01 X12.8438 Y59.1909
G01 X12.8375 Y59.1947
G01 X12.8307 Y59.1975
G01 X12.8235 Y59.1993
G01 X12.8162 Y59.2000
G01 X11.3150 Y59.2000
G01 X11.3052 Y59.1990
G01 X11.2959 Y59.1962
G01 X11.2872 Y59.1916
G01 X11.2796 Y59.1854
G01 X11.2734 Y59.1778
G01 X11.2688 Y59.1691
G01 X11.2660 Y59.1598
G01 X11.2650 Y59.1500
G00 Z2.0000
G00 X10.6342 Y71.0592
G01 F60.00
G01 Z-0.15
G01 F200.00
G01 X10.6454 Y70.9839
G01 X10.6644 Y70.9078
G01 X10.6909 Y70.8339
G01 X10.7234 Y70.7651
G01 X10.7662 Y70.6935
G01 X10.8116 Y70.6325
G01 X10.8643 Y70.5743
G01 X10.9225 Y70.5216
G01 X10.9835 Y70.4762
G01 X11.0551 Y70.4334
G01 X11.1239 Y70.4009
G01 X11.1978 Y70.3744
G01 X11.2739 Y70.3554
G01 X11.3516 Y70.3439
G01 X11.4300 Y70.3400
G01 X11.5084 Y70.3439
G01 X11.5861 Y70.3554
G01 X11.6599 Y70.3738
G01 X11.7384 Y70.4019
G01 X11.8071 Y70.4345
G01 X11.8745 Y70.4748
G01 X11.9375 Y70.5216
G01 X11.9939 Y70.5726
G01 X12.0499 Y70.6344
G01 X12.0952 Y70.6955
G01 X12.1355 Y70.7629
G01 X12.1691 Y70.8339
G01 X12.1948 Y70.9054
G01 X12.2150 Y70.9863
G01 X12.2261 Y71.0616
G01 X12.2300 Y71.1400
G01 X12.2300 Y73.6400
G01 X12.2263 Y73.7160
G01 X12.2146 Y73.7961
G01 X12.1956 Y73.8722
G01 X12.1691 Y73.9461
G01 X12.1361 Y74.0160
G01 X12.0952 Y74.0845
G01 X12.0492 Y74.1466
G01 X11.9965 Y74.2048
G01 X11.9803 Y74.2198
G01 X11.9803 Y74.8400
G01 X13.1156 Y74.8400
G01 X13.1683 Y74.8426
G01 X13.2253 Y74.8512
G01 X13.2753 Y74.8637
G01 X13.3262 Y74.8819
G01 X13.3750 Y74.9050
G01 X13.4192 Y74.9315
G01 X13.4656 Y74.9657
G01 X13.5047 Y75.0012
G01 X21.3441 Y82.8406
G01 X21.3803 Y82.8806
G01 X21.4132 Y82.9250
G01 X21.4414 Y82.9725
G01 X21.4634 Y83.0191
G01 X21.4808 Y83.0676
G01 X21.4947 Y83.1224
G01 X21.5027 Y83.1770
G01 X21.5053 Y83.2297
G01 X21.5053 Y84.4216
G01 X21.5355 Y84.4552
G01 X21.5793 Y84.5144
G01 X21.6164 Y84.5765
G01 X21.6474 Y84.6419
G01 X21.6734 Y84.7147
G01 X21.6906 Y84.7837
G01 X21.7015 Y84.8577
G01 X21.7050 Y84.9300
G01 X21.7050 Y87.5300
G01 X21.7011 Y87.6059
G01 X21.6906 Y87.6763
G01 X21.6734 Y87.7453
G01 X21.6479 Y87.8170
G01 X21.6164 Y87.8835
G01 X21.5772 Y87.9487
G01 X21.5348 Y88.0058
G01 X21.4870 Y88.0586
G01 X21.4308 Y88.1098
G01 X21.3706 Y88.1543
G01 X21.3064 Y88.1925
G01 X21.2420 Y88.2229
G01 X21.1750 Y88.2469
G01 X21.1013 Y88.2656
G01 X21.0285 Y88.2764
G01 X20.9550 Y88.2800
G01 X20.8791 Y88.2761
G01 X20.8087 Y88.2656
G01 X20.7397 Y88.2484
G01 X20.6680 Y88.2229
G01 X20.6015 Y88.1914
G01 X20.5363 Y88.1522
G01 X20.4792 Y88.1098
G01 X20.4264 Y88.0620
G01 X20.3752 Y88.0058
G01 X20.3301 Y87.9446
G01 X20.2936 Y87.8835
G01 X20.2631 Y87.8193
G01 X20.2373 Y87.7477
G01 X20.2194 Y87.6763
G01 X20.2086 Y87.6035
G01 X20.2050 Y87.5300
G01 X20.2051 Y84.9275
G01 X20.2086 Y84.8565
G01 X20.2194 Y84.7837
G01 X20.2373 Y84.7123
G01 X20.2616 Y84.6441
G01 X20.2936 Y84.5765
G01 X20.3307 Y84.5144
G01 X20.3745 Y84.4552
G01 X20.4047 Y84.4216
G01 X20.4047 Y83.4576
G01 X12.8877 Y75.9406
G01 X11.4300 Y75.9406
G01 X11.3748 Y75.9378
G01 X11.3227 Y75.9300
G01 X11.2679 Y75.9161
G01 X11.2172 Y75.8977
G01 X11.1706 Y75.8756
G01 X11.1264 Y75.8491
G01 X11.0809 Y75.8156
G01 X11.0409 Y75.7794
G01 X11.0047 Y75.7394
G01 X10.9718 Y75.6950
G01 X10.9436 Y75.6475
G01 X10.9216 Y75.6009
G01 X10.9042 Y75.5524
G01 X10.8903 Y75.4976
G01 X10.8823 Y75.4430
G01 X10.8797 Y75.3903
G01 X10.8797 Y74.2198
G01 X10.8635 Y74.2048
G01 X10.8108 Y74.1466
G01 X10.7648 Y74.0845
G01 X10.7239 Y74.0160
G01 X10.6909 Y73.9461
G01 X10.6644 Y73.8722
G01 X10.6454 Y73.7961
G01 X10.6337 Y73.7172
G01 X10.6300 Y73.6400
G01 X10.6300 Y71.1400
G01 X10.6342 Y71.0592
G00 Z2.0000
G00 X13.1742 Y71.0592
G01 F60.00
G01 Z-0.15
G01 F200.00
G01 X13.1854 Y70.9839
G01 X13.2044 Y70.9078
G01 X13.2309 Y70.8339
G01 X13.2634 Y70.7651
G01 X13.3062 Y70.6935
G01 X13.3516 Y70.6325
G01 X13.4043 Y70.5743
G01 X13.4625 Y70.5216
G01 X13.5235 Y70.4762
G01 X13.5951 Y70.4334
G01 X13.6639 Y70.4009
G01 X13.7378 Y70.3744
G01 X13.8139 Y70.3554
G01 X13.8916 Y70.3439
G01 X13.9700 Y70.3400
G01 X14.0484 Y70.3439
G01 X14.1261 Y70.3554
G01 X14.1999 Y70.3738
G01 X14.2784 Y70.4019
G01 X14.3471 Y70.4345
G01 X14.4145 Y70.4748
G01 X14.4775 Y70.5216
G01 X14.5357 Y70.5743
G01 X14.5884 Y70.6325
G01 X14.6338 Y70.6935
G01 X14.6766 Y70.7651
G01 X14.7091 Y70.8339
G01 X14.7356 Y70.9078
G01 X14.7546 Y70.9839
G01 X14.7658 Y71.0592
G01 X14.7700 Y71.1400
G01 X14.7700 Y73.6400
G01 X14.7661 Y73.7184
G01 X14.7550 Y73.7937
G01 X14.7348 Y73.8746
G01 X14.7091 Y73.9461
G01 X14.6766 Y74.0149
G01 X14.6352 Y74.0845
G01 X14.5868 Y74.1494
G01 X14.5357 Y74.2057
G01 X14.4794 Y74.2568
G01 X14.4145 Y74.3052
G01 X14.3449 Y74.3466
G01 X14.2761 Y74.3791
G01 X14.2022 Y74.4056
G01 X14.1261 Y74.4246
G01 X14.0484 Y74.4361
G01 X13.9700 Y74.4400
G01 X13.8916 Y74.4361
G01 X13.8139 Y74.4246
G01 X13.7378 Y74.4056
G01 X13.6639 Y74.3791
G01 X13.5929 Y74.3455
G01 X13.5255 Y74.3052
G01 X13.4625 Y74.2584
G01 X13.4043 Y74.2057
G01 X13.3516 Y74.1475
G01 X13.3048 Y74.0845
G01 X13.2645 Y74.0171
G01 X13.2309 Y73.9461
G01 X13.2044 Y73.8722
G01 X13.1854 Y73.7961
G01 X13.1742 Y73.7208
G01 X13.1700 Y73.6400
G01 X13.1700 Y71.1400
G01 X13.1742 Y71.0592
G00 Z2.0000
G00 X15.7600 Y70.3400
G01 F60.00
G01 Z-0.15
G01 F200.00
G01 X17.2612 Y70.3400
G01 X17.2685 Y70.3407
G01 X17.2757 Y70.3425
G01 X17.2825 Y70.3453
G01 X17.2888 Y70.3491
G01 X17.2945 Y70.3538
G01 X17.2994 Y70.3592
G01 X17.3035 Y70.3654
G01 X17.3071 Y70.3732
G01 X17.3093 Y70.3815
G01 X17.3100 Y70.3900
G01 X17.3100 Y74.3900
G01 X17.3095 Y74.3973
G01 X17.3078 Y74.4045
G01 X17.3052 Y74.4114
G01 X17.3009 Y74.4188
G01 X17.2962 Y74.4245
G01 X17.2908 Y74.4294
G01 X17.2836 Y74.4341
G01 X17.2768 Y74.4371
G01 X17.2685 Y74.4393
G01 X17.2600 Y74.4400
G01 X15.7588 Y74.4400
G01 X15.7515 Y74.4393
G01 X15.7432 Y74.4371
G01 X15.7364 Y74.4341
G01 X15.7302 Y74.4302
G01 X15.7246 Y74.4254
G01 X15.7198 Y74.4198
G01 X15.7159 Y74.4136
G01 X15.7129 Y74.4068
G01 X15.7107 Y74.3985
G01 X15.7100 Y74.3900
G01 X15.7100 Y70.3900
G01 X15.7110 Y70.3802
G01 X15.7138 Y70.3709
G01 X15.7184 Y70.3622
G01 X15.7246 Y70.3546
G01 X15.7322 Y70.3484
G01 X15.7409 Y70.3438
G01 X15.7502 Y70.3410
G01 X15.7600 Y70.3400
G00 Z2.0000
G00 X12.5864 Y84.4099
G01 F60.00
G01 Z-0.15
G01 F200.00
G01 X12.5894 Y84.3888
G01 X12.5948 Y84.3658
G01 X12.6023 Y84.3434
G01 X12.6118 Y84.3218
G01 X12.6233 Y84.3011
G01 X12.6367 Y84.2816
G01 X12.6518 Y84.2635
G01 X12.6685 Y84.2468
G01 X12.6866 Y84.2317
G01 X12.7061 Y84.2183
G01 X12.7268 Y84.2068
G01 X12.7484 Y84.1973
G01 X12.7708 Y84.1898
G01 X12.7938 Y84.1844
G01 X12.8172 Y84.1811
G01 X12.8396 Y84.1800
G01 X13.8292 Y84.1800
G01 X13.8567 Y84.1815
G01 X13.8791 Y84.1849
G01 X13.9011 Y84.1904
G01 X13.9271 Y84.1995
G01 X13.9498 Y84.2102
G01 X13.9692 Y84.2218
G01 X13.9915 Y84.2381
G01 X14.0118 Y84.2567
G01 X14.0269 Y84.2735
G01 X14.0419 Y84.2937
G01 X14.0559 Y84.3174
G01 X14.0655 Y84.3379
G01 X14.0736 Y84.3604
G01 X14.0805 Y84.3883
G01 X14.0838 Y84.4107
G01 X14.0850 Y84.4358
G01 X14.0849 Y88.0267
G01 X14.0838 Y88.0493
G01 X14.0805 Y88.0717
G01 X14.0732 Y88.1008
G01 X14.0655 Y88.1221
G01 X14.0548 Y88.1448
G01 X14.0419 Y88.1663
G01 X14.0284 Y88.1845
G01 X14.0083 Y88.2068
G01 X13.9915 Y88.2219
G01 X13.9713 Y88.2369
G01 X13.9476 Y88.2509
G01 X13.9271 Y88.2605
G01 X13.9046 Y88.2686
G01 X13.8767 Y88.2755
G01 X13.8543 Y88.2788
G01 X13.8292 Y88.2800
G01 X12.8408 Y88.2800
G01 X12.8145 Y88.2786
G01 X12.7909 Y88.2751
G01 X12.7689 Y88.2696
G01 X12.7429 Y88.2605
G01 X12.7202 Y88.2498
G01 X12.7008 Y88.2382
G01 X12.6785 Y88.2219
G01 X12.6582 Y88.2033
G01 X12.6431 Y88.1865
G01 X12.6281 Y88.1663
G01 X12.6141 Y88.1426
G01 X12.6045 Y88.1221
G01 X12.5964 Y88.0996
G01 X12.5895 Y88.0717
G01 X12.5862 Y88.0493
G01 X12.5850 Y88.0242
G01 X12.5850 Y84.4358
G01 X12.5864 Y84.4099
G00 Z2.0000
G00 X15.1289 Y84.8541
G01 F60.00
G01 Z-0.15
G01 F200.00
G01 X15.1394 Y84.7837
G01 X15.1573 Y84.7123
G01 X15.1821 Y84.6430
G01 X15.2125 Y84.5786
G01 X15.2528 Y84.5113
G01 X15.2952 Y84.4542
G01 X15.3447 Y84.3997
G01 X15.3992 Y84.3502
G01 X15.4583 Y84.3064
G01 X15.5215 Y84.2686
G01 X15.5857 Y84.2381
G01 X15.6597 Y84.2116
G01 X15.7287 Y84.1944
G01 X15.8015 Y84.1836
G01 X15.8750 Y84.1800
G01 X15.9485 Y84.1836
G01 X16.0213 Y84.1944
G01 X16.0903 Y84.2116
G01 X16.1643 Y84.2381
G01 X16.2285 Y84.2686
G01 X16.2917 Y84.3064
G01 X16.3508 Y84.3502
G01 X16.4053 Y84.3997
G01 X16.4548 Y84.4542
G01 X16.4972 Y84.5113
G01 X16.5375 Y84.5786
G01 X16.5679 Y84.6430
G01 X16.5930 Y84.7135
G01 X16.6106 Y84.7837
G01 X16.6211 Y84.8541
G01 X16.6250 Y84.9300
G01 X16.6250 Y87.5300
G01 X16.6211 Y87.6059
G01 X16.6106 Y87.6763
G01 X16.5934 Y87.7453
G01 X16.5679 Y87.8170
G01 X16.5364 Y87.8835
G01 X16.4999 Y87.9446
G01 X16.4548 Y88.0058
G01 X16.4036 Y88.0620
G01 X16.3508 Y88.1098
G01 X16.2917 Y88.1536
G01 X16.2285 Y88.1914
G01 X16.1643 Y88.2219
G01 X16.0915 Y88.2480
G01 X16.0213 Y88.2656
G01 X15.9485 Y88.2764
G01 X15.8750 Y88.2800
G01 X15.8015 Y88.2764
G01 X15.7287 Y88.2656
G01 X15.6573 Y88.2477
G01 X15.5880 Y88.2229
G01 X15.5215 Y88.1914
G01 X15.4583 Y88.1536
G01 X15.3992 Y88.1098
G01 X15.3447 Y88.0603
G01 X15.2952 Y88.0058
G01 X15.2514 Y87.9467
G01 X15.2136 Y87.8835
G01 X15.1821 Y87.8170
G01 X15.1570 Y87.7465
G01 X15.1394 Y87.6763
G01 X15.1289 Y87.6059
G01 X15.1250 Y87.5300
G01 X15.1250 Y84.9300
G01 X15.1289 Y84.8541
G00 Z2.0000
G00 X17.6689 Y84.8541
G01 F60.00
G01 Z-0.15
G01 F200.00
G01 X17.6794 Y84.7837
G01 X17.6973 Y84.7123
G01 X17.7221 Y84.6430
G01 X17.7525 Y84.5786
G01 X17.7928 Y84.5113
G01 X17.8352 Y84.4542
G01 X17.8847 Y84.3997
G01 X17.9392 Y84.3502
G01 X17.9983 Y84.3064
G01 X18.0615 Y84.2686
G01 X18.1257 Y84.2381
G01 X18.1997 Y84.2116
G01 X18.2687 Y84.1944
G01 X18.3415 Y84.1836
G01 X18.4150 Y84.1800
G01 X18.4885 Y84.1836
G01 X18.5613 Y84.1944
G01 X18.6303 Y84.2116
G01 X18.7043 Y84.2381
G01 X18.7685 Y84.2686
G01 X18.8317 Y84.3064
G01 X18.8908 Y84.3502
G01 X18.9453 Y84.3997
G01 X18.9948 Y84.4542
G01 X19.0372 Y84.5113
G01 X19.0775 Y84.5786
G01 X19.1079 Y84.6430
G01 X19.1330 Y84.7135
G01 X19.1506 Y84.7837
G01 X19.1611 Y84.8541
G01 X19.1650 Y84.9300
G01 X19.1650 Y87.5300
G01 X19.1611 Y87.6059
G01 X19.1506 Y87.6763
G01 X19.1334 Y87.7453
G01 X19.1079 Y87.8170
G01 X19.0764 Y87.8835
G01 X19.0399 Y87.9446
G01 X18.9948 Y88.0058
G01 X18.9436 Y88.0620
G01 X18.8908 Y88.1098
G01 X18.8317 Y88.1536
G01 X18.7685 Y88.1914
G01 X18.7043 Y88.2219
G01 X18.6315 Y88.2480
G01 X18.5613 Y88.2656
G01 X18.4885 Y88.2764
G01 X18.4150 Y88.2800
G01 X18.3415 Y88.2764
G01 X18.2687 Y88.2656
G01 X18.1973 Y88.2477
G01 X18.1280 Y88.2229
G01 X18.0615 Y88.1914
G01 X17.9983 Y88.1536
G01 X17.9392 Y88.1098
G01 X17.8847 Y88.0603
G01 X17.8352 Y88.0058
G01 X17.7914 Y87.9467
G01 X17.7536 Y87.8835
G01 X17.7221 Y87.8170
G01 X17.6970 Y87.7465
G01 X17.6794 Y87.6763
G01 X17.6689 Y87.6059
G01 X17.6650 Y87.5300
G01 X17.6650 Y84.9300
G01 X17.6689 Y84.8541
G00 Z2.0000
G00 X22.7489 Y84.8541
G01 F60.00
G01 Z-0.15
G01 F200.00
G01 X22.7594 Y84.7837
G01 X22.7773 Y84.7123
G01 X22.8021 Y84.6430
G01 X22.8325 Y84.5786
G01 X22.8728 Y84.5113
G01 X22.9152 Y84.4542
G01 X22.9647 Y84.3997
G01 X23.0192 Y84.3502
G01 X23.0783 Y84.3064
G01 X23.1415 Y84.2686
G01 X23.2057 Y84.2381
G01 X23.2797 Y84.2116
G01 X23.3487 Y84.1944
G01 X23.4215 Y84.1836
G01 X23.4950 Y84.1800
G01 X23.5685 Y84.1836
G01 X23.6413 Y84.1944
G01 X23.7103 Y84.2116
G01 X23.7843 Y84.2381
G01 X23.8485 Y84.2686
G01 X23.9117 Y84.3064
G01 X23.9708 Y84.3502
G01 X24.0253 Y84.3997
G01 X24.0748 Y84.4542
G01 X24.1172 Y84.5113
G01 X24.1575 Y84.5786
G01 X24.1879 Y84.6430
G01 X24.2130 Y84.7135
G01 X24.2306 Y84.7837
G01 X24.2411 Y84.8541
G01 X24.2450 Y84.9300
G01 X24.2450 Y87.5300
G01 X24.2411 Y87.6059
G01 X24.2306 Y87.6763
G01 X24.2134 Y87.7453
G01 X24.1879 Y87.8170
G01 X24.1564 Y87.8835
G01 X24.1199 Y87.9446
G01 X24.0748 Y88.0058
G01 X24.0236 Y88.0620
G01 X23.9708 Y88.1098
G01 X23.9117 Y88.1536
G01 X23.8485 Y88.1914
G01 X23.7843 Y88.2219
G01 X23.7115 Y88.2480
G01 X23.6413 Y88.2656
G01 X23.5685 Y88.2764
G01 X23.4950 Y88.2800
G01 X23.4215 Y88.2764
G01 X23.3487 Y88.2656
G01 X23.2773 Y88.2477
G01 X23.2080 Y88.2229
G01 X23.1415 Y88.1914
G01 X23.0783 Y88.1536
G01 X23.0192 Y88.1098
G01 X22.9647 Y88.0603
G01 X22.9152 Y88.0058
G01 X22.8714 Y87.9467
G01 X22.8336 Y87.8835
G01 X22.8021 Y87.8170
G01 X22.7770 Y87.7465
G01 X22.7594 Y87.6763
G01 X22.7489 Y87.6059
G01 X22.7450 Y87.5300
G01 X22.7450 Y84.9300
G01 X22.7489 Y84.8541
G00 Z2.0000
G00 X25.2889 Y84.8541
G01 F60.00
G01 Z-0.15
G01 F200.00
G01 X25.2994 Y84.7837
G01 X25.3173 Y84.7123
G01 X25.3421 Y84.6430
G01 X25.3725 Y84.5786
G01 X25.4128 Y84.5113
G01 X25.4552 Y84.4542
G01 X25.5047 Y84.3997
G01 X25.5592 Y84.3502
G01 X25.6183 Y84.3064
G01 X25.6815 Y84.2686
G01 X25.7457 Y84.2381
G01 X25.8197 Y84.2116
G01 X25.8887 Y84.1944
G01 X25.9615 Y84.1836
G01 X26.0350 Y84.1800
G01 X26.1085 Y84.1836
G01 X26.1813 Y84.1944
G01 X26.2503 Y84.2116
G01 X26.3243 Y84.2381
G01 X26.3885 Y84.2686
G01 X26.4517 Y84.3064
G01 X26.5108 Y84.3502
G01 X26.5653 Y84.3997
G01 X26.6148 Y84.4542
G01 X26.6572 Y84.5113
G01 X26.6975 Y84.5786
G01 X26.7279 Y84.6430
G01 X26.7530 Y84.7135
G01 X26.7706 Y84.7837
G01 X26.7811 Y84.8541
G01 X26.7850 Y84.9300
G01 X26.7850 Y87.5300
G01 X26.7811 Y87.6059
G01 X26.7706 Y87.6763
G01 X26.7534 Y87.7453
G01 X26.7279 Y87.8170
G01 X26.6964 Y87.8835
G01 X26.6599 Y87.9446
G01 X26.6148 Y88.0058
G01 X26.5636 Y88.0620
G01 X26.5108 Y88.1098
G01 X26.4517 Y88.1536
G01 X26.3885 Y88.1914
G01 X26.3243 Y88.2219
G01 X26.2515 Y88.2480
G01 X26.1813 Y88.2656
G01 X26.1085 Y88.2764
G01 X26.0350 Y88.2800
G01 X25.9615 Y88.2764
G01 X25.8887 Y88.2656
G01 X25.8173 Y88.2477
G01 X25.7480 Y88.2229
G01 X25.6815 Y88.1914
G01 X25.6183 Y88.1536
G01 X25.5592 Y88.1098
G01 X25.5047 Y88.0603
G01 X25.4552 Y88.0058
G01 X25.4114 Y87.9467
G01 X25.3736 Y87.8835
G01 X25.3421 Y87.8170
G01 X25.3170 Y87.7465
G01 X25.2994 Y87.6763
G01 X25.2889 Y87.6059
G01 X25.2850 Y87.5300
G01 X25.2850 Y84.9300
G01 X25.2889 Y84.8541
G00 Z2.0000
G00 X30.3689 Y84.8541
G01 F60.00
G01 Z-0.15
G01 F200.00
G01 X30.3794 Y84.7837
G01 X30.3973 Y84.7123
G01 X30.4221 Y84.6430
G01 X30.4525 Y84.5786
G01 X30.4928 Y84.5113
G01 X30.5352 Y84.4542
G01 X30.5847 Y84.3997
G01 X30.6392 Y84.3502
G01 X30.6983 Y84.3064
G01 X30.7615 Y84.2686
G01 X30.8257 Y84.2381
G01 X30.8997 Y84.2116
G01 X30.9687 Y84.1944
G01 X31.0415 Y84.1836
G01 X31.1150 Y84.1800
G01 X31.1885 Y84.1836
G01 X31.2613 Y84.1944
G01 X31.3303 Y84.2116
G01 X31.4043 Y84.2381
G01 X31.4685 Y84.2686
G01 X31.5317 Y84.3064
G01 X31.5908 Y84.3502
G01 X31.6453 Y84.3997
G01 X31.6948 Y84.4542
G01 X31.7372 Y84.5113
G01 X31.7775 Y84.5786
G01 X31.8079 Y84.6430
G01 X31.8330 Y84.7135
G01 X31.8506 Y84.7837
G01 X31.8611 Y84.8541
G01 X31.8650 Y84.9300
G01 X31.8650 Y87.5300
G01 X31.8611 Y87.6059
G01 X31.8506 Y87.6763
G01 X31.8334 Y87.7453
G01 X31.8079 Y87.8170
G01 X31.7764 Y87.8835
G01 X31.7399 Y87.9446
G01 X31.6948 Y88.0058
G01 X31.6436 Y88.0620
G01 X31.5908 Y88.1098
G01 X31.5317 Y88.1536
G01 X31.4685 Y88.1914
G01 X31.4043 Y88.2219
G01 X31.3315 Y88.2480
G01 X31.2613 Y88.2656
G01 X31.1885 Y88.2764
G01 X31.1150 Y88.2800
G01 X31.0415 Y88.2764
G01 X30.9687 Y88.2656
G01 X30.8973 Y88.2477
G01 X30.8280 Y88.2229
G01 X30.7615 Y88.1914
G01 X30.6983 Y88.1536
G01 X30.6392 Y88.1098
G01 X30.5847 Y88.0603
G01 X30.5352 Y88.0058
G01 X30.4914 Y87.9467
G01 X30.4536 Y87.8835
G01 X30.4221 Y87.8170
G01 X30.3970 Y87.7465
G01 X30.3794 Y87.6763
G01 X30.3689 Y87.6059
G01 X30.3650 Y87.5300
G01 X30.3650 Y84.9300
G01 X30.3689 Y84.8541
G00 Z2.0000
G00 X32.9089 Y84.8541
G01 F60.00
G01 Z-0.15
G01 F200.00
G01 X32.9194 Y84.7837
G01 X32.9373 Y84.7123
G01 X32.9621 Y84.6430
G01 X32.9925 Y84.5786
G01 X33.0328 Y84.5113
G01 X33.0752 Y84.4542
G01 X33.1247 Y84.3997
G01 X33.1792 Y84.3502
G01 X33.2383 Y84.3064
G01 X33.3015 Y84.2686
G01 X33.3657 Y84.2381
G01 X33.4397 Y84.2116
G01 X33.5087 Y84.1944
G01 X33.5815 Y84.1836
G01 X33.6550 Y84.1800
G01 X33.7285 Y84.1836
G01 X33.8013 Y84.1944
G01 X33.8703 Y84.2116
G01 X33.9443 Y84.2381
G01 X34.0085 Y84.2686
G01 X34.0717 Y84.3064
G01 X34.1308 Y84.3502
G01 X34.1853 Y84.3997
G01 X34.2348 Y84.4542
G01 X34.2772 Y84.5113
G01 X34.3175 Y84.5786
G01 X34.3479 Y84.6430
G01 X34.3730 Y84.7135
G01 X34.3906 Y84.7837
G01 X34.4011 Y84.8541
G01 X34.4050 Y84.9300
G01 X34.4050 Y87.5300
G01 X34.4011 Y87.6059
G01 X34.3906 Y87.6763
G01 X34.3734 Y87.7453
G01 X34.3479 Y87.8170
G01 X34.3164 Y87.8835
G01 X34.2799 Y87.9446
G01 X34.2348 Y88.0058
G01 X34.1836 Y88.0620
G01 X34.1308 Y88.1098
G01 X34.0717 Y88.1536
G01 X34.0085 Y88.1914
G01 X33.9443 Y88.2219
G01 X33.8715 Y88.2480
G01 X33.8013 Y88.2656
G01 X33.7285 Y88.2764
G01 X33.6550 Y88.2800
G01 X33.5815 Y88.2764
G01 X33.5087 Y88.2656
G01 X33.4373 Y88.2477
G01 X33.3680 Y88.2229
G01 X33.3015 Y88.1914
G01 X33.2383 Y88.1536
G01 X33.1792 Y88.1098
G01 X33.1247 Y88.0603
G01 X33.0752 Y88.0058
G01 X33.0314 Y87.9467
G01 X32.9936 Y87.8835
G01 X32.9621 Y87.8170
G01 X32.9370 Y87.7465
G01 X32.9194 Y87.6763
G01 X32.9089 Y87.6059
G01 X32.9050 Y87.5300
G01 X32.9050 Y84.9300
G01 X32.9089 Y84.8541
G00 Z2.0000
G00 X35.4489 Y84.8541
G01 F60.00
G01 Z-0.15
G01 F200.00
G01 X35.4594 Y84.7837
G01 X35.4773 Y84.7123
G01 X35.5021 Y84.6430
G01 X35.5325 Y84.5786
G01 X35.5728 Y84.5113
G01 X35.6152 Y84.4542
G01 X35.6647 Y84.3997
G01 X35.7192 Y84.3502
G01 X35.7783 Y84.3064
G01 X35.8415 Y84.2686
G01 X35.9057 Y84.2381
G01 X35.9797 Y84.2116
G01 X36.0487 Y84.1944
G01 X36.1215 Y84.1836
G01 X36.1950 Y84.1800
G01 X36.2685 Y84.1836
G01 X36.3413 Y84.1944
G01 X36.4103 Y84.2116
G01 X36.4843 Y84.2381
G01 X36.5485 Y84.2686
G01 X36.6117 Y84.3064
G01 X36.6708 Y84.3502
G01 X36.7253 Y84.3997
G01 X36.7748 Y84.4542
G01 X36.8172 Y84.5113
G01 X36.8575 Y84.5786
G01 X36.8879 Y84.6430
G01 X36.9130 Y84.7135
G01 X36.9306 Y84.7837
G01 X36.9411 Y84.8541
G01 X36.9450 Y84.9300
G01 X36.9450 Y87.5300
G01 X36.9411 Y87.6059
G01 X36.9306 Y87.6763
G01 X36.9134 Y87.7453
G01 X36.8879 Y87.8170
G01 X36.8564 Y87.8835
G01 X36.8199 Y87.9446
G01 X36.7748 Y88.0058
G01 X36.7236 Y88.0620
G01 X36.6708 Y88.1098
G01 X36.6117 Y88.1536
G01 X36.5485 Y88.1914
G01 X36.4843 Y88.2219
G01 X36.4115 Y88.2480
G01 X36.3413 Y88.2656
G01 X36.2685 Y88.2764
G01 X36.1950 Y88.2800
G01 X36.1215 Y88.2764
G01 X36.0487 Y88.2656
G01 X35.9773 Y88.2477
G01 X35.9080 Y88.2229
G01 X35.8415 Y88.1914
G01 X35.7783 Y88.1536
G01 X35.7192 Y88.1098
G01 X35.6647 Y88.0603
G01 X35.6152 Y88.0058
G01 X35.5714 Y87.9467
G01 X35.5336 Y87.8835
G01 X35.5021 Y87.8170
G01 X35.4770 Y87.7465
G01 X35.4594 Y87.6763
G01 X35.4489 Y87.6059
G01 X35.4450 Y87.5300
G01 X35.4450 Y84.9300
G01 X35.4489 Y84.8541
G00 Z2.0000
G00 X35.4489 Y90.1941
G01 F60.00
G01 Z-0.15
G01 F200.00
G01 X35.4594 Y90.1237
G01 X35.4773 Y90.0523
G01 X35.5021 Y89.9830
G01 X35.5325 Y89.9186
G01 X35.5728 Y89.8513
G01 X35.6152 Y89.7942
G01 X35.6647 Y89.7397
G01 X35.7192 Y89.6902
G01 X35.7783 Y89.6464
G01 X35.8415 Y89.6086
G01 X35.9057 Y89.5781
G01 X35.9797 Y89.5516
G01 X36.0487 Y89.5344
G01 X36.1215 Y89.5236
G01 X36.1950 Y89.5200
G01 X36.2661 Y89.5234
G01 X36.3437 Y89.5349
G01 X36.4127 Y89.5523
G01 X36.4820 Y89.5771
G01 X36.5485 Y89.6086
G01 X36.6117 Y89.6464
G01 X36.6708 Y89.6902
G01 X36.7253 Y89.7397
G01 X36.7748 Y89.7942
G01 X36.8172 Y89.8513
G01 X36.8575 Y89.9186
G01 X36.8879 Y89.9830
G01 X36.9130 Y90.0535
G01 X36.9306 Y90.1237
G01 X36.9411 Y90.1941
G01 X36.9450 Y90.2700
G01 X36.9450 Y92.8700
G01 X36.9411 Y92.9459
G01 X36.9306 Y93.0163
G01 X36.9134 Y93.0853
G01 X36.8879 Y93.1570
G01 X36.8564 Y93.2235
G01 X36.8199 Y93.2846
G01 X36.7748 Y93.3458
G01 X36.7236 Y93.4020
G01 X36.6708 Y93.4498
G01 X36.6117 Y93.4936
G01 X36.5485 Y93.5314
G01 X36.4843 Y93.5619
G01 X36.4115 Y93.5880
G01 X36.3413 Y93.6056
G01 X36.2685 Y93.6164
G01 X36.1950 Y93.6200
G01 X36.1215 Y93.6164
G01 X36.0487 Y93.6056
G01 X35.9773 Y93.5877
G01 X35.9080 Y93.5629
G01 X35.8415 Y93.5314
G01 X35.7783 Y93.4936
G01 X35.7192 Y93.4498
G01 X35.6647 Y93.4003
G01 X35.6152 Y93.3458
G01 X35.5714 Y93.2867
G01 X35.5336 Y93.2235
G01 X35.5021 Y93.1570
G01 X35.4770 Y93.0865
G01 X35.4594 Y93.0163
G01 X35.4489 Y92.9459
G01 X35.4450 Y92.8700
G01 X35.4450 Y90.2700
G01 X35.4489 Y90.1941
G00 Z2.0000
G00 X32.9089 Y90.1941
G01 F60.00
G01 Z-0.15
G01 F200.00
G01 X32.9194 Y90.1237
G01 X32.9373 Y90.0523
G01 X32.9621 Y89.9830
G01 X32.9925 Y89.9186
G01 X33.0328 Y89.8513
G01 X33.0752 Y89.7942
G01 X33.1247 Y89.7397
G01 X33.1792 Y89.6902
G01 X33.2383 Y89.6464
G01 X33.3015 Y89.6086
G01 X33.3657 Y89.5781
G01 X33.4397 Y89.5516
G01 X33.5087 Y89.5344
G01 X33.5815 Y89.5236
G01 X33.6550 Y89.5200
G01 X33.7261 Y89.5234
G01 X33.8037 Y89.5349
G01 X33.8727 Y89.5523
G01 X33.9420 Y89.5771
G01 X34.0085 Y89.6086
G01 X34.0717 Y89.6464
G01 X34.1308 Y89.6902
G01 X34.1853 Y89.7397
G01 X34.2348 Y89.7942
G01 X34.2772 Y89.8513
G01 X34.3175 Y89.9186
G01 X34.3479 Y89.9830
G01 X34.3730 Y90.0535
G01 X34.3906 Y90.1237
G01 X34.4011 Y90.1941
G01 X34.4050 Y90.2700
G01 X34.4050 Y92.8700
G01 X34.4011 Y92.9459
G01 X34.3906 Y93.0163
G01 X34.3734 Y93.0853
G01 X34.3479 Y93.1570
G01 X34.3164 Y93.2235
G01 X34.2799 Y93.2846
G01 X34.2348 Y93.3458
G01 X34.1836 Y93.4020
G01 X34.1308 Y93.4498
G01 X34.0717 Y93.4936
G01 X34.0085 Y93.5314
G01 X33.9443 Y93.5619
G01 X33.8715 Y93.5880
G01 X33.8013 Y93.6056
G01 X33.7285 Y93.6164
G01 X33.6550 Y93.6200
G01 X33.5815 Y93.6164
G01 X33.5087 Y93.6056
G01 X33.4373 Y93.5877
G01 X33.3680 Y93.5629
G01 X33.3015 Y93.5314
G01 X33.2383 Y93.4936
G01 X33.1792 Y93.4498
G01 X33.1247 Y93.4003
G01 X33.0752 Y93.3458
G01 X33.0314 Y93.2867
G01 X32.9936 Y93.2235
G01 X32.9621 Y93.1570
G01 X32.9370 Y93.0865
G01 X32.9194 Y93.0163
G01 X32.9089 Y92.9459
G01 X32.9050 Y92.8700
G01 X32.9050 Y90.2700
G01 X32.9089 Y90.1941
G00 Z2.0000
G00 X30.3689 Y90.1941
G01 F60.00
G01 Z-0.15
G01 F200.00
G01 X30.3794 Y90.1237
G01 X30.3973 Y90.0523
G01 X30.4221 Y89.9830
G01 X30.4525 Y89.9186
G01 X30.4928 Y89.8513
G01 X30.5352 Y89.7942
G01 X30.5847 Y89.7397
G01 X30.6392 Y89.6902
G01 X30.6983 Y89.6464
G01 X30.7615 Y89.6086
G01 X30.8257 Y89.5781
G01 X30.8997 Y89.5516
G01 X30.9687 Y89.5344
G01 X31.0415 Y89.5236
G01 X31.1150 Y89.5200
G01 X31.1861 Y89.5234
G01 X31.2637 Y89.5349
G01 X31.3327 Y89.5523
G01 X31.4020 Y89.5771
G01 X31.4685 Y89.6086
G01 X31.5317 Y89.6464
G01 X31.5908 Y89.6902
G01 X31.6453 Y89.7397
G01 X31.6948 Y89.7942
G01 X31.7372 Y89.8513
G01 X31.7775 Y89.9186
G01 X31.8079 Y89.9830
G01 X31.8330 Y90.0535
G01 X31.8506 Y90.1237
G01 X31.8611 Y90.1941
G01 X31.8650 Y90.2700
G01 X31.8650 Y92.8700
G01 X31.8611 Y92.9459
G01 X31.8506 Y93.0163
G01 X31.8334 Y93.0853
G01 X31.8079 Y93.1570
G01 X31.7764 Y93.2235
G01 X31.7399 Y93.2846
G01 X31.6948 Y93.3458
G01 X31.6436 Y93.4020
G01 X31.5908 Y93.4498
G01 X31.5317 Y93.4936
G01 X31.4685 Y93.5314
G01 X31.4043 Y93.5619
G01 X31.3315 Y93.5880
G01 X31.2613 Y93.6056
G01 X31.1885 Y93.6164
G01 X31.1150 Y93.6200
G01 X31.0415 Y93.6164
G01 X30.9687 Y93.6056
G01 X30.8973 Y93.5877
G01 X30.8280 Y93.5629
G01 X30.7615 Y93.5314
G01 X30.6983 Y93.4936
G01 X30.6392 Y93.4498
G01 X30.5847 Y93.4003
G01 X30.5352 Y93.3458
G01 X30.4914 Y93.2867
G01 X30.4536 Y93.2235
G01 X30.4221 Y93.1570
G01 X30.3970 Y93.0865
G01 X30.3794 Y93.0163
G01 X30.3689 Y92.9459
G01 X30.3650 Y92.8700
G01 X30.3650 Y90.2700
G01 X30.3689 Y90.1941
G00 Z2.0000
G00 X27.8289 Y90.1941
G01 F60.00
G01 Z-0.15
G01 F200.00
G01 X27.8394 Y90.1237
G01 X27.8573 Y90.0523
G01 X27.8821 Y89.9830
G01 X27.9125 Y89.9186
G01 X27.9528 Y89.8513
G01 X27.9952 Y89.7942
G01 X28.0447 Y89.7397
G01 X28.0992 Y89.6902
G01 X28.1583 Y89.6464
G01 X28.2215 Y89.6086
G01 X28.2857 Y89.5781
G01 X28.3597 Y89.5516
G01 X28.4287 Y89.5344
G01 X28.5015 Y89.5236
G01 X28.5750 Y89.5200
G01 X28.6461 Y89.5234
G01 X28.7237 Y89.5349
G01 X28.7927 Y89.5523
G01 X28.8620 Y89.5771
G01 X28.9285 Y89.6086
G01 X28.9917 Y89.6464
G01 X29.0508 Y89.6902
G01 X29.1036 Y89.7380
G01 X29.1563 Y89.7961
G01 X29.1986 Y89.8533
G01 X29.2364 Y89.9165
G01 X29.2679 Y89.9830
G01 X29.2923 Y90.0511
G01 X29.3110 Y90.1261
G01 X29.3214 Y90.1965
G01 X29.3250 Y90.2700
G01 X29.3249 Y92.8725
G01 X29.3214 Y92.9435
G01 X29.3106 Y93.0163
G01 X29.2927 Y93.0877
G01 X29.2684 Y93.1559
G01 X29.2364 Y93.2235
G01 X29.1993 Y93.2856
G01 X29.1555 Y93.3448
G01 X29.1253 Y93.3784
G01 X29.1253 Y94.0200
G01 X36.6714 Y94.0200
G01 X37.3451 Y93.3463
G01 X37.3451 Y82.8391
G01 X33.2651 Y78.7590
G01 X33.2297 Y78.7199
G01 X33.1989 Y78.6785
G01 X33.1686 Y78.6280
G01 X33.1466 Y78.5814
G01 X33.1284 Y78.5305
G01 X33.1153 Y78.4781
G01 X33.1075 Y78.4260
G01 X33.1047 Y78.3708
G01 X33.1047 Y74.4400
G01 X32.9050 Y74.4400
G01 X32.8952 Y74.4390
G01 X32.8870 Y74.4366
G01 X32.8793 Y74.4329
G01 X32.8723 Y74.4279
G01 X32.8663 Y74.4217
G01 X32.8615 Y74.4146
G01 X32.8579 Y74.4068
G01 X32.8560 Y74.3998
G01 X32.8550 Y74.3912
G01 X32.8550 Y70.3900
G01 X32.8557 Y70.3815
G01 X32.8579 Y70.3732
G01 X32.8615 Y70.3654
G01 X32.8663 Y70.3583
G01 X32.8723 Y70.3521
G01 X32.8793 Y70.3471
G01 X32.8870 Y70.3434
G01 X32.8952 Y70.3410
G01 X32.9038 Y70.3400
G01 X34.4050 Y70.3400
G01 X34.4123 Y70.3405
G01 X34.4207 Y70.3425
G01 X34.4286 Y70.3459
G01 X34.4348 Y70.3498
G01 X34.4404 Y70.3546
G01 X34.4459 Y70.3612
G01 X34.4502 Y70.3686
G01 X34.4528 Y70.3755
G01 X34.4545 Y70.3827
G01 X34.4550 Y70.3900
G01 X34.4550 Y74.3912
G01 X34.4540 Y74.3998
G01 X34.4516 Y74.4080
G01 X34.4479 Y74.4157
G01 X34.4429 Y74.4227
G01 X34.4377 Y74.4279
G01 X34.4307 Y74.4329
G01 X34.4230 Y74.4366
G01 X34.4148 Y74.4390
G01 X34.4050 Y74.4400
G01 X34.2053 Y74.4400
G01 X34.2053 Y78.1429
G01 X38.2853 Y82.2230
G01 X38.3207 Y82.2621
G01 X38.3515 Y82.3035
G01 X38.3807 Y82.3518
G01 X38.4038 Y82.4006
G01 X38.4212 Y82.4491
G01 X38.4353 Y82.5051
G01 X38.4430 Y82.5573
G01 X38.4457 Y82.6112
G01 X38.4457 Y93.5742
G01 X38.4430 Y93.6281
G01 X38.4355 Y93.6791
G01 X38.4216 Y93.7351
G01 X38.4038 Y93.7848
G01 X38.3795 Y93.8357
G01 X38.3515 Y93.8819
G01 X38.3207 Y93.9233
G01 X38.2862 Y93.9615
G01 X37.2875 Y94.9602
G01 X37.2484 Y94.9956
G01 X37.2070 Y95.0264
G01 X37.1565 Y95.0567
G01 X37.1099 Y95.0787
G01 X37.0590 Y95.0969
G01 X37.0066 Y95.1100
G01 X36.9557 Y95.1176
G01 X36.8993 Y95.1206
G01 X28.5750 Y95.1206
G01 X28.5211 Y95.1179
G01 X28.4701 Y95.1104
G01 X28.4141 Y95.0965
G01 X28.3644 Y95.0787
G01 X28.3178 Y95.0567
G01 X28.2693 Y95.0278
G01 X28.2259 Y94.9956
G01 X28.1877 Y94.9611
G01 X28.1497 Y94.9194
G01 X28.1162 Y94.8739
G01 X28.0897 Y94.8297
G01 X28.0666 Y94.7809
G01 X28.0478 Y94.7277
G01 X28.0353 Y94.6776
G01 X28.0275 Y94.6255
G01 X28.0247 Y94.5703
G01 X28.0247 Y93.3784
G01 X27.9945 Y93.3448
G01 X27.9507 Y93.2856
G01 X27.9136 Y93.2235
G01 X27.8816 Y93.1559
G01 X27.8573 Y93.0877
G01 X27.8394 Y93.0163
G01 X27.8286 Y92.9435
G01 X27.8251 Y92.8725
G01 X27.8250 Y90.2700
G01 X27.8289 Y90.1941
G00 Z2.0000
G00 X25.2889 Y90.1941
G01 F60.00
G01 Z-0.15
G01 F200.00
G01 X25.2994 Y90.1237
G01 X25.3173 Y90.0523
G01 X25.3421 Y89.9830
G01 X25.3725 Y89.9186
G01 X25.4128 Y89.8513
G01 X25.4552 Y89.7942
G01 X25.5047 Y89.7397
G01 X25.5592 Y89.6902
G01 X25.6163 Y89.6478
G01 X25.6836 Y89.6075
G01 X25.7480 Y89.5771
G01 X25.8173 Y89.5523
G01 X25.8887 Y89.5344
G01 X25.9591 Y89.5239
G01 X26.0375 Y89.5201
G01 X26.1085 Y89.5236
G01 X26.1813 Y89.5344
G01 X26.2527 Y89.5523
G01 X26.3197 Y89.5762
G01 X26.3907 Y89.6098
G01 X26.4517 Y89.6464
G01 X26.5089 Y89.6887
G01 X26.5670 Y89.7414
G01 X26.6148 Y89.7942
G01 X26.6586 Y89.8533
G01 X26.6964 Y89.9165
G01 X26.7269 Y89.9807
G01 X26.7527 Y90.0523
G01 X26.7706 Y90.1237
G01 X26.7814 Y90.1965
G01 X26.7850 Y90.2688
G01 X26.7850 Y92.8712
G01 X26.7814 Y92.9435
G01 X26.7706 Y93.0163
G01 X26.7527 Y93.0877
G01 X26.7284 Y93.1559
G01 X26.6964 Y93.2235
G01 X26.6593 Y93.2856
G01 X26.6155 Y93.3448
G01 X26.5853 Y93.3784
G01 X26.5853 Y94.3424
G01 X27.8086 Y95.5657
G01 X37.3040 Y95.5657
G01 X38.8691 Y94.0006
G01 X38.8691 Y78.8426
G01 X35.8059 Y75.7794
G01 X35.7697 Y75.7394
G01 X35.7375 Y75.6960
G01 X35.7086 Y75.6475
G01 X35.6866 Y75.6009
G01 X35.6692 Y75.5524
G01 X35.6553 Y75.4976
G01 X35.6473 Y75.4430
G01 X35.6447 Y75.3903
G01 X35.6447 Y74.2198
G01 X35.6285 Y74.2048
G01 X35.5758 Y74.1466
G01 X35.5298 Y74.0845
G01 X35.4889 Y74.0160
G01 X35.4559 Y73.9461
G01 X35.4294 Y73.8722
G01 X35.4104 Y73.7961
G01 X35.3989 Y73.7184
G01 X35.3950 Y73.6400
G01 X35.3950 Y71.1400
G01 X35.3989 Y71.0616
G01 X35.4100 Y70.9863
G01 X35.4302 Y70.9054
G01 X35.4559 Y70.8339
G01 X35.4907 Y70.7607
G01 X35.5298 Y70.6955
G01 X35.5751 Y70.6344
G01 X35.6276 Y70.5761
G01 X35.6875 Y70.5216
G01 X35.7505 Y70.4748
G01 X35.8179 Y70.4345
G01 X35.8889 Y70.4009
G01 X35.9628 Y70.3744
G01 X36.0413 Y70.3550
G01 X36.1190 Y70.3437
G01 X36.1950 Y70.3400
G01 X36.2710 Y70.3437
G01 X36.3511 Y70.3554
G01 X36.4272 Y70.3744
G01 X36.5011 Y70.4009
G01 X36.5732 Y70.4351
G01 X36.6395 Y70.4748
G01 X36.7006 Y70.5201
G01 X36.7607 Y70.5743
G01 X36.8149 Y70.6344
G01 X36.8602 Y70.6955
G01 X36.8993 Y70.7607
G01 X36.9341 Y70.8339
G01 X36.9612 Y70.9101
G01 X36.9796 Y70.9839
G01 X36.9908 Y71.0592
G01 X36.9950 Y71.1388
G01 X36.9950 Y73.6400
G01 X36.9913 Y73.7172
G01 X36.9796 Y73.7961
G01 X36.9606 Y73.8722
G01 X36.9341 Y73.9461
G01 X36.9011 Y74.0160
G01 X36.8602 Y74.0845
G01 X36.8142 Y74.1466
G01 X36.7615 Y74.2048
G01 X36.7453 Y74.2198
G01 X36.7453 Y75.1624
G01 X39.8093 Y78.2265
G01 X39.8447 Y78.2656
G01 X39.8755 Y78.3070
G01 X39.9058 Y78.3575
G01 X39.9278 Y78.4041
G01 X39.9460 Y78.4550
G01 X39.9591 Y78.5074
G01 X39.9667 Y78.5583
G01 X39.9697 Y78.6147
G01 X39.9697 Y94.2285
G01 X39.9667 Y94.2849
G01 X39.9591 Y94.3358
G01 X39.9466 Y94.3859
G01 X39.9278 Y94.4391
G01 X39.9041 Y94.4890
G01 X39.8769 Y94.5342
G01 X39.8463 Y94.5756
G01 X39.8085 Y94.6176
G01 X37.9201 Y96.5059
G01 X37.8810 Y96.5413
G01 X37.8396 Y96.5721
G01 X37.7913 Y96.6013
G01 X37.7425 Y96.6244
G01 X37.6940 Y96.6418
G01 X37.6380 Y96.6559
G01 X37.5858 Y96.6636
G01 X37.5319 Y96.6663
G01 X27.5807 Y96.6663
G01 X27.5243 Y96.6633
G01 X27.4734 Y96.6557
G01 X27.4210 Y96.6426
G01 X27.3701 Y96.6244
G01 X27.3192 Y96.6001
G01 X27.2750 Y96.5735
G01 X27.2336 Y96.5429
G01 X27.1916 Y96.5051
G01 X25.6451 Y94.9585
G01 X25.6081 Y94.9174
G01 X25.5775 Y94.8760
G01 X25.5509 Y94.8318
G01 X25.5266 Y94.7809
G01 X25.5088 Y94.7312
G01 X25.4949 Y94.6752
G01 X25.4874 Y94.6242
G01 X25.4848 Y94.5715
G01 X25.4847 Y93.3784
G01 X25.4545 Y93.3448
G01 X25.4107 Y93.2856
G01 X25.3736 Y93.2235
G01 X25.3416 Y93.1559
G01 X25.3173 Y93.0877
G01 X25.2994 Y93.0163
G01 X25.2886 Y92.9435
G01 X25.2851 Y92.8725
G01 X25.2850 Y90.2700
G01 X25.2889 Y90.1941
G00 Z2.0000
G00 X22.7489 Y90.1941
G01 F60.00
G01 Z-0.15
G01 F200.00
G01 X22.7594 Y90.1237
G01 X22.7773 Y90.0523
G01 X22.8021 Y89.9830
G01 X22.8325 Y89.9186
G01 X22.8728 Y89.8513
G01 X22.9152 Y89.7942
G01 X22.9647 Y89.7397
G01 X23.0192 Y89.6902
G01 X23.0783 Y89.6464
G01 X23.1415 Y89.6086
G01 X23.2057 Y89.5781
G01 X23.2797 Y89.5516
G01 X23.3487 Y89.5344
G01 X23.4215 Y89.5236
G01 X23.4950 Y89.5200
G01 X23.5661 Y89.5234
G01 X23.6437 Y89.5349
G01 X23.7127 Y89.5523
G01 X23.7820 Y89.5771
G01 X23.8485 Y89.6086
G01 X23.9117 Y89.6464
G01 X23.9708 Y89.6902
G01 X24.0253 Y89.7397
G01 X24.0748 Y89.7942
G01 X24.1172 Y89.8513
G01 X24.1575 Y89.9186
G01 X24.1879 Y89.9830
G01 X24.2130 Y90.0535
G01 X24.2306 Y90.1237
G01 X24.2411 Y90.1941
G01 X24.2450 Y90.2700
G01 X24.2450 Y92.8700
G01 X24.2411 Y92.9459
G01 X24.2306 Y93.0163
G01 X24.2134 Y93.0853
G01 X24.1879 Y93.1570
G01 X24.1564 Y93.2235
G01 X24.1199 Y93.2846
G01 X24.0748 Y93.3458
G01 X24.0236 Y93.4020
G01 X23.9708 Y93.4498
G01 X23.9117 Y93.4936
G01 X23.8485 Y93.5314
G01 X23.7843 Y93.5619
G01 X23.7115 Y93.5880
G01 X23.6413 Y93.6056
G01 X23.5685 Y93.6164
G01 X23.4950 Y93.6200
G01 X23.4215 Y93.6164
G01 X23.3487 Y93.6056
G01 X23.2773 Y93.5877
G01 X23.2080 Y93.5629
G01 X23.1415 Y93.5314
G01 X23.0783 Y93.4936
G01 X23.0192 Y93.4498
G01 X22.9647 Y93.4003
G01 X22.9152 Y93.3458
G01 X22.8714 Y93.2867
G01 X22.8336 Y93.2235
G01 X22.8021 Y93.1570
G01 X22.7770 Y93.0865
G01 X22.7594 Y93.0163
G01 X22.7489 Y92.9459
G01 X22.7450 Y92.8700
G01 X22.7450 Y90.2700
G01 X22.7489 Y90.1941
G00 Z2.0000
G00 X20.2089 Y90.1941
G01 F60.00
G01 Z-0.15
G01 F200.00
G01 X20.2194 Y90.1237
G01 X20.2373 Y90.0523
G01 X20.2621 Y89.9830
G01 X20.2925 Y89.9186
G01 X20.3328 Y89.8513
G01 X20.3752 Y89.7942
G01 X20.4247 Y89.7397
G01 X20.4792 Y89.6902
G01 X20.5383 Y89.6464
G01 X20.6015 Y89.6086
G01 X20.6657 Y89.5781
G01 X20.7397 Y89.5516
G01 X20.8087 Y89.5344
G01 X20.8815 Y89.5236
G01 X20.9550 Y89.5200
G01 X21.0261 Y89.5234
G01 X21.1037 Y89.5349
G01 X21.1727 Y89.5523
G01 X21.2420 Y89.5771
G01 X21.3085 Y89.6086
G01 X21.3717 Y89.6464
G01 X21.4308 Y89.6902
G01 X21.4853 Y89.7397
G01 X21.5348 Y89.7942
G01 X21.5772 Y89.8513
G01 X21.6175 Y89.9186
G01 X21.6479 Y89.9830
G01 X21.6730 Y90.0535
G01 X21.6906 Y90.1237
G01 X21.7011 Y90.1941
G01 X21.7050 Y90.2700
G01 X21.7050 Y92.8700
G01 X21.7011 Y92.9459
G01 X21.6906 Y93.0163
G01 X21.6734 Y93.0853
G01 X21.6479 Y93.1570
G01 X21.6164 Y93.2235
G01 X21.5799 Y93.2846
G01 X21.5348 Y93.3458
G01 X21.4836 Y93.4020
G01 X21.4308 Y93.4498
G01 X21.3717 Y93.4936
G01 X21.3085 Y93.5314
G01 X21.2443 Y93.5619
G01 X21.1715 Y93.5880
G01 X21.1013 Y93.6056
G01 X21.0285 Y93.6164
G01 X20.9550 Y93.6200
G01 X20.8815 Y93.6164
G01 X20.8087 Y93.6056
G01 X20.7373 Y93.5877
G01 X20.6680 Y93.5629
G01 X20.6015 Y93.5314
G01 X20.5383 Y93.4936
G01 X20.4792 Y93.4498
G01 X20.4247 Y93.4003
G01 X20.3752 Y93.3458
G01 X20.3314 Y93.2867
G01 X20.2936 Y93.2235
G01 X20.2621 Y93.1570
G01 X20.2370 Y93.0865
G01 X20.2194 Y93.0163
G01 X20.2089 Y92.9459
G01 X20.2050 Y92.8700
G01 X20.2050 Y90.2700
G01 X20.2089 Y90.1941
G00 Z2.0000
G00 X17.6689 Y90.1941
G01 F60.00
G01 Z-0.15
G01 F200.00
G01 X17.6794 Y90.1237
G01 X17.6973 Y90.0523
G01 X17.7221 Y89.9830
G01 X17.7525 Y89.9186
G01 X17.7928 Y89.8513
G01 X17.8352 Y89.7942
G01 X17.8847 Y89.7397
G01 X17.9392 Y89.6902
G01 X17.9983 Y89.6464
G01 X18.0615 Y89.6086
G01 X18.1257 Y89.5781
G01 X18.1997 Y89.5516
G01 X18.2687 Y89.5344
G01 X18.3415 Y89.5236
G01 X18.4150 Y89.5200
G01 X18.4861 Y89.5234
G01 X18.5637 Y89.5349
G01 X18.6327 Y89.5523
G01 X18.7020 Y89.5771
G01 X18.7685 Y89.6086
G01 X18.8317 Y89.6464
G01 X18.8908 Y89.6902
G01 X18.9453 Y89.7397
G01 X18.9948 Y89.7942
G01 X19.0372 Y89.8513
G01 X19.0775 Y89.9186
G01 X19.1079 Y89.9830
G01 X19.1330 Y90.0535
G01 X19.1506 Y90.1237
G01 X19.1611 Y90.1941
G01 X19.1650 Y90.2700
G01 X19.1650 Y92.8700
G01 X19.1611 Y92.9459
G01 X19.1506 Y93.0163
G01 X19.1334 Y93.0853
G01 X19.1079 Y93.1570
G01 X19.0764 Y93.2235
G01 X19.0399 Y93.2846
G01 X18.9948 Y93.3458
G01 X18.9436 Y93.4020
G01 X18.8908 Y93.4498
G01 X18.8317 Y93.4936
G01 X18.7685 Y93.5314
G01 X18.7043 Y93.5619
G01 X18.6315 Y93.5880
G01 X18.5613 Y93.6056
G01 X18.4885 Y93.6164
G01 X18.4150 Y93.6200
G01 X18.3415 Y93.6164
G01 X18.2687 Y93.6056
G01 X18.1973 Y93.5877
G01 X18.1280 Y93.5629
G01 X18.0615 Y93.5314
G01 X17.9983 Y93.4936
G01 X17.9392 Y93.4498
G01 X17.8847 Y93.4003
G01 X17.8352 Y93.3458
G01 X17.7914 Y93.2867
G01 X17.7536 Y93.2235
G01 X17.7221 Y93.1570
G01 X17.6970 Y93.0865
G01 X17.6794 Y93.0163
G01 X17.6689 Y92.9459
G01 X17.6650 Y92.8700
G01 X17.6650 Y90.2700
G01 X17.6689 Y90.1941
G00 Z2.0000
G00 X15.1289 Y90.1941
G01 F60.00
G01 Z-0.15
G01 F200.00
G01 X15.1394 Y90.1237
G01 X15.1573 Y90.0523
G01 X15.1821 Y89.9830
G01 X15.2125 Y89.9186
G01 X15.2528 Y89.8513
G01 X15.2952 Y89.7942
G01 X15.3447 Y89.7397
G01 X15.3992 Y89.6902
G01 X15.4583 Y89.6464
G01 X15.5215 Y89.6086
G01 X15.5857 Y89.5781
G01 X15.6597 Y89.5516
G01 X15.7287 Y89.5344
G01 X15.8015 Y89.5236
G01 X15.8750 Y89.5200
G01 X15.9461 Y89.5234
G01 X16.0237 Y89.5349
G01 X16.0927 Y89.5523
G01 X16.1620 Y89.5771
G01 X16.2285 Y89.6086
G01 X16.2917 Y89.6464
G01 X16.3508 Y89.6902
G01 X16.4053 Y89.7397
G01 X16.4548 Y89.7942
G01 X16.4972 Y89.8513
G01 X16.5375 Y89.9186
G01 X16.5679 Y89.9830
G01 X16.5930 Y90.0535
G01 X16.6106 Y90.1237
G01 X16.6211 Y90.1941
G01 X16.6250 Y90.2700
G01 X16.6250 Y92.8700
G01 X16.6211 Y92.9459
G01 X16.6106 Y93.0163
G01 X16.5934 Y93.0853
G01 X16.5679 Y93.1570
G01 X16.5364 Y93.2235
G01 X16.4999 Y93.2846
G01 X16.4548 Y93.3458
G01 X16.4036 Y93.4020
G01 X16.3508 Y93.4498
G01 X16.2917 Y93.4936
G01 X16.2285 Y93.5314
G01 X16.1643 Y93.5619
G01 X16.0915 Y93.5880
G01 X16.0213 Y93.6056
G01 X15.9485 Y93.6164
G01 X15.8750 Y93.6200
G01 X15.8015 Y93.6164
G01 X15.7287 Y93.6056
G01 X15.6573 Y93.5877
G01 X15.5880 Y93.5629
G01 X15.5215 Y93.5314
G01 X15.4583 Y93.4936
G01 X15.3992 Y93.4498
G01 X15.3447 Y93.4003
G01 X15.2952 Y93.3458
G01 X15.2514 Y93.2867
G01 X15.2136 Y93.2235
G01 X15.1821 Y93.1570
G01 X15.1570 Y93.0865
G01 X15.1394 Y93.0163
G01 X15.1289 Y92.9459
G01 X15.1250 Y92.8700
G01 X15.1250 Y90.2700
G01 X15.1289 Y90.1941
G00 Z2.0000
G00 X37.9392 Y71.0592
G01 F60.00
G01 Z-0.15
G01 F200.00
G01 X37.9504 Y70.9839
G01 X37.9694 Y70.9078
G01 X37.9959 Y70.8339
G01 X38.0284 Y70.7651
G01 X38.0712 Y70.6935
G01 X38.1166 Y70.6325
G01 X38.1693 Y70.5743
G01 X38.2275 Y70.5216
G01 X38.2885 Y70.4762
G01 X38.3601 Y70.4334
G01 X38.4289 Y70.4009
G01 X38.5028 Y70.3744
G01 X38.5789 Y70.3554
G01 X38.6566 Y70.3439
G01 X38.7350 Y70.3400
G01 X38.8134 Y70.3439
G01 X38.8911 Y70.3554
G01 X38.9649 Y70.3738
G01 X39.0434 Y70.4019
G01 X39.1121 Y70.4345
G01 X39.1795 Y70.4748
G01 X39.2425 Y70.5216
G01 X39.3007 Y70.5743
G01 X39.3534 Y70.6325
G01 X39.3988 Y70.6935
G01 X39.4416 Y70.7651
G01 X39.4741 Y70.8339
G01 X39.5006 Y70.9078
G01 X39.5196 Y70.9839
G01 X39.5308 Y71.0592
G01 X39.5350 Y71.1400
G01 X39.5350 Y73.6400
G01 X39.5311 Y73.7184
G01 X39.5200 Y73.7937
G01 X39.4998 Y73.8746
G01 X39.4741 Y73.9461
G01 X39.4416 Y74.0149
G01 X39.4002 Y74.0845
G01 X39.3518 Y74.1494
G01 X39.3007 Y74.2057
G01 X39.2444 Y74.2568
G01 X39.1795 Y74.3052
G01 X39.1099 Y74.3466
G01 X39.0411 Y74.3791
G01 X38.9672 Y74.4056
G01 X38.8911 Y74.4246
G01 X38.8134 Y74.4361
G01 X38.7350 Y74.4400
G01 X38.6566 Y74.4361
G01 X38.5789 Y74.4246
G01 X38.5028 Y74.4056
G01 X38.4289 Y74.3791
G01 X38.3579 Y74.3455
G01 X38.2905 Y74.3052
G01 X38.2275 Y74.2584
G01 X38.1693 Y74.2057
G01 X38.1166 Y74.1475
G01 X38.0698 Y74.0845
G01 X38.0295 Y74.0171
G01 X37.9959 Y73.9461
G01 X37.9694 Y73.8722
G01 X37.9504 Y73.7961
G01 X37.9392 Y73.7208
G01 X37.9350 Y73.6400
G01 X37.9350 Y71.1400
G01 X37.9392 Y71.0592
G00 Z2.0000
G00 X32.8550 Y59.1500
G01 F60.00
G01 Z-0.15
G01 F200.00
G01 X32.8550 Y55.1500
G01 X32.8560 Y55.1402
G01 X32.8584 Y55.1320
G01 X32.8615 Y55.1254
G01 X32.8656 Y55.1192
G01 X32.8705 Y55.1138
G01 X32.8762 Y55.1091
G01 X32.8825 Y55.1053
G01 X32.8893 Y55.1025
G01 X32.8965 Y55.1007
G01 X32.9038 Y55.1000
G01 X34.4050 Y55.1000
G01 X34.4148 Y55.1010
G01 X34.4230 Y55.1034
G01 X34.4307 Y55.1071
G01 X34.4367 Y55.1113
G01 X34.4420 Y55.1164
G01 X34.4466 Y55.1222
G01 X34.4502 Y55.1286
G01 X34.4528 Y55.1355
G01 X34.4545 Y55.1427
G01 X34.4550 Y55.1500
G01 X34.4550 Y59.1500
G01 X34.4543 Y59.1585
G01 X34.4516 Y59.1680
G01 X34.4485 Y59.1746
G01 X34.4444 Y59.1808
G01 X34.4395 Y59.1862
G01 X34.4338 Y59.1909
G01 X34.4275 Y59.1947
G01 X34.4207 Y59.1975
G01 X34.4135 Y59.1993
G01 X34.4062 Y59.2000
G01 X32.9050 Y59.2000
G01 X32.8952 Y59.1990
G01 X32.8859 Y59.1962
G01 X32.8772 Y59.1916
G01 X32.8696 Y59.1854
G01 X32.8634 Y59.1778
G01 X32.8588 Y59.1691
G01 X32.8560 Y59.1598
G01 X32.8550 Y59.1500
G00 Z2.0000
G00 X35.3992 Y55.8192
G01 F60.00
G01 Z-0.15
G01 F200.00
G01 X35.4104 Y55.7439
G01 X35.4294 Y55.6678
G01 X35.4559 Y55.5939
G01 X35.4884 Y55.5251
G01 X35.5312 Y55.4535
G01 X35.5766 Y55.3925
G01 X35.6293 Y55.3343
G01 X35.6875 Y55.2816
G01 X35.7485 Y55.2362
G01 X35.8201 Y55.1934
G01 X35.8889 Y55.1609
G01 X35.9628 Y55.1344
G01 X36.0389 Y55.1154
G01 X36.1166 Y55.1039
G01 X36.1950 Y55.1000
G01 X36.2710 Y55.1037
G01 X36.3535 Y55.1159
G01 X36.4272 Y55.1344
G01 X36.5011 Y55.1609
G01 X36.5721 Y55.1945
G01 X36.6395 Y55.2348
G01 X36.7025 Y55.2816
G01 X36.7607 Y55.3343
G01 X36.8134 Y55.3925
G01 X36.8588 Y55.4535
G01 X36.9016 Y55.5251
G01 X36.9341 Y55.5939
G01 X36.9606 Y55.6678
G01 X36.9796 Y55.7439
G01 X36.9908 Y55.8192
G01 X36.9950 Y55.9000
G01 X36.9950 Y58.4000
G01 X36.9911 Y58.4784
G01 X36.9800 Y58.5537
G01 X36.9598 Y58.6346
G01 X36.9341 Y58.7061
G01 X36.9016 Y58.7749
G01 X36.8602 Y58.8445
G01 X36.8118 Y58.9094
G01 X36.7607 Y58.9657
G01 X36.7044 Y59.0168
G01 X36.6395 Y59.0652
G01 X36.5699 Y59.1066
G01 X36.5011 Y59.1391
G01 X36.4272 Y59.1656
G01 X36.3511 Y59.1846
G01 X36.2734 Y59.1961
G01 X36.1950 Y59.2000
G01 X36.1166 Y59.1961
G01 X36.0389 Y59.1846
G01 X35.9628 Y59.1656
G01 X35.8889 Y59.1391
G01 X35.8179 Y59.1055
G01 X35.7505 Y59.0652
G01 X35.6875 Y59.0184
G01 X35.6293 Y58.9657
G01 X35.5766 Y58.9075
G01 X35.5298 Y58.8445
G01 X35.4895 Y58.7771
G01 X35.4559 Y58.7061
G01 X35.4294 Y58.6322
G01 X35.4104 Y58.5561
G01 X35.3992 Y58.4808
G01 X35.3950 Y58.4000
G01 X35.3950 Y55.9000
G01 X35.3992 Y55.8192
G00 Z2.0000
G00 X37.9392 Y55.8192
G01 F60.00
G01 Z-0.15
G01 F200.00
G01 X37.9504 Y55.7439
G01 X37.9694 Y55.6678
G01 X37.9959 Y55.5939
G01 X38.0284 Y55.5251
G01 X38.0712 Y55.4535
G01 X38.1166 Y55.3925
G01 X38.1693 Y55.3343
G01 X38.2275 Y55.2816
G01 X38.2885 Y55.2362
G01 X38.3601 Y55.1934
G01 X38.4289 Y55.1609
G01 X38.5028 Y55.1344
G01 X38.5789 Y55.1154
G01 X38.6566 Y55.1039
G01 X38.7350 Y55.1000
G01 X38.8110 Y55.1037
G01 X38.8935 Y55.1159
G01 X38.9672 Y55.1344
G01 X39.0411 Y55.1609
G01 X39.1121 Y55.1945
G01 X39.1795 Y55.2348
G01 X39.2425 Y55.2816
G01 X39.3007 Y55.3343
G01 X39.3534 Y55.3925
G01 X39.3988 Y55.4535
G01 X39.4416 Y55.5251
G01 X39.4741 Y55.5939
G01 X39.5006 Y55.6678
G01 X39.5196 Y55.7439
G01 X39.5308 Y55.8192
G01 X39.5350 Y55.9000
G01 X39.5350 Y58.4000
G01 X39.5311 Y58.4784
G01 X39.5200 Y58.5537
G01 X39.4998 Y58.6346
G01 X39.4741 Y58.7061
G01 X39.4416 Y58.7749
G01 X39.4002 Y58.8445
G01 X39.3518 Y58.9094
G01 X39.3007 Y58.9657
G01 X39.2444 Y59.0168
G01 X39.1795 Y59.0652
G01 X39.1099 Y59.1066
G01 X39.0411 Y59.1391
G01 X38.9672 Y59.1656
G01 X38.8911 Y59.1846
G01 X38.8134 Y59.1961
G01 X38.7350 Y59.2000
G01 X38.6566 Y59.1961
G01 X38.5789 Y59.1846
G01 X38.5028 Y59.1656
G01 X38.4289 Y59.1391
G01 X38.3579 Y59.1055
G01 X38.2905 Y59.0652
G01 X38.2275 Y59.0184
G01 X38.1693 Y58.9657
G01 X38.1166 Y58.9075
G01 X38.0698 Y58.8445
G01 X38.0295 Y58.7771
G01 X37.9959 Y58.7061
G01 X37.9694 Y58.6322
G01 X37.9504 Y58.5561
G01 X37.9392 Y58.4808
G01 X37.9350 Y58.4000
G01 X37.9350 Y55.9000
G01 X37.9392 Y55.8192
G00 Z2.0000
G00 X41.6603 Y51.1115
G01 F60.00
G01 Z-0.15
G01 F200.00
G01 X41.6751 Y51.0121
G01 X41.7001 Y50.9121
G01 X41.7348 Y50.8151
G01 X41.7789 Y50.7219
G01 X41.8319 Y50.6336
G01 X41.8932 Y50.5508
G01 X41.9624 Y50.4744
G01 X42.0369 Y50.4068
G01 X42.1236 Y50.3425
G01 X42.2099 Y50.2909
G01 X42.3054 Y50.2459
G01 X42.4001 Y50.2121
G01 X42.5001 Y50.1871
G01 X42.6020 Y50.1720
G01 X42.7037 Y50.1669
G01 X42.8103 Y50.1723
G01 X42.9097 Y50.1871
G01 X43.0073 Y50.2115
G01 X43.1067 Y50.2468
G01 X43.2009 Y50.2915
G01 X43.2882 Y50.3439
G01 X43.3691 Y50.4037
G01 X43.4465 Y50.4736
G01 X43.5173 Y50.5517
G01 X43.5772 Y50.6325
G01 X43.5979 Y50.6666
G01 X57.9065 Y50.6666
G01 X57.9604 Y50.6693
G01 X58.0162 Y50.6778
G01 X58.0662 Y50.6903
G01 X58.1148 Y50.7077
G01 X58.1637 Y50.7305
G01 X58.2142 Y50.7608
G01 X58.2556 Y50.7916
G01 X58.2956 Y50.8278
G01 X74.4343 Y66.9665
G01 X92.6252 Y48.7756
G01 X92.6252 Y36.2087
G01 X91.6851 Y35.2685
G01 X91.6497 Y35.2294
G01 X91.6175 Y35.1860
G01 X91.5897 Y35.1397
G01 X91.5671 Y35.0920
G01 X91.5484 Y35.0400
G01 X91.5353 Y34.9876
G01 X91.5274 Y34.9342
G01 X91.5248 Y34.8815
G01 X91.5247 Y33.6884
G01 X91.4945 Y33.6548
G01 X91.4507 Y33.5956
G01 X91.4136 Y33.5335
G01 X91.3816 Y33.4659
G01 X91.3573 Y33.3977
G01 X91.3394 Y33.3263
G01 X91.3286 Y33.2535
G01 X91.3251 Y33.1825
G01 X91.3250 Y30.5800
G01 X91.3286 Y30.5065
G01 X91.3390 Y30.4361
G01 X91.3573 Y30.3623
G01 X91.3831 Y30.2907
G01 X91.4136 Y30.2265
G01 X91.4501 Y30.1654
G01 X91.4968 Y30.1023
G01 X91.5447 Y30.0497
G01 X91.5973 Y30.0018
G01 X91.6583 Y29.9564
G01 X91.7215 Y29.9186
G01 X91.7857 Y29.8881
G01 X91.8573 Y29.8623
G01 X91.9287 Y29.8444
G01 X92.0015 Y29.8336
G01 X92.0750 Y29.8300
G01 X92.1485 Y29.8336
G01 X92.2213 Y29.8444
G01 X92.2927 Y29.8623
G01 X92.3620 Y29.8871
G01 X92.4285 Y29.9186
G01 X92.4917 Y29.9564
G01 X92.5508 Y30.0002
G01 X92.6053 Y30.0497
G01 X92.6548 Y30.1042
G01 X92.6986 Y30.1633
G01 X92.7364 Y30.2265
G01 X92.7679 Y30.2930
G01 X92.7927 Y30.3623
G01 X92.8106 Y30.4337
G01 X92.8211 Y30.5041
G01 X92.8250 Y30.5800
G01 X92.8249 Y33.1825
G01 X92.8214 Y33.2535
G01 X92.8106 Y33.3263
G01 X92.7927 Y33.3977
G01 X92.7684 Y33.4659
G01 X92.7364 Y33.5335
G01 X92.6993 Y33.5956
G01 X92.6555 Y33.6548
G01 X92.6253 Y33.6884
G01 X92.6253 Y34.6524
G01 X93.5646 Y35.5917
G01 X93.6001 Y35.6308
G01 X93.6343 Y35.6772
G01 X93.6608 Y35.7214
G01 X93.6839 Y35.7702
G01 X93.7027 Y35.8234
G01 X93.7152 Y35.8735
G01 X93.7231 Y35.9269
G01 X93.7258 Y35.9808
G01 X93.7258 Y48.4532
G01 X125.9834 Y48.4532
G01 X127.4969 Y46.9397
G01 X127.5351 Y46.9051
G01 X127.5824 Y46.8700
G01 X127.6266 Y46.8435
G01 X127.6754 Y46.8204
G01 X127.7286 Y46.8016
G01 X127.7787 Y46.7891
G01 X127.8321 Y46.7812
G01 X127.8860 Y46.7785
G01 X143.5301 Y46.7785
G01 X150.6676 Y39.6411
G01 X146.2959 Y35.2694
G01 X146.2597 Y35.2294
G01 X146.2275 Y35.1860
G01 X146.1997 Y35.1397
G01 X146.1766 Y35.0909
G01 X146.1584 Y35.0400
G01 X146.1453 Y34.9876
G01 X146.1374 Y34.9342
G01 X146.1348 Y34.8815
G01 X146.1347 Y33.6884
G01 X146.1045 Y33.6548
G01 X146.0607 Y33.5956
G01 X146.0236 Y33.5335
G01 X145.9926 Y33.4681
G01 X145.9673 Y33.3977
G01 X145.9499 Y33.3287
G01 X145.9384 Y33.2511
G01 X145.9350 Y33.1800
G01 X145.9350 Y30.5800
G01 X145.9385 Y30.5077
G01 X145.9494 Y30.4337
G01 X145.9666 Y30.3647
G01 X145.9931 Y30.2907
G01 X146.0236 Y30.2265
G01 X146.0614 Y30.1633
G01 X146.1052 Y30.1042
G01 X146.1547 Y30.0497
G01 X146.2092 Y30.0002
G01 X146.2663 Y29.9578
G01 X146.3336 Y29.9175
G01 X146.3980 Y29.8871
G01 X146.4673 Y29.8623
G01 X146.5387 Y29.8444
G01 X146.6115 Y29.8336
G01 X146.6850 Y29.8300
G01 X146.7585 Y29.8336
G01 X146.8313 Y29.8444
G01 X146.9027 Y29.8623
G01 X146.9720 Y29.8871
G01 X147.0385 Y29.9186
G01 X147.1017 Y29.9564
G01 X147.1608 Y30.0002
G01 X147.2153 Y30.0497
G01 X147.2648 Y30.1042
G01 X147.3086 Y30.1633
G01 X147.3464 Y30.2265
G01 X147.3779 Y30.2930
G01 X147.4027 Y30.3623
G01 X147.4206 Y30.4337
G01 X147.4313 Y30.5053
G01 X147.4350 Y30.5800
G01 X147.4349 Y33.1825
G01 X147.4314 Y33.2535
G01 X147.4206 Y33.3263
G01 X147.4027 Y33.3977
G01 X147.3784 Y33.4659
G01 X147.3464 Y33.5335
G01 X147.3093 Y33.5956
G01 X147.2655 Y33.6548
G01 X147.2353 Y33.6884
G01 X147.2353 Y34.6524
G01 X155.2126 Y42.6297
G01 X161.1250 Y42.6297
G01 X161.1250 Y41.1800
G01 X161.1254 Y41.1739
G01 X161.1262 Y41.1690
G01 X161.1293 Y41.1597
G01 X161.1341 Y41.1512
G01 X161.1371 Y41.1473
G01 X161.1414 Y41.1430
G01 X161.1493 Y41.1371
G01 X161.1570 Y41.1334
G01 X161.1652 Y41.1310
G01 X161.1750 Y41.1300
G01 X162.6762 Y41.1300
G01 X162.6860 Y41.1312
G01 X162.6941 Y41.1338
G01 X162.7028 Y41.1384
G01 X162.7095 Y41.1438
G01 X162.7152 Y41.1502
G01 X162.7202 Y41.1586
G01 X162.7232 Y41.1667
G01 X162.7249 Y41.1763
G01 X162.7250 Y45.1800
G01 X162.7243 Y45.1885
G01 X162.7221 Y45.1968
G01 X162.7185 Y45.2046
G01 X162.7137 Y45.2117
G01 X162.7086 Y45.2170
G01 X162.7017 Y45.2222
G01 X162.6941 Y45.2262
G01 X162.6860 Y45.2288
G01 X162.6799 Y45.2298
G01 X162.6750 Y45.2300
G01 X161.1750 Y45.2300
G01 X161.1652 Y45.2290
G01 X161.1559 Y45.2262
G01 X161.1472 Y45.2216
G01 X161.1405 Y45.2162
G01 X161.1363 Y45.2117
G01 X161.1334 Y45.2078
G01 X161.1288 Y45.1991
G01 X161.1260 Y45.1898
G01 X161.1250 Y45.1800
G01 X161.1250 Y43.7303
G01 X154.9847 Y43.7303
G01 X154.9308 Y43.7276
G01 X154.8774 Y43.7197
G01 X154.8250 Y43.7066
G01 X154.7741 Y43.6884
G01 X154.7253 Y43.6653
G01 X154.6790 Y43.6375
G01 X154.6356 Y43.6053
G01 X154.5956 Y43.5691
G01 X151.4458 Y40.4193
G01 X144.1471 Y47.7179
G01 X144.1071 Y47.7542
G01 X144.0616 Y47.7876
G01 X144.0174 Y47.8141
G01 X143.9708 Y47.8362
G01 X143.9201 Y47.8546
G01 X143.8629 Y47.8689
G01 X143.8119 Y47.8764
G01 X143.7580 Y47.8791
G01 X128.1139 Y47.8791
G01 X126.7616 Y49.2314
G01 X126.7616 Y85.2437
G01 X126.7588 Y85.2989
G01 X126.7510 Y85.3510
G01 X126.7379 Y85.4034
G01 X126.7197 Y85.4543
G01 X126.6977 Y85.5009
G01 X126.6674 Y85.5514
G01 X126.6366 Y85.5928
G01 X126.6012 Y85.6319
G01 X122.0317 Y90.2015
G01 X122.0350 Y90.2700
G01 X122.0350 Y92.8700
G01 X122.0314 Y92.9435
G01 X122.0206 Y93.0163
G01 X122.0027 Y93.0877
G01 X121.9788 Y93.1547
G01 X121.9452 Y93.2257
G01 X121.9086 Y93.2867
G01 X121.8648 Y93.3458
G01 X121.8153 Y93.4003
G01 X121.7627 Y93.4482
G01 X121.6996 Y93.4949
G01 X121.6385 Y93.5314
G01 X121.5720 Y93.5629
G01 X121.5027 Y93.5877
G01 X121.4337 Y93.6051
G01 X121.3573 Y93.6165
G01 X121.2850 Y93.6200
G01 X121.2115 Y93.6164
G01 X121.1387 Y93.6056
G01 X121.0673 Y93.5877
G01 X120.9980 Y93.5629
G01 X120.9315 Y93.5314
G01 X120.8683 Y93.4936
G01 X120.8111 Y93.4513
G01 X120.7530 Y93.3986
G01 X120.7052 Y93.3458
G01 X120.6601 Y93.2846
G01 X120.6236 Y93.2235
G01 X120.5921 Y93.1570
G01 X120.5673 Y93.0877
G01 X120.5494 Y93.0163
G01 X120.5386 Y92.9435
G01 X120.5350 Y92.8700
G01 X120.5350 Y90.2688
G01 X120.5386 Y90.1965
G01 X120.5499 Y90.1213
G01 X120.5673 Y90.0523
G01 X120.5912 Y89.9853
G01 X120.6230 Y89.9175
G01 X120.6614 Y89.8533
G01 X120.7068 Y89.7923
G01 X120.7564 Y89.7380
G01 X120.8092 Y89.6902
G01 X120.8663 Y89.6478
G01 X120.9315 Y89.6086
G01 X120.9980 Y89.5771
G01 X121.0673 Y89.5523
G01 X121.1363 Y89.5349
G01 X121.1431 Y89.5337
G01 X125.6610 Y85.0158
G01 X125.6610 Y49.5538
G01 X93.4034 Y49.5538
G01 X74.9846 Y67.9726
G01 X74.9846 Y76.8533
G01 X80.8499 Y82.7187
G01 X80.8853 Y82.7578
G01 X80.9161 Y82.7992
G01 X80.9464 Y82.8497
G01 X80.9684 Y82.8963
G01 X80.9866 Y82.9472
G01 X80.9997 Y82.9996
G01 X81.0073 Y83.0505
G01 X81.0103 Y83.1069
G01 X81.0103 Y88.4500
G01 X81.0076 Y88.5039
G01 X80.9994 Y88.5585
G01 X80.9866 Y88.6097
G01 X80.9692 Y88.6583
G01 X80.9453 Y88.7094
G01 X80.9161 Y88.7577
G01 X80.8853 Y88.7991
G01 X80.8508 Y88.8373
G01 X79.4867 Y90.2015
G01 X79.4900 Y90.2700
G01 X79.4900 Y92.8700
G01 X79.4864 Y92.9435
G01 X79.4753 Y93.0175
G01 X79.4577 Y93.0877
G01 X79.4329 Y93.1570
G01 X79.4014 Y93.2235
G01 X79.3649 Y93.2846
G01 X79.3182 Y93.3477
G01 X79.2703 Y93.4003
G01 X79.2158 Y93.4498
G01 X79.1567 Y93.4936
G01 X79.0957 Y93.5302
G01 X79.0247 Y93.5638
G01 X78.9577 Y93.5877
G01 X78.8863 Y93.6056
G01 X78.8135 Y93.6164
G01 X78.7412 Y93.6200
G01 X78.6665 Y93.6164
G01 X78.5961 Y93.6060
G01 X78.5200 Y93.5869
G01 X78.4530 Y93.5629
G01 X78.3865 Y93.5314
G01 X78.3233 Y93.4936
G01 X78.2642 Y93.4498
G01 X78.2097 Y93.4003
G01 X78.1618 Y93.3477
G01 X78.1151 Y93.2846
G01 X78.0786 Y93.2235
G01 X78.0471 Y93.1570
G01 X78.0223 Y93.0877
G01 X78.0047 Y93.0175
G01 X77.9936 Y92.9435
G01 X77.9900 Y92.8700
G01 X77.9900 Y90.2700
G01 X77.9937 Y90.1953
G01 X78.0044 Y90.1237
G01 X78.0216 Y90.0547
G01 X78.0481 Y89.9807
G01 X78.0786 Y89.9165
G01 X78.1164 Y89.8533
G01 X78.1602 Y89.7942
G01 X78.2088 Y89.7405
G01 X78.2661 Y89.6887
G01 X78.3233 Y89.6464
G01 X78.3865 Y89.6086
G01 X78.4530 Y89.5771
G01 X78.5200 Y89.5531
G01 X78.5913 Y89.5349
G01 X78.5981 Y89.5337
G01 X79.9097 Y88.2221
G01 X79.9097 Y83.3348
G01 X74.0452 Y77.4703
G01 X74.0090 Y77.4303
G01 X73.9768 Y77.3869
G01 X73.9490 Y77.3406
G01 X73.9255 Y77.2906
G01 X73.9077 Y77.2409
G01 X73.8946 Y77.1885
G01 X73.8867 Y77.1351
G01 X73.8840 Y77.0812
G01 X73.8840 Y67.9726
G01 X57.6786 Y51.7672
G01 X43.5979 Y51.7672
G01 X43.5772 Y51.8013
G01 X43.5173 Y51.8821
G01 X43.4465 Y51.9602
G01 X43.3691 Y52.0301
G01 X43.2882 Y52.0899
G01 X43.2009 Y52.1423
G01 X43.1044 Y52.1879
G01 X43.0097 Y52.2217
G01 X42.9121 Y52.2462
G01 X42.8078 Y52.2618
G01 X42.7024 Y52.2668
G01 X42.6020 Y52.2618
G01 X42.5001 Y52.2467
G01 X42.4001 Y52.2217
G01 X42.3008 Y52.1860
G01 X42.2099 Y52.1429
G01 X42.1195 Y52.0885
G01 X42.0388 Y52.0286
G01 X41.9642 Y51.9611
G01 X41.8948 Y51.8849
G01 X41.8319 Y51.8002
G01 X41.7789 Y51.7119
G01 X41.7348 Y51.6187
G01 X41.7001 Y51.5217
G01 X41.6751 Y51.4217
G01 X41.6600 Y51.3198
G01 X41.6549 Y51.2169
G01 X41.6603 Y51.1115
G00 Z2.0000
G00 X45.4743 Y56.1770
G01 F60.00
G01 Z-0.15
G01 F200.00
G01 X45.4891 Y56.0776
G01 X45.5135 Y55.9800
G01 X45.5488 Y55.8806
G01 X45.5941 Y55.7853
G01 X45.6459 Y55.6991
G01 X45.7072 Y55.6163
G01 X45.7782 Y55.5382
G01 X45.8528 Y55.4707
G01 X45.9356 Y55.4094
G01 X46.0261 Y55.3553
G01 X46.1171 Y55.3123
G01 X46.2118 Y55.2784
G01 X46.3165 Y55.2522
G01 X46.4160 Y55.2375
G01 X46.5164 Y55.2325
G01 X46.6218 Y55.2375
G01 X46.7261 Y55.2531
G01 X46.8237 Y55.2776
G01 X46.9184 Y55.3114
G01 X47.0139 Y55.3564
G01 X47.1043 Y55.4108
G01 X47.1850 Y55.4707
G01 X47.2605 Y55.5391
G01 X47.3321 Y55.6182
G01 X47.3919 Y55.6991
G01 X47.4437 Y55.7853
G01 X47.4890 Y55.8806
G01 X47.5240 Y55.9788
G01 X47.5487 Y56.0776
G01 X47.5635 Y56.1770
G01 X47.5689 Y56.2812
G01 X47.5637 Y56.3865
G01 X47.5489 Y56.4860
G01 X47.5394 Y56.5247
G01 X71.5091 Y80.4944
G01 X71.5453 Y80.5344
G01 X71.5775 Y80.5778
G01 X71.6041 Y80.6220
G01 X71.6292 Y80.6752
G01 X71.6466 Y80.7238
G01 X71.6597 Y80.7762
G01 X71.6676 Y80.8296
G01 X71.6702 Y80.8823
G01 X71.6703 Y84.4216
G01 X71.7005 Y84.4552
G01 X71.7443 Y84.5144
G01 X71.7814 Y84.5765
G01 X71.8134 Y84.6441
G01 X71.8377 Y84.7123
G01 X71.8556 Y84.7837
G01 X71.8664 Y84.8565
G01 X71.8700 Y84.9300
G01 X71.8700 Y87.5300
G01 X71.8664 Y87.6035
G01 X71.8556 Y87.6763
G01 X71.8377 Y87.7477
G01 X71.8129 Y87.8170
G01 X71.7814 Y87.8835
G01 X71.7436 Y87.9467
G01 X71.6998 Y88.0058
G01 X71.6503 Y88.0603
G01 X71.5958 Y88.1098
G01 X71.5346 Y88.1549
G01 X71.4735 Y88.1914
G01 X71.4070 Y88.2229
G01 X71.3353 Y88.2484
G01 X71.2663 Y88.2656
G01 X71.1959 Y88.2761
G01 X71.1200 Y88.2800
G01 X71.0441 Y88.2761
G01 X70.9737 Y88.2656
G01 X70.9047 Y88.2484
G01 X70.8330 Y88.2229
G01 X70.7643 Y88.1902
G01 X70.7033 Y88.1536
G01 X70.6461 Y88.1113
G01 X70.5897 Y88.0603
G01 X70.5387 Y88.0039
G01 X70.4964 Y87.9467
G01 X70.4598 Y87.8857
G01 X70.4271 Y87.8170
G01 X70.4016 Y87.7453
G01 X70.3844 Y87.6763
G01 X70.3739 Y87.6059
G01 X70.3700 Y87.5300
G01 X70.3700 Y84.9300
G01 X70.3735 Y84.8577
G01 X70.3844 Y84.7837
G01 X70.4016 Y84.7147
G01 X70.4276 Y84.6419
G01 X70.4586 Y84.5765
G01 X70.4957 Y84.5144
G01 X70.5395 Y84.4552
G01 X70.5697 Y84.4216
G01 X70.5697 Y81.1114
G01 X46.7612 Y57.3029
G01 X46.7225 Y57.3124
G01 X46.6230 Y57.3272
G01 X46.5177 Y57.3324
G01 X46.4135 Y57.3270
G01 X46.3141 Y57.3122
G01 X46.2153 Y57.2875
G01 X46.1171 Y57.2525
G01 X46.0218 Y57.2072
G01 X45.9356 Y57.1554
G01 X45.8547 Y57.0956
G01 X45.7764 Y57.0249
G01 X45.7072 Y56.9485
G01 X45.6445 Y56.8637
G01 X45.5929 Y56.7774
G01 X45.5498 Y56.6865
G01 X45.5149 Y56.5895
G01 X45.4891 Y56.4872
G01 X45.4740 Y56.3853
G01 X45.4689 Y56.2824
G01 X45.4743 Y56.1770
G00 Z2.0000
G00 X52.5400 Y59.1500
G01 F60.00
G01 Z-0.15
G01 F200.00
G01 X52.5400 Y55.1500
G01 X52.5410 Y55.1402
G01 X52.5434 Y55.1320
G01 X52.5465 Y55.1254
G01 X52.5506 Y55.1192
G01 X52.5555 Y55.1138
G01 X52.5612 Y55.1091
G01 X52.5675 Y55.1053
G01 X52.5743 Y55.1025
G01 X52.5815 Y55.1007
G01 X52.5888 Y55.1000
G01 X54.0900 Y55.1000
G01 X54.0998 Y55.1010
G01 X54.1080 Y55.1034
G01 X54.1157 Y55.1071
G01 X54.1217 Y55.1113
G01 X54.1270 Y55.1164
G01 X54.1316 Y55.1222
G01 X54.1352 Y55.1286
G01 X54.1378 Y55.1355
G01 X54.1395 Y55.1427
G01 X54.1400 Y55.1500
G01 X54.1400 Y59.1500
G01 X54.1393 Y59.1585
G01 X54.1366 Y59.1680
G01 X54.1335 Y59.1746
G01 X54.1294 Y59.1808
G01 X54.1245 Y59.1862
G01 X54.1188 Y59.1909
G01 X54.1125 Y59.1947
G01 X54.1057 Y59.1975
G01 X54.0985 Y59.1993
G01 X54.0912 Y59.2000
G01 X52.5900 Y59.2000
G01 X52.5802 Y59.1990
G01 X52.5709 Y59.1962
G01 X52.5622 Y59.1916
G01 X52.5546 Y59.1854
G01 X52.5484 Y59.1778
G01 X52.5438 Y59.1691
G01 X52.5410 Y59.1598
G01 X52.5400 Y59.1500
G00 Z2.0000
G00 X55.0842 Y55.8192
G01 F60.00
G01 Z-0.15
G01 F200.00
G01 X55.0954 Y55.7439
G01 X55.1144 Y55.6678
G01 X55.1409 Y55.5939
G01 X55.1734 Y55.5251
G01 X55.2162 Y55.4535
G01 X55.2616 Y55.3925
G01 X55.3143 Y55.3343
G01 X55.3725 Y55.2816
G01 X55.4335 Y55.2362
G01 X55.5051 Y55.1934
G01 X55.5739 Y55.1609
G01 X55.6478 Y55.1344
G01 X55.7239 Y55.1154
G01 X55.8016 Y55.1039
G01 X55.8800 Y55.1000
G01 X55.9584 Y55.1039
G01 X56.0361 Y55.1154
G01 X56.1099 Y55.1338
G01 X56.1884 Y55.1619
G01 X56.2571 Y55.1945
G01 X56.3245 Y55.2348
G01 X56.3875 Y55.2816
G01 X56.4457 Y55.3343
G01 X56.4984 Y55.3925
G01 X56.5438 Y55.4535
G01 X56.5866 Y55.5251
G01 X56.6191 Y55.5939
G01 X56.6456 Y55.6678
G01 X56.6646 Y55.7439
G01 X56.6758 Y55.8192
G01 X56.6800 Y55.9000
G01 X56.6800 Y58.4000
G01 X56.6761 Y58.4784
G01 X56.6650 Y58.5537
G01 X56.6448 Y58.6346
G01 X56.6191 Y58.7061
G01 X56.5866 Y58.7749
G01 X56.5452 Y58.8445
G01 X56.4968 Y58.9094
G01 X56.4457 Y58.9657
G01 X56.3894 Y59.0168
G01 X56.3245 Y59.0652
G01 X56.2549 Y59.1066
G01 X56.1861 Y59.1391
G01 X56.1122 Y59.1656
G01 X56.0361 Y59.1846
G01 X55.9584 Y59.1961
G01 X55.8800 Y59.2000
G01 X55.8016 Y59.1961
G01 X55.7239 Y59.1846
G01 X55.6478 Y59.1656
G01 X55.5739 Y59.1391
G01 X55.5029 Y59.1055
G01 X55.4355 Y59.0652
G01 X55.3725 Y59.0184
G01 X55.3143 Y58.9657
G01 X55.2616 Y58.9075
G01 X55.2148 Y58.8445
G01 X55.1745 Y58.7771
G01 X55.1409 Y58.7061
G01 X55.1144 Y58.6322
G01 X55.0954 Y58.5561
G01 X55.0842 Y58.4808
G01 X55.0800 Y58.4000
G01 X55.0800 Y55.9000
G01 X55.0842 Y55.8192
G00 Z2.0000
G00 X57.6242 Y55.8192
G01 F60.00
G01 Z-0.15
G01 F200.00
G01 X57.6354 Y55.7439
G01 X57.6544 Y55.6678
G01 X57.6809 Y55.5939
G01 X57.7145 Y55.5229
G01 X57.7548 Y55.4555
G01 X57.8016 Y55.3925
G01 X57.8543 Y55.3343
G01 X57.9106 Y55.2832
G01 X57.9755 Y55.2348
G01 X58.0407 Y55.1957
G01 X58.1161 Y55.1600
G01 X58.1878 Y55.1344
G01 X58.2639 Y55.1154
G01 X58.3416 Y55.1039
G01 X58.4200 Y55.1000
G01 X58.4984 Y55.1039
G01 X58.5761 Y55.1154
G01 X58.6522 Y55.1344
G01 X58.7239 Y55.1600
G01 X58.7993 Y55.1957
G01 X58.8645 Y55.2348
G01 X58.9294 Y55.2832
G01 X58.9857 Y55.3343
G01 X59.0384 Y55.3925
G01 X59.0852 Y55.4555
G01 X59.1255 Y55.5229
G01 X59.1591 Y55.5939
G01 X59.1856 Y55.6678
G01 X59.2046 Y55.7439
G01 X59.2160 Y55.8204
G01 X59.2200 Y55.9000
G01 X59.2200 Y58.4000
G01 X59.2163 Y58.4772
G01 X59.2046 Y58.5561
G01 X59.1856 Y58.6322
G01 X59.1591 Y58.7061
G01 X59.1261 Y58.7760
G01 X59.0852 Y58.8445
G01 X59.0392 Y58.9066
G01 X58.9865 Y58.9648
G01 X58.9703 Y58.9798
G01 X58.9703 Y65.8337
G01 X74.0491 Y80.9125
G01 X74.0853 Y80.9525
G01 X74.1161 Y80.9939
G01 X74.1458 Y81.0433
G01 X74.1684 Y81.0910
G01 X74.1872 Y81.1442
G01 X74.1997 Y81.1943
G01 X74.2073 Y81.2452
G01 X74.2102 Y81.3004
G01 X74.2103 Y84.4216
G01 X74.2405 Y84.4552
G01 X74.2843 Y84.5144
G01 X74.3214 Y84.5765
G01 X74.3534 Y84.6441
G01 X74.3777 Y84.7123
G01 X74.3956 Y84.7837
G01 X74.4064 Y84.8565
G01 X74.4099 Y84.9275
G01 X74.4100 Y87.5312
G01 X74.4064 Y87.6035
G01 X74.3960 Y87.6739
G01 X74.3777 Y87.7477
G01 X74.3519 Y87.8193
G01 X74.3214 Y87.8835
G01 X74.2849 Y87.9446
G01 X74.2398 Y88.0058
G01 X74.1886 Y88.0620
G01 X74.1358 Y88.1098
G01 X74.0787 Y88.1522
G01 X74.0125 Y88.1920
G01 X73.9447 Y88.2238
G01 X73.8777 Y88.2477
G01 X73.8087 Y88.2651
G01 X73.7335 Y88.2764
G01 X73.6600 Y88.2800
G01 X73.5865 Y88.2764
G01 X73.5113 Y88.2651
G01 X73.4423 Y88.2477
G01 X73.3753 Y88.2238
G01 X73.3065 Y88.1914
G01 X73.2413 Y88.1522
G01 X73.1842 Y88.1098
G01 X73.1314 Y88.0620
G01 X73.0802 Y88.0058
G01 X73.0364 Y87.9467
G01 X72.9986 Y87.8835
G01 X72.9662 Y87.8147
G01 X72.9423 Y87.7477
G01 X72.9249 Y87.6787
G01 X72.9137 Y87.6047
G01 X72.9100 Y87.5300
G01 X72.9100 Y84.9300
G01 X72.9135 Y84.8577
G01 X72.9249 Y84.7813
G01 X72.9423 Y84.7123
G01 X72.9676 Y84.6419
G01 X72.9986 Y84.5765
G01 X73.0357 Y84.5144
G01 X73.0795 Y84.4552
G01 X73.1097 Y84.4216
G01 X73.1097 Y81.5295
G01 X58.0309 Y66.4507
G01 X57.9947 Y66.4107
G01 X57.9639 Y66.3693
G01 X57.9342 Y66.3199
G01 X57.9108 Y66.2699
G01 X57.8934 Y66.2213
G01 X57.8809 Y66.1713
G01 X57.8724 Y66.1155
G01 X57.8697 Y66.0616
G01 X57.8697 Y58.9798
G01 X57.8535 Y58.9648
G01 X57.8008 Y58.9066
G01 X57.7548 Y58.8445
G01 X57.7139 Y58.7760
G01 X57.6809 Y58.7061
G01 X57.6544 Y58.6322
G01 X57.6354 Y58.5561
G01 X57.6237 Y58.4772
G01 X57.6200 Y58.4000
G01 X57.6200 Y55.9000
G01 X57.6242 Y55.8192
G00 Z2.0000
G00 X57.6242 Y41.8492
G01 F60.00
G01 Z-0.15
G01 F200.00
G01 X57.6354 Y41.7739
G01 X57.6544 Y41.6978
G01 X57.6809 Y41.6239
G01 X57.7134 Y41.5551
G01 X57.7562 Y41.4835
G01 X57.8016 Y41.4225
G01 X57.8543 Y41.3643
G01 X57.9125 Y41.3116
G01 X57.9735 Y41.2662
G01 X58.0451 Y41.2234
G01 X58.1139 Y41.1909
G01 X58.1878 Y41.1644
G01 X58.2639 Y41.1454
G01 X58.3416 Y41.1339
G01 X58.4200 Y41.1300
G01 X58.4960 Y41.1337
G01 X58.5785 Y41.1459
G01 X58.6522 Y41.1644
G01 X58.7261 Y41.1909
G01 X58.7971 Y41.2245
G01 X58.8645 Y41.2648
G01 X58.9275 Y41.3116
G01 X58.9857 Y41.3643
G01 X59.0384 Y41.4225
G01 X59.0838 Y41.4835
G01 X59.1266 Y41.5551
G01 X59.1591 Y41.6239
G01 X59.1856 Y41.6978
G01 X59.2046 Y41.7739
G01 X59.2158 Y41.8492
G01 X59.2200 Y41.9300
G01 X59.2200 Y44.4300
G01 X59.2161 Y44.5084
G01 X59.2050 Y44.5837
G01 X59.1848 Y44.6646
G01 X59.1591 Y44.7361
G01 X59.1266 Y44.8049
G01 X59.0852 Y44.8745
G01 X59.0368 Y44.9394
G01 X58.9857 Y44.9957
G01 X58.9294 Y45.0468
G01 X58.8645 Y45.0952
G01 X58.7949 Y45.1366
G01 X58.7261 Y45.1691
G01 X58.6522 Y45.1956
G01 X58.5761 Y45.2146
G01 X58.4984 Y45.2261
G01 X58.4200 Y45.2300
G01 X58.3416 Y45.2261
G01 X58.2639 Y45.2146
G01 X58.1878 Y45.1956
G01 X58.1139 Y45.1691
G01 X58.0429 Y45.1355
G01 X57.9755 Y45.0952
G01 X57.9125 Y45.0484
G01 X57.8543 Y44.9957
G01 X57.8016 Y44.9375
G01 X57.7548 Y44.8745
G01 X57.7145 Y44.8071
G01 X57.6809 Y44.7361
G01 X57.6544 Y44.6622
G01 X57.6354 Y44.5861
G01 X57.6242 Y44.5108
G01 X57.6200 Y44.4300
G01 X57.6200 Y41.9300
G01 X57.6242 Y41.8492
G00 Z2.0000
G00 X52.5900 Y41.1300
G01 F60.00
G01 Z-0.15
G01 F200.00
G01 X54.0912 Y41.1300
G01 X54.0985 Y41.1307
G01 X54.1057 Y41.1325
G01 X54.1125 Y41.1353
G01 X54.1198 Y41.1398
G01 X54.1254 Y41.1446
G01 X54.1302 Y41.1502
G01 X54.1341 Y41.1564
G01 X54.1371 Y41.1632
G01 X54.1393 Y41.1715
G01 X54.1400 Y41.1800
G01 X54.1400 Y45.1800
G01 X54.1395 Y45.1873
G01 X54.1378 Y45.1945
G01 X54.1352 Y45.2014
G01 X54.1309 Y45.2088
G01 X54.1254 Y45.2154
G01 X54.1198 Y45.2202
G01 X54.1136 Y45.2241
G01 X54.1068 Y45.2271
G01 X54.0985 Y45.2293
G01 X54.0900 Y45.2300
G01 X52.5888 Y45.2300
G01 X52.5815 Y45.2293
G01 X52.5743 Y45.2275
G01 X52.5675 Y45.2247
G01 X52.5602 Y45.2202
G01 X52.5546 Y45.2154
G01 X52.5498 Y45.2098
G01 X52.5459 Y45.2036
G01 X52.5429 Y45.1968
G01 X52.5407 Y45.1885
G01 X52.5400 Y45.1800
G01 X52.5400 Y41.1800
G01 X52.5410 Y41.1702
G01 X52.5438 Y41.1609
G01 X52.5484 Y41.1522
G01 X52.5546 Y41.1446
G01 X52.5622 Y41.1384
G01 X52.5709 Y41.1338
G01 X52.5802 Y41.1310
G01 X52.5900 Y41.1300
G00 Z2.0000
G00 X50.6592 Y29.1292
G01 F60.00
G01 Z-0.15
G01 F200.00
G01 X50.6704 Y29.0539
G01 X50.6894 Y28.9778
G01 X50.7159 Y28.9039
G01 X50.7484 Y28.8351
G01 X50.7912 Y28.7635
G01 X50.8366 Y28.7025
G01 X50.8876 Y28.6461
G01 X50.9494 Y28.5901
G01 X51.0105 Y28.5448
G01 X51.0779 Y28.5045
G01 X51.1511 Y28.4700
G01 X51.2228 Y28.4444
G01 X51.2977 Y28.4256
G01 X51.3766 Y28.4139
G01 X51.4550 Y28.4100
G01 X53.9562 Y28.4100
G01 X54.0334 Y28.4139
G01 X54.1111 Y28.4254
G01 X54.1872 Y28.4444
G01 X54.2611 Y28.4709
G01 X54.3321 Y28.5045
G01 X54.3995 Y28.5448
G01 X54.4625 Y28.5916
G01 X54.5207 Y28.6443
G01 X54.5734 Y28.7025
G01 X54.6202 Y28.7655
G01 X54.6605 Y28.8329
G01 X54.6941 Y28.9039
G01 X54.7206 Y28.9778
G01 X54.7396 Y29.0539
G01 X54.7511 Y29.1316
G01 X54.7550 Y29.2112
G01 X54.7511 Y29.2884
G01 X54.7396 Y29.3661
G01 X54.7206 Y29.4422
G01 X54.6950 Y29.5139
G01 X54.6593 Y29.5893
G01 X54.6202 Y29.6545
G01 X54.5734 Y29.7175
G01 X54.5207 Y29.7757
G01 X54.4644 Y29.8268
G01 X54.3974 Y29.8765
G01 X54.3321 Y29.9155
G01 X54.2611 Y29.9491
G01 X54.1872 Y29.9756
G01 X54.1135 Y29.9941
G01 X54.0334 Y30.0061
G01 X53.9550 Y30.0100
G01 X51.4538 Y30.0100
G01 X51.3766 Y30.0061
G01 X51.2989 Y29.9946
G01 X51.2228 Y29.9756
G01 X51.1466 Y29.9481
G01 X51.0779 Y29.9155
G01 X51.0085 Y29.8738
