(G-CODE GENERATED BY FLATCAM v8.994 - www.flatcam.org - Version Date: 2020/11/7)

(Name: io-board-mixed.drl_cnc)
(Type: G-code from Geometry)
(Units: MM)

(Created on Saturday, 08 May 2021 at 09:58)

(This preprocessor is the default preprocessor used by FlatCAM.)
(It is made to work with MACH3 compatible motion controllers.)


(TOOLS DIAMETER: )
(Tool: 1 -> Dia: 1.0007599999999999)
(Tool: 2 -> Dia: 1.30048)

(FEEDRATE Z: )
(Tool: 1 -> Feedrate: 300)
(Tool: 2 -> Feedrate: 300)

(FEEDRATE RAPIDS: )
(Tool: 1 -> Feedrate Rapids: 1500)
(Tool: 2 -> Feedrate Rapids: 1500)

(Z_CUT: )
(Tool: 1 -> Z_Cut: -2.0)
(Tool: 2 -> Z_Cut: -2.0)

(Tools Offset: )
(Tool: 1 -> Offset Z: 0.0)
(Tool: 2 -> Offset Z: 0.0)

(Z_MOVE: )
(Tool: 1 -> Z_Move: 2)
(Tool: 2 -> Z_Move: 2)

(Z Toolchange: 15 mm)
(X,Y Toolchange: 0.0000, 0.0000 mm)
(Z Start: None mm)
(Z End: 0.5 mm)
(X,Y End: None mm)
(Steps per circle: 64)
(Preprocessor Excellon: default)

(X range:   10.9296 ...  167.5054  mm)
(Y range:   13.4391 ...   90.6704  mm)

(Spindle Speed: 10000 RPM)
G21
G90
G94

G01 F300.00

M5
G00 Z15.0000
T1
G00 X0.0000 Y0.0000                
M6
(MSG, Change to Tool Dia = 1.0008 ||| Total drills for tool T1 = 228)
M0
G00 Z15.0000

G01 F300.00
M03 S10000
G00 X11.4300 Y72.3900
G01 Z-2.0000
G01 Z0
G00 Z2.0000
G00 X13.9700 Y72.3900
G01 Z-2.0000
G01 Z0
G00 Z2.0000
G00 X16.5100 Y72.3900
G01 Z-2.0000
G01 Z0
G00 Z2.0000
G00 X18.4150 Y87.6300
G01 Z-2.0000
G01 Z0
G00 Z2.0000
G00 X15.8750 Y87.6300
G01 Z-2.0000
G01 Z0
G00 Z2.0000
G00 X13.3350 Y87.6300
G01 Z-2.0000
G01 Z0
G00 Z2.0000
G00 X13.3350 Y90.1700
G01 Z-2.0000
G01 Z0
G00 Z2.0000
G00 X15.8750 Y90.1700
G01 Z-2.0000
G01 Z0
G00 Z2.0000
G00 X18.4150 Y90.1700
G01 Z-2.0000
G01 Z0
G00 Z2.0000
G00 X20.9550 Y90.1700
G01 Z-2.0000
G01 Z0
G00 Z2.0000
G00 X20.9550 Y87.6300
G01 Z-2.0000
G01 Z0
G00 Z2.0000
G00 X23.4950 Y87.6300
G01 Z-2.0000
G01 Z0
G00 Z2.0000
G00 X23.4950 Y90.1700
G01 Z-2.0000
G01 Z0
G00 Z2.0000
G00 X26.0350 Y90.1700
G01 Z-2.0000
G01 Z0
G00 Z2.0000
G00 X26.0350 Y87.6300
G01 Z-2.0000
G01 Z0
G00 Z2.0000
G00 X28.5750 Y87.6300
G01 Z-2.0000
G01 Z0
G00 Z2.0000
G00 X28.5750 Y90.1700
G01 Z-2.0000
G01 Z0
G00 Z2.0000
G00 X31.1150 Y90.1700
G01 Z-2.0000
G01 Z0
G00 Z2.0000
G00 X31.1150 Y87.6300
G01 Z-2.0000
G01 Z0
G00 Z2.0000
G00 X33.6550 Y87.6300
G01 Z-2.0000
G01 Z0
G00 Z2.0000
G00 X33.6550 Y90.1700
G01 Z-2.0000
G01 Z0
G00 Z2.0000
G00 X36.1950 Y90.1700
G01 Z-2.0000
G01 Z0
G00 Z2.0000
G00 X36.1950 Y87.6300
G01 Z-2.0000
G01 Z0
G00 Z2.0000
G00 X55.8800 Y90.1700
G01 Z-2.0000
G01 Z0
G00 Z2.0000
G00 X55.8800 Y87.6300
G01 Z-2.0000
G01 Z0
G00 Z2.0000
G00 X58.4200 Y87.6300
G01 Z-2.0000
G01 Z0
G00 Z2.0000
G00 X60.9600 Y87.6300
G01 Z-2.0000
G01 Z0
G00 Z2.0000
G00 X58.4200 Y90.1700
G01 Z-2.0000
G01 Z0
G00 Z2.0000
G00 X60.9600 Y90.1700
G01 Z-2.0000
G01 Z0
G00 Z2.0000
G00 X63.5000 Y90.1700
G01 Z-2.0000
G01 Z0
G00 Z2.0000
G00 X66.0400 Y90.1700
G01 Z-2.0000
G01 Z0
G00 Z2.0000
G00 X68.5800 Y90.1700
G01 Z-2.0000
G01 Z0
G00 Z2.0000
G00 X71.1200 Y90.1700
G01 Z-2.0000
G01 Z0
G00 Z2.0000
G00 X73.6600 Y90.1700
G01 Z-2.0000
G01 Z0
G00 Z2.0000
G00 X76.2000 Y90.1700
G01 Z-2.0000
G01 Z0
G00 Z2.0000
G00 X78.7400 Y90.1700
G01 Z-2.0000
G01 Z0
G00 Z2.0000
G00 X78.7400 Y87.6300
G01 Z-2.0000
G01 Z0
G00 Z2.0000
G00 X76.2000 Y87.6300
G01 Z-2.0000
G01 Z0
G00 Z2.0000
G00 X73.6600 Y87.6300
G01 Z-2.0000
G01 Z0
G00 Z2.0000
G00 X71.1200 Y87.6300
G01 Z-2.0000
G01 Z0
G00 Z2.0000
G00 X68.5800 Y87.6300
G01 Z-2.0000
G01 Z0
G00 Z2.0000
G00 X66.0400 Y87.6300
G01 Z-2.0000
G01 Z0
G00 Z2.0000
G00 X63.5000 Y87.6300
G01 Z-2.0000
G01 Z0
G00 Z2.0000
G00 X76.2000 Y72.3900
G01 Z-2.0000
G01 Z0
G00 Z2.0000
G00 X78.7400 Y72.3900
G01 Z-2.0000
G01 Z0
G00 Z2.0000
G00 X81.2800 Y72.3900
G01 Z-2.0000
G01 Z0
G00 Z2.0000
G00 X95.8850 Y72.3900
G01 Z-2.0000
G01 Z0
G00 Z2.0000
G00 X98.4250 Y72.3900
G01 Z-2.0000
G01 Z0
G00 Z2.0000
G00 X100.9650 Y72.3900
G01 Z-2.0000
G01 Z0
G00 Z2.0000
G00 X103.5050 Y87.6300
G01 Z-2.0000
G01 Z0
G00 Z2.0000
G00 X100.9650 Y87.6300
G01 Z-2.0000
G01 Z0
G00 Z2.0000
G00 X98.4250 Y87.6300
G01 Z-2.0000
G01 Z0
G00 Z2.0000
G00 X98.4250 Y90.1700
G01 Z-2.0000
G01 Z0
G00 Z2.0000
G00 X100.9650 Y90.1700
G01 Z-2.0000
G01 Z0
G00 Z2.0000
G00 X103.5050 Y90.1700
G01 Z-2.0000
G01 Z0
G00 Z2.0000
G00 X106.0450 Y90.1700
G01 Z-2.0000
G01 Z0
G00 Z2.0000
G00 X108.5850 Y90.1700
G01 Z-2.0000
G01 Z0
G00 Z2.0000
G00 X111.1250 Y90.1700
G01 Z-2.0000
G01 Z0
G00 Z2.0000
G00 X113.6650 Y90.1700
G01 Z-2.0000
G01 Z0
G00 Z2.0000
G00 X116.2050 Y90.1700
G01 Z-2.0000
G01 Z0
G00 Z2.0000
G00 X118.7450 Y90.1700
G01 Z-2.0000
G01 Z0
G00 Z2.0000
G00 X121.2850 Y90.1700
G01 Z-2.0000
G01 Z0
G00 Z2.0000
G00 X121.2850 Y87.6300
G01 Z-2.0000
G01 Z0
G00 Z2.0000
G00 X118.7450 Y87.6300
G01 Z-2.0000
G01 Z0
G00 Z2.0000
G00 X116.2050 Y87.6300
G01 Z-2.0000
G01 Z0
G00 Z2.0000
G00 X113.6650 Y87.6300
G01 Z-2.0000
G01 Z0
G00 Z2.0000
G00 X111.1250 Y87.6300
G01 Z-2.0000
G01 Z0
G00 Z2.0000
G00 X108.5850 Y87.6300
G01 Z-2.0000
G01 Z0
G00 Z2.0000
G00 X106.0450 Y87.6300
G01 Z-2.0000
G01 Z0
G00 Z2.0000
G00 X118.7450 Y72.3900
G01 Z-2.0000
G01 Z0
G00 Z2.0000
G00 X121.2850 Y72.3900
G01 Z-2.0000
G01 Z0
G00 Z2.0000
G00 X123.8250 Y72.3900
G01 Z-2.0000
G01 Z0
G00 Z2.0000
G00 X139.0650 Y72.3900
G01 Z-2.0000
G01 Z0
G00 Z2.0000
G00 X141.6050 Y72.3900
G01 Z-2.0000
G01 Z0
G00 Z2.0000
G00 X144.1450 Y72.3900
G01 Z-2.0000
G01 Z0
G00 Z2.0000
G00 X146.6850 Y87.6300
G01 Z-2.0000
G01 Z0
G00 Z2.0000
G00 X144.1450 Y87.6300
G01 Z-2.0000
G01 Z0
G00 Z2.0000
G00 X141.6050 Y87.6300
G01 Z-2.0000
G01 Z0
G00 Z2.0000
G00 X141.6050 Y90.1700
G01 Z-2.0000
G01 Z0
G00 Z2.0000
G00 X144.1450 Y90.1700
G01 Z-2.0000
G01 Z0
G00 Z2.0000
G00 X146.6850 Y90.1700
G01 Z-2.0000
G01 Z0
G00 Z2.0000
G00 X149.2250 Y90.1700
G01 Z-2.0000
G01 Z0
G00 Z2.0000
G00 X151.7650 Y90.1700
G01 Z-2.0000
G01 Z0
G00 Z2.0000
G00 X154.3050 Y90.1700
G01 Z-2.0000
G01 Z0
G00 Z2.0000
G00 X156.8450 Y90.1700
G01 Z-2.0000
G01 Z0
G00 Z2.0000
G00 X159.3850 Y90.1700
G01 Z-2.0000
G01 Z0
G00 Z2.0000
G00 X161.9250 Y90.1700
G01 Z-2.0000
G01 Z0
G00 Z2.0000
G00 X164.4650 Y90.1700
G01 Z-2.0000
G01 Z0
G00 Z2.0000
G00 X164.4650 Y87.6300
G01 Z-2.0000
G01 Z0
G00 Z2.0000
G00 X161.9250 Y87.6300
G01 Z-2.0000
G01 Z0
G00 Z2.0000
G00 X159.3850 Y87.6300
G01 Z-2.0000
G01 Z0
G00 Z2.0000
G00 X156.8450 Y87.6300
G01 Z-2.0000
G01 Z0
G00 Z2.0000
G00 X154.3050 Y87.6300
G01 Z-2.0000
G01 Z0
G00 Z2.0000
G00 X151.7650 Y87.6300
G01 Z-2.0000
G01 Z0
G00 Z2.0000
G00 X149.2250 Y87.6300
G01 Z-2.0000
G01 Z0
G00 Z2.0000
G00 X161.9250 Y72.3900
G01 Z-2.0000
G01 Z0
G00 Z2.0000
G00 X164.4650 Y72.3900
G01 Z-2.0000
G01 Z0
G00 Z2.0000
G00 X167.0050 Y72.3900
G01 Z-2.0000
G01 Z0
G00 Z2.0000
G00 X167.0050 Y57.1500
G01 Z-2.0000
G01 Z0
G00 Z2.0000
G00 X164.4650 Y57.1500
G01 Z-2.0000
G01 Z0
G00 Z2.0000
G00 X161.9250 Y57.1500
G01 Z-2.0000
G01 Z0
G00 Z2.0000
G00 X161.9250 Y43.1800
G01 Z-2.0000
G01 Z0
G00 Z2.0000
G00 X164.4650 Y43.1800
G01 Z-2.0000
G01 Z0
G00 Z2.0000
G00 X167.0050 Y43.1800
G01 Z-2.0000
G01 Z0
G00 Z2.0000
G00 X163.8300 Y31.7500
G01 Z-2.0000
G01 Z0
G00 Z2.0000
G00 X163.8300 Y29.2100
G01 Z-2.0000
G01 Z0
G00 Z2.0000
G00 X163.8300 Y26.6700
G01 Z-2.0000
G01 Z0
G00 Z2.0000
G00 X146.6850 Y27.9400
G01 Z-2.0000
G01 Z0
G00 Z2.0000
G00 X146.6850 Y30.4800
G01 Z-2.0000
G01 Z0
G00 Z2.0000
G00 X144.1450 Y30.4800
G01 Z-2.0000
G01 Z0
G00 Z2.0000
G00 X144.1450 Y27.9400
G01 Z-2.0000
G01 Z0
G00 Z2.0000
G00 X141.6050 Y27.9400
G01 Z-2.0000
G01 Z0
G00 Z2.0000
G00 X141.6050 Y30.4800
G01 Z-2.0000
G01 Z0
G00 Z2.0000
G00 X139.0650 Y30.4800
G01 Z-2.0000
G01 Z0
G00 Z2.0000
G00 X139.0650 Y27.9400
G01 Z-2.0000
G01 Z0
G00 Z2.0000
G00 X136.5250 Y27.9400
G01 Z-2.0000
G01 Z0
G00 Z2.0000
G00 X136.5250 Y30.4800
G01 Z-2.0000
G01 Z0
G00 Z2.0000
G00 X139.0650 Y43.1800
G01 Z-2.0000
G01 Z0
G00 Z2.0000
G00 X141.6050 Y43.1800
G01 Z-2.0000
G01 Z0
G00 Z2.0000
G00 X144.1450 Y43.1800
G01 Z-2.0000
G01 Z0
G00 Z2.0000
G00 X144.1450 Y57.1500
G01 Z-2.0000
G01 Z0
G00 Z2.0000
G00 X141.6050 Y57.1500
G01 Z-2.0000
G01 Z0
G00 Z2.0000
G00 X139.0650 Y57.1500
G01 Z-2.0000
G01 Z0
G00 Z2.0000
G00 X124.4600 Y57.1500
G01 Z-2.0000
G01 Z0
G00 Z2.0000
G00 X121.9200 Y57.1500
G01 Z-2.0000
G01 Z0
G00 Z2.0000
G00 X119.3800 Y57.1500
G01 Z-2.0000
G01 Z0
G00 Z2.0000
G00 X115.2068 Y51.0388
G01 Z-2.0000
G01 Z0
G00 Z2.0000
G00 X107.3150 Y31.7500
G01 Z-2.0000
G01 Z0
G00 Z2.0000
G00 X107.3150 Y29.2100
G01 Z-2.0000
G01 Z0
G00 Z2.0000
G00 X107.3150 Y26.6700
G01 Z-2.0000
G01 Z0
G00 Z2.0000
G00 X112.8522 Y24.9580
G01 Z-2.0000
G01 Z0
G00 Z2.0000
G00 X116.3193 Y24.4602
G01 Z-2.0000
G01 Z0
G00 Z2.0000
G00 X120.1039 Y25.4051
G01 Z-2.0000
G01 Z0
G00 Z2.0000
G00 X123.8250 Y27.9400
G01 Z-2.0000
G01 Z0
G00 Z2.0000
G00 X123.8250 Y30.4800
G01 Z-2.0000
G01 Z0
G00 Z2.0000
G00 X126.3650 Y30.4800
G01 Z-2.0000
G01 Z0
G00 Z2.0000
G00 X128.9050 Y30.4800
G01 Z-2.0000
G01 Z0
G00 Z2.0000
G00 X131.4450 Y30.4800
G01 Z-2.0000
G01 Z0
G00 Z2.0000
G00 X133.9850 Y30.4800
G01 Z-2.0000
G01 Z0
G00 Z2.0000
G00 X133.9850 Y27.9400
G01 Z-2.0000
G01 Z0
G00 Z2.0000
G00 X131.4450 Y27.9400
G01 Z-2.0000
G01 Z0
G00 Z2.0000
G00 X128.9050 Y27.9400
G01 Z-2.0000
G01 Z0
G00 Z2.0000
G00 X126.3650 Y27.9400
G01 Z-2.0000
G01 Z0
G00 Z2.0000
G00 X116.4285 Y14.0894
G01 Z-2.0000
G01 Z0
G00 Z2.0000
G00 X97.1423 Y22.4714
G01 Z-2.0000
G01 Z0
G00 Z2.0000
G00 X85.7631 Y18.0924
G01 Z-2.0000
G01 Z0
G00 Z2.0000
G00 X83.6778 Y20.0381
G01 Z-2.0000
G01 Z0
G00 Z2.0000
G00 X79.8525 Y14.7752
G01 Z-2.0000
G01 Z0
G00 Z2.0000
G00 X63.2282 Y24.3027
G01 Z-2.0000
G01 Z0
G00 Z2.0000
G00 X66.7258 Y24.3637
G01 Z-2.0000
G01 Z0
G00 Z2.0000
G00 X69.2150 Y27.9400
G01 Z-2.0000
G01 Z0
G00 Z2.0000
G00 X69.2150 Y30.4800
G01 Z-2.0000
G01 Z0
G00 Z2.0000
G00 X71.7550 Y30.4800
G01 Z-2.0000
G01 Z0
G00 Z2.0000
G00 X71.7550 Y27.9400
G01 Z-2.0000
G01 Z0
G00 Z2.0000
G00 X74.2950 Y27.9400
G01 Z-2.0000
G01 Z0
G00 Z2.0000
G00 X74.2950 Y30.4800
G01 Z-2.0000
G01 Z0
G00 Z2.0000
G00 X76.8350 Y30.4800
G01 Z-2.0000
G01 Z0
G00 Z2.0000
G00 X76.8350 Y27.9400
G01 Z-2.0000
G01 Z0
G00 Z2.0000
G00 X79.3750 Y27.9400
G01 Z-2.0000
G01 Z0
G00 Z2.0000
G00 X79.3750 Y30.4800
G01 Z-2.0000
G01 Z0
G00 Z2.0000
G00 X81.9150 Y30.4800
G01 Z-2.0000
G01 Z0
G00 Z2.0000
G00 X81.9150 Y27.9400
G01 Z-2.0000
G01 Z0
G00 Z2.0000
G00 X84.4550 Y27.9400
G01 Z-2.0000
G01 Z0
G00 Z2.0000
G00 X84.4550 Y30.4800
G01 Z-2.0000
G01 Z0
G00 Z2.0000
G00 X86.9950 Y30.4800
G01 Z-2.0000
G01 Z0
G00 Z2.0000
G00 X86.9950 Y27.9400
G01 Z-2.0000
G01 Z0
G00 Z2.0000
G00 X89.5350 Y27.9400
G01 Z-2.0000
G01 Z0
G00 Z2.0000
G00 X92.0750 Y27.9400
G01 Z-2.0000
G01 Z0
G00 Z2.0000
G00 X92.0750 Y30.4800
G01 Z-2.0000
G01 Z0
G00 Z2.0000
G00 X89.5350 Y30.4800
G01 Z-2.0000
G01 Z0
G00 Z2.0000
G00 X95.8850 Y43.1800
G01 Z-2.0000
G01 Z0
G00 Z2.0000
G00 X98.4250 Y43.1800
G01 Z-2.0000
G01 Z0
G00 Z2.0000
G00 X100.9650 Y43.1800
G01 Z-2.0000
G01 Z0
G00 Z2.0000
G00 X100.9650 Y57.1500
G01 Z-2.0000
G01 Z0
G00 Z2.0000
G00 X98.4250 Y57.1500
G01 Z-2.0000
G01 Z0
G00 Z2.0000
G00 X95.8850 Y57.1500
G01 Z-2.0000
G01 Z0
G00 Z2.0000
G00 X81.2800 Y57.1500
G01 Z-2.0000
G01 Z0
G00 Z2.0000
G00 X78.7400 Y57.1500
G01 Z-2.0000
G01 Z0
G00 Z2.0000
G00 X76.2000 Y57.1500
G01 Z-2.0000
G01 Z0
G00 Z2.0000
G00 X58.4200 Y72.3900
G01 Z-2.0000
G01 Z0
G00 Z2.0000
G00 X55.8800 Y72.3900
G01 Z-2.0000
G01 Z0
G00 Z2.0000
G00 X53.3400 Y72.3900
G01 Z-2.0000
G01 Z0
G00 Z2.0000
G00 X38.7350 Y72.3900
G01 Z-2.0000
G01 Z0
G00 Z2.0000
G00 X36.1950 Y72.3900
G01 Z-2.0000
G01 Z0
G00 Z2.0000
G00 X33.6550 Y72.3900
G01 Z-2.0000
G01 Z0
G00 Z2.0000
G00 X33.6550 Y57.1500
G01 Z-2.0000
G01 Z0
G00 Z2.0000
G00 X36.1950 Y57.1500
G01 Z-2.0000
G01 Z0
G00 Z2.0000
G00 X38.7350 Y57.1500
G01 Z-2.0000
G01 Z0
G00 Z2.0000
G00 X42.7050 Y51.2166
G01 Z-2.0000
G01 Z0
G00 Z2.0000
G00 X46.5201 Y56.2813
G01 Z-2.0000
G01 Z0
G00 Z2.0000
G00 X53.3400 Y57.1500
G01 Z-2.0000
G01 Z0
G00 Z2.0000
G00 X55.8800 Y57.1500
G01 Z-2.0000
G01 Z0
G00 Z2.0000
G00 X58.4200 Y57.1500
G01 Z-2.0000
G01 Z0
G00 Z2.0000
G00 X58.4200 Y43.1800
G01 Z-2.0000
G01 Z0
G00 Z2.0000
G00 X55.8800 Y43.1800
G01 Z-2.0000
G01 Z0
G00 Z2.0000
G00 X53.3400 Y43.1800
G01 Z-2.0000
G01 Z0
G00 Z2.0000
G00 X52.7050 Y31.7500
G01 Z-2.0000
G01 Z0
G00 Z2.0000
G00 X52.7050 Y29.2100
G01 Z-2.0000
G01 Z0
G00 Z2.0000
G00 X52.7050 Y26.6700
G01 Z-2.0000
G01 Z0
G00 Z2.0000
G00 X49.1795 Y22.6416
G01 Z-2.0000
G01 Z0
G00 Z2.0000
G00 X44.8285 Y24.1148
G01 Z-2.0000
G01 Z0
G00 Z2.0000
G00 X37.4650 Y27.9400
G01 Z-2.0000
G01 Z0
G00 Z2.0000
G00 X37.4650 Y30.4800
G01 Z-2.0000
G01 Z0
G00 Z2.0000
G00 X34.9250 Y27.9400
G01 Z-2.0000
G01 Z0
G00 Z2.0000
G00 X34.9250 Y30.4800
G01 Z-2.0000
G01 Z0
G00 Z2.0000
G00 X32.3850 Y30.4800
G01 Z-2.0000
G01 Z0
G00 Z2.0000
G00 X29.8450 Y30.4800
G01 Z-2.0000
G01 Z0
G00 Z2.0000
G00 X32.3850 Y27.9400
G01 Z-2.0000
G01 Z0
G00 Z2.0000
G00 X29.8450 Y27.9400
G01 Z-2.0000
G01 Z0
G00 Z2.0000
G00 X27.3050 Y27.9400
G01 Z-2.0000
G01 Z0
G00 Z2.0000
G00 X24.7650 Y27.9400
G01 Z-2.0000
G01 Z0
G00 Z2.0000
G00 X22.2250 Y27.9400
G01 Z-2.0000
G01 Z0
G00 Z2.0000
G00 X19.6850 Y27.9400
G01 Z-2.0000
G01 Z0
G00 Z2.0000
G00 X17.1450 Y27.9400
G01 Z-2.0000
G01 Z0
G00 Z2.0000
G00 X14.6050 Y27.9400
G01 Z-2.0000
G01 Z0
G00 Z2.0000
G00 X14.6050 Y30.4800
G01 Z-2.0000
G01 Z0
G00 Z2.0000
G00 X17.1450 Y30.4800
G01 Z-2.0000
G01 Z0
G00 Z2.0000
G00 X19.6850 Y30.4800
G01 Z-2.0000
G01 Z0
G00 Z2.0000
G00 X22.2250 Y30.4800
G01 Z-2.0000
G01 Z0
G00 Z2.0000
G00 X24.7650 Y30.4800
G01 Z-2.0000
G01 Z0
G00 Z2.0000
G00 X27.3050 Y30.4800
G01 Z-2.0000
G01 Z0
G00 Z2.0000
G00 X17.7800 Y43.1800
G01 Z-2.0000
G01 Z0
G00 Z2.0000
G00 X15.2400 Y43.1800
G01 Z-2.0000
G01 Z0
G00 Z2.0000
G00 X12.7000 Y43.1800
G01 Z-2.0000
G01 Z0
G00 Z2.0000
G00 X12.0650 Y57.1500
G01 Z-2.0000
G01 Z0
G00 Z2.0000
G00 X14.6050 Y57.1500
G01 Z-2.0000
G01 Z0
G00 Z2.0000
G00 X17.1450 Y57.1500
G01 Z-2.0000
G01 Z0
G00 Z2.0000
G00 X15.3848 Y64.5312
G01 Z-2.0000
G01 Z0
G00 Z2.0000
M05
G00 Z0.50
G00 Z20.00
G00 X0.0 Y0.0


