(G-CODE GENERATED BY FLATCAM v8.994 - www.flatcam.org - Version Date: 2020/11/7)

(Name: preamp-board-v3-PTH.drl_cnc)
(Type: G-code from Geometry)
(Units: MM)

(Created on Saturday, 01 May 2021 at 16:27)

(This preprocessor is the default preprocessor used by FlatCAM.)
(It is made to work with MACH3 compatible motion controllers.)


(TOOLS DIAMETER: )
(Tool: 1 -> Dia: 0.78)
(Tool: 2 -> Dia: 1.5)

(FEEDRATE Z: )
(Tool: 1 -> Feedrate: 150.0)
(Tool: 2 -> Feedrate: 150.0)

(FEEDRATE RAPIDS: )
(Tool: 1 -> Feedrate Rapids: 1500)
(Tool: 2 -> Feedrate Rapids: 1500)

(Z_CUT: )
(Tool: 1 -> Z_Cut: -1.7)
(Tool: 2 -> Z_Cut: -1.7)

(Tools Offset: )
(Tool: 1 -> Offset Z: 0.0)
(Tool: 2 -> Offset Z: 0.0)

(Z_MOVE: )
(Tool: 1 -> Z_Move: 2)
(Tool: 2 -> Z_Move: 2)

(Z Toolchange: 15 mm)
(X,Y Toolchange: 0.0000, 0.0000 mm)
(Z Start: None mm)
(Z End: 0.5 mm)
(X,Y End: None mm)
(Steps per circle: 64)
(Preprocessor Excellon: default)

(X range:   15.7600 ...   64.2500  mm)
(Y range:    8.2200 ...   51.5500  mm)

(Spindle Speed: 0 RPM)
G21
G90
G94

G01 F150.00

M5
G00 Z15.0000
T1
G00 X0.0000 Y0.0000                
M6
(MSG, Change to Tool Dia = 0.7800 ||| Total drills for tool T1 = 47)
M0
G00 Z15.0000

G01 F150.00
M03
G00 X54.6100 Y29.3700
G01 Z-1.7000
G01 Z0
G00 Z2.0000
G00 X57.1500 Y29.3700
G01 Z-1.7000
G01 Z0
G00 Z2.0000
G00 X59.6900 Y29.3700
G01 Z-1.7000
G01 Z0
G00 Z2.0000
G00 X62.2300 Y29.3700
G01 Z-1.7000
G01 Z0
G00 Z2.0000
G00 X62.2300 Y21.4300
G01 Z-1.7000
G01 Z0
G00 Z2.0000
G00 X59.6900 Y21.4300
G01 Z-1.7000
G01 Z0
G00 Z2.0000
G00 X57.1500 Y21.4300
G01 Z-1.7000
G01 Z0
G00 Z2.0000
G00 X54.6100 Y21.4300
G01 Z-1.7000
G01 Z0
G00 Z2.0000
G00 X58.4200 Y13.9700
G01 Z-1.7000
G01 Z0
G00 Z2.0000
G00 X63.5000 Y13.9700
G01 Z-1.7000
G01 Z0
G00 Z2.0000
G00 X63.5000 Y8.9700
G01 Z-1.7000
G01 Z0
G00 Z2.0000
G00 X58.4200 Y10.1600
G01 Z-1.7000
G01 Z0
G00 Z2.0000
G00 X50.8000 Y10.1600
G01 Z-1.7000
G01 Z0
G00 Z2.0000
G00 X50.8000 Y13.9700
G01 Z-1.7000
G01 Z0
G00 Z2.0000
G00 X39.5050 Y21.4630
G01 Z-1.7000
G01 Z0
G00 Z2.0000
G00 X35.5600 Y22.8600
G01 Z-1.7000
G01 Z0
G00 Z2.0000
G00 X35.5600 Y20.3200
G01 Z-1.7000
G01 Z0
G00 Z2.0000
G00 X33.0200 Y20.3200
G01 Z-1.7000
G01 Z0
G00 Z2.0000
G00 X33.0200 Y22.8600
G01 Z-1.7000
G01 Z0
G00 Z2.0000
G00 X33.0200 Y25.4000
G01 Z-1.7000
G01 Z0
G00 Z2.0000
G00 X35.5600 Y25.4000
G01 Z-1.7000
G01 Z0
G00 Z2.0000
G00 X35.5600 Y27.9400
G01 Z-1.7000
G01 Z0
G00 Z2.0000
G00 X35.5600 Y30.4800
G01 Z-1.7000
G01 Z0
G00 Z2.0000
G00 X33.0200 Y30.4800
G01 Z-1.7000
G01 Z0
G00 Z2.0000
G00 X33.0200 Y27.9400
G01 Z-1.7000
G01 Z0
G00 Z2.0000
G00 X22.8600 Y31.7900
G01 Z-1.7000
G01 Z0
G00 Z2.0000
G00 X16.5100 Y34.2900
G01 Z-1.7000
G01 Z0
G00 Z2.0000
G00 X16.5100 Y31.7900
G01 Z-1.7000
G01 Z0
G00 Z2.0000
G00 X22.8600 Y34.2900
G01 Z-1.7000
G01 Z0
G00 Z2.0000
G00 X33.0200 Y33.0200
G01 Z-1.7000
G01 Z0
G00 Z2.0000
G00 X33.0200 Y35.5600
G01 Z-1.7000
G01 Z0
G00 Z2.0000
G00 X33.0200 Y38.1000
G01 Z-1.7000
G01 Z0
G00 Z2.0000
G00 X33.0200 Y40.6400
G01 Z-1.7000
G01 Z0
G00 Z2.0000
G00 X33.0200 Y43.1800
G01 Z-1.7000
G01 Z0
G00 Z2.0000
G00 X35.5600 Y43.1800
G01 Z-1.7000
G01 Z0
G00 Z2.0000
G00 X35.5600 Y40.6400
G01 Z-1.7000
G01 Z0
G00 Z2.0000
G00 X35.5600 Y38.1000
G01 Z-1.7000
G01 Z0
G00 Z2.0000
G00 X35.5600 Y35.5600
G01 Z-1.7000
G01 Z0
G00 Z2.0000
G00 X35.5600 Y33.0200
G01 Z-1.7000
G01 Z0
G00 Z2.0000
G00 X41.4200 Y35.4000
G01 Z-1.7000
G01 Z0
G00 Z2.0000
G00 X50.8000 Y39.3700
G01 Z-1.7000
G01 Z0
G00 Z2.0000
G00 X50.8000 Y50.8000
G01 Z-1.7000
G01 Z0
G00 Z2.0000
G00 X58.4200 Y50.8000
G01 Z-1.7000
G01 Z0
G00 Z2.0000
G00 X63.5000 Y44.3700
G01 Z-1.7000
G01 Z0
G00 Z2.0000
G00 X63.5000 Y39.3700
G01 Z-1.7000
G01 Z0
G00 Z2.0000
G00 X58.4200 Y39.3700
G01 Z-1.7000
G01 Z0
G00 Z2.0000
G00 X51.3840 Y30.9090
G01 Z-1.7000
G01 Z0
G00 Z2.0000
M05
G00 Z0.50


