(G-CODE GENERATED BY FLATCAM v8.994 - www.flatcam.org - Version Date: 2020/11/7)

(Name: preamp-board-v3-F_Cu.gbr_iso_combined_cnc)
(Type: G-code from Geometry)
(Units: MM)

(Created on Saturday, 01 May 2021 at 00:27)

(This preprocessor is the default preprocessor used by FlatCAM.)
(It is made to work with MACH3 compatible motion controllers.)

(TOOL DIAMETER: 0.1 mm)
(Feedrate_XY: 120.0 mm/min)
(Feedrate_Z: 60.0 mm/min)
(Feedrate rapids 1500.0 mm/min)

(Z_Cut: -0.0 mm)
(Z_Move: 2.0 mm)
(Z Start: None mm)
(Z End: 15.0 mm)
(X,Y End: None mm)
(Steps per circle: 64)
(Preprocessor Geometry: default)

(X range:   15.2175 ...   66.0594  mm)
(Y range:    7.2400 ...   52.5300  mm)

(Spindle Speed: 0.0 RPM)
G21
G90
G94

G01 F120.00

M5
G00 Z15.0000
G00 X0.0000 Y0.0000
T1
M6    
(MSG, Change to Tool Dia = 0.1000)
M0
G00 Z15.0000

M03
G01 F120.00
G00 X17.6224 Y31.7925
G01 F60.00
G01 Z-0.0000
G01 F120.00
G01 X17.6171 Y31.8990
G01 X17.6011 Y32.0070
G01 X17.5746 Y32.1129
G01 X17.5378 Y32.2157
G01 X17.4911 Y32.3144
G01 X17.4350 Y32.4081
G01 X17.3700 Y32.4958
G01 X17.2967 Y32.5767
G01 X17.2158 Y32.6500
G01 X17.1281 Y32.7150
G01 X17.0344 Y32.7711
G01 X16.9357 Y32.8178
G01 X16.8329 Y32.8546
G01 X16.7270 Y32.8811
G01 X16.6190 Y32.8971
G01 X16.5100 Y32.9025
G01 X16.4010 Y32.8971
G01 X16.2930 Y32.8811
G01 X16.1871 Y32.8546
G01 X16.0843 Y32.8178
G01 X15.9856 Y32.7711
G01 X15.8919 Y32.7150
G01 X15.8042 Y32.6500
G01 X15.7233 Y32.5767
G01 X15.6500 Y32.4958
G01 X15.5850 Y32.4081
G01 X15.5289 Y32.3144
G01 X15.4822 Y32.2157
G01 X15.4454 Y32.1129
G01 X15.4189 Y32.0070
G01 X15.4029 Y31.8990
G01 X15.3975 Y31.7900
G01 X15.4029 Y31.6810
G01 X15.4189 Y31.5730
G01 X15.4454 Y31.4671
G01 X15.4822 Y31.3643
G01 X15.5289 Y31.2656
G01 X15.5850 Y31.1719
G01 X15.6500 Y31.0842
G01 X15.7233 Y31.0033
G01 X15.8042 Y30.9300
G01 X15.8919 Y30.8650
G01 X15.9856 Y30.8089
G01 X16.0843 Y30.7622
G01 X16.1871 Y30.7254
G01 X16.2930 Y30.6989
G01 X16.4010 Y30.6829
G01 X16.5100 Y30.6775
G01 X16.6190 Y30.6829
G01 X16.7270 Y30.6989
G01 X16.8329 Y30.7254
G01 X16.9357 Y30.7622
G01 X17.0344 Y30.8089
G01 X17.1281 Y30.8650
G01 X17.2158 Y30.9300
G01 X17.2967 Y31.0033
G01 X17.3700 Y31.0842
G01 X17.4350 Y31.1719
G01 X17.4911 Y31.2656
G01 X17.5378 Y31.3643
G01 X17.5746 Y31.4671
G01 X17.6011 Y31.5730
G01 X17.6171 Y31.6810
G01 X17.6224 Y31.7925
G00 Z2.0000
G00 X17.6824 Y31.7954
G01 F60.00
G01 Z-0.0000
G01 F120.00
G01 X17.6769 Y31.9049
G01 X17.6600 Y32.0187
G01 X17.6320 Y32.1304
G01 X17.5932 Y32.2387
G01 X17.5441 Y32.3427
G01 X17.4849 Y32.4414
G01 X17.4164 Y32.5338
G01 X17.3391 Y32.6191
G01 X17.2538 Y32.6964
G01 X17.1614 Y32.7649
G01 X17.0627 Y32.8241
G01 X16.9587 Y32.8732
G01 X16.8504 Y32.9120
G01 X16.7387 Y32.9400
G01 X16.6249 Y32.9569
G01 X16.5100 Y32.9625
G01 X16.3951 Y32.9569
G01 X16.2813 Y32.9400
G01 X16.1696 Y32.9120
G01 X16.0613 Y32.8732
G01 X15.9573 Y32.8241
G01 X15.8586 Y32.7649
G01 X15.7662 Y32.6964
G01 X15.6809 Y32.6191
G01 X15.6036 Y32.5338
G01 X15.5351 Y32.4414
G01 X15.4759 Y32.3427
G01 X15.4268 Y32.2387
G01 X15.3880 Y32.1304
G01 X15.3600 Y32.0187
G01 X15.3431 Y31.9049
G01 X15.3375 Y31.7900
G01 X15.3431 Y31.6751
G01 X15.3600 Y31.5613
G01 X15.3880 Y31.4496
G01 X15.4268 Y31.3413
G01 X15.4759 Y31.2373
G01 X15.5351 Y31.1386
G01 X15.6036 Y31.0462
G01 X15.6809 Y30.9609
G01 X15.7662 Y30.8836
G01 X15.8586 Y30.8151
G01 X15.9573 Y30.7559
G01 X16.0613 Y30.7068
G01 X16.1696 Y30.6680
G01 X16.2813 Y30.6400
G01 X16.3951 Y30.6231
G01 X16.5100 Y30.6175
G01 X16.6249 Y30.6231
G01 X16.7387 Y30.6400
G01 X16.8504 Y30.6680
G01 X16.9587 Y30.7068
G01 X17.0627 Y30.7559
G01 X17.1614 Y30.8151
G01 X17.2538 Y30.8836
G01 X17.3391 Y30.9609
G01 X17.4164 Y31.0462
G01 X17.4849 Y31.1386
G01 X17.5441 Y31.2373
G01 X17.5932 Y31.3413
G01 X17.6320 Y31.4496
G01 X17.6600 Y31.5613
G01 X17.6769 Y31.6751
G01 X17.6824 Y31.7846
G01 X17.6824 Y31.7954
G00 Z2.0000
G00 X17.7423 Y31.7983
G01 F60.00
G01 Z-0.0000
G01 F120.00
G01 X17.7366 Y31.9108
G01 X17.7188 Y32.0304
G01 X17.6894 Y32.1478
G01 X17.6487 Y32.2617
G01 X17.5970 Y32.3710
G01 X17.5348 Y32.4747
G01 X17.4627 Y32.5719
G01 X17.3815 Y32.6615
G01 X17.2919 Y32.7427
G01 X17.1947 Y32.8148
G01 X17.0910 Y32.8770
G01 X16.9817 Y32.9287
G01 X16.8678 Y32.9694
G01 X16.7504 Y32.9988
G01 X16.6308 Y33.0166
G01 X16.5100 Y33.0225
G01 X16.3892 Y33.0166
G01 X16.2696 Y32.9988
G01 X16.1522 Y32.9694
G01 X16.0383 Y32.9287
G01 X15.9290 Y32.8770
G01 X15.8253 Y32.8148
G01 X15.7281 Y32.7427
G01 X15.6385 Y32.6615
G01 X15.5573 Y32.5719
G01 X15.4852 Y32.4747
G01 X15.4230 Y32.3710
G01 X15.3713 Y32.2617
G01 X15.3306 Y32.1478
G01 X15.3012 Y32.0304
G01 X15.2834 Y31.9108
G01 X15.2775 Y31.7900
G01 X15.2834 Y31.6692
G01 X15.3012 Y31.5496
G01 X15.3306 Y31.4322
G01 X15.3713 Y31.3183
G01 X15.4230 Y31.2090
G01 X15.4852 Y31.1053
G01 X15.5573 Y31.0081
G01 X15.6385 Y30.9185
G01 X15.7281 Y30.8373
G01 X15.8253 Y30.7652
G01 X15.9290 Y30.7030
G01 X16.0383 Y30.6513
G01 X16.1522 Y30.6106
G01 X16.2696 Y30.5812
G01 X16.3892 Y30.5634
G01 X16.5100 Y30.5575
G01 X16.6308 Y30.5634
G01 X16.7504 Y30.5812
G01 X16.8678 Y30.6106
G01 X16.9817 Y30.6513
G01 X17.0910 Y30.7030
G01 X17.1947 Y30.7652
G01 X17.2919 Y30.8373
G01 X17.3815 Y30.9185
G01 X17.4627 Y31.0081
G01 X17.5348 Y31.1053
G01 X17.5970 Y31.2090
G01 X17.6487 Y31.3183
G01 X17.6894 Y31.4322
G01 X17.7188 Y31.5496
G01 X17.7366 Y31.6692
G01 X17.7423 Y31.7817
G01 X17.7423 Y31.7983
G00 Z2.0000
G00 X16.4718 Y35.4007
G01 F60.00
G01 Z-0.0000
G01 F120.00
G01 X16.4010 Y35.3971
G01 X16.2918 Y35.3809
G01 X16.1871 Y35.3546
G01 X16.0831 Y35.3173
G01 X15.9856 Y35.2711
G01 X15.8919 Y35.2150
G01 X15.8042 Y35.1500
G01 X15.7225 Y35.0758
G01 X15.6500 Y34.9958
G01 X15.5850 Y34.9081
G01 X15.5289 Y34.8144
G01 X15.4822 Y34.7157
G01 X15.4454 Y34.6129
G01 X15.4189 Y34.5070
G01 X15.4029 Y34.3990
G01 X15.3975 Y34.2888
G01 X15.4029 Y34.1810
G01 X15.4189 Y34.0730
G01 X15.4454 Y33.9671
G01 X15.4822 Y33.8643
G01 X15.5289 Y33.7656
G01 X15.5850 Y33.6719
G01 X15.6500 Y33.5842
G01 X15.7233 Y33.5033
G01 X15.8042 Y33.4300
G01 X15.8919 Y33.3650
G01 X15.9856 Y33.3089
G01 X16.0843 Y33.2622
G01 X16.1871 Y33.2254
G01 X16.2930 Y33.1989
G01 X16.4010 Y33.1829
G01 X16.5112 Y33.1775
G01 X16.6190 Y33.1829
G01 X16.7270 Y33.1989
G01 X16.8329 Y33.2254
G01 X16.9357 Y33.2622
G01 X17.0344 Y33.3089
G01 X17.1281 Y33.3650
G01 X17.2158 Y33.4300
G01 X17.2967 Y33.5033
G01 X17.3700 Y33.5842
G01 X17.4350 Y33.6719
G01 X17.4911 Y33.7656
G01 X17.5373 Y33.8631
G01 X17.5746 Y33.9671
G01 X17.6009 Y34.0718
G01 X17.6171 Y34.1810
G01 X17.6207 Y34.2518
G01 X25.7365 Y42.3676
G01 X31.9132 Y42.3676
G01 X31.9147 Y42.3580
G01 X31.9235 Y42.3235
G01 X31.9351 Y42.2912
G01 X31.9497 Y42.2601
G01 X31.9700 Y42.2265
G01 X31.9898 Y42.2000
G01 X32.0136 Y42.1736
G01 X32.0419 Y42.1482
G01 X32.0686 Y42.1286
G01 X32.0991 Y42.1103
G01 X32.1312 Y42.0951
G01 X32.1624 Y42.0839
G01 X32.2016 Y42.0740
G01 X32.2344 Y42.0692
G01 X32.2699 Y42.0675
G01 X33.7701 Y42.0675
G01 X33.8056 Y42.0692
G01 X33.8408 Y42.0745
G01 X33.8753 Y42.0831
G01 X33.9065 Y42.0942
G01 X33.9409 Y42.1103
G01 X33.9714 Y42.1286
G01 X33.9981 Y42.1482
G01 X34.0281 Y42.1754
G01 X34.0502 Y42.2000
G01 X34.0714 Y42.2286
G01 X34.0897 Y42.2591
G01 X34.1039 Y42.2890
G01 X34.1176 Y42.3270
G01 X34.1255 Y42.3592
G01 X34.1306 Y42.3931
G01 X34.1325 Y42.4299
G01 X34.1325 Y43.9314
G01 X34.1308 Y43.9656
G01 X34.1250 Y44.0032
G01 X34.1169 Y44.0353
G01 X34.1058 Y44.0665
G01 X34.0903 Y44.0999
G01 X34.0714 Y44.1314
G01 X34.0486 Y44.1619
G01 X34.0264 Y44.1864
G01 X34.0019 Y44.2086
G01 X33.9714 Y44.2314
G01 X33.9409 Y44.2497
G01 X33.9065 Y44.2658
G01 X33.8753 Y44.2769
G01 X33.8432 Y44.2850
G01 X33.8056 Y44.2908
G01 X33.7701 Y44.2925
G01 X32.2686 Y44.2925
G01 X32.2344 Y44.2908
G01 X32.1992 Y44.2855
G01 X32.1647 Y44.2769
G01 X32.1335 Y44.2658
G01 X32.0969 Y44.2485
G01 X32.0686 Y44.2314
G01 X32.0390 Y44.2095
G01 X32.0136 Y44.1864
G01 X31.9898 Y44.1600
G01 X31.9686 Y44.1314
G01 X31.9509 Y44.1020
G01 X31.9351 Y44.0688
G01 X31.9239 Y44.0376
G01 X31.9147 Y44.0020
G01 X31.9132 Y43.9924
G01 X25.3988 Y43.9924
G01 X25.3204 Y43.9885
G01 X25.2391 Y43.9762
G01 X25.1642 Y43.9574
G01 X25.0914 Y43.9314
G01 X25.0181 Y43.8970
G01 X24.9467 Y43.8541
G01 X24.8846 Y43.8080
G01 X24.8256 Y43.7544
G01 X16.4718 Y35.4007
G00 Z2.0000
G00 X16.4457 Y35.4595
G01 F60.00
G01 Z-0.0000
G01 F120.00
G01 X16.4005 Y35.4573
G01 X16.3924 Y35.4566
G01 X16.2839 Y35.4405
G01 X16.2760 Y35.4388
G01 X16.1722 Y35.4128
G01 X16.1645 Y35.4103
G01 X16.0613 Y35.3732
G01 X15.9597 Y35.3253
G01 X15.9526 Y35.3214
G01 X15.8586 Y35.2649
G01 X15.7662 Y35.1964
G01 X15.6809 Y35.1191
G01 X15.6054 Y35.0359
G01 X15.6003 Y35.0296
G01 X15.5351 Y34.9414
G01 X15.4759 Y34.8427
G01 X15.4268 Y34.7387
G01 X15.3880 Y34.6304
G01 X15.3600 Y34.5187
G01 X15.3431 Y34.4049
G01 X15.3375 Y34.2900
G01 X15.3429 Y34.1778
G01 X15.3438 Y34.1697
G01 X15.3600 Y34.0613
G01 X15.3880 Y33.9496
G01 X15.4268 Y33.8413
G01 X15.4759 Y33.7373
G01 X15.5351 Y33.6386
G01 X15.6036 Y33.5462
G01 X15.6809 Y33.4609
G01 X15.7662 Y33.3836
G01 X15.8586 Y33.3151
G01 X15.9573 Y33.2559
G01 X16.0613 Y33.2068
G01 X16.1696 Y33.1680
G01 X16.2813 Y33.1400
G01 X16.3951 Y33.1231
G01 X16.5100 Y33.1175
G01 X16.6222 Y33.1229
G01 X16.6303 Y33.1238
G01 X16.7387 Y33.1400
G01 X16.8452 Y33.1665
G01 X16.8555 Y33.1697
G01 X16.9537 Y33.2048
G01 X16.9636 Y33.2089
G01 X17.0627 Y33.2559
G01 X17.1614 Y33.3151
G01 X17.2538 Y33.3836
G01 X17.3391 Y33.4609
G01 X17.4164 Y33.5462
G01 X17.4849 Y33.6386
G01 X17.5441 Y33.7373
G01 X17.5922 Y33.8388
G01 X17.5952 Y33.8463
G01 X17.6320 Y33.9496
G01 X17.6594 Y34.0586
G01 X17.6609 Y34.0666
G01 X17.6766 Y34.1724
G01 X17.6773 Y34.1805
G01 X17.6795 Y34.2257
G01 X25.7614 Y42.3076
G01 X31.8656 Y42.3076
G01 X31.8777 Y42.2733
G01 X31.8818 Y42.2633
G01 X31.8974 Y42.2308
G01 X31.9187 Y42.1952
G01 X31.9434 Y42.1619
G01 X31.9675 Y42.1351
G01 X31.9751 Y42.1275
G01 X32.0019 Y42.1034
G01 X32.0352 Y42.0787
G01 X32.0661 Y42.0600
G01 X32.0756 Y42.0549
G01 X32.1082 Y42.0397
G01 X32.1421 Y42.0274
G01 X32.1525 Y42.0242
G01 X32.1875 Y42.0156
G01 X32.2231 Y42.0102
G01 X32.2339 Y42.0091
G01 X32.2699 Y42.0075
G01 X33.7701 Y42.0075
G01 X33.8115 Y42.0095
G01 X33.8472 Y42.0147
G01 X33.8552 Y42.0162
G01 X33.8927 Y42.0257
G01 X33.9267 Y42.0377
G01 X33.9367 Y42.0418
G01 X33.9692 Y42.0574
G01 X34.0048 Y42.0787
G01 X34.0338 Y42.1001
G01 X34.0422 Y42.1069
G01 X34.0669 Y42.1293
G01 X34.0725 Y42.1351
G01 X34.0966 Y42.1619
G01 X34.1198 Y42.1930
G01 X34.1400 Y42.2261
G01 X34.1451 Y42.2356
G01 X34.1603 Y42.2682
G01 X34.1743 Y42.3073
G01 X34.1844 Y42.3475
G01 X34.1898 Y42.3831
G01 X34.1909 Y42.3939
G01 X34.1925 Y42.4299
G01 X34.1925 Y43.9328
G01 X34.1905 Y43.9715
G01 X34.1853 Y44.0072
G01 X34.1832 Y44.0178
G01 X34.1743 Y44.0527
G01 X34.1623 Y44.0867
G01 X34.1582 Y44.0967
G01 X34.1439 Y44.1268
G01 X34.1400 Y44.1339
G01 X34.1213 Y44.1648
G01 X34.0999 Y44.1938
G01 X34.0931 Y44.2022
G01 X34.0688 Y44.2288
G01 X34.0422 Y44.2531
G01 X34.0338 Y44.2599
G01 X34.0048 Y44.2813
G01 X33.9692 Y44.3026
G01 X33.9367 Y44.3182
G01 X33.9267 Y44.3223
G01 X33.8927 Y44.3343
G01 X33.8578 Y44.3432
G01 X33.8472 Y44.3453
G01 X33.8142 Y44.3502
G01 X33.8061 Y44.3509
G01 X33.7701 Y44.3525
G01 X32.2672 Y44.3525
G01 X32.2285 Y44.3505
G01 X32.1928 Y44.3453
G01 X32.1822 Y44.3432
G01 X32.1499 Y44.3351
G01 X32.1421 Y44.3326
G01 X32.1082 Y44.3203
G01 X32.0708 Y44.3026
G01 X32.0352 Y44.2813
G01 X32.0062 Y44.2599
G01 X31.9999 Y44.2549
G01 X31.9751 Y44.2325
G01 X31.9675 Y44.2249
G01 X31.9434 Y44.1981
G01 X31.9187 Y44.1648
G01 X31.8974 Y44.1292
G01 X31.8818 Y44.0967
G01 X31.8777 Y44.0867
G01 X31.8656 Y44.0524
G01 X25.3973 Y44.0523
G01 X25.3145 Y44.0482
G01 X25.2351 Y44.0365
G01 X25.2245 Y44.0344
G01 X25.1468 Y44.0148
G01 X25.0712 Y43.9879
G01 X25.0612 Y43.9838
G01 X24.9912 Y43.9506
G01 X24.9841 Y43.9467
G01 X24.9199 Y43.9082
G01 X24.9109 Y43.9022
G01 X24.8466 Y43.8544
G01 X24.7831 Y43.7969
G01 X16.4457 Y35.4595
G00 Z2.0000
G00 X16.4197 Y35.5183
G01 F60.00
G01 Z-0.0000
G01 F120.00
G01 X16.3934 Y35.5169
G01 X16.3850 Y35.5161
G01 X16.2737 Y35.4996
G01 X16.2614 Y35.4970
G01 X16.1562 Y35.4706
G01 X16.1443 Y35.4668
G01 X16.0383 Y35.4287
G01 X15.9327 Y35.3789
G01 X15.9217 Y35.3729
G01 X15.8253 Y35.3148
G01 X15.7281 Y35.2427
G01 X15.6385 Y35.1615
G01 X15.5600 Y35.0751
G01 X15.5521 Y35.0653
G01 X15.4852 Y34.9747
G01 X15.4230 Y34.8710
G01 X15.3713 Y34.7617
G01 X15.3306 Y34.6478
G01 X15.3012 Y34.5304
G01 X15.2834 Y34.4108
G01 X15.2775 Y34.2900
G01 X15.2831 Y34.1734
G01 X15.2845 Y34.1609
G01 X15.3012 Y34.0496
G01 X15.3306 Y33.9322
G01 X15.3713 Y33.8183
G01 X15.4230 Y33.7090
G01 X15.4852 Y33.6053
G01 X15.5573 Y33.5081
G01 X15.6385 Y33.4185
G01 X15.7281 Y33.3373
G01 X15.8253 Y33.2652
G01 X15.9290 Y33.2030
G01 X16.0383 Y33.1513
G01 X16.1522 Y33.1106
G01 X16.2696 Y33.0812
G01 X16.3892 Y33.0634
G01 X16.5100 Y33.0575
G01 X16.6266 Y33.0631
G01 X16.6391 Y33.0645
G01 X16.7504 Y33.0812
G01 X16.8597 Y33.1083
G01 X16.8757 Y33.1132
G01 X16.9739 Y33.1483
G01 X16.9893 Y33.1547
G01 X17.0910 Y33.2030
G01 X17.1947 Y33.2652
G01 X17.2919 Y33.3373
G01 X17.3815 Y33.4185
G01 X17.4627 Y33.5081
G01 X17.5348 Y33.6053
G01 X17.5970 Y33.7090
G01 X17.6470 Y33.8145
G01 X17.6517 Y33.8261
G01 X17.6894 Y33.9322
G01 X17.7180 Y34.0455
G01 X17.7202 Y34.0578
G01 X17.7361 Y34.1650
G01 X17.7369 Y34.1734
G01 X17.7383 Y34.1997
G01 X25.7862 Y42.2476
G01 X31.8233 Y42.2476
G01 X31.8276 Y42.2376
G01 X31.8407 Y42.2099
G01 X31.8486 Y42.1952
G01 X31.8688 Y42.1619
G01 X31.8919 Y42.1304
G01 X31.9024 Y42.1175
G01 X31.9288 Y42.0888
G01 X31.9575 Y42.0624
G01 X31.9704 Y42.0519
G01 X32.0019 Y42.0288
G01 X32.0352 Y42.0086
G01 X32.0499 Y42.0007
G01 X32.0853 Y41.9842
G01 X32.1219 Y41.9709
G01 X32.1379 Y41.9660
G01 X32.1758 Y41.9568
G01 X32.2143 Y41.9508
G01 X32.2309 Y41.9492
G01 X32.2699 Y41.9475
G01 X33.7701 Y41.9475
G01 X33.8174 Y41.9498
G01 X33.8560 Y41.9553
G01 X33.8683 Y41.9576
G01 X33.9102 Y41.9683
G01 X33.9469 Y41.9812
G01 X33.9624 Y41.9876
G01 X33.9975 Y42.0045
G01 X34.0381 Y42.0288
G01 X34.0696 Y42.0519
G01 X34.0825 Y42.0624
G01 X34.1052 Y42.0830
G01 X34.1141 Y42.0918
G01 X34.1430 Y42.1239
G01 X34.1664 Y42.1551
G01 X34.1757 Y42.1689
G01 X34.1914 Y42.1952
G01 X34.1975 Y42.2062
G01 X34.2158 Y42.2453
G01 X34.2305 Y42.2859
G01 X34.2340 Y42.2979
G01 X34.2414 Y42.3276
G01 X34.2447 Y42.3440
G01 X34.2502 Y42.3826
G01 X34.2525 Y42.4299
G01 X34.2524 Y43.9343
G01 X34.2508 Y43.9691
G01 X34.2497 Y43.9816
G01 X34.2440 Y44.0201
G01 X34.2414 Y44.0324
G01 X34.2329 Y44.0661
G01 X34.2291 Y44.0781
G01 X34.2158 Y44.1147
G01 X34.1993 Y44.1501
G01 X34.1914 Y44.1648
G01 X34.1712 Y44.1981
G01 X34.1481 Y44.2296
G01 X34.1403 Y44.2393
G01 X34.1141 Y44.2682
G01 X34.1052 Y44.2770
G01 X34.0761 Y44.3030
G01 X34.0416 Y44.3288
G01 X34.0311 Y44.3357
G01 X33.9975 Y44.3555
G01 X33.9624 Y44.3724
G01 X33.9469 Y44.3788
G01 X33.9102 Y44.3917
G01 X33.8724 Y44.4014
G01 X33.8601 Y44.4040
G01 X33.8216 Y44.4097
G01 X33.8091 Y44.4108
G01 X33.7701 Y44.4125
G01 X32.2657 Y44.4124
G01 X32.2226 Y44.4102
G01 X32.1840 Y44.4047
G01 X32.1676 Y44.4014
G01 X32.1298 Y44.3917
G01 X32.0853 Y44.3758
G01 X32.0499 Y44.3593
G01 X32.0352 Y44.3514
G01 X32.0019 Y44.3312
G01 X31.9639 Y44.3030
G01 X31.9348 Y44.2770
G01 X31.9230 Y44.2652
G01 X31.8970 Y44.2361
G01 X31.8688 Y44.1981
G01 X31.8486 Y44.1648
G01 X31.8407 Y44.1501
G01 X31.8276 Y44.1224
G01 X31.8233 Y44.1124
G01 X25.3958 Y44.1123
G01 X25.3086 Y44.1079
G01 X25.2263 Y44.0959
G01 X25.2100 Y44.0926
G01 X25.1374 Y44.0745
G01 X25.1214 Y44.0696
G01 X25.0432 Y44.0414
G01 X24.9679 Y44.0060
G01 X24.9532 Y43.9982
G01 X24.8890 Y43.9597
G01 X24.8752 Y43.9504
G01 X24.8085 Y43.9007
G01 X24.7407 Y43.8393
G01 X16.4197 Y35.5183
G00 Z2.0000
G00 X23.6184 Y33.4776
G01 F60.00
G01 Z-0.0000
G01 F120.00
G01 X26.6855 Y33.4776
G01 X27.7176 Y32.4456
G01 X27.7757 Y32.3928
G01 X27.8407 Y32.3445
G01 X27.9112 Y32.3024
G01 X27.9834 Y32.2686
G01 X28.0562 Y32.2426
G01 X28.1311 Y32.2238
G01 X28.2124 Y32.2115
G01 X28.2920 Y32.2076
G01 X32.2616 Y32.2076
G01 X32.3142 Y32.1600
G01 X32.4030 Y32.0943
G01 X32.4956 Y32.0389
G01 X32.5954 Y31.9917
G01 X32.6971 Y31.9554
G01 X32.8030 Y31.9289
G01 X32.9110 Y31.9129
G01 X33.0175 Y31.9076
G01 X33.1290 Y31.9129
G01 X33.2370 Y31.9289
G01 X33.3429 Y31.9554
G01 X33.4457 Y31.9922
G01 X33.5444 Y32.0389
G01 X33.6381 Y32.0950
G01 X33.7258 Y32.1600
G01 X33.8067 Y32.2333
G01 X33.8800 Y32.3142
G01 X33.9450 Y32.4019
G01 X34.0011 Y32.4956
G01 X34.0478 Y32.5943
G01 X34.0846 Y32.6971
G01 X34.1111 Y32.8030
G01 X34.1271 Y32.9110
G01 X34.1324 Y33.0175
G01 X34.1268 Y33.1315
G01 X34.1111 Y33.2370
G01 X34.0838 Y33.3453
G01 X34.0478 Y33.4457
G01 X34.0011 Y33.5444
G01 X33.9450 Y33.6381
G01 X33.8800 Y33.7258
G01 X33.8067 Y33.8067
G01 X33.7258 Y33.8800
G01 X33.6381 Y33.9450
G01 X33.5466 Y33.9999
G01 X33.4434 Y34.0487
G01 X33.3429 Y34.0846
G01 X33.2358 Y34.1113
G01 X33.1266 Y34.1273
G01 X33.0200 Y34.1325
G01 X32.9134 Y34.1273
G01 X32.8030 Y34.1111
G01 X32.6982 Y34.0849
G01 X32.5943 Y34.0478
G01 X32.4945 Y34.0005
G01 X32.4009 Y33.9443
G01 X32.3142 Y33.8800
G01 X32.2616 Y33.8324
G01 X28.6285 Y33.8324
G01 X27.5964 Y34.8644
G01 X27.5383 Y34.9172
G01 X27.4733 Y34.9655
G01 X27.4028 Y35.0076
G01 X27.3329 Y35.0405
G01 X27.2602 Y35.0666
G01 X27.1805 Y35.0868
G01 X27.1016 Y35.0985
G01 X27.0220 Y35.1024
G01 X23.6184 Y35.1024
G01 X23.5658 Y35.1500
G01 X23.4770 Y35.2157
G01 X23.3844 Y35.2711
G01 X23.2846 Y35.3183
G01 X23.1829 Y35.3546
G01 X23.0770 Y35.3811
G01 X22.9690 Y35.3971
G01 X22.8600 Y35.4025
G01 X22.7510 Y35.3971
G01 X22.6430 Y35.3811
G01 X22.5371 Y35.3546
G01 X22.4343 Y35.3178
G01 X22.3356 Y35.2711
G01 X22.2419 Y35.2150
G01 X22.1542 Y35.1500
G01 X22.0742 Y35.0775
G01 X22.0000 Y34.9958
G01 X21.9350 Y34.9081
G01 X21.8789 Y34.8144
G01 X21.8322 Y34.7157
G01 X21.7954 Y34.6129
G01 X21.7689 Y34.5070
G01 X21.7529 Y34.3990
G01 X21.7475 Y34.2900
G01 X21.7529 Y34.1810
G01 X21.7689 Y34.0730
G01 X21.7954 Y33.9671
G01 X21.8322 Y33.8643
G01 X21.8789 Y33.7656
G01 X21.9350 Y33.6719
G01 X22.0000 Y33.5842
G01 X22.0725 Y33.5042
G01 X22.1542 Y33.4300
G01 X22.2419 Y33.3650
G01 X22.3356 Y33.3089
G01 X22.4343 Y33.2622
G01 X22.5371 Y33.2254
G01 X22.6430 Y33.1989
G01 X22.7510 Y33.1829
G01 X22.8588 Y33.1775
G01 X22.9690 Y33.1829
G01 X23.0770 Y33.1989
G01 X23.1829 Y33.2254
G01 X23.2846 Y33.2617
G01 X23.3844 Y33.3089
G01 X23.4770 Y33.3643
G01 X23.5658 Y33.4300
G01 X23.6184 Y33.4776
G00 Z2.0000
G00 X23.6415 Y33.4176
G01 F60.00
G01 Z-0.0000
G01 F120.00
G01 X26.6606 Y33.4176
G01 X27.6751 Y32.4031
G01 X27.7365 Y32.3474
G01 X27.7428 Y32.3423
G01 X27.8073 Y32.2946
G01 X27.8761 Y32.2533
G01 X27.8856 Y32.2482
G01 X27.9532 Y32.2162
G01 X27.9632 Y32.2121
G01 X28.0388 Y32.1852
G01 X28.1165 Y32.1656
G01 X28.1271 Y32.1635
G01 X28.2065 Y32.1518
G01 X28.2920 Y32.1476
G01 X32.2385 Y32.1476
G01 X32.2721 Y32.1172
G01 X32.2783 Y32.1120
G01 X32.3642 Y32.0482
G01 X32.3709 Y32.0436
G01 X32.4673 Y31.9859
G01 X32.5664 Y31.9389
G01 X32.5738 Y31.9357
G01 X32.6796 Y31.8980
G01 X32.7913 Y31.8700
G01 X32.9051 Y31.8531
G01 X33.0146 Y31.8476
G01 X33.0254 Y31.8476
G01 X33.1349 Y31.8531
G01 X33.2487 Y31.8700
G01 X33.3604 Y31.8980
G01 X33.4687 Y31.9368
G01 X33.5727 Y31.9859
G01 X33.6714 Y32.0451
G01 X33.7638 Y32.1136
G01 X33.8491 Y32.1909
G01 X33.9264 Y32.2762
G01 X33.9949 Y32.3686
G01 X34.0541 Y32.4673
G01 X34.1032 Y32.5713
G01 X34.1420 Y32.6796
G01 X34.1700 Y32.7913
G01 X34.1869 Y32.9051
G01 X34.1924 Y33.0146
G01 X34.1924 Y33.0254
G01 X34.1873 Y33.1295
G01 X34.1862 Y33.1403
G01 X34.1700 Y33.2487
G01 X34.1435 Y33.3552
G01 X34.1403 Y33.3655
G01 X34.1032 Y33.4687
G01 X34.0541 Y33.5727
G01 X33.9949 Y33.6714
G01 X33.9264 Y33.7638
G01 X33.8491 Y33.8491
G01 X33.7638 Y33.9264
G01 X33.6714 Y33.9949
G01 X33.5774 Y34.0514
G01 X33.5679 Y34.0565
G01 X33.4736 Y34.1011
G01 X33.4637 Y34.1052
G01 X33.3604 Y34.1420
G01 X33.2540 Y34.1688
G01 X33.2461 Y34.1705
G01 X33.1403 Y34.1862
G01 X33.1295 Y34.1873
G01 X33.0200 Y34.1925
G01 X32.9105 Y34.1873
G01 X32.8997 Y34.1862
G01 X32.7913 Y34.1700
G01 X32.6822 Y34.1428
G01 X32.6745 Y34.1403
G01 X32.5713 Y34.1032
G01 X32.4721 Y34.0565
G01 X32.4649 Y34.0528
G01 X32.3732 Y33.9978
G01 X32.3664 Y33.9934
G01 X32.2783 Y33.9280
G01 X32.2721 Y33.9228
G01 X32.2385 Y33.8924
G01 X28.6534 Y33.8924
G01 X27.6389 Y34.9069
G01 X27.5775 Y34.9626
G01 X27.5712 Y34.9677
G01 X27.5067 Y35.0154
G01 X27.4379 Y35.0567
G01 X27.4284 Y35.0618
G01 X27.3558 Y35.0960
G01 X27.2804 Y35.1231
G01 X27.2700 Y35.1263
G01 X27.1922 Y35.1456
G01 X27.1075 Y35.1582
G01 X27.0220 Y35.1624
G01 X23.6415 Y35.1624
G01 X23.6079 Y35.1928
G01 X23.6017 Y35.1980
G01 X23.5158 Y35.2618
G01 X23.5091 Y35.2664
G01 X23.4127 Y35.3241
G01 X23.3136 Y35.3711
G01 X23.3062 Y35.3743
G01 X23.2004 Y35.4120
G01 X23.0887 Y35.4400
G01 X22.9749 Y35.4569
G01 X22.8600 Y35.4625
G01 X22.7451 Y35.4569
G01 X22.6313 Y35.4400
G01 X22.5196 Y35.4120
G01 X22.4163 Y35.3752
G01 X22.4064 Y35.3711
G01 X22.3121 Y35.3265
G01 X22.3026 Y35.3214
G01 X22.2086 Y35.2649
G01 X22.1204 Y35.1997
G01 X22.1141 Y35.1946
G01 X22.0309 Y35.1191
G01 X21.9536 Y35.0338
G01 X21.8851 Y34.9414
G01 X21.8259 Y34.8427
G01 X21.7768 Y34.7387
G01 X21.7380 Y34.6304
G01 X21.7100 Y34.5187
G01 X21.6931 Y34.4049
G01 X21.6875 Y34.2900
G01 X21.6931 Y34.1751
G01 X21.7100 Y34.0613
G01 X21.7380 Y33.9496
G01 X21.7768 Y33.8413
G01 X21.8259 Y33.7373
G01 X21.8851 Y33.6386
G01 X21.9503 Y33.5504
G01 X21.9554 Y33.5441
G01 X22.0309 Y33.4609
G01 X22.1162 Y33.3836
G01 X22.2086 Y33.3151
G01 X22.3073 Y33.2559
G01 X22.4113 Y33.2068
G01 X22.5196 Y33.1680
G01 X22.6313 Y33.1400
G01 X22.7397 Y33.1238
G01 X22.7478 Y33.1229
G01 X22.8600 Y33.1175
G01 X22.9749 Y33.1231
G01 X23.0887 Y33.1400
G01 X23.1952 Y33.1665
G01 X23.2029 Y33.1688
G01 X23.3087 Y33.2068
G01 X23.4079 Y33.2535
G01 X23.4151 Y33.2572
G01 X23.5068 Y33.3122
G01 X23.5136 Y33.3166
G01 X23.6017 Y33.3820
G01 X23.6079 Y33.3872
G01 X23.6415 Y33.4176
G00 Z2.0000
G00 X23.6647 Y33.3576
G01 F60.00
G01 Z-0.0000
G01 F120.00
G01 X26.6358 Y33.3576
G01 X27.6327 Y32.3607
G01 X27.6973 Y32.3019
G01 X27.7071 Y32.2941
G01 X27.7740 Y32.2448
G01 X27.8452 Y32.2018
G01 X27.8599 Y32.1940
G01 X27.9352 Y32.1586
G01 X28.0134 Y32.1304
G01 X28.0294 Y32.1255
G01 X28.1020 Y32.1074
G01 X28.1142 Y32.1048
G01 X28.2006 Y32.0921
G01 X28.2920 Y32.0876
G01 X32.2153 Y32.0876
G01 X32.2349 Y32.0700
G01 X32.2414 Y32.0647
G01 X32.3284 Y32.0000
G01 X32.3388 Y31.9929
G01 X32.4390 Y31.9330
G01 X32.5407 Y31.8847
G01 X32.5522 Y31.8798
G01 X32.6622 Y31.8406
G01 X32.7796 Y31.8112
G01 X32.8992 Y31.7934
G01 X33.0158 Y31.7876
G01 X33.0283 Y31.7877
G01 X33.1408 Y31.7934
G01 X33.2604 Y31.8112
G01 X33.3778 Y31.8406
G01 X33.4917 Y31.8813
G01 X33.6010 Y31.9330
G01 X33.7047 Y31.9952
G01 X33.8019 Y32.0673
G01 X33.8915 Y32.1485
G01 X33.9727 Y32.2381
G01 X34.0448 Y32.3353
G01 X34.1070 Y32.4390
G01 X34.1587 Y32.5483
G01 X34.1994 Y32.6622
G01 X34.2288 Y32.7796
G01 X34.2466 Y32.8992
G01 X34.2524 Y33.0158
G01 X34.2523 Y33.0283
G01 X34.2466 Y33.1408
G01 X34.2302 Y33.2522
G01 X34.2270 Y33.2686
G01 X34.2017 Y33.3697
G01 X34.1968 Y33.3857
G01 X34.1587 Y33.4917
G01 X34.1070 Y33.6010
G01 X34.0448 Y33.7047
G01 X33.9727 Y33.8019
G01 X33.8915 Y33.8915
G01 X33.8019 Y33.9727
G01 X33.7047 Y34.0448
G01 X33.6083 Y34.1029
G01 X33.5935 Y34.1107
G01 X33.4993 Y34.1553
G01 X33.4839 Y34.1617
G01 X33.3778 Y34.1994
G01 X33.2686 Y34.2270
G01 X33.2563 Y34.2296
G01 X33.1491 Y34.2455
G01 X33.1325 Y34.2472
G01 X33.0200 Y34.2525
G01 X32.9075 Y34.2472
G01 X32.8909 Y34.2455
G01 X32.7796 Y34.2288
G01 X32.6662 Y34.2006
G01 X32.6543 Y34.1968
G01 X32.5483 Y34.1587
G01 X32.4465 Y34.1107
G01 X32.4353 Y34.1050
G01 X32.3423 Y34.0493
G01 X32.3318 Y34.0424
G01 X32.2414 Y33.9753
G01 X32.2349 Y33.9700
G01 X32.2153 Y33.9524
G01 X28.6782 Y33.9524
G01 X27.6813 Y34.9493
G01 X27.6167 Y35.0081
G01 X27.6069 Y35.0159
G01 X27.5400 Y35.0652
G01 X27.4688 Y35.1082
G01 X27.4541 Y35.1160
G01 X27.3788 Y35.1514
G01 X27.3006 Y35.1796
G01 X27.2846 Y35.1845
G01 X27.2039 Y35.2045
G01 X27.1134 Y35.2179
G01 X27.0220 Y35.2224
G01 X23.6647 Y35.2224
G01 X23.6451 Y35.2400
G01 X23.6386 Y35.2453
G01 X23.5516 Y35.3100
G01 X23.5412 Y35.3171
G01 X23.4410 Y35.3770
G01 X23.3393 Y35.4253
G01 X23.3278 Y35.4302
G01 X23.2178 Y35.4694
G01 X23.1004 Y35.4988
G01 X22.9808 Y35.5166
G01 X22.8600 Y35.5225
G01 X22.7392 Y35.5166
G01 X22.6196 Y35.4988
G01 X22.5022 Y35.4694
G01 X22.3961 Y35.4317
G01 X22.3807 Y35.4253
G01 X22.2865 Y35.3807
G01 X22.2717 Y35.3729
G01 X22.1753 Y35.3148
G01 X22.0847 Y35.2479
G01 X22.0749 Y35.2400
G01 X21.9885 Y35.1615
G01 X21.9073 Y35.0719
G01 X21.8352 Y34.9747
G01 X21.7730 Y34.8710
G01 X21.7213 Y34.7617
G01 X21.6806 Y34.6478
G01 X21.6512 Y34.5304
G01 X21.6334 Y34.4108
G01 X21.6275 Y34.2900
G01 X21.6334 Y34.1692
G01 X21.6512 Y34.0496
G01 X21.6806 Y33.9322
G01 X21.7213 Y33.8183
G01 X21.7730 Y33.7090
G01 X21.8352 Y33.6053
G01 X21.9021 Y33.5147
G01 X21.9100 Y33.5049
G01 X21.9885 Y33.4185
G01 X22.0781 Y33.3373
G01 X22.1753 Y33.2652
G01 X22.2790 Y33.2030
G01 X22.3883 Y33.1513
G01 X22.5022 Y33.1106
G01 X22.6196 Y33.0812
G01 X22.7309 Y33.0645
G01 X22.7434 Y33.0631
G01 X22.8600 Y33.0575
G01 X22.9808 Y33.0634
G01 X23.1004 Y33.0812
G01 X23.2097 Y33.1083
G01 X23.2218 Y33.1118
G01 X23.3317 Y33.1513
G01 X23.4335 Y33.1993
G01 X23.4447 Y33.2050
G01 X23.5377 Y33.2607
G01 X23.5482 Y33.2676
G01 X23.6386 Y33.3347
G01 X23.6451 Y33.3400
G01 X23.6647 Y33.3576
G00 Z2.0000
G00 X23.9724 Y31.7925
G01 F60.00
G01 Z-0.0000
G01 F120.00
G01 X23.9671 Y31.8990
G01 X23.9511 Y32.0070
G01 X23.9246 Y32.1129
G01 X23.8878 Y32.2157
G01 X23.8411 Y32.3144
G01 X23.7850 Y32.4081
G01 X23.7200 Y32.4958
G01 X23.6467 Y32.5767
G01 X23.5658 Y32.6500
G01 X23.4781 Y32.7150
G01 X23.3844 Y32.7711
G01 X23.2857 Y32.8178
G01 X23.1829 Y32.8546
G01 X23.0770 Y32.8811
G01 X22.9690 Y32.8971
G01 X22.8600 Y32.9025
G01 X22.7510 Y32.8971
G01 X22.6430 Y32.8811
G01 X22.5371 Y32.8546
G01 X22.4343 Y32.8178
G01 X22.3356 Y32.7711
G01 X22.2419 Y32.7150
G01 X22.1542 Y32.6500
G01 X22.0733 Y32.5767
G01 X22.0000 Y32.4958
G01 X21.9350 Y32.4081
G01 X21.8789 Y32.3144
G01 X21.8322 Y32.2157
G01 X21.7954 Y32.1129
G01 X21.7689 Y32.0070
G01 X21.7529 Y31.8990
G01 X21.7475 Y31.7900
G01 X21.7529 Y31.6810
G01 X21.7689 Y31.5730
G01 X21.7954 Y31.4671
G01 X21.8322 Y31.3643
G01 X21.8789 Y31.2656
G01 X21.9350 Y31.1719
G01 X22.0000 Y31.0842
G01 X22.0733 Y31.0033
G01 X22.1542 Y30.9300
G01 X22.2419 Y30.8650
G01 X22.3356 Y30.8089
G01 X22.4343 Y30.7622
G01 X22.5371 Y30.7254
G01 X22.6430 Y30.6989
G01 X22.7510 Y30.6829
G01 X22.8600 Y30.6775
G01 X22.9690 Y30.6829
G01 X23.0770 Y30.6989
G01 X23.1829 Y30.7254
G01 X23.2857 Y30.7622
G01 X23.3844 Y30.8089
G01 X23.4781 Y30.8650
G01 X23.5658 Y30.9300
G01 X23.6467 Y31.0033
G01 X23.7200 Y31.0842
G01 X23.7850 Y31.1719
G01 X23.8411 Y31.2656
G01 X23.8878 Y31.3643
G01 X23.9246 Y31.4671
G01 X23.9511 Y31.5730
G01 X23.9671 Y31.6810
G01 X23.9724 Y31.7925
G00 Z2.0000
G00 X24.0324 Y31.7954
G01 F60.00
G01 Z-0.0000
G01 F120.00
G01 X24.0269 Y31.9049
G01 X24.0100 Y32.0187
G01 X23.9820 Y32.1304
G01 X23.9432 Y32.2387
G01 X23.8941 Y32.3427
G01 X23.8349 Y32.4414
G01 X23.7664 Y32.5338
G01 X23.6891 Y32.6191
G01 X23.6038 Y32.6964
G01 X23.5114 Y32.7649
G01 X23.4127 Y32.8241
G01 X23.3087 Y32.8732
G01 X23.2004 Y32.9120
G01 X23.0887 Y32.9400
G01 X22.9749 Y32.9569
G01 X22.8600 Y32.9625
G01 X22.7451 Y32.9569
G01 X22.6313 Y32.9400
G01 X22.5196 Y32.9120
G01 X22.4113 Y32.8732
G01 X22.3073 Y32.8241
G01 X22.2086 Y32.7649
G01 X22.1162 Y32.6964
G01 X22.0309 Y32.6191
G01 X21.9536 Y32.5338
G01 X21.8851 Y32.4414
G01 X21.8259 Y32.3427
G01 X21.7768 Y32.2387
G01 X21.7380 Y32.1304
G01 X21.7100 Y32.0187
G01 X21.6931 Y31.9049
G01 X21.6875 Y31.7900
G01 X21.6931 Y31.6751
G01 X21.7100 Y31.5613
G01 X21.7380 Y31.4496
G01 X21.7768 Y31.3413
G01 X21.8259 Y31.2373
G01 X21.8851 Y31.1386
G01 X21.9536 Y31.0462
G01 X22.0309 Y30.9609
G01 X22.1162 Y30.8836
G01 X22.2086 Y30.8151
G01 X22.3073 Y30.7559
G01 X22.4113 Y30.7068
G01 X22.5196 Y30.6680
G01 X22.6313 Y30.6400
G01 X22.7451 Y30.6231
G01 X22.8600 Y30.6175
G01 X22.9749 Y30.6231
G01 X23.0887 Y30.6400
G01 X23.2004 Y30.6680
G01 X23.3087 Y30.7068
G01 X23.4127 Y30.7559
G01 X23.5114 Y30.8151
G01 X23.6038 Y30.8836
G01 X23.6891 Y30.9609
G01 X23.7664 Y31.0462
G01 X23.8349 Y31.1386
G01 X23.8941 Y31.2373
G01 X23.9432 Y31.3413
G01 X23.9820 Y31.4496
G01 X24.0100 Y31.5613
G01 X24.0269 Y31.6751
G01 X24.0324 Y31.7846
G01 X24.0324 Y31.7954
G00 Z2.0000
G00 X24.0923 Y31.7983
G01 F60.00
G01 Z-0.0000
G01 F120.00
G01 X24.0866 Y31.9108
G01 X24.0688 Y32.0304
G01 X24.0394 Y32.1478
G01 X23.9987 Y32.2617
G01 X23.9470 Y32.3710
G01 X23.8848 Y32.4747
G01 X23.8127 Y32.5719
G01 X23.7315 Y32.6615
G01 X23.6419 Y32.7427
G01 X23.5447 Y32.8148
G01 X23.4410 Y32.8770
G01 X23.3317 Y32.9287
G01 X23.2178 Y32.9694
G01 X23.1004 Y32.9988
G01 X22.9808 Y33.0166
G01 X22.8600 Y33.0225
G01 X22.7392 Y33.0166
G01 X22.6196 Y32.9988
G01 X22.5022 Y32.9694
G01 X22.3883 Y32.9287
G01 X22.2790 Y32.8770
G01 X22.1753 Y32.8148
G01 X22.0781 Y32.7427
G01 X21.9885 Y32.6615
G01 X21.9073 Y32.5719
G01 X21.8352 Y32.4747
G01 X21.7730 Y32.3710
G01 X21.7213 Y32.2617
G01 X21.6806 Y32.1478
G01 X21.6512 Y32.0304
G01 X21.6334 Y31.9108
G01 X21.6275 Y31.7900
G01 X21.6334 Y31.6692
G01 X21.6512 Y31.5496
G01 X21.6806 Y31.4322
G01 X21.7213 Y31.3183
G01 X21.7730 Y31.2090
G01 X21.8352 Y31.1053
G01 X21.9073 Y31.0081
G01 X21.9885 Y30.9185
G01 X22.0781 Y30.8373
G01 X22.1753 Y30.7652
G01 X22.2790 Y30.7030
G01 X22.3883 Y30.6513
G01 X22.5022 Y30.6106
G01 X22.6196 Y30.5812
G01 X22.7392 Y30.5634
G01 X22.8600 Y30.5575
G01 X22.9808 Y30.5634
G01 X23.1004 Y30.5812
G01 X23.2178 Y30.6106
G01 X23.3317 Y30.6513
G01 X23.4410 Y30.7030
G01 X23.5447 Y30.7652
G01 X23.6419 Y30.8373
G01 X23.7315 Y30.9185
G01 X23.8127 Y31.0081
G01 X23.8848 Y31.1053
G01 X23.9470 Y31.2090
G01 X23.9987 Y31.3183
G01 X24.0394 Y31.4322
G01 X24.0688 Y31.5496
G01 X24.0866 Y31.6692
G01 X24.0923 Y31.7817
G01 X24.0923 Y31.7983
G00 Z2.0000
G00 X33.2583 Y29.2100
G01 F60.00
G01 Z-0.0000
G01 F120.00
G01 X33.2722 Y29.2077
G01 X33.2832 Y29.2052
G01 X33.3843 Y29.1799
G01 X33.3952 Y29.1768
G01 X33.4059 Y29.1733
G01 X33.5146 Y29.1341
G01 X33.6192 Y29.0850
G01 X33.6293 Y29.0799
G01 X33.7285 Y29.0207
G01 X33.7381 Y29.0147
G01 X33.7473 Y29.0082
G01 X33.8400 Y28.9391
G01 X33.9258 Y28.8617
G01 X33.9339 Y28.8539
G01 X33.9417 Y28.8458
G01 X34.0191 Y28.7600
G01 X34.0882 Y28.6673
G01 X34.0947 Y28.6581
G01 X34.1007 Y28.6485
G01 X34.1599 Y28.5493
G01 X34.2095 Y28.4449
G01 X34.2141 Y28.4346
G01 X34.2533 Y28.3259
G01 X34.2568 Y28.3152
G01 X34.2599 Y28.3043
G01 X34.2852 Y28.2032
G01 X34.2877 Y28.1922
G01 X34.2900 Y28.1783
G01 X34.2923 Y28.1922
G01 X34.2948 Y28.2032
G01 X34.3201 Y28.3043
G01 X34.3232 Y28.3152
G01 X34.3267 Y28.3259
G01 X34.3659 Y28.4346
G01 X34.3705 Y28.4449
G01 X34.4201 Y28.5493
G01 X34.4793 Y28.6485
G01 X34.4853 Y28.6581
G01 X34.4918 Y28.6673
G01 X34.5609 Y28.7600
G01 X34.5683 Y28.7685
G01 X34.6461 Y28.8539
G01 X34.7315 Y28.9317
G01 X34.7400 Y28.9391
G01 X34.7489 Y28.9461
G01 X34.8419 Y29.0147
G01 X34.9409 Y29.0743
G01 X34.9507 Y29.0799
G01 X34.9608 Y29.0850
G01 X35.0654 Y29.1341
G01 X35.1741 Y29.1733
G01 X35.1848 Y29.1768
G01 X35.1957 Y29.1799
G01 X35.2968 Y29.2052
G01 X35.3078 Y29.2077
G01 X35.3217 Y29.2100
G01 X35.3078 Y29.2123
G01 X35.2968 Y29.2148
G01 X35.1957 Y29.2401
G01 X35.1848 Y29.2432
G01 X35.1741 Y29.2467
G01 X35.0654 Y29.2859
G01 X35.0551 Y29.2905
G01 X34.9507 Y29.3401
G01 X34.8515 Y29.3993
G01 X34.8419 Y29.4053
G01 X34.7489 Y29.4739
G01 X34.7400 Y29.4809
G01 X34.7315 Y29.4883
G01 X34.6461 Y29.5661
G01 X34.5683 Y29.6515
G01 X34.5609 Y29.6600
G01 X34.4918 Y29.7527
G01 X34.4853 Y29.7619
G01 X34.4793 Y29.7715
G01 X34.4201 Y29.8707
G01 X34.3705 Y29.9751
G01 X34.3659 Y29.9854
G01 X34.3267 Y30.0941
G01 X34.3232 Y30.1048
G01 X34.3201 Y30.1157
G01 X34.2948 Y30.2168
G01 X34.2923 Y30.2278
G01 X34.2900 Y30.2417
G01 X34.2877 Y30.2278
G01 X34.2852 Y30.2168
G01 X34.2599 Y30.1157
G01 X34.2568 Y30.1048
G01 X34.2533 Y30.0941
G01 X34.2141 Y29.9854
G01 X34.1650 Y29.8808
G01 X34.1599 Y29.8707
G01 X34.1007 Y29.7715
G01 X34.0947 Y29.7619
G01 X34.0882 Y29.7527
G01 X34.0191 Y29.6600
G01 X34.0117 Y29.6515
G01 X33.9339 Y29.5661
G01 X33.8485 Y29.4883
G01 X33.8400 Y29.4809
G01 X33.8311 Y29.4739
G01 X33.7381 Y29.4053
G01 X33.6391 Y29.3457
G01 X33.6293 Y29.3401
G01 X33.6192 Y29.3350
G01 X33.5146 Y29.2859
G01 X33.4059 Y29.2467
G01 X33.3952 Y29.2432
G01 X33.3843 Y29.2401
G01 X33.2832 Y29.2148
G01 X33.2722 Y29.2123
G01 X33.2583 Y29.2100
G00 Z2.0000
G00 X34.1324 Y27.9425
G01 F60.00
G01 Z-0.0000
G01 F120.00
G01 X34.1271 Y28.0490
G01 X34.1111 Y28.1570
G01 X34.0846 Y28.2629
G01 X34.0478 Y28.3657
G01 X34.0011 Y28.4644
G01 X33.9450 Y28.5581
G01 X33.8800 Y28.6458
G01 X33.8067 Y28.7267
G01 X33.7258 Y28.8000
G01 X33.6381 Y28.8650
G01 X33.5444 Y28.9211
G01 X33.4457 Y28.9678
G01 X33.3429 Y29.0046
G01 X33.2370 Y29.0311
G01 X33.1290 Y29.0471
G01 X33.0200 Y29.0525
G01 X32.9110 Y29.0471
G01 X32.8030 Y29.0311
G01 X32.6971 Y29.0046
G01 X32.5943 Y28.9678
G01 X32.4956 Y28.9211
G01 X32.4019 Y28.8650
G01 X32.3142 Y28.8000
G01 X32.2333 Y28.7267
G01 X32.1600 Y28.6458
G01 X32.0950 Y28.5581
G01 X32.0389 Y28.4644
G01 X31.9922 Y28.3657
G01 X31.9554 Y28.2629
G01 X31.9289 Y28.1570
G01 X31.9129 Y28.0490
G01 X31.9075 Y27.9400
G01 X31.9129 Y27.8310
G01 X31.9289 Y27.7230
G01 X31.9554 Y27.6171
G01 X31.9922 Y27.5143
G01 X32.0389 Y27.4156
G01 X32.0950 Y27.3219
G01 X32.1600 Y27.2342
G01 X32.2333 Y27.1533
G01 X32.3142 Y27.0800
G01 X32.4019 Y27.0150
G01 X32.4956 Y26.9589
G01 X32.5943 Y26.9122
G01 X32.6971 Y26.8754
G01 X32.8030 Y26.8489
G01 X32.9110 Y26.8329
G01 X33.0200 Y26.8275
G01 X33.1290 Y26.8329
G01 X33.2370 Y26.8489
G01 X33.3429 Y26.8754
G01 X33.4457 Y26.9122
G01 X33.5444 Y26.9589
G01 X33.6381 Y27.0150
G01 X33.7258 Y27.0800
G01 X33.8067 Y27.1533
G01 X33.8800 Y27.2342
G01 X33.9450 Y27.3219
G01 X34.0011 Y27.4156
G01 X34.0478 Y27.5143
G01 X34.0846 Y27.6171
G01 X34.1111 Y27.7230
G01 X34.1271 Y27.8310
G01 X34.1324 Y27.9425
G00 Z2.0000
G00 X34.1924 Y27.9454
G01 F60.00
G01 Z-0.0000
G01 F120.00
G01 X34.1869 Y28.0549
G01 X34.1700 Y28.1687
G01 X34.1420 Y28.2804
G01 X34.1032 Y28.3887
G01 X34.0541 Y28.4927
G01 X33.9949 Y28.5914
G01 X33.9264 Y28.6838
G01 X33.8491 Y28.7691
G01 X33.7638 Y28.8464
G01 X33.6714 Y28.9149
G01 X33.5727 Y28.9741
G01 X33.4687 Y29.0232
G01 X33.3604 Y29.0620
G01 X33.2487 Y29.0900
G01 X33.1349 Y29.1069
G01 X33.0200 Y29.1125
G01 X32.9051 Y29.1069
G01 X32.7913 Y29.0900
G01 X32.6796 Y29.0620
G01 X32.5713 Y29.0232
G01 X32.4673 Y28.9741
G01 X32.3686 Y28.9149
G01 X32.2762 Y28.8464
G01 X32.1909 Y28.7691
G01 X32.1136 Y28.6838
G01 X32.0451 Y28.5914
G01 X31.9859 Y28.4927
G01 X31.9368 Y28.3887
G01 X31.8980 Y28.2804
G01 X31.8700 Y28.1687
G01 X31.8531 Y28.0549
G01 X31.8475 Y27.9400
G01 X31.8531 Y27.8251
G01 X31.8700 Y27.7113
G01 X31.8980 Y27.5996
G01 X31.9368 Y27.4913
G01 X31.9859 Y27.3873
G01 X32.0451 Y27.2886
G01 X32.1136 Y27.1962
G01 X32.1909 Y27.1109
G01 X32.2762 Y27.0336
G01 X32.3686 Y26.9651
G01 X32.4673 Y26.9059
G01 X32.5713 Y26.8568
G01 X32.6796 Y26.8180
G01 X32.7913 Y26.7900
G01 X32.9051 Y26.7731
G01 X33.0200 Y26.7675
G01 X33.1349 Y26.7731
G01 X33.2487 Y26.7900
G01 X33.3604 Y26.8180
G01 X33.4687 Y26.8568
G01 X33.5727 Y26.9059
G01 X33.6714 Y26.9651
G01 X33.7638 Y27.0336
G01 X33.8491 Y27.1109
G01 X33.9264 Y27.1962
G01 X33.9949 Y27.2886
G01 X34.0541 Y27.3873
G01 X34.1032 Y27.4913
G01 X34.1420 Y27.5996
G01 X34.1700 Y27.7113
G01 X34.1869 Y27.8251
G01 X34.1924 Y27.9346
G01 X34.1924 Y27.9454
G00 Z2.0000
G00 X34.2523 Y27.9483
G01 F60.00
G01 Z-0.0000
G01 F120.00
G01 X34.2466 Y28.0608
G01 X34.2288 Y28.1804
G01 X34.1994 Y28.2978
G01 X34.1587 Y28.4117
G01 X34.1070 Y28.5210
G01 X34.0448 Y28.6247
G01 X33.9727 Y28.7219
G01 X33.8915 Y28.8115
G01 X33.8019 Y28.8927
G01 X33.7047 Y28.9648
G01 X33.6010 Y29.0270
G01 X33.4917 Y29.0787
G01 X33.3778 Y29.1194
G01 X33.2604 Y29.1488
G01 X33.1408 Y29.1666
G01 X33.0200 Y29.1725
G01 X32.8992 Y29.1666
G01 X32.7796 Y29.1488
G01 X32.6622 Y29.1194
G01 X32.5483 Y29.0787
G01 X32.4390 Y29.0270
G01 X32.3353 Y28.9648
G01 X32.2381 Y28.8927
G01 X32.1485 Y28.8115
G01 X32.0673 Y28.7219
G01 X31.9952 Y28.6247
G01 X31.9330 Y28.5210
G01 X31.8813 Y28.4117
G01 X31.8406 Y28.2978
G01 X31.8112 Y28.1804
G01 X31.7934 Y28.0608
G01 X31.7875 Y27.9400
G01 X31.7934 Y27.8192
G01 X31.8112 Y27.6996
G01 X31.8406 Y27.5822
G01 X31.8813 Y27.4683
G01 X31.9330 Y27.3590
G01 X31.9952 Y27.2553
G01 X32.0673 Y27.1581
G01 X32.1485 Y27.0685
G01 X32.2381 Y26.9873
G01 X32.3353 Y26.9152
G01 X32.4390 Y26.8530
G01 X32.5483 Y26.8013
G01 X32.6622 Y26.7606
G01 X32.7796 Y26.7312
G01 X32.8992 Y26.7134
G01 X33.0200 Y26.7075
G01 X33.1408 Y26.7134
G01 X33.2604 Y26.7312
G01 X33.3778 Y26.7606
G01 X33.4917 Y26.8013
G01 X33.6010 Y26.8530
G01 X33.7047 Y26.9152
G01 X33.8019 Y26.9873
G01 X33.8915 Y27.0685
G01 X33.9727 Y27.1581
G01 X34.0448 Y27.2553
G01 X34.1070 Y27.3590
G01 X34.1587 Y27.4683
G01 X34.1994 Y27.5822
G01 X34.2288 Y27.6996
G01 X34.2466 Y27.8192
G01 X34.2523 Y27.9317
G01 X34.2523 Y27.9483
G00 Z2.0000
G00 X35.7983 Y29.2100
G01 F60.00
G01 Z-0.0000
G01 F120.00
G01 X35.8122 Y29.2077
G01 X35.8232 Y29.2052
G01 X35.9243 Y29.1799
G01 X35.9352 Y29.1768
G01 X35.9459 Y29.1733
G01 X36.0546 Y29.1341
G01 X36.1592 Y29.0850
G01 X36.1693 Y29.0799
G01 X36.1791 Y29.0743
G01 X36.2781 Y29.0147
G01 X36.2873 Y29.0082
G01 X36.3800 Y28.9391
G01 X36.4658 Y28.8617
G01 X36.4739 Y28.8539
G01 X36.4817 Y28.8458
G01 X36.5591 Y28.7600
G01 X36.6282 Y28.6673
G01 X36.6347 Y28.6581
G01 X36.6407 Y28.6485
G01 X36.6999 Y28.5493
G01 X36.7495 Y28.4449
G01 X36.7541 Y28.4346
G01 X36.7933 Y28.3259
G01 X36.7968 Y28.3152
G01 X36.7999 Y28.3043
G01 X36.8252 Y28.2032
G01 X36.8277 Y28.1922
G01 X36.8296 Y28.1810
G01 X36.8463 Y28.0667
G01 X36.8522 Y27.9513
G01 X36.8525 Y27.9400
G01 X36.8522 Y27.9287
G01 X36.8463 Y27.8133
G01 X36.8296 Y27.6990
G01 X36.8277 Y27.6878
G01 X36.8252 Y27.6768
G01 X36.7968 Y27.5648
G01 X36.7582 Y27.4559
G01 X36.7541 Y27.4454
G01 X36.7495 Y27.4351
G01 X36.7050 Y27.3408
G01 X36.6999 Y27.3307
G01 X36.6943 Y27.3209
G01 X36.6347 Y27.2219
G01 X36.6282 Y27.2127
G01 X36.5591 Y27.1200
G01 X36.4817 Y27.0342
G01 X36.4739 Y27.0261
G01 X36.4658 Y27.0183
G01 X36.3800 Y26.9409
G01 X36.3711 Y26.9339
G01 X36.2781 Y26.8653
G01 X36.1791 Y26.8057
G01 X36.1693 Y26.8001
G01 X36.1592 Y26.7950
G01 X36.0546 Y26.7459
G01 X35.9459 Y26.7067
G01 X35.9352 Y26.7032
G01 X35.9243 Y26.7001
G01 X35.8232 Y26.6748
G01 X35.8122 Y26.6723
G01 X35.7983 Y26.6700
G01 X35.8122 Y26.6677
G01 X35.8232 Y26.6652
G01 X35.9352 Y26.6368
G01 X36.0441 Y26.5982
G01 X36.0546 Y26.5941
G01 X36.0649 Y26.5895
G01 X36.1693 Y26.5399
G01 X36.2685 Y26.4807
G01 X36.2781 Y26.4747
G01 X36.2873 Y26.4682
G01 X36.3711 Y26.4061
G01 X36.3800 Y26.3991
G01 X36.3878 Y26.3924
G01 X36.5076 Y26.3923
G01 X36.5880 Y26.3884
G01 X36.5993 Y26.3876
G01 X36.6105 Y26.3862
G01 X36.6845 Y26.3752
G01 X36.6956 Y26.3733
G01 X36.7066 Y26.3708
G01 X36.7901 Y26.3496
G01 X36.8008 Y26.3461
G01 X36.8765 Y26.3189
G01 X36.8921 Y26.3123
G01 X36.9597 Y26.2803
G01 X36.9698 Y26.2752
G01 X36.9796 Y26.2696
G01 X37.0533 Y26.2251
G01 X37.0626 Y26.2186
G01 X37.1316 Y26.1671
G01 X37.1758 Y26.1274
G01 X37.2037 Y26.1017
G01 X40.2067 Y23.0987
G01 X40.2145 Y23.0905
G01 X40.2721 Y23.0266
G01 X40.3236 Y22.9576
G01 X40.3301 Y22.9483
G01 X40.3362 Y22.9388
G01 X40.3746 Y22.8746
G01 X40.3828 Y22.8598
G01 X40.4173 Y22.7871
G01 X40.4218 Y22.7768
G01 X40.4511 Y22.6958
G01 X40.4546 Y22.6851
G01 X40.4577 Y22.6742
G01 X40.4783 Y22.5906
G01 X40.4912 Y22.5055
G01 X40.4931 Y22.4886
G01 X40.4973 Y22.4026
G01 X40.4974 Y22.2908
G01 X40.5041 Y22.2830
G01 X40.5111 Y22.2741
G01 X40.5797 Y22.1811
G01 X40.5857 Y22.1715
G01 X40.6449 Y22.0723
G01 X40.6945 Y21.9679
G01 X40.6991 Y21.9576
G01 X40.7032 Y21.9471
G01 X40.7418 Y21.8382
G01 X40.7702 Y21.7262
G01 X40.7727 Y21.7152
G01 X40.7899 Y21.6009
G01 X40.7913 Y21.5897
G01 X40.7921 Y21.5784
G01 X40.7972 Y21.4743
G01 X40.7975 Y21.4630
G01 X40.7972 Y21.4517
G01 X40.7913 Y21.3363
G01 X40.7746 Y21.2220
G01 X40.7727 Y21.2108
G01 X40.7702 Y21.1998
G01 X40.7449 Y21.0987
G01 X40.7418 Y21.0878
G01 X40.7383 Y21.0771
G01 X40.6991 Y20.9684
G01 X40.6945 Y20.9581
G01 X40.6475 Y20.8587
G01 X40.6393 Y20.8439
G01 X40.5797 Y20.7449
G01 X40.5111 Y20.6519
G01 X40.5005 Y20.6387
G01 X40.4267 Y20.5572
G01 X40.4149 Y20.5451
G01 X40.3293 Y20.4675
G01 X40.3161 Y20.4569
G01 X40.2695 Y20.4224
G01 X44.2589 Y20.4224
G01 X53.3051 Y29.4685
G01 X53.3063 Y29.4927
G01 X53.3074 Y29.5040
G01 X53.3246 Y29.6199
G01 X53.3281 Y29.6365
G01 X53.3553 Y29.7447
G01 X53.3604 Y29.7608
G01 X53.3961 Y29.8606
G01 X53.4002 Y29.8711
G01 X53.4048 Y29.8814
G01 X53.4500 Y29.9772
G01 X53.4551 Y29.9873
G01 X53.4607 Y29.9971
G01 X53.5152 Y30.0880
G01 X53.5212 Y30.0975
G01 X53.5277 Y30.1067
G01 X53.5908 Y30.1918
G01 X53.5977 Y30.2007
G01 X53.6051 Y30.2093
G01 X53.6763 Y30.2878
G01 X53.6840 Y30.2960
G01 X53.6922 Y30.3037
G01 X53.7707 Y30.3749
G01 X53.7793 Y30.3823
G01 X53.7882 Y30.3892
G01 X53.8733 Y30.4523
G01 X53.8825 Y30.4588
G01 X53.8920 Y30.4648
G01 X53.9829 Y30.5193
G01 X53.9927 Y30.5249
G01 X54.0028 Y30.5300
G01 X54.0986 Y30.5752
G01 X54.1089 Y30.5798
G01 X54.1194 Y30.5839
G01 X54.2192 Y30.6196
G01 X54.2299 Y30.6231
G01 X54.2408 Y30.6261
G01 X54.3435 Y30.6519
G01 X54.3545 Y30.6543
G01 X54.3657 Y30.6563
G01 X54.4704 Y30.6718
G01 X54.4816 Y30.6732
G01 X54.4929 Y30.6740
G01 X54.5987 Y30.6792
G01 X54.6100 Y30.6795
G01 X54.6213 Y30.6792
G01 X54.7271 Y30.6740
G01 X54.7384 Y30.6732
G01 X54.7496 Y30.6718
G01 X54.8543 Y30.6563
G01 X54.8655 Y30.6543
G01 X54.8765 Y30.6519
G01 X54.9792 Y30.6261
G01 X54.9955 Y30.6214
G01 X55.1006 Y30.5839
G01 X55.1111 Y30.5798
G01 X55.1214 Y30.5752
G01 X55.2172 Y30.5300
G01 X55.2273 Y30.5249
G01 X55.2371 Y30.5193
G01 X55.3280 Y30.4648
G01 X55.3375 Y30.4588
G01 X55.3467 Y30.4523
G01 X55.4318 Y30.3892
G01 X55.4407 Y30.3823
G01 X55.4493 Y30.3749
G01 X55.5278 Y30.3037
G01 X55.5399 Y30.2919
G01 X55.6149 Y30.2093
G01 X55.6223 Y30.2007
G01 X55.6292 Y30.1918
G01 X55.6923 Y30.1067
G01 X55.6988 Y30.0975
G01 X55.7048 Y30.0880
G01 X55.7622 Y29.9922
G01 X55.7700 Y29.9772
G01 X55.8152 Y29.8814
G01 X55.8219 Y29.8659
G01 X55.8614 Y29.7555
G01 X55.8661 Y29.7392
G01 X55.8800 Y29.6839
G01 X55.8939 Y29.7392
G01 X55.8986 Y29.7555
G01 X55.9381 Y29.8659
G01 X55.9448 Y29.8814
G01 X55.9925 Y29.9823
G01 X56.0007 Y29.9971
G01 X56.0552 Y30.0880
G01 X56.0612 Y30.0975
G01 X56.0677 Y30.1067
G01 X56.1342 Y30.1963
G01 X56.1414 Y30.2051
G01 X56.1569 Y30.2223
G01 X56.1574 Y30.3952
G01 X54.5249 Y32.0276
G01 X52.0293 Y32.0276
G01 X52.1021 Y31.9837
G01 X52.1113 Y31.9772
G01 X52.2040 Y31.9081
G01 X52.2898 Y31.8307
G01 X52.2979 Y31.8229
G01 X52.3057 Y31.8148
G01 X52.3795 Y31.7333
G01 X52.3901 Y31.7201
G01 X52.4587 Y31.6271
G01 X52.5183 Y31.5281
G01 X52.5239 Y31.5183
G01 X52.5290 Y31.5082
G01 X52.5735 Y31.4139
G01 X52.5802 Y31.3984
G01 X52.6173 Y31.2949
G01 X52.6208 Y31.2842
G01 X52.6492 Y31.1722
G01 X52.6517 Y31.1612
G01 X52.6689 Y31.0469
G01 X52.6703 Y31.0357
G01 X52.6762 Y30.9203
G01 X52.6765 Y30.9090
G01 X52.6762 Y30.8977
G01 X52.6703 Y30.7823
G01 X52.6536 Y30.6680
G01 X52.6517 Y30.6568
G01 X52.6492 Y30.6458
G01 X52.6239 Y30.5447
G01 X52.6208 Y30.5338
G01 X52.6173 Y30.5231
G01 X52.5781 Y30.4144
G01 X52.5290 Y30.3098
G01 X52.5239 Y30.2997
G01 X52.5183 Y30.2899
G01 X52.4587 Y30.1909
G01 X52.3901 Y30.0979
G01 X52.3831 Y30.0890
G01 X52.3757 Y30.0805
G01 X52.3057 Y30.0032
G01 X52.2979 Y29.9951
G01 X52.2898 Y29.9873
G01 X52.2040 Y29.9099
G01 X52.1951 Y29.9029
G01 X52.1067 Y29.8375
G01 X52.0925 Y29.8283
G01 X52.0031 Y29.7747
G01 X51.9933 Y29.7691
G01 X51.9832 Y29.7640
G01 X51.8786 Y29.7149
G01 X51.7699 Y29.6757
G01 X51.7592 Y29.6722
G01 X51.7483 Y29.6691
G01 X51.6472 Y29.6438
G01 X51.6306 Y29.6403
G01 X51.5163 Y29.6233
G01 X51.4994 Y29.6219
G01 X51.4476 Y29.6193
G01 X51.4278 Y29.6075
G01 X51.4178 Y29.6022
G01 X51.3451 Y29.5677
G01 X51.3295 Y29.5611
G01 X51.2538 Y29.5339
G01 X51.2431 Y29.5304
G01 X51.1596 Y29.5092
G01 X51.1431 Y29.5057
G01 X51.0635 Y29.4938
G01 X51.0523 Y29.4924
G01 X50.9663 Y29.4879
G01 X50.9550 Y29.4876
G01 X36.3878 Y29.4876
G01 X36.3800 Y29.4809
G01 X36.3711 Y29.4739
G01 X36.2873 Y29.4118
G01 X36.2781 Y29.4053
G01 X36.2685 Y29.3993
G01 X36.1693 Y29.3401
G01 X36.0649 Y29.2905
G01 X36.0546 Y29.2859
G01 X36.0441 Y29.2818
G01 X35.9352 Y29.2432
G01 X35.8232 Y29.2148
G01 X35.8122 Y29.2123
G01 X35.7983 Y29.2100
G00 Z2.0000
G00 X36.6724 Y27.9425
G01 F60.00
G01 Z-0.0000
G01 F120.00
G01 X36.6671 Y28.0490
G01 X36.6511 Y28.1570
G01 X36.6246 Y28.2629
G01 X36.5878 Y28.3657
G01 X36.5411 Y28.4644
G01 X36.4850 Y28.5581
G01 X36.4200 Y28.6458
G01 X36.3467 Y28.7267
G01 X36.2658 Y28.8000
G01 X36.1781 Y28.8650
G01 X36.0844 Y28.9211
G01 X35.9857 Y28.9678
G01 X35.8829 Y29.0046
G01 X35.7770 Y29.0311
G01 X35.6690 Y29.0471
G01 X35.5600 Y29.0525
G01 X35.4510 Y29.0471
G01 X35.3430 Y29.0311
G01 X35.2371 Y29.0046
G01 X35.1343 Y28.9678
G01 X35.0356 Y28.9211
G01 X34.9419 Y28.8650
G01 X34.8542 Y28.8000
G01 X34.7733 Y28.7267
G01 X34.7000 Y28.6458
G01 X34.6350 Y28.5581
G01 X34.5789 Y28.4644
G01 X34.5322 Y28.3657
G01 X34.4954 Y28.2629
G01 X34.4689 Y28.1570
G01 X34.4529 Y28.0490
G01 X34.4475 Y27.9400
G01 X34.4529 Y27.8310
G01 X34.4689 Y27.7230
G01 X34.4954 Y27.6171
G01 X34.5322 Y27.5143
G01 X34.5789 Y27.4156
G01 X34.6350 Y27.3219
G01 X34.7000 Y27.2342
G01 X34.7733 Y27.1533
G01 X34.8542 Y27.0800
G01 X34.9419 Y27.0150
G01 X35.0356 Y26.9589
G01 X35.1343 Y26.9122
G01 X35.2371 Y26.8754
G01 X35.3430 Y26.8489
G01 X35.4510 Y26.8329
G01 X35.5600 Y26.8275
G01 X35.6690 Y26.8329
G01 X35.7770 Y26.8489
G01 X35.8829 Y26.8754
G01 X35.9857 Y26.9122
G01 X36.0844 Y26.9589
G01 X36.1781 Y27.0150
G01 X36.2658 Y27.0800
G01 X36.3467 Y27.1533
G01 X36.4200 Y27.2342
G01 X36.4850 Y27.3219
G01 X36.5411 Y27.4156
G01 X36.5878 Y27.5143
G01 X36.6246 Y27.6171
G01 X36.6511 Y27.7230
G01 X36.6671 Y27.8310
G01 X36.6724 Y27.9425
G00 Z2.0000
G00 X36.7324 Y27.9454
G01 F60.00
G01 Z-0.0000
G01 F120.00
G01 X36.7269 Y28.0549
G01 X36.7100 Y28.1687
G01 X36.6820 Y28.2804
G01 X36.6432 Y28.3887
G01 X36.5941 Y28.4927
G01 X36.5349 Y28.5914
G01 X36.4664 Y28.6838
G01 X36.3891 Y28.7691
G01 X36.3038 Y28.8464
G01 X36.2114 Y28.9149
G01 X36.1127 Y28.9741
G01 X36.0087 Y29.0232
G01 X35.9004 Y29.0620
G01 X35.7887 Y29.0900
G01 X35.6749 Y29.1069
G01 X35.5600 Y29.1125
G01 X35.4451 Y29.1069
G01 X35.3313 Y29.0900
G01 X35.2196 Y29.0620
G01 X35.1113 Y29.0232
G01 X35.0073 Y28.9741
G01 X34.9086 Y28.9149
G01 X34.8162 Y28.8464
G01 X34.7309 Y28.7691
G01 X34.6536 Y28.6838
G01 X34.5851 Y28.5914
G01 X34.5259 Y28.4927
G01 X34.4768 Y28.3887
G01 X34.4380 Y28.2804
G01 X34.4100 Y28.1687
G01 X34.3931 Y28.0549
G01 X34.3875 Y27.9400
G01 X34.3931 Y27.8251
G01 X34.4100 Y27.7113
G01 X34.4380 Y27.5996
G01 X34.4768 Y27.4913
G01 X34.5259 Y27.3873
G01 X34.5851 Y27.2886
G01 X34.6536 Y27.1962
G01 X34.7309 Y27.1109
G01 X34.8162 Y27.0336
G01 X34.9086 Y26.9651
G01 X35.0073 Y26.9059
G01 X35.1113 Y26.8568
G01 X35.2196 Y26.8180
G01 X35.3313 Y26.7900
G01 X35.4451 Y26.7731
G01 X35.5600 Y26.7675
G01 X35.6749 Y26.7731
G01 X35.7887 Y26.7900
G01 X35.9004 Y26.8180
G01 X36.0087 Y26.8568
G01 X36.1127 Y26.9059
G01 X36.2114 Y26.9651
G01 X36.3038 Y27.0336
G01 X36.3891 Y27.1109
G01 X36.4664 Y27.1962
G01 X36.5349 Y27.2886
G01 X36.5941 Y27.3873
G01 X36.6432 Y27.4913
G01 X36.6820 Y27.5996
G01 X36.7100 Y27.7113
G01 X36.7269 Y27.8251
G01 X36.7324 Y27.9346
G01 X36.7324 Y27.9454
G00 Z2.0000
G00 X36.7923 Y27.9483
G01 F60.00
G01 Z-0.0000
G01 F120.00
G01 X36.7866 Y28.0608
G01 X36.7688 Y28.1804
G01 X36.7394 Y28.2978
G01 X36.6987 Y28.4117
G01 X36.6470 Y28.5210
G01 X36.5848 Y28.6247
G01 X36.5127 Y28.7219
G01 X36.4315 Y28.8115
G01 X36.3419 Y28.8927
G01 X36.2447 Y28.9648
G01 X36.1410 Y29.0270
G01 X36.0317 Y29.0787
G01 X35.9178 Y29.1194
G01 X35.8004 Y29.1488
G01 X35.6808 Y29.1666
G01 X35.5600 Y29.1725
G01 X35.4392 Y29.1666
G01 X35.3196 Y29.1488
G01 X35.2022 Y29.1194
G01 X35.0883 Y29.0787
G01 X34.9790 Y29.0270
G01 X34.8753 Y28.9648
G01 X34.7781 Y28.8927
G01 X34.6885 Y28.8115
G01 X34.6073 Y28.7219
G01 X34.5352 Y28.6247
G01 X34.4730 Y28.5210
G01 X34.4213 Y28.4117
G01 X34.3806 Y28.2978
G01 X34.3512 Y28.1804
G01 X34.3334 Y28.0608
G01 X34.3275 Y27.9400
G01 X34.3334 Y27.8192
G01 X34.3512 Y27.6996
G01 X34.3806 Y27.5822
G01 X34.4213 Y27.4683
G01 X34.4730 Y27.3590
G01 X34.5352 Y27.2553
G01 X34.6073 Y27.1581
G01 X34.6885 Y27.0685
G01 X34.7781 Y26.9873
G01 X34.8753 Y26.9152
G01 X34.9790 Y26.8530
G01 X35.0883 Y26.8013
G01 X35.2022 Y26.7606
G01 X35.3196 Y26.7312
G01 X35.4392 Y26.7134
G01 X35.5600 Y26.7075
G01 X35.6808 Y26.7134
G01 X35.8004 Y26.7312
G01 X35.9178 Y26.7606
G01 X36.0317 Y26.8013
G01 X36.1410 Y26.8530
G01 X36.2447 Y26.9152
G01 X36.3419 Y26.9873
G01 X36.4315 Y27.0685
G01 X36.5127 Y27.1581
G01 X36.5848 Y27.2553
G01 X36.6470 Y27.3590
G01 X36.6987 Y27.4683
G01 X36.7394 Y27.5822
G01 X36.7688 Y27.6996
G01 X36.7866 Y27.8192
G01 X36.7923 Y27.9317
G01 X36.7923 Y27.9483
G00 Z2.0000
G00 X36.3184 Y31.2924
G01 F60.00
G01 Z-0.0000
G01 F120.00
G01 X36.2658 Y31.3400
G01 X36.1770 Y31.4057
G01 X36.0844 Y31.4611
G01 X35.9846 Y31.5083
G01 X35.8829 Y31.5446
G01 X35.7770 Y31.5711
G01 X35.6690 Y31.5871
G01 X35.5588 Y31.5925
G01 X35.4510 Y31.5871
G01 X35.3430 Y31.5711
G01 X35.2371 Y31.5446
G01 X35.1343 Y31.5078
G01 X35.0356 Y31.4611
G01 X34.9419 Y31.4050
G01 X34.8542 Y31.3400
G01 X34.7725 Y31.2658
G01 X34.7000 Y31.1858
G01 X34.6350 Y31.0981
G01 X34.5789 Y31.0044
G01 X34.5322 Y30.9057
G01 X34.4954 Y30.8029
G01 X34.4689 Y30.6970
G01 X34.4529 Y30.5890
G01 X34.4475 Y30.4800
G01 X34.4529 Y30.3710
G01 X34.4689 Y30.2630
G01 X34.4954 Y30.1571
G01 X34.5322 Y30.0543
G01 X34.5789 Y29.9556
G01 X34.6350 Y29.8619
G01 X34.7000 Y29.7742
G01 X34.7742 Y29.6925
G01 X34.8542 Y29.6200
G01 X34.9419 Y29.5550
G01 X35.0356 Y29.4989
G01 X35.1343 Y29.4522
G01 X35.2371 Y29.4154
G01 X35.3430 Y29.3889
G01 X35.4510 Y29.3729
G01 X35.5600 Y29.3675
G01 X35.6690 Y29.3729
G01 X35.7770 Y29.3889
G01 X35.8829 Y29.4154
G01 X35.9846 Y29.4517
G01 X36.0844 Y29.4989
G01 X36.1770 Y29.5543
G01 X36.2658 Y29.6200
G01 X36.3184 Y29.6676
G01 X50.9550 Y29.6676
G01 X51.0334 Y29.6714
G01 X51.1135 Y29.6832
G01 X51.1932 Y29.7034
G01 X51.2681 Y29.7305
G01 X51.3380 Y29.7635
G01 X51.3938 Y29.7969
G01 X51.4930 Y29.8019
G01 X51.6010 Y29.8179
G01 X51.7069 Y29.8444
G01 X51.8074 Y29.8803
G01 X51.9106 Y29.9291
G01 X52.0021 Y29.9840
G01 X52.0907 Y30.0498
G01 X52.1707 Y30.1223
G01 X52.2440 Y30.2032
G01 X52.3090 Y30.2909
G01 X52.3662 Y30.3868
G01 X52.4127 Y30.4856
G01 X52.4486 Y30.5861
G01 X52.4746 Y30.6896
G01 X52.4911 Y30.8000
G01 X52.4965 Y30.9078
G01 X52.4911 Y31.0180
G01 X52.4751 Y31.1260
G01 X52.4486 Y31.2319
G01 X52.4118 Y31.3347
G01 X52.3651 Y31.4334
G01 X52.3090 Y31.5271
G01 X52.2440 Y31.6148
G01 X52.1707 Y31.6957
G01 X52.0898 Y31.7690
G01 X52.0021 Y31.8340
G01 X51.9084 Y31.8901
G01 X51.8097 Y31.9368
G01 X51.7069 Y31.9736
G01 X51.6010 Y32.0001
G01 X51.4930 Y32.0161
G01 X51.3852 Y32.0215
G01 X51.2725 Y32.0158
G01 X51.1670 Y32.0001
G01 X51.0611 Y31.9736
G01 X50.9583 Y31.9368
G01 X50.8618 Y31.8912
G01 X50.7649 Y31.8333
G01 X50.6782 Y31.7690
G01 X50.5991 Y31.6973
G01 X50.5233 Y31.6138
G01 X50.4590 Y31.5271
G01 X50.4035 Y31.4345
G01 X50.3567 Y31.3359
G01 X50.3410 Y31.2924
G01 X36.3184 Y31.2924
G00 Z2.0000
G00 X36.3415 Y31.3524
G01 F60.00
G01 Z-0.0000
G01 F120.00
G01 X36.3079 Y31.3828
G01 X36.3017 Y31.3880
G01 X36.2136 Y31.4534
G01 X36.2068 Y31.4578
G01 X36.1151 Y31.5128
G01 X36.1079 Y31.5165
G01 X36.0087 Y31.5632
G01 X35.9029 Y31.6012
G01 X35.8952 Y31.6035
G01 X35.7887 Y31.6300
G01 X35.6749 Y31.6469
G01 X35.5600 Y31.6525
G01 X35.4478 Y31.6471
G01 X35.4397 Y31.6462
G01 X35.3313 Y31.6300
G01 X35.2196 Y31.6020
G01 X35.1113 Y31.5632
G01 X35.0073 Y31.5141
G01 X34.9086 Y31.4549
G01 X34.8162 Y31.3864
G01 X34.7309 Y31.3091
G01 X34.6554 Y31.2259
G01 X34.6503 Y31.2196
G01 X34.5851 Y31.1314
G01 X34.5259 Y31.0327
G01 X34.4768 Y30.9287
G01 X34.4380 Y30.8204
G01 X34.4100 Y30.7087
G01 X34.3931 Y30.5949
G01 X34.3875 Y30.4800
G01 X34.3931 Y30.3651
G01 X34.4100 Y30.2513
G01 X34.4380 Y30.1396
G01 X34.4768 Y30.0313
G01 X34.5259 Y29.9273
G01 X34.5851 Y29.8286
G01 X34.6536 Y29.7362
G01 X34.7309 Y29.6509
G01 X34.8141 Y29.5754
G01 X34.8204 Y29.5703
G01 X34.9086 Y29.5051
G01 X35.0026 Y29.4486
G01 X35.0121 Y29.4435
G01 X35.1064 Y29.3989
G01 X35.1163 Y29.3948
G01 X35.2196 Y29.3580
G01 X35.3313 Y29.3300
G01 X35.4451 Y29.3131
G01 X35.5600 Y29.3075
G01 X35.6749 Y29.3131
G01 X35.7887 Y29.3300
G01 X35.9004 Y29.3580
G01 X36.0062 Y29.3957
G01 X36.0136 Y29.3989
G01 X36.1127 Y29.4459
G01 X36.2091 Y29.5036
G01 X36.2158 Y29.5082
G01 X36.3017 Y29.5720
G01 X36.3079 Y29.5772
G01 X36.3415 Y29.6076
G01 X50.9550 Y29.6076
G01 X51.0378 Y29.6116
G01 X51.0459 Y29.6125
G01 X51.1252 Y29.6244
G01 X51.2030 Y29.6437
G01 X51.2108 Y29.6460
G01 X51.2838 Y29.6721
G01 X51.2913 Y29.6751
G01 X51.3662 Y29.7106
G01 X51.4117 Y29.7377
G01 X51.4989 Y29.7421
G01 X51.6127 Y29.7590
G01 X51.7244 Y29.7870
G01 X51.8277 Y29.8238
G01 X51.8376 Y29.8279
G01 X51.9319 Y29.8725
G01 X51.9414 Y29.8776
G01 X52.0354 Y29.9341
G01 X52.1236 Y29.9993
G01 X52.1299 Y30.0044
G01 X52.2131 Y30.0799
G01 X52.2904 Y30.1652
G01 X52.3589 Y30.2576
G01 X52.4154 Y30.3516
G01 X52.4205 Y30.3611
G01 X52.4651 Y30.4554
G01 X52.4692 Y30.4653
G01 X52.5060 Y30.5686
G01 X52.5328 Y30.6750
G01 X52.5349 Y30.6856
G01 X52.5509 Y30.7941
G01 X52.5565 Y30.9063
G01 X52.5564 Y30.9144
G01 X52.5509 Y31.0239
G01 X52.5340 Y31.1377
G01 X52.5060 Y31.2494
G01 X52.4672 Y31.3577
G01 X52.4181 Y31.4617
G01 X52.3589 Y31.5604
G01 X52.2904 Y31.6528
G01 X52.2131 Y31.7381
G01 X52.1278 Y31.8154
G01 X52.0354 Y31.8839
G01 X51.9367 Y31.9431
G01 X51.8327 Y31.9922
G01 X51.7244 Y32.0310
G01 X51.6127 Y32.0590
G01 X51.4989 Y32.0759
G01 X51.3867 Y32.0815
G01 X51.3786 Y32.0814
G01 X51.2745 Y32.0763
G01 X51.2637 Y32.0752
G01 X51.1553 Y32.0590
G01 X51.0436 Y32.0310
G01 X50.9403 Y31.9942
G01 X50.9304 Y31.9901
G01 X50.8313 Y31.9431
G01 X50.7326 Y31.8839
G01 X50.6444 Y31.8187
G01 X50.6361 Y31.8118
G01 X50.5549 Y31.7381
G01 X50.4776 Y31.6528
G01 X50.4091 Y31.5604
G01 X50.3526 Y31.4664
G01 X50.3475 Y31.4569
G01 X50.3029 Y31.3626
G01 X50.2987 Y31.3524
G01 X36.3415 Y31.3524
G00 Z2.0000
G00 X35.3217 Y31.7500
G01 F60.00
G01 Z-0.0000
G01 F120.00
G01 X35.3078 Y31.7523
G01 X35.2968 Y31.7548
G01 X35.1957 Y31.7801
G01 X35.1848 Y31.7832
G01 X35.1741 Y31.7867
G01 X35.0654 Y31.8259
G01 X35.0551 Y31.8305
G01 X34.9507 Y31.8801
G01 X34.8515 Y31.9393
G01 X34.8419 Y31.9453
G01 X34.7489 Y32.0139
G01 X34.7400 Y32.0209
G01 X34.7315 Y32.0283
G01 X34.6461 Y32.1061
G01 X34.5683 Y32.1915
G01 X34.5609 Y32.2000
G01 X34.4918 Y32.2927
G01 X34.4853 Y32.3019
G01 X34.4793 Y32.3115
G01 X34.4201 Y32.4107
G01 X34.4150 Y32.4208
G01 X34.3659 Y32.5254
G01 X34.3267 Y32.6341
G01 X34.3232 Y32.6448
G01 X34.3201 Y32.6557
G01 X34.2948 Y32.7568
G01 X34.2923 Y32.7678
G01 X34.2900 Y32.7817
G01 X34.2877 Y32.7678
G01 X34.2852 Y32.7568
G01 X34.2599 Y32.6557
G01 X34.2568 Y32.6448
G01 X34.2533 Y32.6341
G01 X34.2141 Y32.5254
G01 X34.1650 Y32.4208
G01 X34.1599 Y32.4107
G01 X34.1007 Y32.3115
G01 X34.0947 Y32.3019
G01 X34.0261 Y32.2089
G01 X34.0191 Y32.2000
G01 X34.0117 Y32.1915
G01 X33.9339 Y32.1061
G01 X33.8485 Y32.0283
G01 X33.8400 Y32.0209
G01 X33.7473 Y31.9518
G01 X33.7381 Y31.9453
G01 X33.7285 Y31.9393
G01 X33.6293 Y31.8801
G01 X33.6192 Y31.8750
G01 X33.5146 Y31.8259
G01 X33.4059 Y31.7867
G01 X33.3952 Y31.7832
G01 X33.3843 Y31.7801
G01 X33.2832 Y31.7548
G01 X33.2722 Y31.7523
G01 X33.2583 Y31.7500
G01 X33.2722 Y31.7477
G01 X33.2832 Y31.7452
G01 X33.3843 Y31.7199
G01 X33.3952 Y31.7168
G01 X33.4059 Y31.7133
G01 X33.5146 Y31.6741
G01 X33.6192 Y31.6250
G01 X33.6293 Y31.6199
G01 X33.7285 Y31.5607
G01 X33.7381 Y31.5547
G01 X33.7473 Y31.5482
G01 X33.8400 Y31.4791
G01 X33.9258 Y31.4017
G01 X33.9339 Y31.3939
G01 X33.9417 Y31.3858
G01 X34.0191 Y31.3000
G01 X34.0882 Y31.2073
G01 X34.0947 Y31.1981
G01 X34.1007 Y31.1885
G01 X34.1599 Y31.0893
G01 X34.2095 Y30.9849
G01 X34.2141 Y30.9746
G01 X34.2533 Y30.8659
G01 X34.2568 Y30.8552
G01 X34.2599 Y30.8443
G01 X34.2852 Y30.7432
G01 X34.2877 Y30.7322
G01 X34.2900 Y30.7183
G01 X34.2923 Y30.7322
G01 X34.2948 Y30.7432
G01 X34.3201 Y30.8443
G01 X34.3232 Y30.8552
G01 X34.3267 Y30.8659
G01 X34.3659 Y30.9746
G01 X34.3705 Y30.9849
G01 X34.4201 Y31.0893
G01 X34.4793 Y31.1885
G01 X34.4853 Y31.1981
G01 X34.4918 Y31.2073
G01 X34.5609 Y31.3000
G01 X34.5683 Y31.3085
G01 X34.6461 Y31.3939
G01 X34.7315 Y31.4717
G01 X34.7400 Y31.4791
G01 X34.7489 Y31.4861
G01 X34.8419 Y31.5547
G01 X34.9409 Y31.6143
G01 X34.9507 Y31.6199
G01 X34.9608 Y31.6250
G01 X35.0654 Y31.6741
G01 X35.1741 Y31.7133
G01 X35.1848 Y31.7168
G01 X35.1957 Y31.7199
G01 X35.2968 Y31.7452
G01 X35.3078 Y31.7477
G01 X35.3217 Y31.7500
G00 Z2.0000
G00 X34.2523 Y30.4883
G01 F60.00
G01 Z-0.0000
G01 F120.00
G01 X34.2466 Y30.6008
G01 X34.2288 Y30.7204
G01 X34.1994 Y30.8378
G01 X34.1587 Y30.9517
G01 X34.1070 Y31.0610
G01 X34.0448 Y31.1647
G01 X33.9727 Y31.2619
G01 X33.8915 Y31.3515
G01 X33.8019 Y31.4327
G01 X33.7047 Y31.5048
G01 X33.6010 Y31.5670
G01 X33.4917 Y31.6187
G01 X33.3778 Y31.6594
G01 X33.2604 Y31.6888
G01 X33.1408 Y31.7066
G01 X33.0200 Y31.7125
G01 X32.8992 Y31.7066
G01 X32.7796 Y31.6888
G01 X32.6622 Y31.6594
G01 X32.5483 Y31.6187
G01 X32.4390 Y31.5670
G01 X32.3353 Y31.5048
G01 X32.2381 Y31.4327
G01 X32.1485 Y31.3515
G01 X32.0673 Y31.2619
G01 X31.9952 Y31.1647
G01 X31.9330 Y31.0610
G01 X31.8813 Y30.9517
G01 X31.8406 Y30.8378
G01 X31.8112 Y30.7204
G01 X31.7934 Y30.6008
G01 X31.7875 Y30.4800
G01 X31.7934 Y30.3592
G01 X31.8112 Y30.2396
G01 X31.8406 Y30.1222
G01 X31.8813 Y30.0083
G01 X31.9330 Y29.8990
G01 X31.9952 Y29.7953
G01 X32.0673 Y29.6981
G01 X32.1485 Y29.6085
G01 X32.2381 Y29.5273
G01 X32.3353 Y29.4552
G01 X32.4390 Y29.3930
G01 X32.5483 Y29.3413
G01 X32.6622 Y29.3006
G01 X32.7796 Y29.2712
G01 X32.8992 Y29.2534
G01 X33.0200 Y29.2475
G01 X33.1408 Y29.2534
G01 X33.2604 Y29.2712
G01 X33.3778 Y29.3006
G01 X33.4917 Y29.3413
G01 X33.6010 Y29.3930
G01 X33.7047 Y29.4552
G01 X33.8019 Y29.5273
G01 X33.8915 Y29.6085
G01 X33.9727 Y29.6981
G01 X34.0448 Y29.7953
G01 X34.1070 Y29.8990
G01 X34.1587 Y30.0083
G01 X34.1994 Y30.1222
G01 X34.2288 Y30.2396
G01 X34.2466 Y30.3592
G01 X34.2523 Y30.4717
G01 X34.2523 Y30.4883
G00 Z2.0000
G00 X34.1924 Y30.4854
G01 F60.00
G01 Z-0.0000
G01 F120.00
G01 X34.1869 Y30.5949
G01 X34.1700 Y30.7087
G01 X34.1420 Y30.8204
G01 X34.1032 Y30.9287
G01 X34.0541 Y31.0327
G01 X33.9949 Y31.1314
G01 X33.9264 Y31.2238
G01 X33.8491 Y31.3091
G01 X33.7638 Y31.3864
G01 X33.6714 Y31.4549
G01 X33.5727 Y31.5141
G01 X33.4687 Y31.5632
G01 X33.3604 Y31.6020
G01 X33.2487 Y31.6300
G01 X33.1349 Y31.6469
G01 X33.0200 Y31.6525
G01 X32.9051 Y31.6469
G01 X32.7913 Y31.6300
G01 X32.6796 Y31.6020
G01 X32.5713 Y31.5632
G01 X32.4673 Y31.5141
G01 X32.3686 Y31.4549
G01 X32.2762 Y31.3864
G01 X32.1909 Y31.3091
G01 X32.1136 Y31.2238
G01 X32.0451 Y31.1314
G01 X31.9859 Y31.0327
G01 X31.9368 Y30.9287
G01 X31.8980 Y30.8204
G01 X31.8700 Y30.7087
G01 X31.8531 Y30.5949
G01 X31.8475 Y30.4800
G01 X31.8531 Y30.3651
G01 X31.8700 Y30.2513
G01 X31.8980 Y30.1396
G01 X31.9368 Y30.0313
G01 X31.9859 Y29.9273
G01 X32.0451 Y29.8286
G01 X32.1136 Y29.7362
G01 X32.1909 Y29.6509
G01 X32.2762 Y29.5736
G01 X32.3686 Y29.5051
G01 X32.4673 Y29.4459
G01 X32.5713 Y29.3968
G01 X32.6796 Y29.3580
G01 X32.7913 Y29.3300
G01 X32.9051 Y29.3131
G01 X33.0200 Y29.3075
G01 X33.1349 Y29.3131
G01 X33.2487 Y29.3300
G01 X33.3604 Y29.3580
G01 X33.4687 Y29.3968
G01 X33.5727 Y29.4459
G01 X33.6714 Y29.5051
G01 X33.7638 Y29.5736
G01 X33.8491 Y29.6509
G01 X33.9264 Y29.7362
G01 X33.9949 Y29.8286
G01 X34.0541 Y29.9273
G01 X34.1032 Y30.0313
G01 X34.1420 Y30.1396
G01 X34.1700 Y30.2513
G01 X34.1869 Y30.3651
G01 X34.1924 Y30.4746
G01 X34.1924 Y30.4854
G00 Z2.0000
G00 X34.1324 Y30.4825
G01 F60.00
G01 Z-0.0000
G01 F120.00
G01 X34.1271 Y30.5890
G01 X34.1111 Y30.6970
G01 X34.0846 Y30.8029
G01 X34.0478 Y30.9057
G01 X34.0011 Y31.0044
G01 X33.9450 Y31.0981
G01 X33.8800 Y31.1858
G01 X33.8067 Y31.2667
G01 X33.7258 Y31.3400
G01 X33.6381 Y31.4050
G01 X33.5444 Y31.4611
G01 X33.4457 Y31.5078
G01 X33.3429 Y31.5446
G01 X33.2370 Y31.5711
G01 X33.1290 Y31.5871
G01 X33.0200 Y31.5925
G01 X32.9110 Y31.5871
G01 X32.8030 Y31.5711
G01 X32.6971 Y31.5446
G01 X32.5943 Y31.5078
G01 X32.4956 Y31.4611
G01 X32.4019 Y31.4050
G01 X32.3142 Y31.3400
G01 X32.2333 Y31.2667
G01 X32.1600 Y31.1858
G01 X32.0950 Y31.0981
G01 X32.0389 Y31.0044
G01 X31.9922 Y30.9057
G01 X31.9554 Y30.8029
G01 X31.9289 Y30.6970
G01 X31.9129 Y30.5890
G01 X31.9075 Y30.4800
G01 X31.9129 Y30.3710
G01 X31.9289 Y30.2630
G01 X31.9554 Y30.1571
G01 X31.9922 Y30.0543
G01 X32.0389 Y29.9556
G01 X32.0950 Y29.8619
G01 X32.1600 Y29.7742
G01 X32.2333 Y29.6933
G01 X32.3142 Y29.6200
G01 X32.4019 Y29.5550
G01 X32.4956 Y29.4989
G01 X32.5943 Y29.4522
G01 X32.6971 Y29.4154
G01 X32.8030 Y29.3889
G01 X32.9110 Y29.3729
G01 X33.0200 Y29.3675
G01 X33.1290 Y29.3729
G01 X33.2370 Y29.3889
G01 X33.3429 Y29.4154
G01 X33.4457 Y29.4522
G01 X33.5444 Y29.4989
G01 X33.6381 Y29.5550
G01 X33.7258 Y29.6200
G01 X33.8067 Y29.6933
G01 X33.8800 Y29.7742
G01 X33.9450 Y29.8619
G01 X34.0011 Y29.9556
G01 X34.0478 Y30.0543
G01 X34.0846 Y30.1571
G01 X34.1111 Y30.2630
G01 X34.1271 Y30.3710
G01 X34.1324 Y30.4825
G00 Z2.0000
G00 X34.2900 Y33.2583
G01 F60.00
G01 Z-0.0000
G01 F120.00
G01 X34.2923 Y33.2722
G01 X34.2948 Y33.2832
G01 X34.3201 Y33.3843
G01 X34.3232 Y33.3952
G01 X34.3267 Y33.4059
G01 X34.3659 Y33.5146
G01 X34.4150 Y33.6192
G01 X34.4201 Y33.6293
G01 X34.4793 Y33.7285
G01 X34.4853 Y33.7381
G01 X34.5539 Y33.8311
G01 X34.5609 Y33.8400
G01 X34.5683 Y33.8485
G01 X34.6461 Y33.9339
G01 X34.7315 Y34.0117
G01 X34.7400 Y34.0191
G01 X34.8327 Y34.0882
G01 X34.8419 Y34.0947
G01 X34.8515 Y34.1007
G01 X34.9507 Y34.1599
G01 X34.9608 Y34.1650
G01 X35.0654 Y34.2141
G01 X35.1741 Y34.2533
G01 X35.1848 Y34.2568
G01 X35.1957 Y34.2599
G01 X35.2968 Y34.2852
G01 X35.3078 Y34.2877
G01 X35.3217 Y34.2900
G01 X35.3078 Y34.2923
G01 X35.2968 Y34.2948
G01 X35.1957 Y34.3201
G01 X35.1848 Y34.3232
G01 X35.1741 Y34.3267
G01 X35.0654 Y34.3659
G01 X35.0551 Y34.3705
G01 X34.9507 Y34.4201
G01 X34.8515 Y34.4793
G01 X34.8419 Y34.4853
G01 X34.7489 Y34.5539
G01 X34.7400 Y34.5609
G01 X34.7315 Y34.5683
G01 X34.6461 Y34.6461
G01 X34.5683 Y34.7315
G01 X34.5609 Y34.7400
G01 X34.4918 Y34.8327
G01 X34.4853 Y34.8419
G01 X34.4793 Y34.8515
G01 X34.4201 Y34.9507
G01 X34.4150 Y34.9608
G01 X34.3659 Y35.0654
G01 X34.3267 Y35.1741
G01 X34.3232 Y35.1848
G01 X34.3201 Y35.1957
G01 X34.2948 Y35.2968
G01 X34.2923 Y35.3078
G01 X34.2900 Y35.3217
G01 X34.2877 Y35.3078
G01 X34.2852 Y35.2968
G01 X34.2599 Y35.1957
G01 X34.2568 Y35.1848
G01 X34.2533 Y35.1741
G01 X34.2141 Y35.0654
G01 X34.1650 Y34.9608
G01 X34.1599 Y34.9507
G01 X34.1007 Y34.8515
G01 X34.0947 Y34.8419
G01 X34.0261 Y34.7489
G01 X34.0191 Y34.7400
G01 X34.0117 Y34.7315
G01 X33.9339 Y34.6461
G01 X33.8485 Y34.5683
G01 X33.8400 Y34.5609
G01 X33.7473 Y34.4918
G01 X33.7381 Y34.4853
G01 X33.7285 Y34.4793
G01 X33.6293 Y34.4201
G01 X33.6192 Y34.4150
G01 X33.5146 Y34.3659
G01 X33.4059 Y34.3267
G01 X33.3952 Y34.3232
G01 X33.3843 Y34.3201
G01 X33.2832 Y34.2948
G01 X33.2722 Y34.2923
G01 X33.2583 Y34.2900
G01 X33.2722 Y34.2877
G01 X33.2832 Y34.2852
G01 X33.3843 Y34.2599
G01 X33.3952 Y34.2568
G01 X33.4059 Y34.2533
G01 X33.5146 Y34.2141
G01 X33.5249 Y34.2095
G01 X33.6293 Y34.1599
G01 X33.7285 Y34.1007
G01 X33.7381 Y34.0947
G01 X33.8311 Y34.0261
G01 X33.8400 Y34.0191
G01 X33.8485 Y34.0117
G01 X33.9339 Y33.9339
G01 X33.9417 Y33.9258
G01 X34.0191 Y33.8400
G01 X34.0882 Y33.7473
G01 X34.0947 Y33.7381
G01 X34.1007 Y33.7285
G01 X34.1599 Y33.6293
G01 X34.1650 Y33.6192
G01 X34.2141 Y33.5146
G01 X34.2533 Y33.4059
G01 X34.2568 Y33.3952
G01 X34.2599 Y33.3843
G01 X34.2852 Y33.2832
G01 X34.2877 Y33.2722
G01 X34.2900 Y33.2583
G00 Z2.0000
G00 X34.1924 Y35.5654
G01 F60.00
G01 Z-0.0000
G01 F120.00
G01 X34.1869 Y35.6749
G01 X34.1700 Y35.7887
G01 X34.1420 Y35.9004
G01 X34.1032 Y36.0087
G01 X34.0541 Y36.1127
G01 X33.9949 Y36.2114
G01 X33.9264 Y36.3038
G01 X33.8491 Y36.3891
G01 X33.7638 Y36.4664
G01 X33.6714 Y36.5349
G01 X33.5727 Y36.5941
G01 X33.4687 Y36.6432
G01 X33.3604 Y36.6820
G01 X33.2487 Y36.7100
G01 X33.1349 Y36.7269
G01 X33.0200 Y36.7325
G01 X32.9051 Y36.7269
G01 X32.7913 Y36.7100
G01 X32.6796 Y36.6820
G01 X32.5713 Y36.6432
G01 X32.4673 Y36.5941
G01 X32.3686 Y36.5349
G01 X32.2762 Y36.4664
G01 X32.1909 Y36.3891
G01 X32.1136 Y36.3038
G01 X32.0451 Y36.2114
G01 X31.9859 Y36.1127
G01 X31.9368 Y36.0087
G01 X31.8980 Y35.9004
G01 X31.8700 Y35.7887
G01 X31.8531 Y35.6749
G01 X31.8475 Y35.5600
G01 X31.8531 Y35.4451
G01 X31.8700 Y35.3313
G01 X31.8980 Y35.2196
G01 X31.9368 Y35.1113
G01 X31.9859 Y35.0073
G01 X32.0451 Y34.9086
G01 X32.1136 Y34.8162
G01 X32.1909 Y34.7309
G01 X32.2762 Y34.6536
G01 X32.3686 Y34.5851
G01 X32.4673 Y34.5259
G01 X32.5713 Y34.4768
G01 X32.6796 Y34.4380
G01 X32.7913 Y34.4100
G01 X32.9051 Y34.3931
G01 X33.0200 Y34.3875
G01 X33.1349 Y34.3931
G01 X33.2487 Y34.4100
G01 X33.3604 Y34.4380
G01 X33.4687 Y34.4768
G01 X33.5727 Y34.5259
G01 X33.6714 Y34.5851
G01 X33.7638 Y34.6536
G01 X33.8491 Y34.7309
G01 X33.9264 Y34.8162
G01 X33.9949 Y34.9086
G01 X34.0541 Y35.0073
G01 X34.1032 Y35.1113
G01 X34.1420 Y35.2196
G01 X34.1700 Y35.3313
G01 X34.1869 Y35.4451
G01 X34.1924 Y35.5546
G01 X34.1924 Y35.5654
G00 Z2.0000
G00 X34.1324 Y35.5625
G01 F60.00
G01 Z-0.0000
G01 F120.00
G01 X34.1271 Y35.6690
G01 X34.1111 Y35.7770
G01 X34.0846 Y35.8829
G01 X34.0478 Y35.9857
G01 X34.0011 Y36.0844
G01 X33.9450 Y36.1781
G01 X33.8800 Y36.2658
G01 X33.8067 Y36.3467
G01 X33.7258 Y36.4200
G01 X33.6381 Y36.4850
G01 X33.5444 Y36.5411
G01 X33.4457 Y36.5878
G01 X33.3429 Y36.6246
G01 X33.2370 Y36.6511
G01 X33.1290 Y36.6671
G01 X33.0200 Y36.6725
G01 X32.9110 Y36.6671
G01 X32.8030 Y36.6511
G01 X32.6971 Y36.6246
G01 X32.5943 Y36.5878
G01 X32.4956 Y36.5411
G01 X32.4019 Y36.4850
G01 X32.3142 Y36.4200
G01 X32.2333 Y36.3467
G01 X32.1600 Y36.2658
G01 X32.0950 Y36.1781
G01 X32.0389 Y36.0844
G01 X31.9922 Y35.9857
G01 X31.9554 Y35.8829
G01 X31.9289 Y35.7770
G01 X31.9129 Y35.6690
G01 X31.9075 Y35.5600
G01 X31.9129 Y35.4510
G01 X31.9289 Y35.3430
G01 X31.9554 Y35.2371
G01 X31.9922 Y35.1343
G01 X32.0389 Y35.0356
G01 X32.0950 Y34.9419
G01 X32.1600 Y34.8542
G01 X32.2333 Y34.7733
G01 X32.3142 Y34.7000
G01 X32.4019 Y34.6350
G01 X32.4956 Y34.5789
G01 X32.5943 Y34.5322
G01 X32.6971 Y34.4954
G01 X32.8030 Y34.4689
G01 X32.9110 Y34.4529
G01 X33.0200 Y34.4475
G01 X33.1290 Y34.4529
G01 X33.2370 Y34.4689
G01 X33.3429 Y34.4954
G01 X33.4457 Y34.5322
G01 X33.5444 Y34.5789
G01 X33.6381 Y34.6350
G01 X33.7258 Y34.7000
G01 X33.8067 Y34.7733
G01 X33.8800 Y34.8542
G01 X33.9450 Y34.9419
G01 X34.0011 Y35.0356
G01 X34.0478 Y35.1343
G01 X34.0846 Y35.2371
G01 X34.1111 Y35.3430
G01 X34.1271 Y35.4510
G01 X34.1324 Y35.5625
G00 Z2.0000
G00 X34.2523 Y35.5683
G01 F60.00
G01 Z-0.0000
G01 F120.00
G01 X34.2466 Y35.6808
G01 X34.2288 Y35.8004
G01 X34.1994 Y35.9178
G01 X34.1587 Y36.0317
G01 X34.1070 Y36.1410
G01 X34.0448 Y36.2447
G01 X33.9727 Y36.3419
G01 X33.8915 Y36.4315
G01 X33.8019 Y36.5127
G01 X33.7047 Y36.5848
G01 X33.6010 Y36.6470
G01 X33.4917 Y36.6987
G01 X33.3778 Y36.7394
G01 X33.2604 Y36.7688
G01 X33.1408 Y36.7866
G01 X33.0200 Y36.7925
G01 X32.8992 Y36.7866
G01 X32.7796 Y36.7688
G01 X32.6622 Y36.7394
G01 X32.5483 Y36.6987
G01 X32.4390 Y36.6470
G01 X32.3353 Y36.5848
G01 X32.2381 Y36.5127
G01 X32.1485 Y36.4315
G01 X32.0673 Y36.3419
G01 X31.9952 Y36.2447
G01 X31.9330 Y36.1410
G01 X31.8813 Y36.0317
G01 X31.8406 Y35.9178
G01 X31.8112 Y35.8004
G01 X31.7934 Y35.6808
G01 X31.7875 Y35.5600
G01 X31.7934 Y35.4392
G01 X31.8112 Y35.3196
G01 X31.8406 Y35.2022
G01 X31.8813 Y35.0883
G01 X31.9330 Y34.9790
G01 X31.9952 Y34.8753
G01 X32.0673 Y34.7781
G01 X32.1485 Y34.6885
G01 X32.2381 Y34.6073
G01 X32.3353 Y34.5352
G01 X32.4390 Y34.4730
G01 X32.5483 Y34.4213
G01 X32.6622 Y34.3806
G01 X32.7796 Y34.3512
G01 X32.8992 Y34.3334
G01 X33.0200 Y34.3275
G01 X33.1408 Y34.3334
G01 X33.2604 Y34.3512
G01 X33.3778 Y34.3806
G01 X33.4917 Y34.4213
G01 X33.6010 Y34.4730
G01 X33.7047 Y34.5352
G01 X33.8019 Y34.6073
G01 X33.8915 Y34.6885
G01 X33.9727 Y34.7781
G01 X34.0448 Y34.8753
G01 X34.1070 Y34.9790
G01 X34.1587 Y35.0883
G01 X34.1994 Y35.2022
G01 X34.2288 Y35.3196
G01 X34.2466 Y35.4392
G01 X34.2523 Y35.5517
G01 X34.2523 Y35.5683
G00 Z2.0000
G00 X34.2900 Y35.7983
G01 F60.00
G01 Z-0.0000
G01 F120.00
G01 X34.2923 Y35.8122
G01 X34.2948 Y35.8232
G01 X34.3201 Y35.9243
G01 X34.3232 Y35.9352
G01 X34.3267 Y35.9459
G01 X34.3659 Y36.0546
G01 X34.4150 Y36.1592
G01 X34.4201 Y36.1693
G01 X34.4793 Y36.2685
G01 X34.4853 Y36.2781
G01 X34.5539 Y36.3711
G01 X34.5609 Y36.3800
G01 X34.5683 Y36.3885
G01 X34.6461 Y36.4739
G01 X34.7315 Y36.5517
G01 X34.7400 Y36.5591
G01 X34.8327 Y36.6282
G01 X34.8419 Y36.6347
G01 X34.8515 Y36.6407
G01 X34.9507 Y36.6999
G01 X34.9608 Y36.7050
G01 X35.0654 Y36.7541
G01 X35.1741 Y36.7933
G01 X35.1848 Y36.7968
G01 X35.1957 Y36.7999
G01 X35.2968 Y36.8252
G01 X35.3078 Y36.8277
G01 X35.3217 Y36.8300
G01 X35.3078 Y36.8323
G01 X35.2968 Y36.8348
G01 X35.1957 Y36.8601
G01 X35.1848 Y36.8632
G01 X35.1741 Y36.8667
G01 X35.0654 Y36.9059
G01 X35.0551 Y36.9105
G01 X34.9507 Y36.9601
G01 X34.8515 Y37.0193
G01 X34.8419 Y37.0253
G01 X34.7489 Y37.0939
G01 X34.7400 Y37.1009
G01 X34.7315 Y37.1083
G01 X34.6461 Y37.1861
G01 X34.5683 Y37.2715
G01 X34.5609 Y37.2800
G01 X34.4918 Y37.3727
G01 X34.4853 Y37.3819
G01 X34.4793 Y37.3915
G01 X34.4201 Y37.4907
G01 X34.4150 Y37.5008
G01 X34.3659 Y37.6054
G01 X34.3267 Y37.7141
G01 X34.3232 Y37.7248
G01 X34.3201 Y37.7357
G01 X34.2948 Y37.8368
G01 X34.2923 Y37.8478
G01 X34.2900 Y37.8617
G01 X34.2877 Y37.8478
G01 X34.2852 Y37.8368
G01 X34.2599 Y37.7357
G01 X34.2568 Y37.7248
G01 X34.2533 Y37.7141
G01 X34.2141 Y37.6054
G01 X34.1650 Y37.5008
G01 X34.1599 Y37.4907
G01 X34.1007 Y37.3915
G01 X34.0947 Y37.3819
G01 X34.0261 Y37.2889
G01 X34.0191 Y37.2800
G01 X34.0117 Y37.2715
G01 X33.9339 Y37.1861
G01 X33.8485 Y37.1083
G01 X33.8400 Y37.1009
G01 X33.7473 Y37.0318
G01 X33.7381 Y37.0253
G01 X33.7285 Y37.0193
G01 X33.6293 Y36.9601
G01 X33.6192 Y36.9550
G01 X33.5146 Y36.9059
G01 X33.4059 Y36.8667
G01 X33.3952 Y36.8632
G01 X33.3843 Y36.8601
G01 X33.2832 Y36.8348
G01 X33.2722 Y36.8323
G01 X33.2583 Y36.8300
G01 X33.2722 Y36.8277
G01 X33.2832 Y36.8252
G01 X33.3843 Y36.7999
G01 X33.3952 Y36.7968
G01 X33.4059 Y36.7933
G01 X33.5146 Y36.7541
G01 X33.5249 Y36.7495
G01 X33.6293 Y36.6999
G01 X33.7285 Y36.6407
G01 X33.7381 Y36.6347
G01 X33.8311 Y36.5661
G01 X33.8400 Y36.5591
G01 X33.8485 Y36.5517
G01 X33.9339 Y36.4739
G01 X33.9417 Y36.4658
G01 X34.0191 Y36.3800
G01 X34.0882 Y36.2873
G01 X34.0947 Y36.2781
G01 X34.1007 Y36.2685
G01 X34.1599 Y36.1693
G01 X34.1650 Y36.1592
G01 X34.2141 Y36.0546
G01 X34.2533 Y35.9459
G01 X34.2568 Y35.9352
G01 X34.2599 Y35.9243
G01 X34.2852 Y35.8232
G01 X34.2877 Y35.8122
G01 X34.2900 Y35.7983
G00 Z2.0000
G00 X36.3184 Y36.3724
G01 F60.00
G01 Z-0.0000
G01 F120.00
G01 X36.2658 Y36.4200
G01 X36.1770 Y36.4857
G01 X36.0844 Y36.5411
G01 X35.9846 Y36.5883
G01 X35.8829 Y36.6246
G01 X35.7770 Y36.6511
G01 X35.6690 Y36.6671
G01 X35.5588 Y36.6725
G01 X35.4510 Y36.6671
G01 X35.3430 Y36.6511
G01 X35.2371 Y36.6246
G01 X35.1343 Y36.5878
G01 X35.0356 Y36.5411
G01 X34.9419 Y36.4850
G01 X34.8542 Y36.4200
G01 X34.7725 Y36.3458
G01 X34.7000 Y36.2658
G01 X34.6350 Y36.1781
G01 X34.5789 Y36.0844
G01 X34.5322 Y35.9857
G01 X34.4954 Y35.8829
G01 X34.4689 Y35.7770
G01 X34.4529 Y35.6690
G01 X34.4475 Y35.5600
G01 X34.4529 Y35.4510
G01 X34.4689 Y35.3430
G01 X34.4954 Y35.2371
G01 X34.5322 Y35.1343
G01 X34.5789 Y35.0356
G01 X34.6350 Y34.9419
G01 X34.7000 Y34.8542
G01 X34.7742 Y34.7725
G01 X34.8542 Y34.7000
G01 X34.9419 Y34.6350
G01 X35.0356 Y34.5789
G01 X35.1343 Y34.5322
G01 X35.2371 Y34.4954
G01 X35.3430 Y34.4689
G01 X35.4510 Y34.4529
G01 X35.5612 Y34.4475
G01 X35.6690 Y34.4529
G01 X35.7770 Y34.4689
G01 X35.8829 Y34.4954
G01 X35.9846 Y34.5317
G01 X36.0844 Y34.5789
G01 X36.1770 Y34.6343
G01 X36.2658 Y34.7000
G01 X36.3184 Y34.7476
G01 X38.1710 Y34.7476
G01 X38.2482 Y34.7514
G01 X38.3295 Y34.7632
G01 X38.4092 Y34.7834
G01 X38.4819 Y34.8095
G01 X38.5518 Y34.8424
G01 X38.6213 Y34.8839
G01 X38.6864 Y34.9320
G01 X38.7454 Y34.9856
G01 X45.4475 Y41.6876
G01 X51.2675 Y41.6876
G01 X54.8356 Y38.1195
G01 X54.8356 Y37.6658
G01 X54.8395 Y37.5874
G01 X54.8512 Y37.5085
G01 X54.8706 Y37.4312
G01 X54.8985 Y37.3539
G01 X54.9315 Y37.2840
G01 X54.9712 Y37.2177
G01 X55.0193 Y37.1526
G01 X55.0736 Y37.0926
G01 X57.3386 Y34.8276
G01 X57.3976 Y34.7740
G01 X57.4617 Y34.7265
G01 X57.5279 Y34.6868
G01 X57.6021 Y34.6515
G01 X57.6772 Y34.6246
G01 X57.7521 Y34.6058
G01 X57.8358 Y34.5934
G01 X57.9130 Y34.5896
G01 X60.4815 Y34.5896
G01 X64.2546 Y30.8165
G01 X64.2546 Y20.7985
G01 X61.4585 Y18.0024
G01 X57.1475 Y18.0023
G01 X57.0704 Y17.9985
G01 X56.9915 Y17.9868
G01 X56.9142 Y17.9674
G01 X56.8414 Y17.9414
G01 X56.7649 Y17.9052
G01 X56.6987 Y17.8655
G01 X56.6337 Y17.8172
G01 X56.5756 Y17.7644
G01 X54.0356 Y15.2244
G01 X53.9820 Y15.1654
G01 X53.9352 Y15.1023
G01 X53.8935 Y15.0330
G01 X53.8586 Y14.9586
G01 X53.8326 Y14.8858
G01 X53.8138 Y14.8109
G01 X53.8014 Y14.7284
G01 X53.7976 Y14.6500
G01 X53.7976 Y12.8935
G01 X52.0192 Y11.1151
G01 X51.9974 Y11.1442
G01 X51.8969 Y11.2551
G01 X51.7842 Y11.3574
G01 X51.6611 Y11.4488
G01 X51.5285 Y11.5281
G01 X51.3932 Y11.5920
G01 X51.2523 Y11.6425
G01 X51.1048 Y11.6797
G01 X50.9519 Y11.7025
G01 X50.7988 Y11.7100
G01 X50.6456 Y11.7022
G01 X50.4976 Y11.6802
G01 X50.3524 Y11.6439
G01 X50.2068 Y11.5920
G01 X50.0693 Y11.5270
G01 X49.9389 Y11.4488
G01 X49.8148 Y11.3566
G01 X49.7023 Y11.2542
G01 X49.6018 Y11.1433
G01 X49.5126 Y11.0231
G01 X49.4330 Y10.8907
G01 X49.3680 Y10.7532
G01 X49.3167 Y10.6099
G01 X49.2798 Y10.4624
G01 X49.2575 Y10.3119
G01 X49.2500 Y10.1600
G01 X49.2575 Y10.0081
G01 X49.2803 Y9.8552
G01 X49.3175 Y9.7077
G01 X49.3680 Y9.5668
G01 X49.4319 Y9.4315
G01 X49.5112 Y9.2989
G01 X49.6003 Y9.1786
G01 X49.7040 Y9.0640
G01 X49.8167 Y8.9618
G01 X49.9389 Y8.8712
G01 X50.0683 Y8.7936
G01 X50.2068 Y8.7280
G01 X50.3501 Y8.6767
G01 X50.4976 Y8.6398
G01 X50.6481 Y8.6175
G01 X50.8000 Y8.6100
G01 X50.9519 Y8.6175
G01 X51.1024 Y8.6398
G01 X51.2488 Y8.6764
G01 X51.3932 Y8.7280
G01 X51.5307 Y8.7930
G01 X51.6611 Y8.8712
G01 X51.7824 Y8.9611
G01 X51.8960 Y9.0640
G01 X51.9974 Y9.1758
G01 X52.0881 Y9.2979
G01 X52.1181 Y9.3476
G01 X52.2142 Y9.3476
G01 X52.2914 Y9.3514
G01 X52.3739 Y9.3638
G01 X52.4488 Y9.3826
G01 X52.5239 Y9.4095
G01 X52.5960 Y9.4435
G01 X52.6633 Y9.4839
G01 X52.7284 Y9.5320
G01 X52.7874 Y9.5856
G01 X55.1844 Y11.9826
G01 X55.2380 Y12.0416
G01 X55.2841 Y12.1037
G01 X55.3276 Y12.1762
G01 X55.3605 Y12.2461
G01 X55.3874 Y12.3212
G01 X55.4068 Y12.3985
G01 X55.4185 Y12.4774
G01 X55.4224 Y12.5570
G01 X55.4224 Y14.3135
G01 X57.4865 Y16.3776
G01 X61.7962 Y16.3776
G01 X61.8746 Y16.3815
G01 X61.9535 Y16.3932
G01 X62.0308 Y16.4126
G01 X62.1070 Y16.4399
G01 X62.1780 Y16.4735
G01 X62.2463 Y16.5145
G01 X62.3104 Y16.5620
G01 X62.3694 Y16.6156
G01 X65.6414 Y19.8876
G01 X65.6965 Y19.9486
G01 X65.7425 Y20.0107
G01 X65.7829 Y20.0780
G01 X65.8175 Y20.1511
G01 X65.8451 Y20.2285
G01 X65.8638 Y20.3035
G01 X65.8752 Y20.3799
G01 X65.8794 Y20.4620
G01 X65.8794 Y31.1530
G01 X65.8752 Y31.2351
G01 X65.8638 Y31.3115
G01 X65.8451 Y31.3865
G01 X65.8175 Y31.4639
G01 X65.7822 Y31.5381
G01 X65.7425 Y31.6043
G01 X65.6965 Y31.6664
G01 X65.6414 Y31.7274
G01 X61.3924 Y35.9764
G01 X61.3334 Y36.0300
G01 X61.2683 Y36.0781
G01 X61.2010 Y36.1185
G01 X61.1311 Y36.1515
G01 X61.0538 Y36.1794
G01 X60.9741 Y36.1992
G01 X60.8976 Y36.2105
G01 X60.8205 Y36.2143
G01 X58.2495 Y36.2144
G01 X56.4604 Y38.0035
G01 X56.4604 Y38.4572
G01 X56.4565 Y38.5356
G01 X56.4448 Y38.6145
G01 X56.4246 Y38.6942
G01 X56.3985 Y38.7669
G01 X56.3656 Y38.8368
G01 X56.3235 Y38.9073
G01 X56.2744 Y38.9732
G01 X56.2224 Y39.0304
G01 X52.1784 Y43.0744
G01 X52.1174 Y43.1295
G01 X52.0553 Y43.1755
G01 X51.9880 Y43.2159
G01 X51.9149 Y43.2505
G01 X51.8375 Y43.2781
G01 X51.7625 Y43.2968
G01 X51.6861 Y43.3082
G01 X51.6040 Y43.3124
G01 X45.1110 Y43.3124
G01 X45.0314 Y43.3085
G01 X44.9525 Y43.2968
G01 X44.8752 Y43.2774
G01 X44.7990 Y43.2501
G01 X44.7280 Y43.2165
G01 X44.6597 Y43.1755
G01 X44.5956 Y43.1280
G01 X44.5366 Y43.0744
G01 X37.8345 Y36.3724
G01 X36.3184 Y36.3724
G00 Z2.0000
G00 X36.3415 Y36.4324
G01 F60.00
G01 Z-0.0000
G01 F120.00
G01 X36.3079 Y36.4628
G01 X36.3017 Y36.4680
G01 X36.2136 Y36.5334
G01 X36.2068 Y36.5378
G01 X36.1151 Y36.5928
G01 X36.1079 Y36.5965
G01 X36.0087 Y36.6432
G01 X35.9029 Y36.6812
G01 X35.8952 Y36.6835
G01 X35.7887 Y36.7100
G01 X35.6749 Y36.7269
G01 X35.5600 Y36.7325
G01 X35.4478 Y36.7271
G01 X35.4397 Y36.7262
G01 X35.3313 Y36.7100
G01 X35.2196 Y36.6820
G01 X35.1113 Y36.6432
G01 X35.0073 Y36.5941
G01 X34.9086 Y36.5349
G01 X34.8162 Y36.4664
G01 X34.7309 Y36.3891
G01 X34.6554 Y36.3059
G01 X34.6503 Y36.2996
G01 X34.5851 Y36.2114
G01 X34.5259 Y36.1127
G01 X34.4768 Y36.0087
G01 X34.4380 Y35.9004
G01 X34.4100 Y35.7887
G01 X34.3931 Y35.6749
G01 X34.3875 Y35.5600
G01 X34.3931 Y35.4451
G01 X34.4100 Y35.3313
G01 X34.4380 Y35.2196
G01 X34.4768 Y35.1113
G01 X34.5259 Y35.0073
G01 X34.5851 Y34.9086
G01 X34.6536 Y34.8162
G01 X34.7309 Y34.7309
G01 X34.8141 Y34.6554
G01 X34.8204 Y34.6503
G01 X34.9086 Y34.5851
G01 X35.0073 Y34.5259
G01 X35.1113 Y34.4768
G01 X35.2145 Y34.4397
G01 X35.2248 Y34.4365
G01 X35.3313 Y34.4100
G01 X35.4397 Y34.3938
G01 X35.4505 Y34.3927
G01 X35.5546 Y34.3876
G01 X35.5654 Y34.3876
G01 X35.6749 Y34.3931
G01 X35.7887 Y34.4100
G01 X35.9004 Y34.4380
G01 X36.0062 Y34.4757
G01 X36.0136 Y34.4789
G01 X36.1127 Y34.5259
G01 X36.2091 Y34.5836
G01 X36.2158 Y34.5882
G01 X36.3017 Y34.6520
G01 X36.3079 Y34.6572
G01 X36.3415 Y34.6876
G01 X38.1710 Y34.6876
G01 X38.2538 Y34.6916
G01 X38.2619 Y34.6925
G01 X38.3412 Y34.7044
G01 X38.4190 Y34.7237
G01 X38.4294 Y34.7269
G01 X38.5048 Y34.7540
G01 X38.5774 Y34.7882
G01 X38.5869 Y34.7933
G01 X38.6557 Y34.8346
G01 X38.7244 Y34.8856
G01 X38.7879 Y34.9431
G01 X45.4724 Y41.6276
G01 X51.2426 Y41.6276
G01 X54.7756 Y38.0946
G01 X54.7757 Y37.6643
G01 X54.7798 Y37.5815
G01 X54.7924 Y37.4968
G01 X54.8132 Y37.4138
G01 X54.8401 Y37.3382
G01 X54.8442 Y37.3282
G01 X54.8786 Y37.2558
G01 X54.9198 Y37.1869
G01 X54.9258 Y37.1779
G01 X54.9720 Y37.1157
G01 X54.9772 Y37.1095
G01 X55.0311 Y37.0501
G01 X57.2961 Y34.7851
G01 X57.3596 Y34.7276
G01 X57.4283 Y34.6766
G01 X57.4971 Y34.6353
G01 X57.5066 Y34.6302
G01 X57.5792 Y34.5960
G01 X57.6598 Y34.5672
G01 X57.7375 Y34.5476
G01 X57.7481 Y34.5455
G01 X57.8221 Y34.5345
G01 X57.8302 Y34.5336
G01 X57.9130 Y34.5296
G01 X60.4566 Y34.5296
G01 X64.1946 Y30.7916
G01 X64.1946 Y20.8234
G01 X61.4336 Y18.0624
G01 X57.1446 Y18.0622
G01 X57.0645 Y18.0582
G01 X56.9798 Y18.0456
G01 X56.8968 Y18.0248
G01 X56.8212 Y17.9979
G01 X56.8112 Y17.9938
G01 X56.7436 Y17.9618
G01 X56.7341 Y17.9567
G01 X56.6653 Y17.9154
G01 X56.6008 Y17.8677
G01 X56.5945 Y17.8626
G01 X56.5331 Y17.8069
G01 X53.9931 Y15.2669
G01 X53.9356 Y15.2034
G01 X53.8862 Y15.1369
G01 X53.8818 Y15.1301
G01 X53.8406 Y15.0612
G01 X53.8062 Y14.9888
G01 X53.8021 Y14.9788
G01 X53.7752 Y14.9032
G01 X53.7556 Y14.8255
G01 X53.7535 Y14.8149
G01 X53.7425 Y14.7409
G01 X53.7416 Y14.7328
G01 X53.7376 Y14.6500
G01 X53.7376 Y12.9184
G01 X52.0238 Y11.2045
G01 X51.9384 Y11.2984
G01 X51.8255 Y11.4010
G01 X51.8171 Y11.4079
G01 X51.6989 Y11.4956
G01 X51.6899 Y11.5016
G01 X51.5589 Y11.5799
G01 X51.4161 Y11.6474
G01 X51.2674 Y11.7007
G01 X51.1194 Y11.7379
G01 X51.1088 Y11.7400
G01 X50.9632 Y11.7616
G01 X50.9524 Y11.7626
G01 X50.8000 Y11.7700
G01 X50.6476 Y11.7626
G01 X50.6368 Y11.7616
G01 X50.4859 Y11.7391
G01 X50.3326 Y11.7007
G01 X50.1839 Y11.6474
G01 X50.0459 Y11.5823
G01 X50.0364 Y11.5772
G01 X49.9101 Y11.5016
G01 X49.9011 Y11.4956
G01 X49.7786 Y11.4045
G01 X49.6655 Y11.3022
G01 X49.6578 Y11.2945
G01 X49.5555 Y11.1814
G01 X49.4629 Y11.0567
G01 X49.4584 Y11.0499
G01 X49.3801 Y10.9189
G01 X49.3126 Y10.7761
G01 X49.2593 Y10.6274
G01 X49.2209 Y10.4741
G01 X49.1978 Y10.3178
G01 X49.1900 Y10.1600
G01 X49.1978 Y10.0022
G01 X49.2200 Y9.8512
G01 X49.2221 Y9.8406
G01 X49.2579 Y9.6978
G01 X49.2610 Y9.6875
G01 X49.3126 Y9.5439
G01 X49.3777 Y9.4059
G01 X49.3828 Y9.3964
G01 X49.4613 Y9.2655
G01 X49.5521 Y9.1429
G01 X49.5590 Y9.1345
G01 X49.6616 Y9.0216
G01 X49.7786 Y8.9155
G01 X49.9055 Y8.8213
G01 X50.0387 Y8.7414
G01 X50.0459 Y8.7377
G01 X50.1839 Y8.6726
G01 X50.3326 Y8.6193
G01 X50.4859 Y8.5809
G01 X50.6422 Y8.5578
G01 X50.8000 Y8.5500
G01 X50.9578 Y8.5578
G01 X51.1141 Y8.5809
G01 X51.2622 Y8.6179
G01 X51.2725 Y8.6210
G01 X51.4161 Y8.6726
G01 X51.5589 Y8.7401
G01 X51.6945 Y8.8213
G01 X51.8171 Y8.9121
G01 X51.8255 Y8.9190
G01 X51.9384 Y9.0216
G01 X52.0410 Y9.1345
G01 X52.0479 Y9.1429
G01 X52.1356 Y9.2611
G01 X52.1401 Y9.2678
G01 X52.1521 Y9.2876
G01 X52.2157 Y9.2877
G01 X52.2931 Y9.2914
G01 X52.3012 Y9.2921
G01 X52.3832 Y9.3044
G01 X52.4636 Y9.3244
G01 X52.4714 Y9.3269
G01 X52.5418 Y9.3521
G01 X52.5518 Y9.3562
G01 X52.6242 Y9.3906
G01 X52.6954 Y9.4332
G01 X52.7021 Y9.4378
G01 X52.7664 Y9.4856
G01 X52.8299 Y9.5431
G01 X55.2269 Y11.9401
G01 X55.2844 Y12.0036
G01 X55.3322 Y12.0679
G01 X55.3382 Y12.0769
G01 X55.3767 Y12.1411
G01 X55.3818 Y12.1506
G01 X55.4160 Y12.2232
G01 X55.4448 Y12.3038
G01 X55.4656 Y12.3868
G01 X55.4782 Y12.4715
G01 X55.4824 Y12.5570
G01 X55.4824 Y14.2886
G01 X57.5114 Y16.3176
G01 X61.7977 Y16.3177
G01 X61.8805 Y16.3218
G01 X61.9652 Y16.3344
G01 X62.0482 Y16.3552
G01 X62.1238 Y16.3821
G01 X62.1313 Y16.3851
G01 X62.2062 Y16.4206
G01 X62.2797 Y16.4646
G01 X62.3484 Y16.5156
G01 X62.4119 Y16.5731
G01 X65.6839 Y19.8451
G01 X65.7378 Y19.9045
G01 X65.7447 Y19.9128
G01 X65.7924 Y19.9773
G01 X65.8351 Y20.0484
G01 X65.8388 Y20.0556
G01 X65.8730 Y20.1282
G01 X65.9001 Y20.2036
G01 X65.9033 Y20.2140
G01 X65.9226 Y20.2918
G01 X65.9345 Y20.3711
G01 X65.9356 Y20.3819
G01 X65.9394 Y20.4620
G01 X65.9394 Y31.1530
G01 X65.9356 Y31.2331
G01 X65.9345 Y31.2439
G01 X65.9226 Y31.3232
G01 X65.9033 Y31.4010
G01 X65.9001 Y31.4114
G01 X65.8730 Y31.4868
G01 X65.8388 Y31.5594
G01 X65.8337 Y31.5689
G01 X65.7924 Y31.6377
G01 X65.7447 Y31.7022
G01 X65.7378 Y31.7105
G01 X65.6839 Y31.7699
G01 X61.4349 Y36.0189
G01 X61.3714 Y36.0764
G01 X61.3071 Y36.1242
G01 X61.3004 Y36.1288
G01 X61.2292 Y36.1714
G01 X61.1568 Y36.2058
G01 X61.1468 Y36.2099
G01 X61.0712 Y36.2368
G01 X60.9935 Y36.2564
G01 X60.9829 Y36.2585
G01 X60.9035 Y36.2702
G01 X60.8234 Y36.2742
G01 X58.2744 Y36.2744
G01 X56.5204 Y38.0284
G01 X56.5203 Y38.4587
G01 X56.5162 Y38.5415
G01 X56.5036 Y38.6262
G01 X56.4843 Y38.7040
G01 X56.4811 Y38.7144
G01 X56.4540 Y38.7898
G01 X56.4198 Y38.8624
G01 X56.4147 Y38.8719
G01 X56.3734 Y38.9407
G01 X56.3257 Y39.0052
G01 X56.3188 Y39.0135
G01 X56.2649 Y39.0729
G01 X52.2209 Y43.1169
G01 X52.1615 Y43.1708
G01 X52.1532 Y43.1777
G01 X52.0887 Y43.2254
G01 X52.0176 Y43.2681
G01 X52.0104 Y43.2718
G01 X51.9378 Y43.3060
G01 X51.8624 Y43.3331
G01 X51.8520 Y43.3363
G01 X51.7742 Y43.3556
G01 X51.6949 Y43.3675
G01 X51.6841 Y43.3686
G01 X51.6040 Y43.3724
G01 X45.1110 Y43.3724
G01 X45.0255 Y43.3682
G01 X44.9408 Y43.3556
G01 X44.8578 Y43.3348
G01 X44.7822 Y43.3079
G01 X44.7747 Y43.3049
G01 X44.6998 Y43.2694
G01 X44.6263 Y43.2254
G01 X44.5576 Y43.1744
G01 X44.4941 Y43.1169
G01 X37.8096 Y36.4324
G01 X36.3415 Y36.4324
G00 Z2.0000
G00 X36.3647 Y36.4924
G01 F60.00
G01 Z-0.0000
G01 F120.00
G01 X36.3451 Y36.5100
G01 X36.3386 Y36.5153
G01 X36.2482 Y36.5824
G01 X36.2377 Y36.5893
G01 X36.1447 Y36.6450
G01 X36.1335 Y36.6507
G01 X36.0317 Y36.6987
G01 X35.9218 Y36.7382
G01 X35.9097 Y36.7417
G01 X35.8004 Y36.7688
G01 X35.6808 Y36.7866
G01 X35.5600 Y36.7925
G01 X35.4434 Y36.7869
G01 X35.4309 Y36.7855
G01 X35.3196 Y36.7688
G01 X35.2022 Y36.7394
G01 X35.0883 Y36.6987
G01 X34.9790 Y36.6470
G01 X34.8753 Y36.5848
G01 X34.7781 Y36.5127
G01 X34.6885 Y36.4315
G01 X34.6100 Y36.3451
G01 X34.6021 Y36.3353
G01 X34.5352 Y36.2447
G01 X34.4730 Y36.1410
G01 X34.4213 Y36.0317
G01 X34.3806 Y35.9178
G01 X34.3512 Y35.8004
G01 X34.3334 Y35.6808
G01 X34.3275 Y35.5600
G01 X34.3334 Y35.4392
G01 X34.3512 Y35.3196
G01 X34.3806 Y35.2022
G01 X34.4213 Y35.0883
G01 X34.4730 Y34.9790
G01 X34.5352 Y34.8753
G01 X34.6073 Y34.7781
G01 X34.6885 Y34.6885
G01 X34.7749 Y34.6100
G01 X34.7847 Y34.6021
G01 X34.8753 Y34.5352
G01 X34.9790 Y34.4730
G01 X35.0883 Y34.4213
G01 X35.1943 Y34.3832
G01 X35.2103 Y34.3783
G01 X35.3196 Y34.3512
G01 X35.4309 Y34.3345
G01 X35.4475 Y34.3328
G01 X35.5517 Y34.3277
G01 X35.5683 Y34.3277
G01 X35.6808 Y34.3334
G01 X35.8004 Y34.3512
G01 X35.9178 Y34.3806
G01 X36.0278 Y34.4198
G01 X36.0393 Y34.4247
G01 X36.1410 Y34.4730
G01 X36.2412 Y34.5329
G01 X36.2516 Y34.5400
G01 X36.3386 Y34.6047
G01 X36.3451 Y34.6100
G01 X36.3647 Y34.6276
G01 X38.1710 Y34.6276
G01 X38.2582 Y34.6318
G01 X38.2707 Y34.6331
G01 X38.3529 Y34.6455
G01 X38.4336 Y34.6655
G01 X38.4496 Y34.6704
G01 X38.5278 Y34.6986
G01 X38.6031 Y34.7340
G01 X38.6178 Y34.7418
G01 X38.6855 Y34.7825
G01 X38.6958 Y34.7896
G01 X38.7625 Y34.8393
G01 X38.8303 Y34.9007
G01 X45.4972 Y41.5676
G01 X51.2178 Y41.5676
G01 X54.7156 Y38.0698
G01 X54.7157 Y37.6628
G01 X54.7201 Y37.5756
G01 X54.7335 Y37.4851
G01 X54.7558 Y37.3963
G01 X54.7836 Y37.3180
G01 X54.7900 Y37.3026
G01 X54.8257 Y37.2275
G01 X54.8683 Y37.1560
G01 X54.8776 Y37.1422
G01 X54.9247 Y37.0788
G01 X54.9327 Y37.0692
G01 X54.9887 Y37.0077
G01 X57.2537 Y34.7427
G01 X57.3215 Y34.6813
G01 X57.3950 Y34.6268
G01 X57.4662 Y34.5838
G01 X57.4809 Y34.5760
G01 X57.5562 Y34.5406
G01 X57.6423 Y34.5098
G01 X57.7230 Y34.4894
G01 X57.7393 Y34.4861
G01 X57.8133 Y34.4751
G01 X57.8258 Y34.4738
G01 X57.9130 Y34.4696
G01 X60.4318 Y34.4696
G01 X64.1346 Y30.7668
G01 X64.1346 Y20.8482
G01 X61.4088 Y18.1224
G01 X57.1417 Y18.1222
G01 X57.0586 Y18.1179
G01 X56.9681 Y18.1045
G01 X56.8793 Y18.0822
G01 X56.8010 Y18.0544
G01 X56.7856 Y18.0480
G01 X56.7179 Y18.0160
G01 X56.7032 Y18.0082
G01 X56.6320 Y17.9652
G01 X56.5651 Y17.9159
G01 X56.5553 Y17.9081
G01 X56.4907 Y17.8493
G01 X53.9507 Y15.3093
G01 X53.8893 Y15.2415
G01 X53.8348 Y15.1680
G01 X53.7918 Y15.0968
G01 X53.7840 Y15.0821
G01 X53.7486 Y15.0068
G01 X53.7204 Y14.9286
G01 X53.7155 Y14.9126
G01 X53.6955 Y14.8319
G01 X53.6831 Y14.7497
G01 X53.6818 Y14.7372
G01 X53.6776 Y14.6500
G01 X53.6776 Y12.9432
G01 X52.0259 Y11.2915
G01 X51.9866 Y11.3348
G01 X51.9779 Y11.3438
G01 X51.8626 Y11.4482
G01 X51.8529 Y11.4561
G01 X51.7312 Y11.5462
G01 X51.7208 Y11.5530
G01 X51.5872 Y11.6328
G01 X51.4467 Y11.6995
G01 X51.4352 Y11.7044
G01 X51.2927 Y11.7555
G01 X51.2767 Y11.7603
G01 X51.1258 Y11.7979
G01 X50.9720 Y11.8209
G01 X50.9554 Y11.8226
G01 X50.8000 Y11.8300
G01 X50.6405 Y11.8223
G01 X50.6280 Y11.8209
G01 X50.4742 Y11.7979
G01 X50.3152 Y11.7581
G01 X50.1609 Y11.7029
G01 X50.0202 Y11.6366
G01 X50.0055 Y11.6287
G01 X49.8792 Y11.5530
G01 X49.8654 Y11.5437
G01 X49.7406 Y11.4509
G01 X49.6252 Y11.3466
G01 X49.6134 Y11.3348
G01 X49.5091 Y11.2194
G01 X49.4138 Y11.0912
G01 X49.4070 Y11.0808
G01 X49.3272 Y10.9472
G01 X49.2571 Y10.7991
G01 X49.2019 Y10.6448
G01 X49.1621 Y10.4858
G01 X49.1380 Y10.3237
G01 X49.1300 Y10.1600
G01 X49.1380 Y9.9963
G01 X49.1607 Y9.8424
G01 X49.1639 Y9.8261
G01 X49.1997 Y9.6833
G01 X49.2045 Y9.6673
G01 X49.2571 Y9.5209
G01 X49.3234 Y9.3802
G01 X49.3313 Y9.3655
G01 X49.4114 Y9.2322
G01 X49.5039 Y9.1071
G01 X49.5145 Y9.0942
G01 X49.6191 Y8.9791
G01 X49.7406 Y8.8691
G01 X49.8722 Y8.7714
G01 X50.0091 Y8.6892
G01 X50.0202 Y8.6834
G01 X50.1533 Y8.6205
G01 X50.1687 Y8.6141
G01 X50.3152 Y8.5619
G01 X50.4661 Y8.5239
G01 X50.4824 Y8.5207
G01 X50.6363 Y8.4980
G01 X50.7917 Y8.4902
G01 X50.8083 Y8.4902
G01 X50.9637 Y8.4980
G01 X51.1176 Y8.5207
G01 X51.1339 Y8.5239
G01 X51.2848 Y8.5619
G01 X51.4313 Y8.6141
G01 X51.4467 Y8.6205
G01 X51.5872 Y8.6872
G01 X51.7208 Y8.7670
G01 X51.7346 Y8.7763
G01 X51.8594 Y8.8691
G01 X51.9809 Y8.9791
G01 X52.0909 Y9.1006
G01 X52.1854 Y9.2276
G01 X52.2213 Y9.2278
G01 X52.2961 Y9.2315
G01 X52.3127 Y9.2331
G01 X52.3949 Y9.2455
G01 X52.4756 Y9.2655
G01 X52.4916 Y9.2704
G01 X52.5698 Y9.2986
G01 X52.6525 Y9.3377
G01 X52.7310 Y9.3848
G01 X52.7979 Y9.4341
G01 X52.8077 Y9.4419
G01 X52.8723 Y9.5007
G01 X55.2693 Y11.8977
G01 X55.3307 Y11.9655
G01 X55.3804 Y12.0322
G01 X55.3897 Y12.0460
G01 X55.4282 Y12.1102
G01 X55.4360 Y12.1249
G01 X55.4714 Y12.2002
G01 X55.5022 Y12.2863
G01 X55.5245 Y12.3751
G01 X55.5374 Y12.4615
G01 X55.5385 Y12.4739
G01 X55.5424 Y12.5570
G01 X55.5424 Y14.2638
G01 X57.5362 Y16.2576
G01 X61.7992 Y16.2577
G01 X61.8864 Y16.2621
G01 X61.9769 Y16.2755
G01 X62.0657 Y16.2978
G01 X62.1440 Y16.3256
G01 X62.1556 Y16.3302
G01 X62.2345 Y16.3677
G01 X62.3130 Y16.4148
G01 X62.3865 Y16.4693
G01 X62.4543 Y16.5307
G01 X65.7263 Y19.8027
G01 X65.7823 Y19.8642
G01 X65.7929 Y19.8771
G01 X65.8422 Y19.9440
G01 X65.8873 Y20.0188
G01 X65.8930 Y20.0299
G01 X65.9284 Y20.1052
G01 X65.9566 Y20.1834
G01 X65.9615 Y20.1994
G01 X65.9815 Y20.2801
G01 X65.9939 Y20.3623
G01 X65.9955 Y20.3789
G01 X65.9994 Y20.4620
G01 X65.9994 Y31.1530
G01 X65.9955 Y31.2361
G01 X65.9939 Y31.2527
G01 X65.9815 Y31.3349
G01 X65.9615 Y31.4156
G01 X65.9566 Y31.4316
G01 X65.9284 Y31.5098
G01 X65.8930 Y31.5851
G01 X65.8852 Y31.5998
G01 X65.8422 Y31.6710
G01 X65.7929 Y31.7379
G01 X65.7823 Y31.7508
G01 X65.7263 Y31.8123
G01 X61.4773 Y36.0613
G01 X61.4095 Y36.1227
G01 X61.3428 Y36.1724
G01 X61.3325 Y36.1795
G01 X61.2648 Y36.2202
G01 X61.2501 Y36.2280
G01 X61.1748 Y36.2634
G01 X61.0966 Y36.2916
G01 X61.0806 Y36.2965
G01 X60.9999 Y36.3165
G01 X60.9177 Y36.3289
G01 X60.9011 Y36.3305
G01 X60.8180 Y36.3344
G01 X58.2992 Y36.3344
G01 X56.5804 Y38.0532
G01 X56.5803 Y38.4602
G01 X56.5759 Y38.5474
G01 X56.5639 Y38.6297
G01 X56.5616 Y38.6420
G01 X56.5425 Y38.7186
G01 X56.5376 Y38.7346
G01 X56.5094 Y38.8128
G01 X56.4740 Y38.8881
G01 X56.4662 Y38.9028
G01 X56.4232 Y38.9740
G01 X56.3739 Y39.0409
G01 X56.3633 Y39.0538
G01 X56.3073 Y39.1153
G01 X52.2633 Y43.1593
G01 X52.2018 Y43.2153
G01 X52.1889 Y43.2259
G01 X52.1220 Y43.2752
G01 X52.0472 Y43.3203
G01 X52.0361 Y43.3260
G01 X51.9608 Y43.3614
G01 X51.8826 Y43.3896
G01 X51.8666 Y43.3945
G01 X51.7859 Y43.4145
G01 X51.7037 Y43.4269
G01 X51.6871 Y43.4285
G01 X51.6040 Y43.4324
G01 X45.1110 Y43.4324
G01 X45.0196 Y43.4279
G01 X44.9291 Y43.4145
G01 X44.8403 Y43.3922
G01 X44.7620 Y43.3644
G01 X44.7504 Y43.3598
G01 X44.6715 Y43.3223
G01 X44.5930 Y43.2752
G01 X44.5195 Y43.2207
G01 X44.4517 Y43.1593
G01 X37.7848 Y36.4924
G01 X36.3647 Y36.4924
G00 Z2.0000
G00 X36.3184 Y38.9124
G01 F60.00
G01 Z-0.0000
G01 F120.00
G01 X36.2658 Y38.9600
G01 X36.1770 Y39.0257
G01 X36.0844 Y39.0811
G01 X35.9846 Y39.1283
G01 X35.8829 Y39.1646
G01 X35.7770 Y39.1911
G01 X35.6690 Y39.2071
G01 X35.5588 Y39.2125
G01 X35.4510 Y39.2071
G01 X35.3430 Y39.1911
G01 X35.2371 Y39.1646
G01 X35.1343 Y39.1278
G01 X35.0356 Y39.0811
G01 X34.9419 Y39.0250
G01 X34.8542 Y38.9600
G01 X34.7725 Y38.8858
G01 X34.7000 Y38.8058
G01 X34.6350 Y38.7181
G01 X34.5789 Y38.6244
G01 X34.5322 Y38.5257
G01 X34.4954 Y38.4229
G01 X34.4689 Y38.3170
G01 X34.4529 Y38.2090
G01 X34.4475 Y38.1000
G01 X34.4529 Y37.9910
G01 X34.4689 Y37.8830
G01 X34.4954 Y37.7771
G01 X34.5322 Y37.6743
G01 X34.5789 Y37.5756
G01 X34.6350 Y37.4819
G01 X34.7000 Y37.3942
G01 X34.7742 Y37.3125
G01 X34.8542 Y37.2400
G01 X34.9419 Y37.1750
G01 X35.0356 Y37.1189
G01 X35.1343 Y37.0722
G01 X35.2371 Y37.0354
G01 X35.3430 Y37.0089
G01 X35.4510 Y36.9929
G01 X35.5625 Y36.9876
G01 X35.6690 Y36.9929
G01 X35.7770 Y37.0089
G01 X35.8829 Y37.0354
G01 X35.9846 Y37.0717
G01 X36.0844 Y37.1189
G01 X36.1770 Y37.1743
G01 X36.2658 Y37.2400
G01 X36.3184 Y37.2876
G01 X37.8340 Y37.2876
G01 X37.9136 Y37.2915
G01 X37.9949 Y37.3038
G01 X38.0698 Y37.3226
G01 X38.1449 Y37.3495
G01 X38.2191 Y37.3848
G01 X38.2853 Y37.4245
G01 X38.3494 Y37.4720
G01 X38.4084 Y37.5256
G01 X50.2392 Y49.3563
G01 X50.3501 Y49.3167
G01 X50.4952 Y49.2803
G01 X50.6481 Y49.2575
G01 X50.8000 Y49.2500
G01 X50.9495 Y49.2573
G01 X51.1024 Y49.2798
G01 X51.2499 Y49.3167
G01 X51.3909 Y49.3671
G01 X51.5307 Y49.4330
G01 X51.6611 Y49.5112
G01 X51.7814 Y49.6003
G01 X51.8969 Y49.7049
G01 X51.9982 Y49.8167
G01 X52.0888 Y49.9389
G01 X52.1670 Y50.0693
G01 X52.2320 Y50.2068
G01 X52.2833 Y50.3501
G01 X52.3202 Y50.4976
G01 X52.3425 Y50.6481
G01 X52.3499 Y50.7975
G01 X52.3422 Y50.9544
G01 X52.3202 Y51.1024
G01 X52.2825 Y51.2523
G01 X52.2320 Y51.3932
G01 X52.1670 Y51.5307
G01 X52.0888 Y51.6611
G01 X51.9982 Y51.7833
G01 X51.8960 Y51.8960
G01 X51.7833 Y51.9982
G01 X51.6611 Y52.0888
G01 X51.5307 Y52.1670
G01 X51.3932 Y52.2320
G01 X51.2499 Y52.2833
G01 X51.1024 Y52.3202
G01 X50.9519 Y52.3425
G01 X50.8000 Y52.3500
G01 X50.6481 Y52.3425
G01 X50.4976 Y52.3202
G01 X50.3501 Y52.2833
G01 X50.2068 Y52.2320
G01 X50.0693 Y52.1670
G01 X49.9389 Y52.0888
G01 X49.8167 Y51.9982
G01 X49.7040 Y51.8960
G01 X49.6003 Y51.7814
G01 X49.5112 Y51.6611
G01 X49.4342 Y51.5328
G01 X49.3680 Y51.3932
G01 X49.3167 Y51.2499
G01 X49.2794 Y51.1000
G01 X49.2573 Y50.9495
G01 X49.2500 Y50.8000
G01 X49.2563 Y50.6712
G01 X37.4975 Y38.9124
G01 X36.3184 Y38.9124
G00 Z2.0000
G00 X36.3415 Y38.9724
G01 F60.00
G01 Z-0.0000
G01 F120.00
G01 X36.3079 Y39.0028
G01 X36.3017 Y39.0080
G01 X36.2136 Y39.0734
G01 X36.2068 Y39.0778
G01 X36.1151 Y39.1328
G01 X36.1079 Y39.1365
G01 X36.0087 Y39.1832
G01 X35.9029 Y39.2212
G01 X35.8952 Y39.2235
G01 X35.7887 Y39.2500
G01 X35.6749 Y39.2669
G01 X35.5600 Y39.2725
G01 X35.4478 Y39.2671
G01 X35.4397 Y39.2662
G01 X35.3313 Y39.2500
G01 X35.2196 Y39.2220
G01 X35.1113 Y39.1832
G01 X35.0073 Y39.1341
G01 X34.9086 Y39.0749
G01 X34.8162 Y39.0064
G01 X34.7309 Y38.9291
G01 X34.6554 Y38.8459
G01 X34.6503 Y38.8396
G01 X34.5851 Y38.7514
G01 X34.5259 Y38.6527
G01 X34.4768 Y38.5487
G01 X34.4380 Y38.4404
G01 X34.4100 Y38.3287
G01 X34.3931 Y38.2149
G01 X34.3875 Y38.1000
G01 X34.3931 Y37.9851
G01 X34.4100 Y37.8713
G01 X34.4380 Y37.7596
G01 X34.4768 Y37.6513
G01 X34.5259 Y37.5473
G01 X34.5851 Y37.4486
G01 X34.6536 Y37.3562
G01 X34.7309 Y37.2709
G01 X34.8141 Y37.1954
G01 X34.8204 Y37.1903
G01 X34.9086 Y37.1251
G01 X35.0073 Y37.0659
G01 X35.1113 Y37.0168
G01 X35.2196 Y36.9780
G01 X35.3313 Y36.9500
G01 X35.4451 Y36.9331
G01 X35.5600 Y36.9275
G01 X35.6722 Y36.9329
G01 X35.6803 Y36.9338
G01 X35.7834 Y36.9491
G01 X35.7940 Y36.9512
G01 X35.9004 Y36.9780
G01 X36.0037 Y37.0148
G01 X36.0112 Y37.0178
G01 X36.1127 Y37.0659
G01 X36.2091 Y37.1236
G01 X36.2158 Y37.1282
G01 X36.3017 Y37.1920
G01 X36.3079 Y37.1972
G01 X36.3415 Y37.2276
G01 X37.8340 Y37.2276
G01 X37.9195 Y37.2318
G01 X37.9989 Y37.2435
G01 X38.0095 Y37.2456
G01 X38.0872 Y37.2652
G01 X38.1678 Y37.2940
G01 X38.2404 Y37.3282
G01 X38.2499 Y37.3333
G01 X38.3187 Y37.3746
G01 X38.3874 Y37.4256
G01 X38.4509 Y37.4831
G01 X50.2548 Y49.2870
G01 X50.3275 Y49.2610
G01 X50.3352 Y49.2586
G01 X50.4833 Y49.2215
G01 X50.4912 Y49.2200
G01 X50.6368 Y49.1984
G01 X50.6449 Y49.1975
G01 X50.8000 Y49.1900
G01 X50.9524 Y49.1974
G01 X50.9632 Y49.1984
G01 X51.1088 Y49.2200
G01 X51.1167 Y49.2215
G01 X51.2674 Y49.2593
G01 X51.4111 Y49.3106
G01 X51.4211 Y49.3147
G01 X51.5589 Y49.3801
G01 X51.6945 Y49.4613
G01 X51.8171 Y49.5521
G01 X51.8255 Y49.5590
G01 X51.9345 Y49.6578
G01 X51.9403 Y49.6635
G01 X52.0445 Y49.7786
G01 X52.1387 Y49.9055
G01 X52.2199 Y50.0411
G01 X52.2874 Y50.1839
G01 X52.3407 Y50.3326
G01 X52.3791 Y50.4859
G01 X52.4022 Y50.6422
G01 X52.4099 Y50.7946
G01 X52.4099 Y50.8054
G01 X52.4026 Y50.9524
G01 X52.4016 Y50.9632
G01 X52.3791 Y51.1141
G01 X52.3421 Y51.2622
G01 X52.3390 Y51.2725
G01 X52.2874 Y51.4161
G01 X52.2199 Y51.5589
G01 X52.1387 Y51.6945
G01 X52.0445 Y51.8214
G01 X51.9384 Y51.9384
G01 X51.8214 Y52.0445
G01 X51.6945 Y52.1387
G01 X51.5589 Y52.2199
G01 X51.4161 Y52.2874
G01 X51.2674 Y52.3407
G01 X51.1141 Y52.3791
G01 X50.9578 Y52.4022
G01 X50.8000 Y52.4100
G01 X50.6422 Y52.4022
G01 X50.4859 Y52.3791
G01 X50.3326 Y52.3407
G01 X50.1839 Y52.2874
G01 X50.0411 Y52.2199
G01 X49.9055 Y52.1387
G01 X49.7786 Y52.0445
G01 X49.6616 Y51.9384
G01 X49.5590 Y51.8255
G01 X49.5521 Y51.8171
G01 X49.4613 Y51.6945
G01 X49.3828 Y51.5636
G01 X49.3777 Y51.5541
G01 X49.3136 Y51.4186
G01 X49.3106 Y51.4111
G01 X49.2593 Y51.2674
G01 X49.2221 Y51.1194
G01 X49.2204 Y51.1114
G01 X49.1984 Y50.9632
G01 X49.1974 Y50.9524
G01 X49.1900 Y50.8000
G01 X49.1950 Y50.6948
G01 X37.4726 Y38.9724
G01 X36.3415 Y38.9724
G00 Z2.0000
G00 X36.3647 Y39.0324
G01 F60.00
G01 Z-0.0000
G01 F120.00
G01 X36.3451 Y39.0500
G01 X36.3386 Y39.0553
G01 X36.2482 Y39.1224
G01 X36.2377 Y39.1293
G01 X36.1447 Y39.1850
G01 X36.1335 Y39.1907
G01 X36.0317 Y39.2387
G01 X35.9218 Y39.2782
G01 X35.9097 Y39.2817
G01 X35.8004 Y39.3088
G01 X35.6808 Y39.3266
G01 X35.5600 Y39.3325
G01 X35.4434 Y39.3269
G01 X35.4309 Y39.3255
G01 X35.3196 Y39.3088
G01 X35.2022 Y39.2794
G01 X35.0883 Y39.2387
G01 X34.9790 Y39.1870
G01 X34.8753 Y39.1248
G01 X34.7781 Y39.0527
G01 X34.6885 Y38.9715
G01 X34.6100 Y38.8851
G01 X34.6021 Y38.8753
G01 X34.5352 Y38.7847
G01 X34.4730 Y38.6810
G01 X34.4213 Y38.5717
G01 X34.3806 Y38.4578
G01 X34.3512 Y38.3404
G01 X34.3334 Y38.2208
G01 X34.3275 Y38.1000
G01 X34.3334 Y37.9792
G01 X34.3512 Y37.8596
G01 X34.3806 Y37.7422
G01 X34.4213 Y37.6283
G01 X34.4730 Y37.5190
G01 X34.5352 Y37.4153
G01 X34.6073 Y37.3181
G01 X34.6885 Y37.2285
G01 X34.7749 Y37.1500
G01 X34.7847 Y37.1421
G01 X34.8753 Y37.0752
G01 X34.9790 Y37.0130
G01 X35.0883 Y36.9613
G01 X35.2022 Y36.9206
G01 X35.3196 Y36.8912
G01 X35.4392 Y36.8734
G01 X35.5600 Y36.8675
G01 X35.6766 Y36.8731
G01 X35.6891 Y36.8745
G01 X35.7922 Y36.8898
G01 X35.8086 Y36.8930
G01 X35.9178 Y36.9206
G01 X36.0317 Y36.9613
G01 X36.1410 Y37.0130
G01 X36.2412 Y37.0729
G01 X36.2516 Y37.0800
G01 X36.3386 Y37.1447
G01 X36.3451 Y37.1500
G01 X36.3647 Y37.1676
G01 X37.8340 Y37.1676
G01 X37.9254 Y37.1721
G01 X38.0077 Y37.1841
G01 X38.0240 Y37.1874
G01 X38.1047 Y37.2078
G01 X38.1908 Y37.2386
G01 X38.2661 Y37.2740
G01 X38.2808 Y37.2818
G01 X38.3520 Y37.3248
G01 X38.4255 Y37.3793
G01 X38.4933 Y37.4407
G01 X50.2703 Y49.2178
G01 X50.3073 Y49.2045
G01 X50.3192 Y49.2007
G01 X50.4701 Y49.1630
G01 X50.4824 Y49.1607
G01 X50.6280 Y49.1391
G01 X50.6405 Y49.1377
G01 X50.8000 Y49.1300
G01 X50.9554 Y49.1374
G01 X50.9720 Y49.1391
G01 X51.1176 Y49.1607
G01 X51.1299 Y49.1630
G01 X51.2848 Y49.2019
G01 X51.4313 Y49.2541
G01 X51.4467 Y49.2605
G01 X51.5872 Y49.3272
G01 X51.7278 Y49.4114
G01 X51.8529 Y49.5039
G01 X51.8658 Y49.5145
G01 X51.9748 Y49.6134
G01 X51.9838 Y49.6221
G01 X52.0909 Y49.7406
G01 X52.1886 Y49.8722
G01 X52.2728 Y50.0128
G01 X52.3429 Y50.1609
G01 X52.3981 Y50.3152
G01 X52.4379 Y50.4742
G01 X52.4620 Y50.6363
G01 X52.4698 Y50.7917
G01 X52.4698 Y50.8083
G01 X52.4626 Y50.9554
G01 X52.4609 Y50.9720
G01 X52.4379 Y51.1258
G01 X52.4003 Y51.2767
G01 X52.3955 Y51.2927
G01 X52.3429 Y51.4391
G01 X52.2728 Y51.5872
G01 X52.1886 Y51.7278
G01 X52.0909 Y51.8594
G01 X51.9809 Y51.9809
G01 X51.8594 Y52.0909
G01 X51.7278 Y52.1886
G01 X51.5872 Y52.2728
G01 X51.4391 Y52.3429
G01 X51.2848 Y52.3981
G01 X51.1258 Y52.4379
G01 X50.9637 Y52.4620
G01 X50.8000 Y52.4700
G01 X50.6363 Y52.4620
G01 X50.4742 Y52.4379
G01 X50.3152 Y52.3981
G01 X50.1609 Y52.3429
G01 X50.0128 Y52.2728
G01 X49.8722 Y52.1886
G01 X49.7406 Y52.0909
G01 X49.6191 Y51.9809
G01 X49.5145 Y51.8658
G01 X49.5039 Y51.8529
G01 X49.4114 Y51.7278
G01 X49.3313 Y51.5945
G01 X49.3234 Y51.5798
G01 X49.2588 Y51.4429
G01 X49.2541 Y51.4313
G01 X49.2019 Y51.2848
G01 X49.1639 Y51.1339
G01 X49.1613 Y51.1217
G01 X49.1391 Y50.9720
G01 X49.1377 Y50.9595
G01 X49.1301 Y50.8042
G01 X49.1302 Y50.7917
G01 X49.1338 Y50.7184
G01 X37.4478 Y39.0324
G01 X36.3647 Y39.0324
G00 Z2.0000
G00 X36.6724 Y40.6425
G01 F60.00
G01 Z-0.0000
G01 F120.00
G01 X36.6671 Y40.7490
G01 X36.6511 Y40.8570
G01 X36.6246 Y40.9629
G01 X36.5878 Y41.0657
G01 X36.5411 Y41.1644
G01 X36.4850 Y41.2581
G01 X36.4200 Y41.3458
G01 X36.3467 Y41.4267
G01 X36.2658 Y41.5000
G01 X36.1781 Y41.5650
G01 X36.0844 Y41.6211
G01 X35.9857 Y41.6678
G01 X35.8829 Y41.7046
G01 X35.7770 Y41.7311
G01 X35.6690 Y41.7471
G01 X35.5600 Y41.7525
G01 X35.4510 Y41.7471
G01 X35.3430 Y41.7311
G01 X35.2371 Y41.7046
G01 X35.1343 Y41.6678
G01 X35.0356 Y41.6211
G01 X34.9419 Y41.5650
G01 X34.8542 Y41.5000
G01 X34.7733 Y41.4267
G01 X34.7000 Y41.3458
G01 X34.6350 Y41.2581
G01 X34.5789 Y41.1644
G01 X34.5322 Y41.0657
G01 X34.4954 Y40.9629
G01 X34.4689 Y40.8570
G01 X34.4529 Y40.7490
G01 X34.4475 Y40.6400
G01 X34.4529 Y40.5310
G01 X34.4689 Y40.4230
G01 X34.4954 Y40.3171
G01 X34.5322 Y40.2143
G01 X34.5789 Y40.1156
G01 X34.6350 Y40.0219
G01 X34.7000 Y39.9342
G01 X34.7733 Y39.8533
G01 X34.8542 Y39.7800
G01 X34.9419 Y39.7150
G01 X35.0356 Y39.6589
G01 X35.1343 Y39.6122
G01 X35.2371 Y39.5754
G01 X35.3430 Y39.5489
G01 X35.4510 Y39.5329
G01 X35.5600 Y39.5275
G01 X35.6690 Y39.5329
G01 X35.7770 Y39.5489
G01 X35.8829 Y39.5754
G01 X35.9857 Y39.6122
G01 X36.0844 Y39.6589
G01 X36.1781 Y39.7150
G01 X36.2658 Y39.7800
G01 X36.3467 Y39.8533
G01 X36.4200 Y39.9342
G01 X36.4850 Y40.0219
G01 X36.5411 Y40.1156
G01 X36.5878 Y40.2143
G01 X36.6246 Y40.3171
G01 X36.6511 Y40.4230
G01 X36.6671 Y40.5310
G01 X36.6724 Y40.6425
G00 Z2.0000
G00 X36.7324 Y40.6454
G01 F60.00
G01 Z-0.0000
G01 F120.00
G01 X36.7269 Y40.7549
G01 X36.7100 Y40.8687
G01 X36.6820 Y40.9804
G01 X36.6432 Y41.0887
G01 X36.5941 Y41.1927
G01 X36.5349 Y41.2914
G01 X36.4664 Y41.3838
