( pcb2gcode 2.4.0 )
( Software-independent Gcode )
( This file uses a mill head of 1.00000mm to drill the 1 hole sizes. )
( Hole sizes: [3.1242mm] )

G94       (Millimeters per minute feed rate.)
G21       (Units == Millimeters.)
G91.1     (Incremental arc distance mode.)
G90       (Absolute coordinates.)
S10000    (RPM spindle speed.)

G01 F30.00000 (Feedrate)
G00 Z15.00000 (Retract)
T1
M5        (Spindle stop.)
G04 P1.00000
(MSG, Change tool bit to drill size 1.00000mm)
M6        (Tool change.)
M0        (Temporary machine stop.)
M3        (Spindle on clockwise.)
G04 P1.00000
G00 Z2.00000

G0 X11.06208 Y9.99998
G1 Z-0.07463 F15.00000
G1 F30.00000
G2 X11.06208 Y9.99998 Z0.00000 I-1.06210 J0.00000
G2 X11.06208 Y9.99998 Z0.07463 I-1.06210 J0.00000
G2 X11.06208 Y9.99998 Z0.14925 I-1.06210 J0.00000
G2 X11.06208 Y9.99998 Z0.22388 I-1.06210 J0.00000
G2 X11.06208 Y9.99998 Z0.29851 I-1.06210 J0.00000
G2 X11.06208 Y9.99998 Z0.37313 I-1.06210 J0.00000
G2 X11.06208 Y9.99998 Z0.44776 I-1.06210 J0.00000
G2 X11.06208 Y9.99998 Z0.52239 I-1.06210 J0.00000
G2 X11.06208 Y9.99998 Z0.59701 I-1.06210 J0.00000
G2 X11.06208 Y9.99998 Z0.67164 I-1.06210 J0.00000
G2 X11.06208 Y9.99998 Z0.74627 I-1.06210 J0.00000
G2 X11.06208 Y9.99998 Z0.82090 I-1.06210 J0.00000
G2 X11.06208 Y9.99998 Z0.89552 I-1.06210 J0.00000
G2 X11.06208 Y9.99998 Z0.97015 I-1.06210 J0.00000
G2 X11.06208 Y9.99998 Z1.04478 I-1.06210 J0.00000
G2 X11.06208 Y9.99998 Z1.11940 I-1.06210 J0.00000
G2 X11.06208 Y9.99998 Z1.19403 I-1.06210 J0.00000
G2 X11.06208 Y9.99998 Z1.26866 I-1.06210 J0.00000
G2 X11.06208 Y9.99998 Z1.34328 I-1.06210 J0.00000
G2 X11.06208 Y9.99998 Z1.41791 I-1.06210 J0.00000
G2 X11.06208 Y9.99998 Z1.49254 I-1.06210 J0.00000
G2 X11.06208 Y9.99998 Z1.56716 I-1.06210 J0.00000
G2 X11.06208 Y9.99998 Z1.64179 I-1.06210 J0.00000
G2 X11.06208 Y9.99998 Z1.71642 I-1.06210 J0.00000
G2 X11.06208 Y9.99998 Z1.79104 I-1.06210 J0.00000
G2 X11.06208 Y9.99998 Z1.86567 I-1.06210 J0.00000
G2 X11.06208 Y9.99998 Z1.94030 I-1.06210 J0.00000
G2 X11.06208 Y9.99998 Z2.01493 I-1.06210 J0.00000
G2 X11.06208 Y9.99998 Z2.08955 I-1.06210 J0.00000
G2 X11.06208 Y9.99998 Z2.16418 I-1.06210 J0.00000
G2 X11.06208 Y9.99998 Z2.23881 I-1.06210 J0.00000
G2 X11.06208 Y9.99998 Z2.31343 I-1.06210 J0.00000
G2 X11.06208 Y9.99998 Z2.38806 I-1.06210 J0.00000
G2 X11.06208 Y9.99998 Z2.46269 I-1.06210 J0.00000
G2 X11.06208 Y9.99998 Z2.53731 I-1.06210 J0.00000
G2 X11.06208 Y9.99998 Z2.61194 I-1.06210 J0.00000
G2 X11.06208 Y9.99998 Z2.68657 I-1.06210 J0.00000
G2 X11.06208 Y9.99998 Z2.76119 I-1.06210 J0.00000
G2 X11.06208 Y9.99998 Z2.83582 I-1.06210 J0.00000
G2 X11.06208 Y9.99998 Z2.91045 I-1.06210 J0.00000
G2 X11.06208 Y9.99998 Z2.98507 I-1.06210 J0.00000
G2 X11.06208 Y9.99998 Z3.05970 I-1.06210 J0.00000
G2 X11.06208 Y9.99998 Z3.13433 I-1.06210 J0.00000
G2 X11.06208 Y9.99998 Z3.20896 I-1.06210 J0.00000
G2 X11.06208 Y9.99998 Z3.28358 I-1.06210 J0.00000
G2 X11.06208 Y9.99998 Z3.35821 I-1.06210 J0.00000
G2 X11.06208 Y9.99998 Z3.43284 I-1.06210 J0.00000
G2 X11.06208 Y9.99998 Z3.50746 I-1.06210 J0.00000
G2 X11.06208 Y9.99998 Z3.58209 I-1.06210 J0.00000
G2 X11.06208 Y9.99998 Z3.65672 I-1.06210 J0.00000
G2 X11.06208 Y9.99998 Z3.73134 I-1.06210 J0.00000
G2 X11.06208 Y9.99998 Z3.80597 I-1.06210 J0.00000
G2 X11.06208 Y9.99998 Z3.88060 I-1.06210 J0.00000
G2 X11.06208 Y9.99998 Z3.95522 I-1.06210 J0.00000
G2 X11.06208 Y9.99998 Z4.02985 I-1.06210 J0.00000
G2 X11.06208 Y9.99998 Z4.10448 I-1.06210 J0.00000
G2 X11.06208 Y9.99998 Z4.17910 I-1.06210 J0.00000
G2 X11.06208 Y9.99998 Z4.25373 I-1.06210 J0.00000
G2 X11.06208 Y9.99998 Z4.32836 I-1.06210 J0.00000
G2 X11.06208 Y9.99998 Z4.40299 I-1.06210 J0.00000
G2 X11.06208 Y9.99998 Z4.47761 I-1.06210 J0.00000
G2 X11.06208 Y9.99998 Z4.55224 I-1.06210 J0.00000
G2 X11.06208 Y9.99998 Z4.62687 I-1.06210 J0.00000
G2 X11.06208 Y9.99998 Z4.70149 I-1.06210 J0.00000
G2 X11.06208 Y9.99998 Z4.77612 I-1.06210 J0.00000
G2 X11.06208 Y9.99998 Z4.85075 I-1.06210 J0.00000
G2 X11.06208 Y9.99998 Z4.92537 I-1.06210 J0.00000
G2 X11.06208 Y9.99998 Z5.00000 I-1.06210 J0.00000
G2 X11.06208 Y9.99998 I-1.06210 J0.00000
G1 Z2.00000 F15.00000

G0 X11.06208 Y58.58002
G1 Z-0.07463 F15.00000
G1 F30.00000
G2 X11.06208 Y58.58002 Z0.00000 I-1.06210 J0.00000
G2 X11.06208 Y58.58002 Z0.07463 I-1.06210 J0.00000
G2 X11.06208 Y58.58002 Z0.14925 I-1.06210 J0.00000
G2 X11.06208 Y58.58002 Z0.22388 I-1.06210 J0.00000
G2 X11.06208 Y58.58002 Z0.29851 I-1.06210 J0.00000
G2 X11.06208 Y58.58002 Z0.37313 I-1.06210 J0.00000
G2 X11.06208 Y58.58002 Z0.44776 I-1.06210 J0.00000
G2 X11.06208 Y58.58002 Z0.52239 I-1.06210 J0.00000
G2 X11.06208 Y58.58002 Z0.59701 I-1.06210 J0.00000
G2 X11.06208 Y58.58002 Z0.67164 I-1.06210 J0.00000
G2 X11.06208 Y58.58002 Z0.74627 I-1.06210 J0.00000
G2 X11.06208 Y58.58002 Z0.82090 I-1.06210 J0.00000
G2 X11.06208 Y58.58002 Z0.89552 I-1.06210 J0.00000
G2 X11.06208 Y58.58002 Z0.97015 I-1.06210 J0.00000
G2 X11.06208 Y58.58002 Z1.04478 I-1.06210 J0.00000
G2 X11.06208 Y58.58002 Z1.11940 I-1.06210 J0.00000
G2 X11.06208 Y58.58002 Z1.19403 I-1.06210 J0.00000
G2 X11.06208 Y58.58002 Z1.26866 I-1.06210 J0.00000
G2 X11.06208 Y58.58002 Z1.34328 I-1.06210 J0.00000
G2 X11.06208 Y58.58002 Z1.41791 I-1.06210 J0.00000
G2 X11.06208 Y58.58002 Z1.49254 I-1.06210 J0.00000
G2 X11.06208 Y58.58002 Z1.56716 I-1.06210 J0.00000
G2 X11.06208 Y58.58002 Z1.64179 I-1.06210 J0.00000
G2 X11.06208 Y58.58002 Z1.71642 I-1.06210 J0.00000
G2 X11.06208 Y58.58002 Z1.79104 I-1.06210 J0.00000
G2 X11.06208 Y58.58002 Z1.86567 I-1.06210 J0.00000
G2 X11.06208 Y58.58002 Z1.94030 I-1.06210 J0.00000
G2 X11.06208 Y58.58002 Z2.01493 I-1.06210 J0.00000
G2 X11.06208 Y58.58002 Z2.08955 I-1.06210 J0.00000
G2 X11.06208 Y58.58002 Z2.16418 I-1.06210 J0.00000
G2 X11.06208 Y58.58002 Z2.23881 I-1.06210 J0.00000
G2 X11.06208 Y58.58002 Z2.31343 I-1.06210 J0.00000
G2 X11.06208 Y58.58002 Z2.38806 I-1.06210 J0.00000
G2 X11.06208 Y58.58002 Z2.46269 I-1.06210 J0.00000
G2 X11.06208 Y58.58002 Z2.53731 I-1.06210 J0.00000
G2 X11.06208 Y58.58002 Z2.61194 I-1.06210 J0.00000
G2 X11.06208 Y58.58002 Z2.68657 I-1.06210 J0.00000
G2 X11.06208 Y58.58002 Z2.76119 I-1.06210 J0.00000
G2 X11.06208 Y58.58002 Z2.83582 I-1.06210 J0.00000
G2 X11.06208 Y58.58002 Z2.91045 I-1.06210 J0.00000
G2 X11.06208 Y58.58002 Z2.98507 I-1.06210 J0.00000
G2 X11.06208 Y58.58002 Z3.05970 I-1.06210 J0.00000
G2 X11.06208 Y58.58002 Z3.13433 I-1.06210 J0.00000
G2 X11.06208 Y58.58002 Z3.20896 I-1.06210 J0.00000
G2 X11.06208 Y58.58002 Z3.28358 I-1.06210 J0.00000
G2 X11.06208 Y58.58002 Z3.35821 I-1.06210 J0.00000
G2 X11.06208 Y58.58002 Z3.43284 I-1.06210 J0.00000
G2 X11.06208 Y58.58002 Z3.50746 I-1.06210 J0.00000
G2 X11.06208 Y58.58002 Z3.58209 I-1.06210 J0.00000
G2 X11.06208 Y58.58002 Z3.65672 I-1.06210 J0.00000
G2 X11.06208 Y58.58002 Z3.73134 I-1.06210 J0.00000
G2 X11.06208 Y58.58002 Z3.80597 I-1.06210 J0.00000
G2 X11.06208 Y58.58002 Z3.88060 I-1.06210 J0.00000
G2 X11.06208 Y58.58002 Z3.95522 I-1.06210 J0.00000
G2 X11.06208 Y58.58002 Z4.02985 I-1.06210 J0.00000
G2 X11.06208 Y58.58002 Z4.10448 I-1.06210 J0.00000
G2 X11.06208 Y58.58002 Z4.17910 I-1.06210 J0.00000
G2 X11.06208 Y58.58002 Z4.25373 I-1.06210 J0.00000
G2 X11.06208 Y58.58002 Z4.32836 I-1.06210 J0.00000
G2 X11.06208 Y58.58002 Z4.40299 I-1.06210 J0.00000
G2 X11.06208 Y58.58002 Z4.47761 I-1.06210 J0.00000
G2 X11.06208 Y58.58002 Z4.55224 I-1.06210 J0.00000
G2 X11.06208 Y58.58002 Z4.62687 I-1.06210 J0.00000
G2 X11.06208 Y58.58002 Z4.70149 I-1.06210 J0.00000
G2 X11.06208 Y58.58002 Z4.77612 I-1.06210 J0.00000
G2 X11.06208 Y58.58002 Z4.85075 I-1.06210 J0.00000
G2 X11.06208 Y58.58002 Z4.92537 I-1.06210 J0.00000
G2 X11.06208 Y58.58002 Z5.00000 I-1.06210 J0.00000
G2 X11.06208 Y58.58002 I-1.06210 J0.00000
G1 Z2.00000 F15.00000

G0 X91.06192 Y15.00124
G1 Z-0.07463 F15.00000
G1 F30.00000
G2 X91.06192 Y15.00124 Z0.00000 I-1.06210 J0.00000
G2 X91.06192 Y15.00124 Z0.07463 I-1.06210 J0.00000
G2 X91.06192 Y15.00124 Z0.14925 I-1.06210 J0.00000
G2 X91.06192 Y15.00124 Z0.22388 I-1.06210 J0.00000
G2 X91.06192 Y15.00124 Z0.29851 I-1.06210 J0.00000
G2 X91.06192 Y15.00124 Z0.37313 I-1.06210 J0.00000
G2 X91.06192 Y15.00124 Z0.44776 I-1.06210 J0.00000
G2 X91.06192 Y15.00124 Z0.52239 I-1.06210 J0.00000
G2 X91.06192 Y15.00124 Z0.59701 I-1.06210 J0.00000
G2 X91.06192 Y15.00124 Z0.67164 I-1.06210 J0.00000
G2 X91.06192 Y15.00124 Z0.74627 I-1.06210 J0.00000
G2 X91.06192 Y15.00124 Z0.82090 I-1.06210 J0.00000
G2 X91.06192 Y15.00124 Z0.89552 I-1.06210 J0.00000
G2 X91.06192 Y15.00124 Z0.97015 I-1.06210 J0.00000
G2 X91.06192 Y15.00124 Z1.04478 I-1.06210 J0.00000
G2 X91.06192 Y15.00124 Z1.11940 I-1.06210 J0.00000
G2 X91.06192 Y15.00124 Z1.19403 I-1.06210 J0.00000
G2 X91.06192 Y15.00124 Z1.26866 I-1.06210 J0.00000
G2 X91.06192 Y15.00124 Z1.34328 I-1.06210 J0.00000
G2 X91.06192 Y15.00124 Z1.41791 I-1.06210 J0.00000
G2 X91.06192 Y15.00124 Z1.49254 I-1.06210 J0.00000
G2 X91.06192 Y15.00124 Z1.56716 I-1.06210 J0.00000
G2 X91.06192 Y15.00124 Z1.64179 I-1.06210 J0.00000
G2 X91.06192 Y15.00124 Z1.71642 I-1.06210 J0.00000
G2 X91.06192 Y15.00124 Z1.79104 I-1.06210 J0.00000
G2 X91.06192 Y15.00124 Z1.86567 I-1.06210 J0.00000
G2 X91.06192 Y15.00124 Z1.94030 I-1.06210 J0.00000
G2 X91.06192 Y15.00124 Z2.01493 I-1.06210 J0.00000
G2 X91.06192 Y15.00124 Z2.08955 I-1.06210 J0.00000
G2 X91.06192 Y15.00124 Z2.16418 I-1.06210 J0.00000
G2 X91.06192 Y15.00124 Z2.23881 I-1.06210 J0.00000
G2 X91.06192 Y15.00124 Z2.31343 I-1.06210 J0.00000
G2 X91.06192 Y15.00124 Z2.38806 I-1.06210 J0.00000
G2 X91.06192 Y15.00124 Z2.46269 I-1.06210 J0.00000
G2 X91.06192 Y15.00124 Z2.53731 I-1.06210 J0.00000
G2 X91.06192 Y15.00124 Z2.61194 I-1.06210 J0.00000
G2 X91.06192 Y15.00124 Z2.68657 I-1.06210 J0.00000
G2 X91.06192 Y15.00124 Z2.76119 I-1.06210 J0.00000
G2 X91.06192 Y15.00124 Z2.83582 I-1.06210 J0.00000
G2 X91.06192 Y15.00124 Z2.91045 I-1.06210 J0.00000
G2 X91.06192 Y15.00124 Z2.98507 I-1.06210 J0.00000
G2 X91.06192 Y15.00124 Z3.05970 I-1.06210 J0.00000
G2 X91.06192 Y15.00124 Z3.13433 I-1.06210 J0.00000
G2 X91.06192 Y15.00124 Z3.20896 I-1.06210 J0.00000
G2 X91.06192 Y15.00124 Z3.28358 I-1.06210 J0.00000
G2 X91.06192 Y15.00124 Z3.35821 I-1.06210 J0.00000
G2 X91.06192 Y15.00124 Z3.43284 I-1.06210 J0.00000
G2 X91.06192 Y15.00124 Z3.50746 I-1.06210 J0.00000
G2 X91.06192 Y15.00124 Z3.58209 I-1.06210 J0.00000
G2 X91.06192 Y15.00124 Z3.65672 I-1.06210 J0.00000
G2 X91.06192 Y15.00124 Z3.73134 I-1.06210 J0.00000
G2 X91.06192 Y15.00124 Z3.80597 I-1.06210 J0.00000
G2 X91.06192 Y15.00124 Z3.88060 I-1.06210 J0.00000
G2 X91.06192 Y15.00124 Z3.95522 I-1.06210 J0.00000
G2 X91.06192 Y15.00124 Z4.02985 I-1.06210 J0.00000
G2 X91.06192 Y15.00124 Z4.10448 I-1.06210 J0.00000
G2 X91.06192 Y15.00124 Z4.17910 I-1.06210 J0.00000
G2 X91.06192 Y15.00124 Z4.25373 I-1.06210 J0.00000
G2 X91.06192 Y15.00124 Z4.32836 I-1.06210 J0.00000
G2 X91.06192 Y15.00124 Z4.40299 I-1.06210 J0.00000
G2 X91.06192 Y15.00124 Z4.47761 I-1.06210 J0.00000
G2 X91.06192 Y15.00124 Z4.55224 I-1.06210 J0.00000
G2 X91.06192 Y15.00124 Z4.62687 I-1.06210 J0.00000
G2 X91.06192 Y15.00124 Z4.70149 I-1.06210 J0.00000
G2 X91.06192 Y15.00124 Z4.77612 I-1.06210 J0.00000
G2 X91.06192 Y15.00124 Z4.85075 I-1.06210 J0.00000
G2 X91.06192 Y15.00124 Z4.92537 I-1.06210 J0.00000
G2 X91.06192 Y15.00124 Z5.00000 I-1.06210 J0.00000
G2 X91.06192 Y15.00124 I-1.06210 J0.00000
G1 Z2.00000 F15.00000

G0 X91.06192 Y53.57876
G1 Z-0.07463 F15.00000
G1 F30.00000
G2 X91.06192 Y53.57876 Z0.00000 I-1.06210 J0.00000
G2 X91.06192 Y53.57876 Z0.07463 I-1.06210 J0.00000
G2 X91.06192 Y53.57876 Z0.14925 I-1.06210 J0.00000
G2 X91.06192 Y53.57876 Z0.22388 I-1.06210 J0.00000
G2 X91.06192 Y53.57876 Z0.29851 I-1.06210 J0.00000
G2 X91.06192 Y53.57876 Z0.37313 I-1.06210 J0.00000
G2 X91.06192 Y53.57876 Z0.44776 I-1.06210 J0.00000
G2 X91.06192 Y53.57876 Z0.52239 I-1.06210 J0.00000
G2 X91.06192 Y53.57876 Z0.59701 I-1.06210 J0.00000
G2 X91.06192 Y53.57876 Z0.67164 I-1.06210 J0.00000
G2 X91.06192 Y53.57876 Z0.74627 I-1.06210 J0.00000
G2 X91.06192 Y53.57876 Z0.82090 I-1.06210 J0.00000
G2 X91.06192 Y53.57876 Z0.89552 I-1.06210 J0.00000
G2 X91.06192 Y53.57876 Z0.97015 I-1.06210 J0.00000
G2 X91.06192 Y53.57876 Z1.04478 I-1.06210 J0.00000
G2 X91.06192 Y53.57876 Z1.11940 I-1.06210 J0.00000
G2 X91.06192 Y53.57876 Z1.19403 I-1.06210 J0.00000
G2 X91.06192 Y53.57876 Z1.26866 I-1.06210 J0.00000
G2 X91.06192 Y53.57876 Z1.34328 I-1.06210 J0.00000
G2 X91.06192 Y53.57876 Z1.41791 I-1.06210 J0.00000
G2 X91.06192 Y53.57876 Z1.49254 I-1.06210 J0.00000
G2 X91.06192 Y53.57876 Z1.56716 I-1.06210 J0.00000
G2 X91.06192 Y53.57876 Z1.64179 I-1.06210 J0.00000
G2 X91.06192 Y53.57876 Z1.71642 I-1.06210 J0.00000
G2 X91.06192 Y53.57876 Z1.79104 I-1.06210 J0.00000
G2 X91.06192 Y53.57876 Z1.86567 I-1.06210 J0.00000
G2 X91.06192 Y53.57876 Z1.94030 I-1.06210 J0.00000
G2 X91.06192 Y53.57876 Z2.01493 I-1.06210 J0.00000
G2 X91.06192 Y53.57876 Z2.08955 I-1.06210 J0.00000
G2 X91.06192 Y53.57876 Z2.16418 I-1.06210 J0.00000
G2 X91.06192 Y53.57876 Z2.23881 I-1.06210 J0.00000
G2 X91.06192 Y53.57876 Z2.31343 I-1.06210 J0.00000
G2 X91.06192 Y53.57876 Z2.38806 I-1.06210 J0.00000
G2 X91.06192 Y53.57876 Z2.46269 I-1.06210 J0.00000
G2 X91.06192 Y53.57876 Z2.53731 I-1.06210 J0.00000
G2 X91.06192 Y53.57876 Z2.61194 I-1.06210 J0.00000
G2 X91.06192 Y53.57876 Z2.68657 I-1.06210 J0.00000
G2 X91.06192 Y53.57876 Z2.76119 I-1.06210 J0.00000
G2 X91.06192 Y53.57876 Z2.83582 I-1.06210 J0.00000
G2 X91.06192 Y53.57876 Z2.91045 I-1.06210 J0.00000
G2 X91.06192 Y53.57876 Z2.98507 I-1.06210 J0.00000
G2 X91.06192 Y53.57876 Z3.05970 I-1.06210 J0.00000
G2 X91.06192 Y53.57876 Z3.13433 I-1.06210 J0.00000
G2 X91.06192 Y53.57876 Z3.20896 I-1.06210 J0.00000
G2 X91.06192 Y53.57876 Z3.28358 I-1.06210 J0.00000
G2 X91.06192 Y53.57876 Z3.35821 I-1.06210 J0.00000
G2 X91.06192 Y53.57876 Z3.43284 I-1.06210 J0.00000
G2 X91.06192 Y53.57876 Z3.50746 I-1.06210 J0.00000
G2 X91.06192 Y53.57876 Z3.58209 I-1.06210 J0.00000
G2 X91.06192 Y53.57876 Z3.65672 I-1.06210 J0.00000
G2 X91.06192 Y53.57876 Z3.73134 I-1.06210 J0.00000
G2 X91.06192 Y53.57876 Z3.80597 I-1.06210 J0.00000
G2 X91.06192 Y53.57876 Z3.88060 I-1.06210 J0.00000
G2 X91.06192 Y53.57876 Z3.95522 I-1.06210 J0.00000
G2 X91.06192 Y53.57876 Z4.02985 I-1.06210 J0.00000
G2 X91.06192 Y53.57876 Z4.10448 I-1.06210 J0.00000
G2 X91.06192 Y53.57876 Z4.17910 I-1.06210 J0.00000
G2 X91.06192 Y53.57876 Z4.25373 I-1.06210 J0.00000
G2 X91.06192 Y53.57876 Z4.32836 I-1.06210 J0.00000
G2 X91.06192 Y53.57876 Z4.40299 I-1.06210 J0.00000
G2 X91.06192 Y53.57876 Z4.47761 I-1.06210 J0.00000
G2 X91.06192 Y53.57876 Z4.55224 I-1.06210 J0.00000
G2 X91.06192 Y53.57876 Z4.62687 I-1.06210 J0.00000
G2 X91.06192 Y53.57876 Z4.70149 I-1.06210 J0.00000
G2 X91.06192 Y53.57876 Z4.77612 I-1.06210 J0.00000
G2 X91.06192 Y53.57876 Z4.85075 I-1.06210 J0.00000
G2 X91.06192 Y53.57876 Z4.92537 I-1.06210 J0.00000
G2 X91.06192 Y53.57876 Z5.00000 I-1.06210 J0.00000
G2 X91.06192 Y53.57876 I-1.06210 J0.00000
G1 Z2.00000 F15.00000

G00 Z15.000000 ( All done -- retract )

M5      (Spindle off.)
G04 P1.000000
M9      (Coolant off.)
M2      (Program end.)

