( pcb2gcode 2.4.0 )
( Software-independent Gcode )
( This file uses a mill head of 0.03937inch to drill the 1 hole sizes. )
( Hole sizes: [0.0511811inch] )

G94       (Inches per minute feed rate.)
G20       (Units == INCHES.)
G91.1     (Incremental arc distance mode.)
G90       (Absolute coordinates.)
S10000    (RPM spindle speed.)

G01 F18.89764 (Feedrate)
G00 Z0.59055 (Retract)
T1
M5        (Spindle stop.)
G04 P1.00000
(MSG, Change tool bit to drill size 0.03937inch)
M6        (Tool change.)
M0        (Temporary machine stop.)
M3        (Spindle on clockwise.)
G04 P1.00000
G00 Z0.07874

G0 X0.45591 Y1.30079
G1 Z0.00292 F9.44882
G1 F18.89764
G2 X0.45591 Y1.30079 Z-0.00000 I-0.00591 J0.00000
G2 X0.45591 Y1.30079 Z-0.00292 I-0.00591 J0.00000
G2 X0.45591 Y1.30079 Z-0.00583 I-0.00591 J0.00000
G2 X0.45591 Y1.30079 Z-0.00875 I-0.00591 J0.00000
G2 X0.45591 Y1.30079 Z-0.01167 I-0.00591 J0.00000
G2 X0.45591 Y1.30079 Z-0.01458 I-0.00591 J0.00000
G2 X0.45591 Y1.30079 Z-0.01750 I-0.00591 J0.00000
G2 X0.45591 Y1.30079 Z-0.02041 I-0.00591 J0.00000
G2 X0.45591 Y1.30079 Z-0.02333 I-0.00591 J0.00000
G2 X0.45591 Y1.30079 Z-0.02625 I-0.00591 J0.00000
G2 X0.45591 Y1.30079 Z-0.02916 I-0.00591 J0.00000
G2 X0.45591 Y1.30079 Z-0.03208 I-0.00591 J0.00000
G2 X0.45591 Y1.30079 Z-0.03500 I-0.00591 J0.00000
G2 X0.45591 Y1.30079 Z-0.03791 I-0.00591 J0.00000
G2 X0.45591 Y1.30079 Z-0.04083 I-0.00591 J0.00000
G2 X0.45591 Y1.30079 Z-0.04374 I-0.00591 J0.00000
G2 X0.45591 Y1.30079 Z-0.04666 I-0.00591 J0.00000
G2 X0.45591 Y1.30079 Z-0.04958 I-0.00591 J0.00000
G2 X0.45591 Y1.30079 Z-0.05249 I-0.00591 J0.00000
G2 X0.45591 Y1.30079 Z-0.05541 I-0.00591 J0.00000
G2 X0.45591 Y1.30079 Z-0.05833 I-0.00591 J0.00000
G2 X0.45591 Y1.30079 Z-0.06124 I-0.00591 J0.00000
G2 X0.45591 Y1.30079 Z-0.06416 I-0.00591 J0.00000
G2 X0.45591 Y1.30079 Z-0.06707 I-0.00591 J0.00000
G2 X0.45591 Y1.30079 Z-0.06999 I-0.00591 J0.00000
G2 X0.45591 Y1.30079 Z-0.07291 I-0.00591 J0.00000
G2 X0.45591 Y1.30079 Z-0.07582 I-0.00591 J0.00000
G2 X0.45591 Y1.30079 Z-0.07874 I-0.00591 J0.00000
G2 X0.45591 Y1.30079 I-0.00591 J0.00000
G1 Z0.07874 F9.44882

G0 X0.45591 Y1.39921
G1 Z0.00292 F9.44882
G1 F18.89764
G2 X0.45591 Y1.39921 Z-0.00000 I-0.00591 J0.00000
G2 X0.45591 Y1.39921 Z-0.00292 I-0.00591 J0.00000
G2 X0.45591 Y1.39921 Z-0.00583 I-0.00591 J0.00000
G2 X0.45591 Y1.39921 Z-0.00875 I-0.00591 J0.00000
G2 X0.45591 Y1.39921 Z-0.01167 I-0.00591 J0.00000
G2 X0.45591 Y1.39921 Z-0.01458 I-0.00591 J0.00000
G2 X0.45591 Y1.39921 Z-0.01750 I-0.00591 J0.00000
G2 X0.45591 Y1.39921 Z-0.02041 I-0.00591 J0.00000
G2 X0.45591 Y1.39921 Z-0.02333 I-0.00591 J0.00000
G2 X0.45591 Y1.39921 Z-0.02625 I-0.00591 J0.00000
G2 X0.45591 Y1.39921 Z-0.02916 I-0.00591 J0.00000
G2 X0.45591 Y1.39921 Z-0.03208 I-0.00591 J0.00000
G2 X0.45591 Y1.39921 Z-0.03500 I-0.00591 J0.00000
G2 X0.45591 Y1.39921 Z-0.03791 I-0.00591 J0.00000
G2 X0.45591 Y1.39921 Z-0.04083 I-0.00591 J0.00000
G2 X0.45591 Y1.39921 Z-0.04374 I-0.00591 J0.00000
G2 X0.45591 Y1.39921 Z-0.04666 I-0.00591 J0.00000
G2 X0.45591 Y1.39921 Z-0.04958 I-0.00591 J0.00000
G2 X0.45591 Y1.39921 Z-0.05249 I-0.00591 J0.00000
G2 X0.45591 Y1.39921 Z-0.05541 I-0.00591 J0.00000
G2 X0.45591 Y1.39921 Z-0.05833 I-0.00591 J0.00000
G2 X0.45591 Y1.39921 Z-0.06124 I-0.00591 J0.00000
G2 X0.45591 Y1.39921 Z-0.06416 I-0.00591 J0.00000
G2 X0.45591 Y1.39921 Z-0.06707 I-0.00591 J0.00000
G2 X0.45591 Y1.39921 Z-0.06999 I-0.00591 J0.00000
G2 X0.45591 Y1.39921 Z-0.07291 I-0.00591 J0.00000
G2 X0.45591 Y1.39921 Z-0.07582 I-0.00591 J0.00000
G2 X0.45591 Y1.39921 Z-0.07874 I-0.00591 J0.00000
G2 X0.45591 Y1.39921 I-0.00591 J0.00000
G1 Z0.07874 F9.44882

G0 X0.90591 Y1.39921
G1 Z0.00292 F9.44882
G1 F18.89764
G2 X0.90591 Y1.39921 Z-0.00000 I-0.00591 J0.00000
G2 X0.90591 Y1.39921 Z-0.00292 I-0.00591 J0.00000
G2 X0.90591 Y1.39921 Z-0.00583 I-0.00591 J0.00000
G2 X0.90591 Y1.39921 Z-0.00875 I-0.00591 J0.00000
G2 X0.90591 Y1.39921 Z-0.01167 I-0.00591 J0.00000
G2 X0.90591 Y1.39921 Z-0.01458 I-0.00591 J0.00000
G2 X0.90591 Y1.39921 Z-0.01750 I-0.00591 J0.00000
G2 X0.90591 Y1.39921 Z-0.02041 I-0.00591 J0.00000
G2 X0.90591 Y1.39921 Z-0.02333 I-0.00591 J0.00000
G2 X0.90591 Y1.39921 Z-0.02625 I-0.00591 J0.00000
G2 X0.90591 Y1.39921 Z-0.02916 I-0.00591 J0.00000
G2 X0.90591 Y1.39921 Z-0.03208 I-0.00591 J0.00000
G2 X0.90591 Y1.39921 Z-0.03500 I-0.00591 J0.00000
G2 X0.90591 Y1.39921 Z-0.03791 I-0.00591 J0.00000
G2 X0.90591 Y1.39921 Z-0.04083 I-0.00591 J0.00000
G2 X0.90591 Y1.39921 Z-0.04374 I-0.00591 J0.00000
G2 X0.90591 Y1.39921 Z-0.04666 I-0.00591 J0.00000
G2 X0.90591 Y1.39921 Z-0.04958 I-0.00591 J0.00000
G2 X0.90591 Y1.39921 Z-0.05249 I-0.00591 J0.00000
G2 X0.90591 Y1.39921 Z-0.05541 I-0.00591 J0.00000
G2 X0.90591 Y1.39921 Z-0.05833 I-0.00591 J0.00000
G2 X0.90591 Y1.39921 Z-0.06124 I-0.00591 J0.00000
G2 X0.90591 Y1.39921 Z-0.06416 I-0.00591 J0.00000
G2 X0.90591 Y1.39921 Z-0.06707 I-0.00591 J0.00000
G2 X0.90591 Y1.39921 Z-0.06999 I-0.00591 J0.00000
G2 X0.90591 Y1.39921 Z-0.07291 I-0.00591 J0.00000
G2 X0.90591 Y1.39921 Z-0.07582 I-0.00591 J0.00000
G2 X0.90591 Y1.39921 Z-0.07874 I-0.00591 J0.00000
G2 X0.90591 Y1.39921 I-0.00591 J0.00000
G1 Z0.07874 F9.44882

G0 X0.90591 Y1.30079
G1 Z0.00292 F9.44882
G1 F18.89764
G2 X0.90591 Y1.30079 Z-0.00000 I-0.00591 J0.00000
G2 X0.90591 Y1.30079 Z-0.00292 I-0.00591 J0.00000
G2 X0.90591 Y1.30079 Z-0.00583 I-0.00591 J0.00000
G2 X0.90591 Y1.30079 Z-0.00875 I-0.00591 J0.00000
G2 X0.90591 Y1.30079 Z-0.01167 I-0.00591 J0.00000
G2 X0.90591 Y1.30079 Z-0.01458 I-0.00591 J0.00000
G2 X0.90591 Y1.30079 Z-0.01750 I-0.00591 J0.00000
G2 X0.90591 Y1.30079 Z-0.02041 I-0.00591 J0.00000
G2 X0.90591 Y1.30079 Z-0.02333 I-0.00591 J0.00000
G2 X0.90591 Y1.30079 Z-0.02625 I-0.00591 J0.00000
G2 X0.90591 Y1.30079 Z-0.02916 I-0.00591 J0.00000
G2 X0.90591 Y1.30079 Z-0.03208 I-0.00591 J0.00000
G2 X0.90591 Y1.30079 Z-0.03500 I-0.00591 J0.00000
G2 X0.90591 Y1.30079 Z-0.03791 I-0.00591 J0.00000
G2 X0.90591 Y1.30079 Z-0.04083 I-0.00591 J0.00000
G2 X0.90591 Y1.30079 Z-0.04374 I-0.00591 J0.00000
G2 X0.90591 Y1.30079 Z-0.04666 I-0.00591 J0.00000
G2 X0.90591 Y1.30079 Z-0.04958 I-0.00591 J0.00000
G2 X0.90591 Y1.30079 Z-0.05249 I-0.00591 J0.00000
G2 X0.90591 Y1.30079 Z-0.05541 I-0.00591 J0.00000
G2 X0.90591 Y1.30079 Z-0.05833 I-0.00591 J0.00000
G2 X0.90591 Y1.30079 Z-0.06124 I-0.00591 J0.00000
G2 X0.90591 Y1.30079 Z-0.06416 I-0.00591 J0.00000
G2 X0.90591 Y1.30079 Z-0.06707 I-0.00591 J0.00000
G2 X0.90591 Y1.30079 Z-0.06999 I-0.00591 J0.00000
G2 X0.90591 Y1.30079 Z-0.07291 I-0.00591 J0.00000
G2 X0.90591 Y1.30079 Z-0.07582 I-0.00591 J0.00000
G2 X0.90591 Y1.30079 Z-0.07874 I-0.00591 J0.00000
G2 X0.90591 Y1.30079 I-0.00591 J0.00000
G1 Z0.07874 F9.44882

G0 X1.55591 Y1.80000
G1 Z0.00292 F9.44882
G1 F18.89764
G2 X1.55591 Y1.80000 Z-0.00000 I-0.00591 J0.00000
G2 X1.55591 Y1.80000 Z-0.00292 I-0.00591 J0.00000
G2 X1.55591 Y1.80000 Z-0.00583 I-0.00591 J0.00000
G2 X1.55591 Y1.80000 Z-0.00875 I-0.00591 J0.00000
G2 X1.55591 Y1.80000 Z-0.01167 I-0.00591 J0.00000
G2 X1.55591 Y1.80000 Z-0.01458 I-0.00591 J0.00000
G2 X1.55591 Y1.80000 Z-0.01750 I-0.00591 J0.00000
G2 X1.55591 Y1.80000 Z-0.02041 I-0.00591 J0.00000
G2 X1.55591 Y1.80000 Z-0.02333 I-0.00591 J0.00000
G2 X1.55591 Y1.80000 Z-0.02625 I-0.00591 J0.00000
G2 X1.55591 Y1.80000 Z-0.02916 I-0.00591 J0.00000
G2 X1.55591 Y1.80000 Z-0.03208 I-0.00591 J0.00000
G2 X1.55591 Y1.80000 Z-0.03500 I-0.00591 J0.00000
G2 X1.55591 Y1.80000 Z-0.03791 I-0.00591 J0.00000
G2 X1.55591 Y1.80000 Z-0.04083 I-0.00591 J0.00000
G2 X1.55591 Y1.80000 Z-0.04374 I-0.00591 J0.00000
G2 X1.55591 Y1.80000 Z-0.04666 I-0.00591 J0.00000
G2 X1.55591 Y1.80000 Z-0.04958 I-0.00591 J0.00000
G2 X1.55591 Y1.80000 Z-0.05249 I-0.00591 J0.00000
G2 X1.55591 Y1.80000 Z-0.05541 I-0.00591 J0.00000
G2 X1.55591 Y1.80000 Z-0.05833 I-0.00591 J0.00000
G2 X1.55591 Y1.80000 Z-0.06124 I-0.00591 J0.00000
G2 X1.55591 Y1.80000 Z-0.06416 I-0.00591 J0.00000
G2 X1.55591 Y1.80000 Z-0.06707 I-0.00591 J0.00000
G2 X1.55591 Y1.80000 Z-0.06999 I-0.00591 J0.00000
G2 X1.55591 Y1.80000 Z-0.07291 I-0.00591 J0.00000
G2 X1.55591 Y1.80000 Z-0.07582 I-0.00591 J0.00000
G2 X1.55591 Y1.80000 Z-0.07874 I-0.00591 J0.00000
G2 X1.55591 Y1.80000 I-0.00591 J0.00000
G1 Z0.07874 F9.44882

G0 X1.55591 Y1.70000
G1 Z0.00292 F9.44882
G1 F18.89764
G2 X1.55591 Y1.70000 Z-0.00000 I-0.00591 J0.00000
G2 X1.55591 Y1.70000 Z-0.00292 I-0.00591 J0.00000
G2 X1.55591 Y1.70000 Z-0.00583 I-0.00591 J0.00000
G2 X1.55591 Y1.70000 Z-0.00875 I-0.00591 J0.00000
G2 X1.55591 Y1.70000 Z-0.01167 I-0.00591 J0.00000
G2 X1.55591 Y1.70000 Z-0.01458 I-0.00591 J0.00000
G2 X1.55591 Y1.70000 Z-0.01750 I-0.00591 J0.00000
G2 X1.55591 Y1.70000 Z-0.02041 I-0.00591 J0.00000
G2 X1.55591 Y1.70000 Z-0.02333 I-0.00591 J0.00000
G2 X1.55591 Y1.70000 Z-0.02625 I-0.00591 J0.00000
G2 X1.55591 Y1.70000 Z-0.02916 I-0.00591 J0.00000
G2 X1.55591 Y1.70000 Z-0.03208 I-0.00591 J0.00000
G2 X1.55591 Y1.70000 Z-0.03500 I-0.00591 J0.00000
G2 X1.55591 Y1.70000 Z-0.03791 I-0.00591 J0.00000
G2 X1.55591 Y1.70000 Z-0.04083 I-0.00591 J0.00000
G2 X1.55591 Y1.70000 Z-0.04374 I-0.00591 J0.00000
G2 X1.55591 Y1.70000 Z-0.04666 I-0.00591 J0.00000
G2 X1.55591 Y1.70000 Z-0.04958 I-0.00591 J0.00000
G2 X1.55591 Y1.70000 Z-0.05249 I-0.00591 J0.00000
G2 X1.55591 Y1.70000 Z-0.05541 I-0.00591 J0.00000
G2 X1.55591 Y1.70000 Z-0.05833 I-0.00591 J0.00000
G2 X1.55591 Y1.70000 Z-0.06124 I-0.00591 J0.00000
G2 X1.55591 Y1.70000 Z-0.06416 I-0.00591 J0.00000
G2 X1.55591 Y1.70000 Z-0.06707 I-0.00591 J0.00000
G2 X1.55591 Y1.70000 Z-0.06999 I-0.00591 J0.00000
G2 X1.55591 Y1.70000 Z-0.07291 I-0.00591 J0.00000
G2 X1.55591 Y1.70000 Z-0.07582 I-0.00591 J0.00000
G2 X1.55591 Y1.70000 Z-0.07874 I-0.00591 J0.00000
G2 X1.55591 Y1.70000 I-0.00591 J0.00000
G1 Z0.07874 F9.44882

G0 X1.65591 Y1.80000
G1 Z0.00292 F9.44882
G1 F18.89764
G2 X1.65591 Y1.80000 Z-0.00000 I-0.00591 J0.00000
G2 X1.65591 Y1.80000 Z-0.00292 I-0.00591 J0.00000
G2 X1.65591 Y1.80000 Z-0.00583 I-0.00591 J0.00000
G2 X1.65591 Y1.80000 Z-0.00875 I-0.00591 J0.00000
G2 X1.65591 Y1.80000 Z-0.01167 I-0.00591 J0.00000
G2 X1.65591 Y1.80000 Z-0.01458 I-0.00591 J0.00000
G2 X1.65591 Y1.80000 Z-0.01750 I-0.00591 J0.00000
G2 X1.65591 Y1.80000 Z-0.02041 I-0.00591 J0.00000
G2 X1.65591 Y1.80000 Z-0.02333 I-0.00591 J0.00000
G2 X1.65591 Y1.80000 Z-0.02625 I-0.00591 J0.00000
G2 X1.65591 Y1.80000 Z-0.02916 I-0.00591 J0.00000
G2 X1.65591 Y1.80000 Z-0.03208 I-0.00591 J0.00000
G2 X1.65591 Y1.80000 Z-0.03500 I-0.00591 J0.00000
G2 X1.65591 Y1.80000 Z-0.03791 I-0.00591 J0.00000
G2 X1.65591 Y1.80000 Z-0.04083 I-0.00591 J0.00000
G2 X1.65591 Y1.80000 Z-0.04374 I-0.00591 J0.00000
G2 X1.65591 Y1.80000 Z-0.04666 I-0.00591 J0.00000
G2 X1.65591 Y1.80000 Z-0.04958 I-0.00591 J0.00000
G2 X1.65591 Y1.80000 Z-0.05249 I-0.00591 J0.00000
G2 X1.65591 Y1.80000 Z-0.05541 I-0.00591 J0.00000
G2 X1.65591 Y1.80000 Z-0.05833 I-0.00591 J0.00000
G2 X1.65591 Y1.80000 Z-0.06124 I-0.00591 J0.00000
G2 X1.65591 Y1.80000 Z-0.06416 I-0.00591 J0.00000
G2 X1.65591 Y1.80000 Z-0.06707 I-0.00591 J0.00000
G2 X1.65591 Y1.80000 Z-0.06999 I-0.00591 J0.00000
G2 X1.65591 Y1.80000 Z-0.07291 I-0.00591 J0.00000
G2 X1.65591 Y1.80000 Z-0.07582 I-0.00591 J0.00000
G2 X1.65591 Y1.80000 Z-0.07874 I-0.00591 J0.00000
G2 X1.65591 Y1.80000 I-0.00591 J0.00000
G1 Z0.07874 F9.44882

G0 X1.65591 Y1.70000
G1 Z0.00292 F9.44882
G1 F18.89764
G2 X1.65591 Y1.70000 Z-0.00000 I-0.00591 J0.00000
G2 X1.65591 Y1.70000 Z-0.00292 I-0.00591 J0.00000
G2 X1.65591 Y1.70000 Z-0.00583 I-0.00591 J0.00000
G2 X1.65591 Y1.70000 Z-0.00875 I-0.00591 J0.00000
G2 X1.65591 Y1.70000 Z-0.01167 I-0.00591 J0.00000
G2 X1.65591 Y1.70000 Z-0.01458 I-0.00591 J0.00000
G2 X1.65591 Y1.70000 Z-0.01750 I-0.00591 J0.00000
G2 X1.65591 Y1.70000 Z-0.02041 I-0.00591 J0.00000
G2 X1.65591 Y1.70000 Z-0.02333 I-0.00591 J0.00000
G2 X1.65591 Y1.70000 Z-0.02625 I-0.00591 J0.00000
G2 X1.65591 Y1.70000 Z-0.02916 I-0.00591 J0.00000
G2 X1.65591 Y1.70000 Z-0.03208 I-0.00591 J0.00000
G2 X1.65591 Y1.70000 Z-0.03500 I-0.00591 J0.00000
G2 X1.65591 Y1.70000 Z-0.03791 I-0.00591 J0.00000
G2 X1.65591 Y1.70000 Z-0.04083 I-0.00591 J0.00000
G2 X1.65591 Y1.70000 Z-0.04374 I-0.00591 J0.00000
G2 X1.65591 Y1.70000 Z-0.04666 I-0.00591 J0.00000
G2 X1.65591 Y1.70000 Z-0.04958 I-0.00591 J0.00000
G2 X1.65591 Y1.70000 Z-0.05249 I-0.00591 J0.00000
G2 X1.65591 Y1.70000 Z-0.05541 I-0.00591 J0.00000
G2 X1.65591 Y1.70000 Z-0.05833 I-0.00591 J0.00000
G2 X1.65591 Y1.70000 Z-0.06124 I-0.00591 J0.00000
G2 X1.65591 Y1.70000 Z-0.06416 I-0.00591 J0.00000
G2 X1.65591 Y1.70000 Z-0.06707 I-0.00591 J0.00000
G2 X1.65591 Y1.70000 Z-0.06999 I-0.00591 J0.00000
G2 X1.65591 Y1.70000 Z-0.07291 I-0.00591 J0.00000
G2 X1.65591 Y1.70000 Z-0.07582 I-0.00591 J0.00000
G2 X1.65591 Y1.70000 Z-0.07874 I-0.00591 J0.00000
G2 X1.65591 Y1.70000 I-0.00591 J0.00000
G1 Z0.07874 F9.44882

G0 X1.55591 Y1.60000
G1 Z0.00292 F9.44882
G1 F18.89764
G2 X1.55591 Y1.60000 Z-0.00000 I-0.00591 J0.00000
G2 X1.55591 Y1.60000 Z-0.00292 I-0.00591 J0.00000
G2 X1.55591 Y1.60000 Z-0.00583 I-0.00591 J0.00000
G2 X1.55591 Y1.60000 Z-0.00875 I-0.00591 J0.00000
G2 X1.55591 Y1.60000 Z-0.01167 I-0.00591 J0.00000
G2 X1.55591 Y1.60000 Z-0.01458 I-0.00591 J0.00000
G2 X1.55591 Y1.60000 Z-0.01750 I-0.00591 J0.00000
G2 X1.55591 Y1.60000 Z-0.02041 I-0.00591 J0.00000
G2 X1.55591 Y1.60000 Z-0.02333 I-0.00591 J0.00000
G2 X1.55591 Y1.60000 Z-0.02625 I-0.00591 J0.00000
G2 X1.55591 Y1.60000 Z-0.02916 I-0.00591 J0.00000
G2 X1.55591 Y1.60000 Z-0.03208 I-0.00591 J0.00000
G2 X1.55591 Y1.60000 Z-0.03500 I-0.00591 J0.00000
G2 X1.55591 Y1.60000 Z-0.03791 I-0.00591 J0.00000
G2 X1.55591 Y1.60000 Z-0.04083 I-0.00591 J0.00000
G2 X1.55591 Y1.60000 Z-0.04374 I-0.00591 J0.00000
G2 X1.55591 Y1.60000 Z-0.04666 I-0.00591 J0.00000
G2 X1.55591 Y1.60000 Z-0.04958 I-0.00591 J0.00000
G2 X1.55591 Y1.60000 Z-0.05249 I-0.00591 J0.00000
G2 X1.55591 Y1.60000 Z-0.05541 I-0.00591 J0.00000
G2 X1.55591 Y1.60000 Z-0.05833 I-0.00591 J0.00000
G2 X1.55591 Y1.60000 Z-0.06124 I-0.00591 J0.00000
G2 X1.55591 Y1.60000 Z-0.06416 I-0.00591 J0.00000
G2 X1.55591 Y1.60000 Z-0.06707 I-0.00591 J0.00000
G2 X1.55591 Y1.60000 Z-0.06999 I-0.00591 J0.00000
G2 X1.55591 Y1.60000 Z-0.07291 I-0.00591 J0.00000
G2 X1.55591 Y1.60000 Z-0.07582 I-0.00591 J0.00000
G2 X1.55591 Y1.60000 Z-0.07874 I-0.00591 J0.00000
G2 X1.55591 Y1.60000 I-0.00591 J0.00000
G1 Z0.07874 F9.44882

G0 X1.55591 Y1.50000
G1 Z0.00292 F9.44882
G1 F18.89764
G2 X1.55591 Y1.50000 Z-0.00000 I-0.00591 J0.00000
G2 X1.55591 Y1.50000 Z-0.00292 I-0.00591 J0.00000
G2 X1.55591 Y1.50000 Z-0.00583 I-0.00591 J0.00000
G2 X1.55591 Y1.50000 Z-0.00875 I-0.00591 J0.00000
G2 X1.55591 Y1.50000 Z-0.01167 I-0.00591 J0.00000
G2 X1.55591 Y1.50000 Z-0.01458 I-0.00591 J0.00000
G2 X1.55591 Y1.50000 Z-0.01750 I-0.00591 J0.00000
G2 X1.55591 Y1.50000 Z-0.02041 I-0.00591 J0.00000
G2 X1.55591 Y1.50000 Z-0.02333 I-0.00591 J0.00000
G2 X1.55591 Y1.50000 Z-0.02625 I-0.00591 J0.00000
G2 X1.55591 Y1.50000 Z-0.02916 I-0.00591 J0.00000
G2 X1.55591 Y1.50000 Z-0.03208 I-0.00591 J0.00000
G2 X1.55591 Y1.50000 Z-0.03500 I-0.00591 J0.00000
G2 X1.55591 Y1.50000 Z-0.03791 I-0.00591 J0.00000
G2 X1.55591 Y1.50000 Z-0.04083 I-0.00591 J0.00000
G2 X1.55591 Y1.50000 Z-0.04374 I-0.00591 J0.00000
G2 X1.55591 Y1.50000 Z-0.04666 I-0.00591 J0.00000
G2 X1.55591 Y1.50000 Z-0.04958 I-0.00591 J0.00000
G2 X1.55591 Y1.50000 Z-0.05249 I-0.00591 J0.00000
G2 X1.55591 Y1.50000 Z-0.05541 I-0.00591 J0.00000
G2 X1.55591 Y1.50000 Z-0.05833 I-0.00591 J0.00000
G2 X1.55591 Y1.50000 Z-0.06124 I-0.00591 J0.00000
G2 X1.55591 Y1.50000 Z-0.06416 I-0.00591 J0.00000
G2 X1.55591 Y1.50000 Z-0.06707 I-0.00591 J0.00000
G2 X1.55591 Y1.50000 Z-0.06999 I-0.00591 J0.00000
G2 X1.55591 Y1.50000 Z-0.07291 I-0.00591 J0.00000
G2 X1.55591 Y1.50000 Z-0.07582 I-0.00591 J0.00000
G2 X1.55591 Y1.50000 Z-0.07874 I-0.00591 J0.00000
G2 X1.55591 Y1.50000 I-0.00591 J0.00000
G1 Z0.07874 F9.44882

G0 X1.65591 Y1.60000
G1 Z0.00292 F9.44882
G1 F18.89764
G2 X1.65591 Y1.60000 Z-0.00000 I-0.00591 J0.00000
G2 X1.65591 Y1.60000 Z-0.00292 I-0.00591 J0.00000
G2 X1.65591 Y1.60000 Z-0.00583 I-0.00591 J0.00000
G2 X1.65591 Y1.60000 Z-0.00875 I-0.00591 J0.00000
G2 X1.65591 Y1.60000 Z-0.01167 I-0.00591 J0.00000
G2 X1.65591 Y1.60000 Z-0.01458 I-0.00591 J0.00000
G2 X1.65591 Y1.60000 Z-0.01750 I-0.00591 J0.00000
G2 X1.65591 Y1.60000 Z-0.02041 I-0.00591 J0.00000
G2 X1.65591 Y1.60000 Z-0.02333 I-0.00591 J0.00000
G2 X1.65591 Y1.60000 Z-0.02625 I-0.00591 J0.00000
G2 X1.65591 Y1.60000 Z-0.02916 I-0.00591 J0.00000
G2 X1.65591 Y1.60000 Z-0.03208 I-0.00591 J0.00000
G2 X1.65591 Y1.60000 Z-0.03500 I-0.00591 J0.00000
G2 X1.65591 Y1.60000 Z-0.03791 I-0.00591 J0.00000
G2 X1.65591 Y1.60000 Z-0.04083 I-0.00591 J0.00000
G2 X1.65591 Y1.60000 Z-0.04374 I-0.00591 J0.00000
G2 X1.65591 Y1.60000 Z-0.04666 I-0.00591 J0.00000
G2 X1.65591 Y1.60000 Z-0.04958 I-0.00591 J0.00000
G2 X1.65591 Y1.60000 Z-0.05249 I-0.00591 J0.00000
G2 X1.65591 Y1.60000 Z-0.05541 I-0.00591 J0.00000
G2 X1.65591 Y1.60000 Z-0.05833 I-0.00591 J0.00000
G2 X1.65591 Y1.60000 Z-0.06124 I-0.00591 J0.00000
G2 X1.65591 Y1.60000 Z-0.06416 I-0.00591 J0.00000
G2 X1.65591 Y1.60000 Z-0.06707 I-0.00591 J0.00000
G2 X1.65591 Y1.60000 Z-0.06999 I-0.00591 J0.00000
G2 X1.65591 Y1.60000 Z-0.07291 I-0.00591 J0.00000
G2 X1.65591 Y1.60000 Z-0.07582 I-0.00591 J0.00000
G2 X1.65591 Y1.60000 Z-0.07874 I-0.00591 J0.00000
G2 X1.65591 Y1.60000 I-0.00591 J0.00000
G1 Z0.07874 F9.44882

G0 X1.65591 Y1.50000
G1 Z0.00292 F9.44882
G1 F18.89764
G2 X1.65591 Y1.50000 Z-0.00000 I-0.00591 J0.00000
G2 X1.65591 Y1.50000 Z-0.00292 I-0.00591 J0.00000
G2 X1.65591 Y1.50000 Z-0.00583 I-0.00591 J0.00000
G2 X1.65591 Y1.50000 Z-0.00875 I-0.00591 J0.00000
G2 X1.65591 Y1.50000 Z-0.01167 I-0.00591 J0.00000
G2 X1.65591 Y1.50000 Z-0.01458 I-0.00591 J0.00000
G2 X1.65591 Y1.50000 Z-0.01750 I-0.00591 J0.00000
G2 X1.65591 Y1.50000 Z-0.02041 I-0.00591 J0.00000
G2 X1.65591 Y1.50000 Z-0.02333 I-0.00591 J0.00000
G2 X1.65591 Y1.50000 Z-0.02625 I-0.00591 J0.00000
G2 X1.65591 Y1.50000 Z-0.02916 I-0.00591 J0.00000
G2 X1.65591 Y1.50000 Z-0.03208 I-0.00591 J0.00000
G2 X1.65591 Y1.50000 Z-0.03500 I-0.00591 J0.00000
G2 X1.65591 Y1.50000 Z-0.03791 I-0.00591 J0.00000
G2 X1.65591 Y1.50000 Z-0.04083 I-0.00591 J0.00000
G2 X1.65591 Y1.50000 Z-0.04374 I-0.00591 J0.00000
G2 X1.65591 Y1.50000 Z-0.04666 I-0.00591 J0.00000
G2 X1.65591 Y1.50000 Z-0.04958 I-0.00591 J0.00000
G2 X1.65591 Y1.50000 Z-0.05249 I-0.00591 J0.00000
G2 X1.65591 Y1.50000 Z-0.05541 I-0.00591 J0.00000
G2 X1.65591 Y1.50000 Z-0.05833 I-0.00591 J0.00000
G2 X1.65591 Y1.50000 Z-0.06124 I-0.00591 J0.00000
G2 X1.65591 Y1.50000 Z-0.06416 I-0.00591 J0.00000
G2 X1.65591 Y1.50000 Z-0.06707 I-0.00591 J0.00000
G2 X1.65591 Y1.50000 Z-0.06999 I-0.00591 J0.00000
G2 X1.65591 Y1.50000 Z-0.07291 I-0.00591 J0.00000
G2 X1.65591 Y1.50000 Z-0.07582 I-0.00591 J0.00000
G2 X1.65591 Y1.50000 Z-0.07874 I-0.00591 J0.00000
G2 X1.65591 Y1.50000 I-0.00591 J0.00000
G1 Z0.07874 F9.44882

G0 X1.55591 Y1.40000
G1 Z0.00292 F9.44882
G1 F18.89764
G2 X1.55591 Y1.40000 Z-0.00000 I-0.00591 J0.00000
G2 X1.55591 Y1.40000 Z-0.00292 I-0.00591 J0.00000
G2 X1.55591 Y1.40000 Z-0.00583 I-0.00591 J0.00000
G2 X1.55591 Y1.40000 Z-0.00875 I-0.00591 J0.00000
G2 X1.55591 Y1.40000 Z-0.01167 I-0.00591 J0.00000
G2 X1.55591 Y1.40000 Z-0.01458 I-0.00591 J0.00000
G2 X1.55591 Y1.40000 Z-0.01750 I-0.00591 J0.00000
G2 X1.55591 Y1.40000 Z-0.02041 I-0.00591 J0.00000
G2 X1.55591 Y1.40000 Z-0.02333 I-0.00591 J0.00000
G2 X1.55591 Y1.40000 Z-0.02625 I-0.00591 J0.00000
G2 X1.55591 Y1.40000 Z-0.02916 I-0.00591 J0.00000
G2 X1.55591 Y1.40000 Z-0.03208 I-0.00591 J0.00000
G2 X1.55591 Y1.40000 Z-0.03500 I-0.00591 J0.00000
G2 X1.55591 Y1.40000 Z-0.03791 I-0.00591 J0.00000
G2 X1.55591 Y1.40000 Z-0.04083 I-0.00591 J0.00000
G2 X1.55591 Y1.40000 Z-0.04374 I-0.00591 J0.00000
G2 X1.55591 Y1.40000 Z-0.04666 I-0.00591 J0.00000
G2 X1.55591 Y1.40000 Z-0.04958 I-0.00591 J0.00000
G2 X1.55591 Y1.40000 Z-0.05249 I-0.00591 J0.00000
G2 X1.55591 Y1.40000 Z-0.05541 I-0.00591 J0.00000
G2 X1.55591 Y1.40000 Z-0.05833 I-0.00591 J0.00000
G2 X1.55591 Y1.40000 Z-0.06124 I-0.00591 J0.00000
G2 X1.55591 Y1.40000 Z-0.06416 I-0.00591 J0.00000
G2 X1.55591 Y1.40000 Z-0.06707 I-0.00591 J0.00000
G2 X1.55591 Y1.40000 Z-0.06999 I-0.00591 J0.00000
G2 X1.55591 Y1.40000 Z-0.07291 I-0.00591 J0.00000
G2 X1.55591 Y1.40000 Z-0.07582 I-0.00591 J0.00000
G2 X1.55591 Y1.40000 Z-0.07874 I-0.00591 J0.00000
G2 X1.55591 Y1.40000 I-0.00591 J0.00000
G1 Z0.07874 F9.44882

G0 X1.55591 Y1.30000
G1 Z0.00292 F9.44882
G1 F18.89764
G2 X1.55591 Y1.30000 Z-0.00000 I-0.00591 J0.00000
G2 X1.55591 Y1.30000 Z-0.00292 I-0.00591 J0.00000
G2 X1.55591 Y1.30000 Z-0.00583 I-0.00591 J0.00000
G2 X1.55591 Y1.30000 Z-0.00875 I-0.00591 J0.00000
G2 X1.55591 Y1.30000 Z-0.01167 I-0.00591 J0.00000
G2 X1.55591 Y1.30000 Z-0.01458 I-0.00591 J0.00000
G2 X1.55591 Y1.30000 Z-0.01750 I-0.00591 J0.00000
G2 X1.55591 Y1.30000 Z-0.02041 I-0.00591 J0.00000
G2 X1.55591 Y1.30000 Z-0.02333 I-0.00591 J0.00000
G2 X1.55591 Y1.30000 Z-0.02625 I-0.00591 J0.00000
G2 X1.55591 Y1.30000 Z-0.02916 I-0.00591 J0.00000
G2 X1.55591 Y1.30000 Z-0.03208 I-0.00591 J0.00000
G2 X1.55591 Y1.30000 Z-0.03500 I-0.00591 J0.00000
G2 X1.55591 Y1.30000 Z-0.03791 I-0.00591 J0.00000
G2 X1.55591 Y1.30000 Z-0.04083 I-0.00591 J0.00000
G2 X1.55591 Y1.30000 Z-0.04374 I-0.00591 J0.00000
G2 X1.55591 Y1.30000 Z-0.04666 I-0.00591 J0.00000
G2 X1.55591 Y1.30000 Z-0.04958 I-0.00591 J0.00000
G2 X1.55591 Y1.30000 Z-0.05249 I-0.00591 J0.00000
G2 X1.55591 Y1.30000 Z-0.05541 I-0.00591 J0.00000
G2 X1.55591 Y1.30000 Z-0.05833 I-0.00591 J0.00000
G2 X1.55591 Y1.30000 Z-0.06124 I-0.00591 J0.00000
G2 X1.55591 Y1.30000 Z-0.06416 I-0.00591 J0.00000
G2 X1.55591 Y1.30000 Z-0.06707 I-0.00591 J0.00000
G2 X1.55591 Y1.30000 Z-0.06999 I-0.00591 J0.00000
G2 X1.55591 Y1.30000 Z-0.07291 I-0.00591 J0.00000
G2 X1.55591 Y1.30000 Z-0.07582 I-0.00591 J0.00000
G2 X1.55591 Y1.30000 Z-0.07874 I-0.00591 J0.00000
G2 X1.55591 Y1.30000 I-0.00591 J0.00000
G1 Z0.07874 F9.44882

G0 X1.65591 Y1.40000
G1 Z0.00292 F9.44882
G1 F18.89764
G2 X1.65591 Y1.40000 Z-0.00000 I-0.00591 J0.00000
G2 X1.65591 Y1.40000 Z-0.00292 I-0.00591 J0.00000
G2 X1.65591 Y1.40000 Z-0.00583 I-0.00591 J0.00000
G2 X1.65591 Y1.40000 Z-0.00875 I-0.00591 J0.00000
G2 X1.65591 Y1.40000 Z-0.01167 I-0.00591 J0.00000
G2 X1.65591 Y1.40000 Z-0.01458 I-0.00591 J0.00000
G2 X1.65591 Y1.40000 Z-0.01750 I-0.00591 J0.00000
G2 X1.65591 Y1.40000 Z-0.02041 I-0.00591 J0.00000
G2 X1.65591 Y1.40000 Z-0.02333 I-0.00591 J0.00000
G2 X1.65591 Y1.40000 Z-0.02625 I-0.00591 J0.00000
G2 X1.65591 Y1.40000 Z-0.02916 I-0.00591 J0.00000
G2 X1.65591 Y1.40000 Z-0.03208 I-0.00591 J0.00000
G2 X1.65591 Y1.40000 Z-0.03500 I-0.00591 J0.00000
G2 X1.65591 Y1.40000 Z-0.03791 I-0.00591 J0.00000
G2 X1.65591 Y1.40000 Z-0.04083 I-0.00591 J0.00000
G2 X1.65591 Y1.40000 Z-0.04374 I-0.00591 J0.00000
G2 X1.65591 Y1.40000 Z-0.04666 I-0.00591 J0.00000
G2 X1.65591 Y1.40000 Z-0.04958 I-0.00591 J0.00000
G2 X1.65591 Y1.40000 Z-0.05249 I-0.00591 J0.00000
G2 X1.65591 Y1.40000 Z-0.05541 I-0.00591 J0.00000
G2 X1.65591 Y1.40000 Z-0.05833 I-0.00591 J0.00000
G2 X1.65591 Y1.40000 Z-0.06124 I-0.00591 J0.00000
G2 X1.65591 Y1.40000 Z-0.06416 I-0.00591 J0.00000
G2 X1.65591 Y1.40000 Z-0.06707 I-0.00591 J0.00000
G2 X1.65591 Y1.40000 Z-0.06999 I-0.00591 J0.00000
G2 X1.65591 Y1.40000 Z-0.07291 I-0.00591 J0.00000
G2 X1.65591 Y1.40000 Z-0.07582 I-0.00591 J0.00000
G2 X1.65591 Y1.40000 Z-0.07874 I-0.00591 J0.00000
G2 X1.65591 Y1.40000 I-0.00591 J0.00000
G1 Z0.07874 F9.44882

G0 X1.65591 Y1.30000
G1 Z0.00292 F9.44882
G1 F18.89764
G2 X1.65591 Y1.30000 Z-0.00000 I-0.00591 J0.00000
G2 X1.65591 Y1.30000 Z-0.00292 I-0.00591 J0.00000
G2 X1.65591 Y1.30000 Z-0.00583 I-0.00591 J0.00000
G2 X1.65591 Y1.30000 Z-0.00875 I-0.00591 J0.00000
G2 X1.65591 Y1.30000 Z-0.01167 I-0.00591 J0.00000
G2 X1.65591 Y1.30000 Z-0.01458 I-0.00591 J0.00000
G2 X1.65591 Y1.30000 Z-0.01750 I-0.00591 J0.00000
G2 X1.65591 Y1.30000 Z-0.02041 I-0.00591 J0.00000
G2 X1.65591 Y1.30000 Z-0.02333 I-0.00591 J0.00000
G2 X1.65591 Y1.30000 Z-0.02625 I-0.00591 J0.00000
G2 X1.65591 Y1.30000 Z-0.02916 I-0.00591 J0.00000
G2 X1.65591 Y1.30000 Z-0.03208 I-0.00591 J0.00000
G2 X1.65591 Y1.30000 Z-0.03500 I-0.00591 J0.00000
G2 X1.65591 Y1.30000 Z-0.03791 I-0.00591 J0.00000
G2 X1.65591 Y1.30000 Z-0.04083 I-0.00591 J0.00000
G2 X1.65591 Y1.30000 Z-0.04374 I-0.00591 J0.00000
G2 X1.65591 Y1.30000 Z-0.04666 I-0.00591 J0.00000
G2 X1.65591 Y1.30000 Z-0.04958 I-0.00591 J0.00000
G2 X1.65591 Y1.30000 Z-0.05249 I-0.00591 J0.00000
G2 X1.65591 Y1.30000 Z-0.05541 I-0.00591 J0.00000
G2 X1.65591 Y1.30000 Z-0.05833 I-0.00591 J0.00000
G2 X1.65591 Y1.30000 Z-0.06124 I-0.00591 J0.00000
G2 X1.65591 Y1.30000 Z-0.06416 I-0.00591 J0.00000
G2 X1.65591 Y1.30000 Z-0.06707 I-0.00591 J0.00000
G2 X1.65591 Y1.30000 Z-0.06999 I-0.00591 J0.00000
G2 X1.65591 Y1.30000 Z-0.07291 I-0.00591 J0.00000
G2 X1.65591 Y1.30000 Z-0.07582 I-0.00591 J0.00000
G2 X1.65591 Y1.30000 Z-0.07874 I-0.00591 J0.00000
G2 X1.65591 Y1.30000 I-0.00591 J0.00000
G1 Z0.07874 F9.44882

G0 X1.55591 Y1.20000
G1 Z0.00292 F9.44882
G1 F18.89764
G2 X1.55591 Y1.20000 Z-0.00000 I-0.00591 J0.00000
G2 X1.55591 Y1.20000 Z-0.00292 I-0.00591 J0.00000
G2 X1.55591 Y1.20000 Z-0.00583 I-0.00591 J0.00000
G2 X1.55591 Y1.20000 Z-0.00875 I-0.00591 J0.00000
G2 X1.55591 Y1.20000 Z-0.01167 I-0.00591 J0.00000
G2 X1.55591 Y1.20000 Z-0.01458 I-0.00591 J0.00000
G2 X1.55591 Y1.20000 Z-0.01750 I-0.00591 J0.00000
G2 X1.55591 Y1.20000 Z-0.02041 I-0.00591 J0.00000
G2 X1.55591 Y1.20000 Z-0.02333 I-0.00591 J0.00000
G2 X1.55591 Y1.20000 Z-0.02625 I-0.00591 J0.00000
G2 X1.55591 Y1.20000 Z-0.02916 I-0.00591 J0.00000
G2 X1.55591 Y1.20000 Z-0.03208 I-0.00591 J0.00000
G2 X1.55591 Y1.20000 Z-0.03500 I-0.00591 J0.00000
G2 X1.55591 Y1.20000 Z-0.03791 I-0.00591 J0.00000
G2 X1.55591 Y1.20000 Z-0.04083 I-0.00591 J0.00000
G2 X1.55591 Y1.20000 Z-0.04374 I-0.00591 J0.00000
G2 X1.55591 Y1.20000 Z-0.04666 I-0.00591 J0.00000
G2 X1.55591 Y1.20000 Z-0.04958 I-0.00591 J0.00000
G2 X1.55591 Y1.20000 Z-0.05249 I-0.00591 J0.00000
G2 X1.55591 Y1.20000 Z-0.05541 I-0.00591 J0.00000
G2 X1.55591 Y1.20000 Z-0.05833 I-0.00591 J0.00000
G2 X1.55591 Y1.20000 Z-0.06124 I-0.00591 J0.00000
G2 X1.55591 Y1.20000 Z-0.06416 I-0.00591 J0.00000
G2 X1.55591 Y1.20000 Z-0.06707 I-0.00591 J0.00000
G2 X1.55591 Y1.20000 Z-0.06999 I-0.00591 J0.00000
G2 X1.55591 Y1.20000 Z-0.07291 I-0.00591 J0.00000
G2 X1.55591 Y1.20000 Z-0.07582 I-0.00591 J0.00000
G2 X1.55591 Y1.20000 Z-0.07874 I-0.00591 J0.00000
G2 X1.55591 Y1.20000 I-0.00591 J0.00000
G1 Z0.07874 F9.44882

G0 X1.65591 Y1.20000
G1 Z0.00292 F9.44882
G1 F18.89764
G2 X1.65591 Y1.20000 Z-0.00000 I-0.00591 J0.00000
G2 X1.65591 Y1.20000 Z-0.00292 I-0.00591 J0.00000
G2 X1.65591 Y1.20000 Z-0.00583 I-0.00591 J0.00000
G2 X1.65591 Y1.20000 Z-0.00875 I-0.00591 J0.00000
G2 X1.65591 Y1.20000 Z-0.01167 I-0.00591 J0.00000
G2 X1.65591 Y1.20000 Z-0.01458 I-0.00591 J0.00000
G2 X1.65591 Y1.20000 Z-0.01750 I-0.00591 J0.00000
G2 X1.65591 Y1.20000 Z-0.02041 I-0.00591 J0.00000
G2 X1.65591 Y1.20000 Z-0.02333 I-0.00591 J0.00000
G2 X1.65591 Y1.20000 Z-0.02625 I-0.00591 J0.00000
G2 X1.65591 Y1.20000 Z-0.02916 I-0.00591 J0.00000
G2 X1.65591 Y1.20000 Z-0.03208 I-0.00591 J0.00000
G2 X1.65591 Y1.20000 Z-0.03500 I-0.00591 J0.00000
G2 X1.65591 Y1.20000 Z-0.03791 I-0.00591 J0.00000
G2 X1.65591 Y1.20000 Z-0.04083 I-0.00591 J0.00000
G2 X1.65591 Y1.20000 Z-0.04374 I-0.00591 J0.00000
G2 X1.65591 Y1.20000 Z-0.04666 I-0.00591 J0.00000
G2 X1.65591 Y1.20000 Z-0.04958 I-0.00591 J0.00000
G2 X1.65591 Y1.20000 Z-0.05249 I-0.00591 J0.00000
G2 X1.65591 Y1.20000 Z-0.05541 I-0.00591 J0.00000
G2 X1.65591 Y1.20000 Z-0.05833 I-0.00591 J0.00000
G2 X1.65591 Y1.20000 Z-0.06124 I-0.00591 J0.00000
G2 X1.65591 Y1.20000 Z-0.06416 I-0.00591 J0.00000
G2 X1.65591 Y1.20000 Z-0.06707 I-0.00591 J0.00000
G2 X1.65591 Y1.20000 Z-0.06999 I-0.00591 J0.00000
G2 X1.65591 Y1.20000 Z-0.07291 I-0.00591 J0.00000
G2 X1.65591 Y1.20000 Z-0.07582 I-0.00591 J0.00000
G2 X1.65591 Y1.20000 Z-0.07874 I-0.00591 J0.00000
G2 X1.65591 Y1.20000 I-0.00591 J0.00000
G1 Z0.07874 F9.44882

G0 X1.55591 Y1.10000
G1 Z0.00292 F9.44882
G1 F18.89764
G2 X1.55591 Y1.10000 Z-0.00000 I-0.00591 J0.00000
G2 X1.55591 Y1.10000 Z-0.00292 I-0.00591 J0.00000
G2 X1.55591 Y1.10000 Z-0.00583 I-0.00591 J0.00000
G2 X1.55591 Y1.10000 Z-0.00875 I-0.00591 J0.00000
G2 X1.55591 Y1.10000 Z-0.01167 I-0.00591 J0.00000
G2 X1.55591 Y1.10000 Z-0.01458 I-0.00591 J0.00000
G2 X1.55591 Y1.10000 Z-0.01750 I-0.00591 J0.00000
G2 X1.55591 Y1.10000 Z-0.02041 I-0.00591 J0.00000
G2 X1.55591 Y1.10000 Z-0.02333 I-0.00591 J0.00000
G2 X1.55591 Y1.10000 Z-0.02625 I-0.00591 J0.00000
G2 X1.55591 Y1.10000 Z-0.02916 I-0.00591 J0.00000
G2 X1.55591 Y1.10000 Z-0.03208 I-0.00591 J0.00000
G2 X1.55591 Y1.10000 Z-0.03500 I-0.00591 J0.00000
G2 X1.55591 Y1.10000 Z-0.03791 I-0.00591 J0.00000
G2 X1.55591 Y1.10000 Z-0.04083 I-0.00591 J0.00000
G2 X1.55591 Y1.10000 Z-0.04374 I-0.00591 J0.00000
G2 X1.55591 Y1.10000 Z-0.04666 I-0.00591 J0.00000
G2 X1.55591 Y1.10000 Z-0.04958 I-0.00591 J0.00000
G2 X1.55591 Y1.10000 Z-0.05249 I-0.00591 J0.00000
G2 X1.55591 Y1.10000 Z-0.05541 I-0.00591 J0.00000
G2 X1.55591 Y1.10000 Z-0.05833 I-0.00591 J0.00000
G2 X1.55591 Y1.10000 Z-0.06124 I-0.00591 J0.00000
G2 X1.55591 Y1.10000 Z-0.06416 I-0.00591 J0.00000
G2 X1.55591 Y1.10000 Z-0.06707 I-0.00591 J0.00000
G2 X1.55591 Y1.10000 Z-0.06999 I-0.00591 J0.00000
G2 X1.55591 Y1.10000 Z-0.07291 I-0.00591 J0.00000
G2 X1.55591 Y1.10000 Z-0.07582 I-0.00591 J0.00000
G2 X1.55591 Y1.10000 Z-0.07874 I-0.00591 J0.00000
G2 X1.55591 Y1.10000 I-0.00591 J0.00000
G1 Z0.07874 F9.44882

G0 X1.65591 Y1.10000
G1 Z0.00292 F9.44882
G1 F18.89764
G2 X1.65591 Y1.10000 Z-0.00000 I-0.00591 J0.00000
G2 X1.65591 Y1.10000 Z-0.00292 I-0.00591 J0.00000
G2 X1.65591 Y1.10000 Z-0.00583 I-0.00591 J0.00000
G2 X1.65591 Y1.10000 Z-0.00875 I-0.00591 J0.00000
G2 X1.65591 Y1.10000 Z-0.01167 I-0.00591 J0.00000
G2 X1.65591 Y1.10000 Z-0.01458 I-0.00591 J0.00000
G2 X1.65591 Y1.10000 Z-0.01750 I-0.00591 J0.00000
G2 X1.65591 Y1.10000 Z-0.02041 I-0.00591 J0.00000
G2 X1.65591 Y1.10000 Z-0.02333 I-0.00591 J0.00000
G2 X1.65591 Y1.10000 Z-0.02625 I-0.00591 J0.00000
G2 X1.65591 Y1.10000 Z-0.02916 I-0.00591 J0.00000
G2 X1.65591 Y1.10000 Z-0.03208 I-0.00591 J0.00000
G2 X1.65591 Y1.10000 Z-0.03500 I-0.00591 J0.00000
G2 X1.65591 Y1.10000 Z-0.03791 I-0.00591 J0.00000
G2 X1.65591 Y1.10000 Z-0.04083 I-0.00591 J0.00000
G2 X1.65591 Y1.10000 Z-0.04374 I-0.00591 J0.00000
G2 X1.65591 Y1.10000 Z-0.04666 I-0.00591 J0.00000
G2 X1.65591 Y1.10000 Z-0.04958 I-0.00591 J0.00000
G2 X1.65591 Y1.10000 Z-0.05249 I-0.00591 J0.00000
G2 X1.65591 Y1.10000 Z-0.05541 I-0.00591 J0.00000
G2 X1.65591 Y1.10000 Z-0.05833 I-0.00591 J0.00000
G2 X1.65591 Y1.10000 Z-0.06124 I-0.00591 J0.00000
G2 X1.65591 Y1.10000 Z-0.06416 I-0.00591 J0.00000
G2 X1.65591 Y1.10000 Z-0.06707 I-0.00591 J0.00000
G2 X1.65591 Y1.10000 Z-0.06999 I-0.00591 J0.00000
G2 X1.65591 Y1.10000 Z-0.07291 I-0.00591 J0.00000
G2 X1.65591 Y1.10000 Z-0.07582 I-0.00591 J0.00000
G2 X1.65591 Y1.10000 Z-0.07874 I-0.00591 J0.00000
G2 X1.65591 Y1.10000 I-0.00591 J0.00000
G1 Z0.07874 F9.44882

G0 X1.55591 Y1.00000
G1 Z0.00292 F9.44882
G1 F18.89764
G2 X1.55591 Y1.00000 Z-0.00000 I-0.00591 J0.00000
G2 X1.55591 Y1.00000 Z-0.00292 I-0.00591 J0.00000
G2 X1.55591 Y1.00000 Z-0.00583 I-0.00591 J0.00000
G2 X1.55591 Y1.00000 Z-0.00875 I-0.00591 J0.00000
G2 X1.55591 Y1.00000 Z-0.01167 I-0.00591 J0.00000
G2 X1.55591 Y1.00000 Z-0.01458 I-0.00591 J0.00000
G2 X1.55591 Y1.00000 Z-0.01750 I-0.00591 J0.00000
G2 X1.55591 Y1.00000 Z-0.02041 I-0.00591 J0.00000
G2 X1.55591 Y1.00000 Z-0.02333 I-0.00591 J0.00000
G2 X1.55591 Y1.00000 Z-0.02625 I-0.00591 J0.00000
G2 X1.55591 Y1.00000 Z-0.02916 I-0.00591 J0.00000
G2 X1.55591 Y1.00000 Z-0.03208 I-0.00591 J0.00000
G2 X1.55591 Y1.00000 Z-0.03500 I-0.00591 J0.00000
G2 X1.55591 Y1.00000 Z-0.03791 I-0.00591 J0.00000
G2 X1.55591 Y1.00000 Z-0.04083 I-0.00591 J0.00000
G2 X1.55591 Y1.00000 Z-0.04374 I-0.00591 J0.00000
G2 X1.55591 Y1.00000 Z-0.04666 I-0.00591 J0.00000
G2 X1.55591 Y1.00000 Z-0.04958 I-0.00591 J0.00000
G2 X1.55591 Y1.00000 Z-0.05249 I-0.00591 J0.00000
G2 X1.55591 Y1.00000 Z-0.05541 I-0.00591 J0.00000
G2 X1.55591 Y1.00000 Z-0.05833 I-0.00591 J0.00000
G2 X1.55591 Y1.00000 Z-0.06124 I-0.00591 J0.00000
G2 X1.55591 Y1.00000 Z-0.06416 I-0.00591 J0.00000
G2 X1.55591 Y1.00000 Z-0.06707 I-0.00591 J0.00000
G2 X1.55591 Y1.00000 Z-0.06999 I-0.00591 J0.00000
G2 X1.55591 Y1.00000 Z-0.07291 I-0.00591 J0.00000
G2 X1.55591 Y1.00000 Z-0.07582 I-0.00591 J0.00000
G2 X1.55591 Y1.00000 Z-0.07874 I-0.00591 J0.00000
G2 X1.55591 Y1.00000 I-0.00591 J0.00000
G1 Z0.07874 F9.44882

G0 X1.65591 Y1.00000
G1 Z0.00292 F9.44882
G1 F18.89764
G2 X1.65591 Y1.00000 Z-0.00000 I-0.00591 J0.00000
G2 X1.65591 Y1.00000 Z-0.00292 I-0.00591 J0.00000
G2 X1.65591 Y1.00000 Z-0.00583 I-0.00591 J0.00000
G2 X1.65591 Y1.00000 Z-0.00875 I-0.00591 J0.00000
G2 X1.65591 Y1.00000 Z-0.01167 I-0.00591 J0.00000
G2 X1.65591 Y1.00000 Z-0.01458 I-0.00591 J0.00000
G2 X1.65591 Y1.00000 Z-0.01750 I-0.00591 J0.00000
G2 X1.65591 Y1.00000 Z-0.02041 I-0.00591 J0.00000
G2 X1.65591 Y1.00000 Z-0.02333 I-0.00591 J0.00000
G2 X1.65591 Y1.00000 Z-0.02625 I-0.00591 J0.00000
G2 X1.65591 Y1.00000 Z-0.02916 I-0.00591 J0.00000
G2 X1.65591 Y1.00000 Z-0.03208 I-0.00591 J0.00000
G2 X1.65591 Y1.00000 Z-0.03500 I-0.00591 J0.00000
G2 X1.65591 Y1.00000 Z-0.03791 I-0.00591 J0.00000
G2 X1.65591 Y1.00000 Z-0.04083 I-0.00591 J0.00000
G2 X1.65591 Y1.00000 Z-0.04374 I-0.00591 J0.00000
G2 X1.65591 Y1.00000 Z-0.04666 I-0.00591 J0.00000
G2 X1.65591 Y1.00000 Z-0.04958 I-0.00591 J0.00000
G2 X1.65591 Y1.00000 Z-0.05249 I-0.00591 J0.00000
G2 X1.65591 Y1.00000 Z-0.05541 I-0.00591 J0.00000
G2 X1.65591 Y1.00000 Z-0.05833 I-0.00591 J0.00000
G2 X1.65591 Y1.00000 Z-0.06124 I-0.00591 J0.00000
G2 X1.65591 Y1.00000 Z-0.06416 I-0.00591 J0.00000
G2 X1.65591 Y1.00000 Z-0.06707 I-0.00591 J0.00000
G2 X1.65591 Y1.00000 Z-0.06999 I-0.00591 J0.00000
G2 X1.65591 Y1.00000 Z-0.07291 I-0.00591 J0.00000
G2 X1.65591 Y1.00000 Z-0.07582 I-0.00591 J0.00000
G2 X1.65591 Y1.00000 Z-0.07874 I-0.00591 J0.00000
G2 X1.65591 Y1.00000 I-0.00591 J0.00000
G1 Z0.07874 F9.44882

G0 X1.55591 Y0.90000
G1 Z0.00292 F9.44882
G1 F18.89764
G2 X1.55591 Y0.90000 Z-0.00000 I-0.00591 J0.00000
G2 X1.55591 Y0.90000 Z-0.00292 I-0.00591 J0.00000
G2 X1.55591 Y0.90000 Z-0.00583 I-0.00591 J0.00000
G2 X1.55591 Y0.90000 Z-0.00875 I-0.00591 J0.00000
G2 X1.55591 Y0.90000 Z-0.01167 I-0.00591 J0.00000
G2 X1.55591 Y0.90000 Z-0.01458 I-0.00591 J0.00000
G2 X1.55591 Y0.90000 Z-0.01750 I-0.00591 J0.00000
G2 X1.55591 Y0.90000 Z-0.02041 I-0.00591 J0.00000
G2 X1.55591 Y0.90000 Z-0.02333 I-0.00591 J0.00000
G2 X1.55591 Y0.90000 Z-0.02625 I-0.00591 J0.00000
G2 X1.55591 Y0.90000 Z-0.02916 I-0.00591 J0.00000
G2 X1.55591 Y0.90000 Z-0.03208 I-0.00591 J0.00000
G2 X1.55591 Y0.90000 Z-0.03500 I-0.00591 J0.00000
G2 X1.55591 Y0.90000 Z-0.03791 I-0.00591 J0.00000
G2 X1.55591 Y0.90000 Z-0.04083 I-0.00591 J0.00000
G2 X1.55591 Y0.90000 Z-0.04374 I-0.00591 J0.00000
G2 X1.55591 Y0.90000 Z-0.04666 I-0.00591 J0.00000
G2 X1.55591 Y0.90000 Z-0.04958 I-0.00591 J0.00000
G2 X1.55591 Y0.90000 Z-0.05249 I-0.00591 J0.00000
G2 X1.55591 Y0.90000 Z-0.05541 I-0.00591 J0.00000
G2 X1.55591 Y0.90000 Z-0.05833 I-0.00591 J0.00000
G2 X1.55591 Y0.90000 Z-0.06124 I-0.00591 J0.00000
G2 X1.55591 Y0.90000 Z-0.06416 I-0.00591 J0.00000
G2 X1.55591 Y0.90000 Z-0.06707 I-0.00591 J0.00000
G2 X1.55591 Y0.90000 Z-0.06999 I-0.00591 J0.00000
G2 X1.55591 Y0.90000 Z-0.07291 I-0.00591 J0.00000
G2 X1.55591 Y0.90000 Z-0.07582 I-0.00591 J0.00000
G2 X1.55591 Y0.90000 Z-0.07874 I-0.00591 J0.00000
G2 X1.55591 Y0.90000 I-0.00591 J0.00000
G1 Z0.07874 F9.44882

G0 X1.65591 Y0.90000
G1 Z0.00292 F9.44882
G1 F18.89764
G2 X1.65591 Y0.90000 Z-0.00000 I-0.00591 J0.00000
G2 X1.65591 Y0.90000 Z-0.00292 I-0.00591 J0.00000
G2 X1.65591 Y0.90000 Z-0.00583 I-0.00591 J0.00000
G2 X1.65591 Y0.90000 Z-0.00875 I-0.00591 J0.00000
G2 X1.65591 Y0.90000 Z-0.01167 I-0.00591 J0.00000
G2 X1.65591 Y0.90000 Z-0.01458 I-0.00591 J0.00000
G2 X1.65591 Y0.90000 Z-0.01750 I-0.00591 J0.00000
G2 X1.65591 Y0.90000 Z-0.02041 I-0.00591 J0.00000
G2 X1.65591 Y0.90000 Z-0.02333 I-0.00591 J0.00000
G2 X1.65591 Y0.90000 Z-0.02625 I-0.00591 J0.00000
G2 X1.65591 Y0.90000 Z-0.02916 I-0.00591 J0.00000
G2 X1.65591 Y0.90000 Z-0.03208 I-0.00591 J0.00000
G2 X1.65591 Y0.90000 Z-0.03500 I-0.00591 J0.00000
G2 X1.65591 Y0.90000 Z-0.03791 I-0.00591 J0.00000
G2 X1.65591 Y0.90000 Z-0.04083 I-0.00591 J0.00000
G2 X1.65591 Y0.90000 Z-0.04374 I-0.00591 J0.00000
G2 X1.65591 Y0.90000 Z-0.04666 I-0.00591 J0.00000
G2 X1.65591 Y0.90000 Z-0.04958 I-0.00591 J0.00000
G2 X1.65591 Y0.90000 Z-0.05249 I-0.00591 J0.00000
G2 X1.65591 Y0.90000 Z-0.05541 I-0.00591 J0.00000
G2 X1.65591 Y0.90000 Z-0.05833 I-0.00591 J0.00000
G2 X1.65591 Y0.90000 Z-0.06124 I-0.00591 J0.00000
G2 X1.65591 Y0.90000 Z-0.06416 I-0.00591 J0.00000
G2 X1.65591 Y0.90000 Z-0.06707 I-0.00591 J0.00000
G2 X1.65591 Y0.90000 Z-0.06999 I-0.00591 J0.00000
G2 X1.65591 Y0.90000 Z-0.07291 I-0.00591 J0.00000
G2 X1.65591 Y0.90000 Z-0.07582 I-0.00591 J0.00000
G2 X1.65591 Y0.90000 Z-0.07874 I-0.00591 J0.00000
G2 X1.65591 Y0.90000 I-0.00591 J0.00000
G1 Z0.07874 F9.44882

G0 X2.45591 Y1.50630
G1 Z0.00292 F9.44882
G1 F18.89764
G2 X2.45591 Y1.50630 Z-0.00000 I-0.00591 J0.00000
G2 X2.45591 Y1.50630 Z-0.00292 I-0.00591 J0.00000
G2 X2.45591 Y1.50630 Z-0.00583 I-0.00591 J0.00000
G2 X2.45591 Y1.50630 Z-0.00875 I-0.00591 J0.00000
G2 X2.45591 Y1.50630 Z-0.01167 I-0.00591 J0.00000
G2 X2.45591 Y1.50630 Z-0.01458 I-0.00591 J0.00000
G2 X2.45591 Y1.50630 Z-0.01750 I-0.00591 J0.00000
G2 X2.45591 Y1.50630 Z-0.02041 I-0.00591 J0.00000
G2 X2.45591 Y1.50630 Z-0.02333 I-0.00591 J0.00000
G2 X2.45591 Y1.50630 Z-0.02625 I-0.00591 J0.00000
G2 X2.45591 Y1.50630 Z-0.02916 I-0.00591 J0.00000
G2 X2.45591 Y1.50630 Z-0.03208 I-0.00591 J0.00000
G2 X2.45591 Y1.50630 Z-0.03500 I-0.00591 J0.00000
G2 X2.45591 Y1.50630 Z-0.03791 I-0.00591 J0.00000
G2 X2.45591 Y1.50630 Z-0.04083 I-0.00591 J0.00000
G2 X2.45591 Y1.50630 Z-0.04374 I-0.00591 J0.00000
G2 X2.45591 Y1.50630 Z-0.04666 I-0.00591 J0.00000
G2 X2.45591 Y1.50630 Z-0.04958 I-0.00591 J0.00000
G2 X2.45591 Y1.50630 Z-0.05249 I-0.00591 J0.00000
G2 X2.45591 Y1.50630 Z-0.05541 I-0.00591 J0.00000
G2 X2.45591 Y1.50630 Z-0.05833 I-0.00591 J0.00000
G2 X2.45591 Y1.50630 Z-0.06124 I-0.00591 J0.00000
G2 X2.45591 Y1.50630 Z-0.06416 I-0.00591 J0.00000
G2 X2.45591 Y1.50630 Z-0.06707 I-0.00591 J0.00000
G2 X2.45591 Y1.50630 Z-0.06999 I-0.00591 J0.00000
G2 X2.45591 Y1.50630 Z-0.07291 I-0.00591 J0.00000
G2 X2.45591 Y1.50630 Z-0.07582 I-0.00591 J0.00000
G2 X2.45591 Y1.50630 Z-0.07874 I-0.00591 J0.00000
G2 X2.45591 Y1.50630 I-0.00591 J0.00000
G1 Z0.07874 F9.44882

G0 X2.55591 Y1.50630
G1 Z0.00292 F9.44882
G1 F18.89764
G2 X2.55591 Y1.50630 Z-0.00000 I-0.00591 J0.00000
G2 X2.55591 Y1.50630 Z-0.00292 I-0.00591 J0.00000
G2 X2.55591 Y1.50630 Z-0.00583 I-0.00591 J0.00000
G2 X2.55591 Y1.50630 Z-0.00875 I-0.00591 J0.00000
G2 X2.55591 Y1.50630 Z-0.01167 I-0.00591 J0.00000
G2 X2.55591 Y1.50630 Z-0.01458 I-0.00591 J0.00000
G2 X2.55591 Y1.50630 Z-0.01750 I-0.00591 J0.00000
G2 X2.55591 Y1.50630 Z-0.02041 I-0.00591 J0.00000
G2 X2.55591 Y1.50630 Z-0.02333 I-0.00591 J0.00000
G2 X2.55591 Y1.50630 Z-0.02625 I-0.00591 J0.00000
G2 X2.55591 Y1.50630 Z-0.02916 I-0.00591 J0.00000
G2 X2.55591 Y1.50630 Z-0.03208 I-0.00591 J0.00000
G2 X2.55591 Y1.50630 Z-0.03500 I-0.00591 J0.00000
G2 X2.55591 Y1.50630 Z-0.03791 I-0.00591 J0.00000
G2 X2.55591 Y1.50630 Z-0.04083 I-0.00591 J0.00000
G2 X2.55591 Y1.50630 Z-0.04374 I-0.00591 J0.00000
G2 X2.55591 Y1.50630 Z-0.04666 I-0.00591 J0.00000
G2 X2.55591 Y1.50630 Z-0.04958 I-0.00591 J0.00000
G2 X2.55591 Y1.50630 Z-0.05249 I-0.00591 J0.00000
G2 X2.55591 Y1.50630 Z-0.05541 I-0.00591 J0.00000
G2 X2.55591 Y1.50630 Z-0.05833 I-0.00591 J0.00000
G2 X2.55591 Y1.50630 Z-0.06124 I-0.00591 J0.00000
G2 X2.55591 Y1.50630 Z-0.06416 I-0.00591 J0.00000
G2 X2.55591 Y1.50630 Z-0.06707 I-0.00591 J0.00000
G2 X2.55591 Y1.50630 Z-0.06999 I-0.00591 J0.00000
G2 X2.55591 Y1.50630 Z-0.07291 I-0.00591 J0.00000
G2 X2.55591 Y1.50630 Z-0.07582 I-0.00591 J0.00000
G2 X2.55591 Y1.50630 Z-0.07874 I-0.00591 J0.00000
G2 X2.55591 Y1.50630 I-0.00591 J0.00000
G1 Z0.07874 F9.44882

G0 X2.65591 Y1.50630
G1 Z0.00292 F9.44882
G1 F18.89764
G2 X2.65591 Y1.50630 Z-0.00000 I-0.00591 J0.00000
G2 X2.65591 Y1.50630 Z-0.00292 I-0.00591 J0.00000
G2 X2.65591 Y1.50630 Z-0.00583 I-0.00591 J0.00000
G2 X2.65591 Y1.50630 Z-0.00875 I-0.00591 J0.00000
G2 X2.65591 Y1.50630 Z-0.01167 I-0.00591 J0.00000
G2 X2.65591 Y1.50630 Z-0.01458 I-0.00591 J0.00000
G2 X2.65591 Y1.50630 Z-0.01750 I-0.00591 J0.00000
G2 X2.65591 Y1.50630 Z-0.02041 I-0.00591 J0.00000
G2 X2.65591 Y1.50630 Z-0.02333 I-0.00591 J0.00000
G2 X2.65591 Y1.50630 Z-0.02625 I-0.00591 J0.00000
G2 X2.65591 Y1.50630 Z-0.02916 I-0.00591 J0.00000
G2 X2.65591 Y1.50630 Z-0.03208 I-0.00591 J0.00000
G2 X2.65591 Y1.50630 Z-0.03500 I-0.00591 J0.00000
G2 X2.65591 Y1.50630 Z-0.03791 I-0.00591 J0.00000
G2 X2.65591 Y1.50630 Z-0.04083 I-0.00591 J0.00000
G2 X2.65591 Y1.50630 Z-0.04374 I-0.00591 J0.00000
G2 X2.65591 Y1.50630 Z-0.04666 I-0.00591 J0.00000
G2 X2.65591 Y1.50630 Z-0.04958 I-0.00591 J0.00000
G2 X2.65591 Y1.50630 Z-0.05249 I-0.00591 J0.00000
G2 X2.65591 Y1.50630 Z-0.05541 I-0.00591 J0.00000
G2 X2.65591 Y1.50630 Z-0.05833 I-0.00591 J0.00000
G2 X2.65591 Y1.50630 Z-0.06124 I-0.00591 J0.00000
G2 X2.65591 Y1.50630 Z-0.06416 I-0.00591 J0.00000
G2 X2.65591 Y1.50630 Z-0.06707 I-0.00591 J0.00000
G2 X2.65591 Y1.50630 Z-0.06999 I-0.00591 J0.00000
G2 X2.65591 Y1.50630 Z-0.07291 I-0.00591 J0.00000
G2 X2.65591 Y1.50630 Z-0.07582 I-0.00591 J0.00000
G2 X2.65591 Y1.50630 Z-0.07874 I-0.00591 J0.00000
G2 X2.65591 Y1.50630 I-0.00591 J0.00000
G1 Z0.07874 F9.44882

G0 X2.75591 Y1.50630
G1 Z0.00292 F9.44882
G1 F18.89764
G2 X2.75591 Y1.50630 Z-0.00000 I-0.00591 J0.00000
G2 X2.75591 Y1.50630 Z-0.00292 I-0.00591 J0.00000
G2 X2.75591 Y1.50630 Z-0.00583 I-0.00591 J0.00000
G2 X2.75591 Y1.50630 Z-0.00875 I-0.00591 J0.00000
G2 X2.75591 Y1.50630 Z-0.01167 I-0.00591 J0.00000
G2 X2.75591 Y1.50630 Z-0.01458 I-0.00591 J0.00000
G2 X2.75591 Y1.50630 Z-0.01750 I-0.00591 J0.00000
G2 X2.75591 Y1.50630 Z-0.02041 I-0.00591 J0.00000
G2 X2.75591 Y1.50630 Z-0.02333 I-0.00591 J0.00000
G2 X2.75591 Y1.50630 Z-0.02625 I-0.00591 J0.00000
G2 X2.75591 Y1.50630 Z-0.02916 I-0.00591 J0.00000
G2 X2.75591 Y1.50630 Z-0.03208 I-0.00591 J0.00000
G2 X2.75591 Y1.50630 Z-0.03500 I-0.00591 J0.00000
G2 X2.75591 Y1.50630 Z-0.03791 I-0.00591 J0.00000
G2 X2.75591 Y1.50630 Z-0.04083 I-0.00591 J0.00000
G2 X2.75591 Y1.50630 Z-0.04374 I-0.00591 J0.00000
G2 X2.75591 Y1.50630 Z-0.04666 I-0.00591 J0.00000
G2 X2.75591 Y1.50630 Z-0.04958 I-0.00591 J0.00000
G2 X2.75591 Y1.50630 Z-0.05249 I-0.00591 J0.00000
G2 X2.75591 Y1.50630 Z-0.05541 I-0.00591 J0.00000
G2 X2.75591 Y1.50630 Z-0.05833 I-0.00591 J0.00000
G2 X2.75591 Y1.50630 Z-0.06124 I-0.00591 J0.00000
G2 X2.75591 Y1.50630 Z-0.06416 I-0.00591 J0.00000
G2 X2.75591 Y1.50630 Z-0.06707 I-0.00591 J0.00000
G2 X2.75591 Y1.50630 Z-0.06999 I-0.00591 J0.00000
G2 X2.75591 Y1.50630 Z-0.07291 I-0.00591 J0.00000
G2 X2.75591 Y1.50630 Z-0.07582 I-0.00591 J0.00000
G2 X2.75591 Y1.50630 Z-0.07874 I-0.00591 J0.00000
G2 X2.75591 Y1.50630 I-0.00591 J0.00000
G1 Z0.07874 F9.44882

G0 X2.45591 Y1.19370
G1 Z0.00292 F9.44882
G1 F18.89764
G2 X2.45591 Y1.19370 Z-0.00000 I-0.00591 J0.00000
G2 X2.45591 Y1.19370 Z-0.00292 I-0.00591 J0.00000
G2 X2.45591 Y1.19370 Z-0.00583 I-0.00591 J0.00000
G2 X2.45591 Y1.19370 Z-0.00875 I-0.00591 J0.00000
G2 X2.45591 Y1.19370 Z-0.01167 I-0.00591 J0.00000
G2 X2.45591 Y1.19370 Z-0.01458 I-0.00591 J0.00000
G2 X2.45591 Y1.19370 Z-0.01750 I-0.00591 J0.00000
G2 X2.45591 Y1.19370 Z-0.02041 I-0.00591 J0.00000
G2 X2.45591 Y1.19370 Z-0.02333 I-0.00591 J0.00000
G2 X2.45591 Y1.19370 Z-0.02625 I-0.00591 J0.00000
G2 X2.45591 Y1.19370 Z-0.02916 I-0.00591 J0.00000
G2 X2.45591 Y1.19370 Z-0.03208 I-0.00591 J0.00000
G2 X2.45591 Y1.19370 Z-0.03500 I-0.00591 J0.00000
G2 X2.45591 Y1.19370 Z-0.03791 I-0.00591 J0.00000
G2 X2.45591 Y1.19370 Z-0.04083 I-0.00591 J0.00000
G2 X2.45591 Y1.19370 Z-0.04374 I-0.00591 J0.00000
G2 X2.45591 Y1.19370 Z-0.04666 I-0.00591 J0.00000
G2 X2.45591 Y1.19370 Z-0.04958 I-0.00591 J0.00000
G2 X2.45591 Y1.19370 Z-0.05249 I-0.00591 J0.00000
G2 X2.45591 Y1.19370 Z-0.05541 I-0.00591 J0.00000
G2 X2.45591 Y1.19370 Z-0.05833 I-0.00591 J0.00000
G2 X2.45591 Y1.19370 Z-0.06124 I-0.00591 J0.00000
G2 X2.45591 Y1.19370 Z-0.06416 I-0.00591 J0.00000
G2 X2.45591 Y1.19370 Z-0.06707 I-0.00591 J0.00000
G2 X2.45591 Y1.19370 Z-0.06999 I-0.00591 J0.00000
G2 X2.45591 Y1.19370 Z-0.07291 I-0.00591 J0.00000
G2 X2.45591 Y1.19370 Z-0.07582 I-0.00591 J0.00000
G2 X2.45591 Y1.19370 Z-0.07874 I-0.00591 J0.00000
G2 X2.45591 Y1.19370 I-0.00591 J0.00000
G1 Z0.07874 F9.44882

G0 X2.55591 Y1.19370
G1 Z0.00292 F9.44882
G1 F18.89764
G2 X2.55591 Y1.19370 Z-0.00000 I-0.00591 J0.00000
G2 X2.55591 Y1.19370 Z-0.00292 I-0.00591 J0.00000
G2 X2.55591 Y1.19370 Z-0.00583 I-0.00591 J0.00000
G2 X2.55591 Y1.19370 Z-0.00875 I-0.00591 J0.00000
G2 X2.55591 Y1.19370 Z-0.01167 I-0.00591 J0.00000
G2 X2.55591 Y1.19370 Z-0.01458 I-0.00591 J0.00000
G2 X2.55591 Y1.19370 Z-0.01750 I-0.00591 J0.00000
G2 X2.55591 Y1.19370 Z-0.02041 I-0.00591 J0.00000
G2 X2.55591 Y1.19370 Z-0.02333 I-0.00591 J0.00000
G2 X2.55591 Y1.19370 Z-0.02625 I-0.00591 J0.00000
G2 X2.55591 Y1.19370 Z-0.02916 I-0.00591 J0.00000
G2 X2.55591 Y1.19370 Z-0.03208 I-0.00591 J0.00000
G2 X2.55591 Y1.19370 Z-0.03500 I-0.00591 J0.00000
G2 X2.55591 Y1.19370 Z-0.03791 I-0.00591 J0.00000
G2 X2.55591 Y1.19370 Z-0.04083 I-0.00591 J0.00000
G2 X2.55591 Y1.19370 Z-0.04374 I-0.00591 J0.00000
G2 X2.55591 Y1.19370 Z-0.04666 I-0.00591 J0.00000
G2 X2.55591 Y1.19370 Z-0.04958 I-0.00591 J0.00000
G2 X2.55591 Y1.19370 Z-0.05249 I-0.00591 J0.00000
G2 X2.55591 Y1.19370 Z-0.05541 I-0.00591 J0.00000
G2 X2.55591 Y1.19370 Z-0.05833 I-0.00591 J0.00000
G2 X2.55591 Y1.19370 Z-0.06124 I-0.00591 J0.00000
G2 X2.55591 Y1.19370 Z-0.06416 I-0.00591 J0.00000
G2 X2.55591 Y1.19370 Z-0.06707 I-0.00591 J0.00000
G2 X2.55591 Y1.19370 Z-0.06999 I-0.00591 J0.00000
G2 X2.55591 Y1.19370 Z-0.07291 I-0.00591 J0.00000
G2 X2.55591 Y1.19370 Z-0.07582 I-0.00591 J0.00000
G2 X2.55591 Y1.19370 Z-0.07874 I-0.00591 J0.00000
G2 X2.55591 Y1.19370 I-0.00591 J0.00000
G1 Z0.07874 F9.44882

G0 X2.65591 Y1.19370
G1 Z0.00292 F9.44882
G1 F18.89764
G2 X2.65591 Y1.19370 Z-0.00000 I-0.00591 J0.00000
G2 X2.65591 Y1.19370 Z-0.00292 I-0.00591 J0.00000
G2 X2.65591 Y1.19370 Z-0.00583 I-0.00591 J0.00000
G2 X2.65591 Y1.19370 Z-0.00875 I-0.00591 J0.00000
G2 X2.65591 Y1.19370 Z-0.01167 I-0.00591 J0.00000
G2 X2.65591 Y1.19370 Z-0.01458 I-0.00591 J0.00000
G2 X2.65591 Y1.19370 Z-0.01750 I-0.00591 J0.00000
G2 X2.65591 Y1.19370 Z-0.02041 I-0.00591 J0.00000
G2 X2.65591 Y1.19370 Z-0.02333 I-0.00591 J0.00000
G2 X2.65591 Y1.19370 Z-0.02625 I-0.00591 J0.00000
G2 X2.65591 Y1.19370 Z-0.02916 I-0.00591 J0.00000
G2 X2.65591 Y1.19370 Z-0.03208 I-0.00591 J0.00000
G2 X2.65591 Y1.19370 Z-0.03500 I-0.00591 J0.00000
G2 X2.65591 Y1.19370 Z-0.03791 I-0.00591 J0.00000
G2 X2.65591 Y1.19370 Z-0.04083 I-0.00591 J0.00000
G2 X2.65591 Y1.19370 Z-0.04374 I-0.00591 J0.00000
G2 X2.65591 Y1.19370 Z-0.04666 I-0.00591 J0.00000
G2 X2.65591 Y1.19370 Z-0.04958 I-0.00591 J0.00000
G2 X2.65591 Y1.19370 Z-0.05249 I-0.00591 J0.00000
G2 X2.65591 Y1.19370 Z-0.05541 I-0.00591 J0.00000
G2 X2.65591 Y1.19370 Z-0.05833 I-0.00591 J0.00000
G2 X2.65591 Y1.19370 Z-0.06124 I-0.00591 J0.00000
G2 X2.65591 Y1.19370 Z-0.06416 I-0.00591 J0.00000
G2 X2.65591 Y1.19370 Z-0.06707 I-0.00591 J0.00000
G2 X2.65591 Y1.19370 Z-0.06999 I-0.00591 J0.00000
G2 X2.65591 Y1.19370 Z-0.07291 I-0.00591 J0.00000
G2 X2.65591 Y1.19370 Z-0.07582 I-0.00591 J0.00000
G2 X2.65591 Y1.19370 Z-0.07874 I-0.00591 J0.00000
G2 X2.65591 Y1.19370 I-0.00591 J0.00000
G1 Z0.07874 F9.44882

G0 X2.75591 Y1.19370
G1 Z0.00292 F9.44882
G1 F18.89764
G2 X2.75591 Y1.19370 Z-0.00000 I-0.00591 J0.00000
G2 X2.75591 Y1.19370 Z-0.00292 I-0.00591 J0.00000
G2 X2.75591 Y1.19370 Z-0.00583 I-0.00591 J0.00000
G2 X2.75591 Y1.19370 Z-0.00875 I-0.00591 J0.00000
G2 X2.75591 Y1.19370 Z-0.01167 I-0.00591 J0.00000
G2 X2.75591 Y1.19370 Z-0.01458 I-0.00591 J0.00000
G2 X2.75591 Y1.19370 Z-0.01750 I-0.00591 J0.00000
G2 X2.75591 Y1.19370 Z-0.02041 I-0.00591 J0.00000
G2 X2.75591 Y1.19370 Z-0.02333 I-0.00591 J0.00000
G2 X2.75591 Y1.19370 Z-0.02625 I-0.00591 J0.00000
G2 X2.75591 Y1.19370 Z-0.02916 I-0.00591 J0.00000
G2 X2.75591 Y1.19370 Z-0.03208 I-0.00591 J0.00000
G2 X2.75591 Y1.19370 Z-0.03500 I-0.00591 J0.00000
G2 X2.75591 Y1.19370 Z-0.03791 I-0.00591 J0.00000
G2 X2.75591 Y1.19370 Z-0.04083 I-0.00591 J0.00000
G2 X2.75591 Y1.19370 Z-0.04374 I-0.00591 J0.00000
G2 X2.75591 Y1.19370 Z-0.04666 I-0.00591 J0.00000
G2 X2.75591 Y1.19370 Z-0.04958 I-0.00591 J0.00000
G2 X2.75591 Y1.19370 Z-0.05249 I-0.00591 J0.00000
G2 X2.75591 Y1.19370 Z-0.05541 I-0.00591 J0.00000
G2 X2.75591 Y1.19370 Z-0.05833 I-0.00591 J0.00000
G2 X2.75591 Y1.19370 Z-0.06124 I-0.00591 J0.00000
G2 X2.75591 Y1.19370 Z-0.06416 I-0.00591 J0.00000
G2 X2.75591 Y1.19370 Z-0.06707 I-0.00591 J0.00000
G2 X2.75591 Y1.19370 Z-0.06999 I-0.00591 J0.00000
G2 X2.75591 Y1.19370 Z-0.07291 I-0.00591 J0.00000
G2 X2.75591 Y1.19370 Z-0.07582 I-0.00591 J0.00000
G2 X2.75591 Y1.19370 Z-0.07874 I-0.00591 J0.00000
G2 X2.75591 Y1.19370 I-0.00591 J0.00000
G1 Z0.07874 F9.44882

G0 X2.45591 Y0.63642
G1 Z0.00292 F9.44882
G1 F18.89764
G2 X2.45591 Y0.63642 Z-0.00000 I-0.00591 J0.00000
G2 X2.45591 Y0.63642 Z-0.00292 I-0.00591 J0.00000
G2 X2.45591 Y0.63642 Z-0.00583 I-0.00591 J0.00000
G2 X2.45591 Y0.63642 Z-0.00875 I-0.00591 J0.00000
G2 X2.45591 Y0.63642 Z-0.01167 I-0.00591 J0.00000
G2 X2.45591 Y0.63642 Z-0.01458 I-0.00591 J0.00000
G2 X2.45591 Y0.63642 Z-0.01750 I-0.00591 J0.00000
G2 X2.45591 Y0.63642 Z-0.02041 I-0.00591 J0.00000
G2 X2.45591 Y0.63642 Z-0.02333 I-0.00591 J0.00000
G2 X2.45591 Y0.63642 Z-0.02625 I-0.00591 J0.00000
G2 X2.45591 Y0.63642 Z-0.02916 I-0.00591 J0.00000
G2 X2.45591 Y0.63642 Z-0.03208 I-0.00591 J0.00000
G2 X2.45591 Y0.63642 Z-0.03500 I-0.00591 J0.00000
G2 X2.45591 Y0.63642 Z-0.03791 I-0.00591 J0.00000
G2 X2.45591 Y0.63642 Z-0.04083 I-0.00591 J0.00000
G2 X2.45591 Y0.63642 Z-0.04374 I-0.00591 J0.00000
G2 X2.45591 Y0.63642 Z-0.04666 I-0.00591 J0.00000
G2 X2.45591 Y0.63642 Z-0.04958 I-0.00591 J0.00000
G2 X2.45591 Y0.63642 Z-0.05249 I-0.00591 J0.00000
G2 X2.45591 Y0.63642 Z-0.05541 I-0.00591 J0.00000
G2 X2.45591 Y0.63642 Z-0.05833 I-0.00591 J0.00000
G2 X2.45591 Y0.63642 Z-0.06124 I-0.00591 J0.00000
G2 X2.45591 Y0.63642 Z-0.06416 I-0.00591 J0.00000
G2 X2.45591 Y0.63642 Z-0.06707 I-0.00591 J0.00000
G2 X2.45591 Y0.63642 Z-0.06999 I-0.00591 J0.00000
G2 X2.45591 Y0.63642 Z-0.07291 I-0.00591 J0.00000
G2 X2.45591 Y0.63642 Z-0.07582 I-0.00591 J0.00000
G2 X2.45591 Y0.63642 Z-0.07874 I-0.00591 J0.00000
G2 X2.45591 Y0.63642 I-0.00591 J0.00000
G1 Z0.07874 F9.44882

G0 X2.75591 Y0.63642
G1 Z0.00292 F9.44882
G1 F18.89764
G2 X2.75591 Y0.63642 Z-0.00000 I-0.00591 J0.00000
G2 X2.75591 Y0.63642 Z-0.00292 I-0.00591 J0.00000
G2 X2.75591 Y0.63642 Z-0.00583 I-0.00591 J0.00000
G2 X2.75591 Y0.63642 Z-0.00875 I-0.00591 J0.00000
G2 X2.75591 Y0.63642 Z-0.01167 I-0.00591 J0.00000
G2 X2.75591 Y0.63642 Z-0.01458 I-0.00591 J0.00000
G2 X2.75591 Y0.63642 Z-0.01750 I-0.00591 J0.00000
G2 X2.75591 Y0.63642 Z-0.02041 I-0.00591 J0.00000
G2 X2.75591 Y0.63642 Z-0.02333 I-0.00591 J0.00000
G2 X2.75591 Y0.63642 Z-0.02625 I-0.00591 J0.00000
G2 X2.75591 Y0.63642 Z-0.02916 I-0.00591 J0.00000
G2 X2.75591 Y0.63642 Z-0.03208 I-0.00591 J0.00000
G2 X2.75591 Y0.63642 Z-0.03500 I-0.00591 J0.00000
G2 X2.75591 Y0.63642 Z-0.03791 I-0.00591 J0.00000
G2 X2.75591 Y0.63642 Z-0.04083 I-0.00591 J0.00000
G2 X2.75591 Y0.63642 Z-0.04374 I-0.00591 J0.00000
G2 X2.75591 Y0.63642 Z-0.04666 I-0.00591 J0.00000
G2 X2.75591 Y0.63642 Z-0.04958 I-0.00591 J0.00000
G2 X2.75591 Y0.63642 Z-0.05249 I-0.00591 J0.00000
G2 X2.75591 Y0.63642 Z-0.05541 I-0.00591 J0.00000
G2 X2.75591 Y0.63642 Z-0.05833 I-0.00591 J0.00000
G2 X2.75591 Y0.63642 Z-0.06124 I-0.00591 J0.00000
G2 X2.75591 Y0.63642 Z-0.06416 I-0.00591 J0.00000
G2 X2.75591 Y0.63642 Z-0.06707 I-0.00591 J0.00000
G2 X2.75591 Y0.63642 Z-0.06999 I-0.00591 J0.00000
G2 X2.75591 Y0.63642 Z-0.07291 I-0.00591 J0.00000
G2 X2.75591 Y0.63642 Z-0.07582 I-0.00591 J0.00000
G2 X2.75591 Y0.63642 Z-0.07874 I-0.00591 J0.00000
G2 X2.75591 Y0.63642 I-0.00591 J0.00000
G1 Z0.07874 F9.44882

G0 X2.45591 Y0.20000
G1 Z0.00292 F9.44882
G1 F18.89764
G2 X2.45591 Y0.20000 Z-0.00000 I-0.00591 J0.00000
G2 X2.45591 Y0.20000 Z-0.00292 I-0.00591 J0.00000
G2 X2.45591 Y0.20000 Z-0.00583 I-0.00591 J0.00000
G2 X2.45591 Y0.20000 Z-0.00875 I-0.00591 J0.00000
G2 X2.45591 Y0.20000 Z-0.01167 I-0.00591 J0.00000
G2 X2.45591 Y0.20000 Z-0.01458 I-0.00591 J0.00000
G2 X2.45591 Y0.20000 Z-0.01750 I-0.00591 J0.00000
G2 X2.45591 Y0.20000 Z-0.02041 I-0.00591 J0.00000
G2 X2.45591 Y0.20000 Z-0.02333 I-0.00591 J0.00000
G2 X2.45591 Y0.20000 Z-0.02625 I-0.00591 J0.00000
G2 X2.45591 Y0.20000 Z-0.02916 I-0.00591 J0.00000
G2 X2.45591 Y0.20000 Z-0.03208 I-0.00591 J0.00000
G2 X2.45591 Y0.20000 Z-0.03500 I-0.00591 J0.00000
G2 X2.45591 Y0.20000 Z-0.03791 I-0.00591 J0.00000
G2 X2.45591 Y0.20000 Z-0.04083 I-0.00591 J0.00000
G2 X2.45591 Y0.20000 Z-0.04374 I-0.00591 J0.00000
G2 X2.45591 Y0.20000 Z-0.04666 I-0.00591 J0.00000
G2 X2.45591 Y0.20000 Z-0.04958 I-0.00591 J0.00000
G2 X2.45591 Y0.20000 Z-0.05249 I-0.00591 J0.00000
G2 X2.45591 Y0.20000 Z-0.05541 I-0.00591 J0.00000
G2 X2.45591 Y0.20000 Z-0.05833 I-0.00591 J0.00000
G2 X2.45591 Y0.20000 Z-0.06124 I-0.00591 J0.00000
G2 X2.45591 Y0.20000 Z-0.06416 I-0.00591 J0.00000
G2 X2.45591 Y0.20000 Z-0.06707 I-0.00591 J0.00000
G2 X2.45591 Y0.20000 Z-0.06999 I-0.00591 J0.00000
G2 X2.45591 Y0.20000 Z-0.07291 I-0.00591 J0.00000
G2 X2.45591 Y0.20000 Z-0.07582 I-0.00591 J0.00000
G2 X2.45591 Y0.20000 Z-0.07874 I-0.00591 J0.00000
G2 X2.45591 Y0.20000 I-0.00591 J0.00000
G1 Z0.07874 F9.44882

G0 X2.75591 Y0.20000
G1 Z0.00292 F9.44882
G1 F18.89764
G2 X2.75591 Y0.20000 Z-0.00000 I-0.00591 J0.00000
G2 X2.75591 Y0.20000 Z-0.00292 I-0.00591 J0.00000
G2 X2.75591 Y0.20000 Z-0.00583 I-0.00591 J0.00000
G2 X2.75591 Y0.20000 Z-0.00875 I-0.00591 J0.00000
G2 X2.75591 Y0.20000 Z-0.01167 I-0.00591 J0.00000
G2 X2.75591 Y0.20000 Z-0.01458 I-0.00591 J0.00000
G2 X2.75591 Y0.20000 Z-0.01750 I-0.00591 J0.00000
G2 X2.75591 Y0.20000 Z-0.02041 I-0.00591 J0.00000
G2 X2.75591 Y0.20000 Z-0.02333 I-0.00591 J0.00000
G2 X2.75591 Y0.20000 Z-0.02625 I-0.00591 J0.00000
G2 X2.75591 Y0.20000 Z-0.02916 I-0.00591 J0.00000
G2 X2.75591 Y0.20000 Z-0.03208 I-0.00591 J0.00000
G2 X2.75591 Y0.20000 Z-0.03500 I-0.00591 J0.00000
G2 X2.75591 Y0.20000 Z-0.03791 I-0.00591 J0.00000
G2 X2.75591 Y0.20000 Z-0.04083 I-0.00591 J0.00000
G2 X2.75591 Y0.20000 Z-0.04374 I-0.00591 J0.00000
G2 X2.75591 Y0.20000 Z-0.04666 I-0.00591 J0.00000
G2 X2.75591 Y0.20000 Z-0.04958 I-0.00591 J0.00000
G2 X2.75591 Y0.20000 Z-0.05249 I-0.00591 J0.00000
G2 X2.75591 Y0.20000 Z-0.05541 I-0.00591 J0.00000
G2 X2.75591 Y0.20000 Z-0.05833 I-0.00591 J0.00000
G2 X2.75591 Y0.20000 Z-0.06124 I-0.00591 J0.00000
G2 X2.75591 Y0.20000 Z-0.06416 I-0.00591 J0.00000
G2 X2.75591 Y0.20000 Z-0.06707 I-0.00591 J0.00000
G2 X2.75591 Y0.20000 Z-0.06999 I-0.00591 J0.00000
G2 X2.75591 Y0.20000 Z-0.07291 I-0.00591 J0.00000
G2 X2.75591 Y0.20000 Z-0.07582 I-0.00591 J0.00000
G2 X2.75591 Y0.20000 Z-0.07874 I-0.00591 J0.00000
G2 X2.75591 Y0.20000 I-0.00591 J0.00000
G1 Z0.07874 F9.44882

G0 X3.55591 Y1.05315
G1 Z0.00292 F9.44882
G1 F18.89764
G2 X3.55591 Y1.05315 Z-0.00000 I-0.00591 J0.00000
G2 X3.55591 Y1.05315 Z-0.00292 I-0.00591 J0.00000
G2 X3.55591 Y1.05315 Z-0.00583 I-0.00591 J0.00000
G2 X3.55591 Y1.05315 Z-0.00875 I-0.00591 J0.00000
G2 X3.55591 Y1.05315 Z-0.01167 I-0.00591 J0.00000
G2 X3.55591 Y1.05315 Z-0.01458 I-0.00591 J0.00000
G2 X3.55591 Y1.05315 Z-0.01750 I-0.00591 J0.00000
G2 X3.55591 Y1.05315 Z-0.02041 I-0.00591 J0.00000
G2 X3.55591 Y1.05315 Z-0.02333 I-0.00591 J0.00000
G2 X3.55591 Y1.05315 Z-0.02625 I-0.00591 J0.00000
G2 X3.55591 Y1.05315 Z-0.02916 I-0.00591 J0.00000
G2 X3.55591 Y1.05315 Z-0.03208 I-0.00591 J0.00000
G2 X3.55591 Y1.05315 Z-0.03500 I-0.00591 J0.00000
G2 X3.55591 Y1.05315 Z-0.03791 I-0.00591 J0.00000
G2 X3.55591 Y1.05315 Z-0.04083 I-0.00591 J0.00000
G2 X3.55591 Y1.05315 Z-0.04374 I-0.00591 J0.00000
G2 X3.55591 Y1.05315 Z-0.04666 I-0.00591 J0.00000
G2 X3.55591 Y1.05315 Z-0.04958 I-0.00591 J0.00000
G2 X3.55591 Y1.05315 Z-0.05249 I-0.00591 J0.00000
G2 X3.55591 Y1.05315 Z-0.05541 I-0.00591 J0.00000
G2 X3.55591 Y1.05315 Z-0.05833 I-0.00591 J0.00000
G2 X3.55591 Y1.05315 Z-0.06124 I-0.00591 J0.00000
G2 X3.55591 Y1.05315 Z-0.06416 I-0.00591 J0.00000
G2 X3.55591 Y1.05315 Z-0.06707 I-0.00591 J0.00000
G2 X3.55591 Y1.05315 Z-0.06999 I-0.00591 J0.00000
G2 X3.55591 Y1.05315 Z-0.07291 I-0.00591 J0.00000
G2 X3.55591 Y1.05315 Z-0.07582 I-0.00591 J0.00000
G2 X3.55591 Y1.05315 Z-0.07874 I-0.00591 J0.00000
G2 X3.55591 Y1.05315 I-0.00591 J0.00000
G1 Z0.07874 F9.44882

G0 X3.55591 Y1.25000
G1 Z0.00292 F9.44882
G1 F18.89764
G2 X3.55591 Y1.25000 Z-0.00000 I-0.00591 J0.00000
G2 X3.55591 Y1.25000 Z-0.00292 I-0.00591 J0.00000
G2 X3.55591 Y1.25000 Z-0.00583 I-0.00591 J0.00000
G2 X3.55591 Y1.25000 Z-0.00875 I-0.00591 J0.00000
G2 X3.55591 Y1.25000 Z-0.01167 I-0.00591 J0.00000
G2 X3.55591 Y1.25000 Z-0.01458 I-0.00591 J0.00000
G2 X3.55591 Y1.25000 Z-0.01750 I-0.00591 J0.00000
G2 X3.55591 Y1.25000 Z-0.02041 I-0.00591 J0.00000
G2 X3.55591 Y1.25000 Z-0.02333 I-0.00591 J0.00000
G2 X3.55591 Y1.25000 Z-0.02625 I-0.00591 J0.00000
G2 X3.55591 Y1.25000 Z-0.02916 I-0.00591 J0.00000
G2 X3.55591 Y1.25000 Z-0.03208 I-0.00591 J0.00000
G2 X3.55591 Y1.25000 Z-0.03500 I-0.00591 J0.00000
G2 X3.55591 Y1.25000 Z-0.03791 I-0.00591 J0.00000
G2 X3.55591 Y1.25000 Z-0.04083 I-0.00591 J0.00000
G2 X3.55591 Y1.25000 Z-0.04374 I-0.00591 J0.00000
G2 X3.55591 Y1.25000 Z-0.04666 I-0.00591 J0.00000
G2 X3.55591 Y1.25000 Z-0.04958 I-0.00591 J0.00000
G2 X3.55591 Y1.25000 Z-0.05249 I-0.00591 J0.00000
G2 X3.55591 Y1.25000 Z-0.05541 I-0.00591 J0.00000
G2 X3.55591 Y1.25000 Z-0.05833 I-0.00591 J0.00000
G2 X3.55591 Y1.25000 Z-0.06124 I-0.00591 J0.00000
G2 X3.55591 Y1.25000 Z-0.06416 I-0.00591 J0.00000
G2 X3.55591 Y1.25000 Z-0.06707 I-0.00591 J0.00000
G2 X3.55591 Y1.25000 Z-0.06999 I-0.00591 J0.00000
G2 X3.55591 Y1.25000 Z-0.07291 I-0.00591 J0.00000
G2 X3.55591 Y1.25000 Z-0.07582 I-0.00591 J0.00000
G2 X3.55591 Y1.25000 Z-0.07874 I-0.00591 J0.00000
G2 X3.55591 Y1.25000 I-0.00591 J0.00000
G1 Z0.07874 F9.44882

G0 X3.55591 Y1.55000
G1 Z0.00292 F9.44882
G1 F18.89764
G2 X3.55591 Y1.55000 Z-0.00000 I-0.00591 J0.00000
G2 X3.55591 Y1.55000 Z-0.00292 I-0.00591 J0.00000
G2 X3.55591 Y1.55000 Z-0.00583 I-0.00591 J0.00000
G2 X3.55591 Y1.55000 Z-0.00875 I-0.00591 J0.00000
G2 X3.55591 Y1.55000 Z-0.01167 I-0.00591 J0.00000
G2 X3.55591 Y1.55000 Z-0.01458 I-0.00591 J0.00000
G2 X3.55591 Y1.55000 Z-0.01750 I-0.00591 J0.00000
G2 X3.55591 Y1.55000 Z-0.02041 I-0.00591 J0.00000
G2 X3.55591 Y1.55000 Z-0.02333 I-0.00591 J0.00000
G2 X3.55591 Y1.55000 Z-0.02625 I-0.00591 J0.00000
G2 X3.55591 Y1.55000 Z-0.02916 I-0.00591 J0.00000
G2 X3.55591 Y1.55000 Z-0.03208 I-0.00591 J0.00000
G2 X3.55591 Y1.55000 Z-0.03500 I-0.00591 J0.00000
G2 X3.55591 Y1.55000 Z-0.03791 I-0.00591 J0.00000
G2 X3.55591 Y1.55000 Z-0.04083 I-0.00591 J0.00000
G2 X3.55591 Y1.55000 Z-0.04374 I-0.00591 J0.00000
G2 X3.55591 Y1.55000 Z-0.04666 I-0.00591 J0.00000
G2 X3.55591 Y1.55000 Z-0.04958 I-0.00591 J0.00000
G2 X3.55591 Y1.55000 Z-0.05249 I-0.00591 J0.00000
G2 X3.55591 Y1.55000 Z-0.05541 I-0.00591 J0.00000
G2 X3.55591 Y1.55000 Z-0.05833 I-0.00591 J0.00000
G2 X3.55591 Y1.55000 Z-0.06124 I-0.00591 J0.00000
G2 X3.55591 Y1.55000 Z-0.06416 I-0.00591 J0.00000
G2 X3.55591 Y1.55000 Z-0.06707 I-0.00591 J0.00000
G2 X3.55591 Y1.55000 Z-0.06999 I-0.00591 J0.00000
G2 X3.55591 Y1.55000 Z-0.07291 I-0.00591 J0.00000
G2 X3.55591 Y1.55000 Z-0.07582 I-0.00591 J0.00000
G2 X3.55591 Y1.55000 Z-0.07874 I-0.00591 J0.00000
G2 X3.55591 Y1.55000 I-0.00591 J0.00000
G1 Z0.07874 F9.44882

G0 X3.55591 Y1.74685
G1 Z0.00292 F9.44882
G1 F18.89764
G2 X3.55591 Y1.74685 Z-0.00000 I-0.00591 J0.00000
G2 X3.55591 Y1.74685 Z-0.00292 I-0.00591 J0.00000
G2 X3.55591 Y1.74685 Z-0.00583 I-0.00591 J0.00000
G2 X3.55591 Y1.74685 Z-0.00875 I-0.00591 J0.00000
G2 X3.55591 Y1.74685 Z-0.01167 I-0.00591 J0.00000
G2 X3.55591 Y1.74685 Z-0.01458 I-0.00591 J0.00000
G2 X3.55591 Y1.74685 Z-0.01750 I-0.00591 J0.00000
G2 X3.55591 Y1.74685 Z-0.02041 I-0.00591 J0.00000
G2 X3.55591 Y1.74685 Z-0.02333 I-0.00591 J0.00000
G2 X3.55591 Y1.74685 Z-0.02625 I-0.00591 J0.00000
G2 X3.55591 Y1.74685 Z-0.02916 I-0.00591 J0.00000
G2 X3.55591 Y1.74685 Z-0.03208 I-0.00591 J0.00000
G2 X3.55591 Y1.74685 Z-0.03500 I-0.00591 J0.00000
G2 X3.55591 Y1.74685 Z-0.03791 I-0.00591 J0.00000
G2 X3.55591 Y1.74685 Z-0.04083 I-0.00591 J0.00000
G2 X3.55591 Y1.74685 Z-0.04374 I-0.00591 J0.00000
G2 X3.55591 Y1.74685 Z-0.04666 I-0.00591 J0.00000
G2 X3.55591 Y1.74685 Z-0.04958 I-0.00591 J0.00000
G2 X3.55591 Y1.74685 Z-0.05249 I-0.00591 J0.00000
G2 X3.55591 Y1.74685 Z-0.05541 I-0.00591 J0.00000
G2 X3.55591 Y1.74685 Z-0.05833 I-0.00591 J0.00000
G2 X3.55591 Y1.74685 Z-0.06124 I-0.00591 J0.00000
G2 X3.55591 Y1.74685 Z-0.06416 I-0.00591 J0.00000
G2 X3.55591 Y1.74685 Z-0.06707 I-0.00591 J0.00000
G2 X3.55591 Y1.74685 Z-0.06999 I-0.00591 J0.00000
G2 X3.55591 Y1.74685 Z-0.07291 I-0.00591 J0.00000
G2 X3.55591 Y1.74685 Z-0.07582 I-0.00591 J0.00000
G2 X3.55591 Y1.74685 Z-0.07874 I-0.00591 J0.00000
G2 X3.55591 Y1.74685 I-0.00591 J0.00000
G1 Z0.07874 F9.44882

G0 X2.75591 Y2.50000
G1 Z0.00292 F9.44882
G1 F18.89764
G2 X2.75591 Y2.50000 Z-0.00000 I-0.00591 J0.00000
G2 X2.75591 Y2.50000 Z-0.00292 I-0.00591 J0.00000
G2 X2.75591 Y2.50000 Z-0.00583 I-0.00591 J0.00000
G2 X2.75591 Y2.50000 Z-0.00875 I-0.00591 J0.00000
G2 X2.75591 Y2.50000 Z-0.01167 I-0.00591 J0.00000
G2 X2.75591 Y2.50000 Z-0.01458 I-0.00591 J0.00000
G2 X2.75591 Y2.50000 Z-0.01750 I-0.00591 J0.00000
G2 X2.75591 Y2.50000 Z-0.02041 I-0.00591 J0.00000
G2 X2.75591 Y2.50000 Z-0.02333 I-0.00591 J0.00000
G2 X2.75591 Y2.50000 Z-0.02625 I-0.00591 J0.00000
G2 X2.75591 Y2.50000 Z-0.02916 I-0.00591 J0.00000
G2 X2.75591 Y2.50000 Z-0.03208 I-0.00591 J0.00000
G2 X2.75591 Y2.50000 Z-0.03500 I-0.00591 J0.00000
G2 X2.75591 Y2.50000 Z-0.03791 I-0.00591 J0.00000
G2 X2.75591 Y2.50000 Z-0.04083 I-0.00591 J0.00000
G2 X2.75591 Y2.50000 Z-0.04374 I-0.00591 J0.00000
G2 X2.75591 Y2.50000 Z-0.04666 I-0.00591 J0.00000
G2 X2.75591 Y2.50000 Z-0.04958 I-0.00591 J0.00000
G2 X2.75591 Y2.50000 Z-0.05249 I-0.00591 J0.00000
G2 X2.75591 Y2.50000 Z-0.05541 I-0.00591 J0.00000
G2 X2.75591 Y2.50000 Z-0.05833 I-0.00591 J0.00000
G2 X2.75591 Y2.50000 Z-0.06124 I-0.00591 J0.00000
G2 X2.75591 Y2.50000 Z-0.06416 I-0.00591 J0.00000
G2 X2.75591 Y2.50000 Z-0.06707 I-0.00591 J0.00000
G2 X2.75591 Y2.50000 Z-0.06999 I-0.00591 J0.00000
G2 X2.75591 Y2.50000 Z-0.07291 I-0.00591 J0.00000
G2 X2.75591 Y2.50000 Z-0.07582 I-0.00591 J0.00000
G2 X2.75591 Y2.50000 Z-0.07874 I-0.00591 J0.00000
G2 X2.75591 Y2.50000 I-0.00591 J0.00000
G1 Z0.07874 F9.44882

G0 X2.45591 Y2.50000
G1 Z0.00292 F9.44882
G1 F18.89764
G2 X2.45591 Y2.50000 Z-0.00000 I-0.00591 J0.00000
G2 X2.45591 Y2.50000 Z-0.00292 I-0.00591 J0.00000
G2 X2.45591 Y2.50000 Z-0.00583 I-0.00591 J0.00000
G2 X2.45591 Y2.50000 Z-0.00875 I-0.00591 J0.00000
G2 X2.45591 Y2.50000 Z-0.01167 I-0.00591 J0.00000
G2 X2.45591 Y2.50000 Z-0.01458 I-0.00591 J0.00000
G2 X2.45591 Y2.50000 Z-0.01750 I-0.00591 J0.00000
G2 X2.45591 Y2.50000 Z-0.02041 I-0.00591 J0.00000
G2 X2.45591 Y2.50000 Z-0.02333 I-0.00591 J0.00000
G2 X2.45591 Y2.50000 Z-0.02625 I-0.00591 J0.00000
G2 X2.45591 Y2.50000 Z-0.02916 I-0.00591 J0.00000
G2 X2.45591 Y2.50000 Z-0.03208 I-0.00591 J0.00000
G2 X2.45591 Y2.50000 Z-0.03500 I-0.00591 J0.00000
G2 X2.45591 Y2.50000 Z-0.03791 I-0.00591 J0.00000
G2 X2.45591 Y2.50000 Z-0.04083 I-0.00591 J0.00000
G2 X2.45591 Y2.50000 Z-0.04374 I-0.00591 J0.00000
G2 X2.45591 Y2.50000 Z-0.04666 I-0.00591 J0.00000
G2 X2.45591 Y2.50000 Z-0.04958 I-0.00591 J0.00000
G2 X2.45591 Y2.50000 Z-0.05249 I-0.00591 J0.00000
G2 X2.45591 Y2.50000 Z-0.05541 I-0.00591 J0.00000
G2 X2.45591 Y2.50000 Z-0.05833 I-0.00591 J0.00000
G2 X2.45591 Y2.50000 Z-0.06124 I-0.00591 J0.00000
G2 X2.45591 Y2.50000 Z-0.06416 I-0.00591 J0.00000
G2 X2.45591 Y2.50000 Z-0.06707 I-0.00591 J0.00000
G2 X2.45591 Y2.50000 Z-0.06999 I-0.00591 J0.00000
G2 X2.45591 Y2.50000 Z-0.07291 I-0.00591 J0.00000
G2 X2.45591 Y2.50000 Z-0.07582 I-0.00591 J0.00000
G2 X2.45591 Y2.50000 Z-0.07874 I-0.00591 J0.00000
G2 X2.45591 Y2.50000 I-0.00591 J0.00000
G1 Z0.07874 F9.44882

G0 X2.45591 Y2.06358
G1 Z0.00292 F9.44882
G1 F18.89764
G2 X2.45591 Y2.06358 Z-0.00000 I-0.00591 J0.00000
G2 X2.45591 Y2.06358 Z-0.00292 I-0.00591 J0.00000
G2 X2.45591 Y2.06358 Z-0.00583 I-0.00591 J0.00000
G2 X2.45591 Y2.06358 Z-0.00875 I-0.00591 J0.00000
G2 X2.45591 Y2.06358 Z-0.01167 I-0.00591 J0.00000
G2 X2.45591 Y2.06358 Z-0.01458 I-0.00591 J0.00000
G2 X2.45591 Y2.06358 Z-0.01750 I-0.00591 J0.00000
G2 X2.45591 Y2.06358 Z-0.02041 I-0.00591 J0.00000
G2 X2.45591 Y2.06358 Z-0.02333 I-0.00591 J0.00000
G2 X2.45591 Y2.06358 Z-0.02625 I-0.00591 J0.00000
G2 X2.45591 Y2.06358 Z-0.02916 I-0.00591 J0.00000
G2 X2.45591 Y2.06358 Z-0.03208 I-0.00591 J0.00000
G2 X2.45591 Y2.06358 Z-0.03500 I-0.00591 J0.00000
G2 X2.45591 Y2.06358 Z-0.03791 I-0.00591 J0.00000
G2 X2.45591 Y2.06358 Z-0.04083 I-0.00591 J0.00000
G2 X2.45591 Y2.06358 Z-0.04374 I-0.00591 J0.00000
G2 X2.45591 Y2.06358 Z-0.04666 I-0.00591 J0.00000
G2 X2.45591 Y2.06358 Z-0.04958 I-0.00591 J0.00000
G2 X2.45591 Y2.06358 Z-0.05249 I-0.00591 J0.00000
G2 X2.45591 Y2.06358 Z-0.05541 I-0.00591 J0.00000
G2 X2.45591 Y2.06358 Z-0.05833 I-0.00591 J0.00000
G2 X2.45591 Y2.06358 Z-0.06124 I-0.00591 J0.00000
G2 X2.45591 Y2.06358 Z-0.06416 I-0.00591 J0.00000
G2 X2.45591 Y2.06358 Z-0.06707 I-0.00591 J0.00000
G2 X2.45591 Y2.06358 Z-0.06999 I-0.00591 J0.00000
G2 X2.45591 Y2.06358 Z-0.07291 I-0.00591 J0.00000
G2 X2.45591 Y2.06358 Z-0.07582 I-0.00591 J0.00000
G2 X2.45591 Y2.06358 Z-0.07874 I-0.00591 J0.00000
G2 X2.45591 Y2.06358 I-0.00591 J0.00000
G1 Z0.07874 F9.44882

G0 X2.75591 Y2.06358
G1 Z0.00292 F9.44882
G1 F18.89764
G2 X2.75591 Y2.06358 Z-0.00000 I-0.00591 J0.00000
G2 X2.75591 Y2.06358 Z-0.00292 I-0.00591 J0.00000
G2 X2.75591 Y2.06358 Z-0.00583 I-0.00591 J0.00000
G2 X2.75591 Y2.06358 Z-0.00875 I-0.00591 J0.00000
G2 X2.75591 Y2.06358 Z-0.01167 I-0.00591 J0.00000
G2 X2.75591 Y2.06358 Z-0.01458 I-0.00591 J0.00000
G2 X2.75591 Y2.06358 Z-0.01750 I-0.00591 J0.00000
G2 X2.75591 Y2.06358 Z-0.02041 I-0.00591 J0.00000
G2 X2.75591 Y2.06358 Z-0.02333 I-0.00591 J0.00000
G2 X2.75591 Y2.06358 Z-0.02625 I-0.00591 J0.00000
G2 X2.75591 Y2.06358 Z-0.02916 I-0.00591 J0.00000
G2 X2.75591 Y2.06358 Z-0.03208 I-0.00591 J0.00000
G2 X2.75591 Y2.06358 Z-0.03500 I-0.00591 J0.00000
G2 X2.75591 Y2.06358 Z-0.03791 I-0.00591 J0.00000
G2 X2.75591 Y2.06358 Z-0.04083 I-0.00591 J0.00000
G2 X2.75591 Y2.06358 Z-0.04374 I-0.00591 J0.00000
G2 X2.75591 Y2.06358 Z-0.04666 I-0.00591 J0.00000
G2 X2.75591 Y2.06358 Z-0.04958 I-0.00591 J0.00000
G2 X2.75591 Y2.06358 Z-0.05249 I-0.00591 J0.00000
G2 X2.75591 Y2.06358 Z-0.05541 I-0.00591 J0.00000
G2 X2.75591 Y2.06358 Z-0.05833 I-0.00591 J0.00000
G2 X2.75591 Y2.06358 Z-0.06124 I-0.00591 J0.00000
G2 X2.75591 Y2.06358 Z-0.06416 I-0.00591 J0.00000
G2 X2.75591 Y2.06358 Z-0.06707 I-0.00591 J0.00000
G2 X2.75591 Y2.06358 Z-0.06999 I-0.00591 J0.00000
G2 X2.75591 Y2.06358 Z-0.07291 I-0.00591 J0.00000
G2 X2.75591 Y2.06358 Z-0.07582 I-0.00591 J0.00000
G2 X2.75591 Y2.06358 Z-0.07874 I-0.00591 J0.00000
G2 X2.75591 Y2.06358 I-0.00591 J0.00000
G1 Z0.07874 F9.44882

G00 Z0.590551 ( All done -- retract )

M5      (Spindle off.)
G04 P1.000000
M9      (Coolant off.)
M2      (Program end.)

