(G-CODE GENERATED BY FLATCAM v8.994 - www.flatcam.org - Version Date: 2020/11/7)

(Name: preamp-board-v4-F_Cu.gbr_iso_combined_cnc)
(Type: G-code from Geometry)
(Units: MM)

(Created on Wednesday, 05 May 2021 at 14:42)

(This preprocessor is the default preprocessor used by FlatCAM.)
(It is made to work with MACH3 compatible motion controllers.)

(TOOL DIAMETER: 0.1 mm)
(Feedrate_XY: 120.0 mm/min)
(Feedrate_Z: 60.0 mm/min)
(Feedrate rapids 1500.0 mm/min)

(Z_Cut: -0.05 mm)
(Z_Move: 2.0 mm)
(Z Start: None mm)
(Z End: 15.0 mm)
(X,Y End: None mm)
(Steps per circle: 64)
(Preprocessor Geometry: default)

(X range:   10.7550 ...   91.7200  mm)
(Y range:    3.5300 ...   65.0500  mm)

(Spindle Speed: 10000.0 RPM)
G21
G90
G94

G01 F120.00

M5
G00 Z15.0000
G00 X0.0000 Y0.0000
T1
M6    
(MSG, Change to Tool Dia = 0.1000)
M0
G00 Z15.0000

M03 S10000.0
G01 F120.00
G00 X11.4325 Y29.6601
G01 F60.00
G01 Z-0.0500
G01 F120.00
G01 X11.4962 Y29.6633
G01 X11.5617 Y29.6730
G01 X11.6259 Y29.6891
G01 X11.6860 Y29.7105
G01 X11.7503 Y29.7409
G01 X11.8050 Y29.7738
G01 X11.8582 Y29.8132
G01 X11.9073 Y29.8577
G01 X11.9502 Y29.9049
G01 X11.9926 Y29.9621
G01 X12.0253 Y30.0168
G01 X12.0536 Y30.0767
G01 X12.0759 Y30.1391
G01 X12.0920 Y30.2033
G01 X12.1017 Y30.2688
G01 X12.1050 Y30.3350
G01 X12.1050 Y33.0850
G01 X12.1017 Y33.1512
G01 X12.0920 Y33.2167
G01 X12.0759 Y33.2809
G01 X12.0536 Y33.3433
G01 X12.0253 Y33.4032
G01 X11.9912 Y33.4600
G01 X11.9518 Y33.5132
G01 X11.9073 Y33.5623
G01 X11.8582 Y33.6068
G01 X11.8050 Y33.6462
G01 X11.7482 Y33.6803
G01 X11.6883 Y33.7086
G01 X11.6259 Y33.7309
G01 X11.5617 Y33.7470
G01 X11.4962 Y33.7567
G01 X11.4300 Y33.7600
G01 X11.3638 Y33.7567
G01 X11.3007 Y33.7474
G01 X11.2317 Y33.7302
G01 X11.1717 Y33.7086
G01 X11.1118 Y33.6803
G01 X11.0550 Y33.6462
G01 X11.0018 Y33.6068
G01 X10.9527 Y33.5623
G01 X10.9098 Y33.5151
G01 X10.8674 Y33.4579
G01 X10.8347 Y33.4032
G01 X10.8064 Y33.3433
G01 X10.7841 Y33.2809
G01 X10.7680 Y33.2167
G01 X10.7583 Y33.1512
G01 X10.7550 Y33.0850
G01 X10.7550 Y30.3350
G01 X10.7583 Y30.2688
G01 X10.7680 Y30.2033
G01 X10.7841 Y30.1391
G01 X10.8064 Y30.0767
G01 X10.8347 Y30.0168
G01 X10.8688 Y29.9600
G01 X10.9082 Y29.9068
G01 X10.9527 Y29.8577
G01 X11.0018 Y29.8132
G01 X11.0550 Y29.7738
G01 X11.1118 Y29.7397
G01 X11.1717 Y29.7114
G01 X11.2341 Y29.6891
G01 X11.2983 Y29.6730
G01 X11.3638 Y29.6633
G01 X11.4325 Y29.6601
G00 Z2.0000
G00 X10.8797 Y38.6349
G01 F60.00
G01 Z-0.0500
G01 F120.00
G01 X10.8681 Y38.6190
G01 X10.8341 Y38.5621
G01 X10.8064 Y38.5033
G01 X10.7844 Y38.4421
G01 X10.7676 Y38.3743
G01 X10.7583 Y38.3112
G01 X10.7550 Y38.2462
G01 X10.7550 Y35.4950
G01 X10.7583 Y35.4288
G01 X10.7677 Y35.3645
G01 X10.7841 Y35.2991
G01 X10.8064 Y35.2367
G01 X10.8347 Y35.1768
G01 X10.8688 Y35.1200
G01 X10.9082 Y35.0668
G01 X10.9527 Y35.0177
G01 X11.0018 Y34.9732
G01 X11.0550 Y34.9338
G01 X11.1118 Y34.8997
G01 X11.1717 Y34.8714
G01 X11.2341 Y34.8491
G01 X11.2983 Y34.8330
G01 X11.3638 Y34.8233
G01 X11.4300 Y34.8200
G01 X11.4962 Y34.8233
G01 X11.5605 Y34.8327
G01 X11.6259 Y34.8491
G01 X11.6860 Y34.8705
G01 X11.7503 Y34.9009
G01 X11.8050 Y34.9338
G01 X11.8582 Y34.9732
G01 X11.9073 Y35.0177
G01 X11.9502 Y35.0649
G01 X11.9926 Y35.1221
G01 X12.0253 Y35.1768
G01 X12.0536 Y35.2367
G01 X12.0759 Y35.2991
G01 X12.0915 Y35.3609
G01 X12.1019 Y35.4301
G01 X12.1050 Y35.4950
G01 X12.1050 Y38.2462
G01 X12.1017 Y38.3112
G01 X12.0924 Y38.3743
G01 X12.0756 Y38.4421
G01 X12.0536 Y38.5033
G01 X12.0259 Y38.5621
G01 X11.9919 Y38.6190
G01 X11.9803 Y38.6349
G01 X11.9803 Y40.1431
G01 X17.0069 Y45.1697
G01 X39.3700 Y45.1697
G01 X39.9253 Y45.1701
G01 X39.9412 Y45.1708
G01 X39.9592 Y45.1734
G01 X39.9769 Y45.1775
G01 X39.9942 Y45.1833
G01 X40.0108 Y45.1907
G01 X40.0267 Y45.1995
G01 X40.0417 Y45.2098
G01 X40.0540 Y45.2199
G01 X40.0678 Y45.2334
G01 X40.0788 Y45.2465
G01 X40.0917 Y45.2653
G01 X40.0993 Y45.2792
G01 X40.1067 Y45.2958
G01 X40.1125 Y45.3131
G01 X40.1166 Y45.3308
G01 X40.1192 Y45.3488
G01 X40.1200 Y45.3670
G01 X40.1200 Y46.0730
G01 X40.1188 Y46.0947
G01 X40.1162 Y46.1114
G01 X40.1122 Y46.1278
G01 X40.1040 Y46.1506
G01 X40.0967 Y46.1659
G01 X40.0868 Y46.1824
G01 X40.0753 Y46.1980
G01 X40.0640 Y46.2105
G01 X40.0460 Y46.2268
G01 X40.0324 Y46.2368
G01 X40.0159 Y46.2467
G01 X39.9984 Y46.2550
G01 X39.9825 Y46.2607
G01 X39.9590 Y46.2666
G01 X39.9423 Y46.2691
G01 X39.9230 Y46.2700
G01 X16.7790 Y46.2703
G01 X16.7226 Y46.2673
G01 X16.6717 Y46.2597
G01 X16.6216 Y46.2472
G01 X16.5684 Y46.2284
G01 X16.5175 Y46.2041
G01 X16.4733 Y46.1775
G01 X16.4319 Y46.1469
G01 X16.3899 Y46.1091
G01 X11.0409 Y40.7601
G01 X11.0031 Y40.7181
G01 X10.9725 Y40.6767
G01 X10.9459 Y40.6325
G01 X10.9216 Y40.5816
G01 X10.9034 Y40.5307
G01 X10.8909 Y40.4807
G01 X10.8822 Y40.4225
G01 X10.8797 Y40.3710
G01 X10.8797 Y38.6349
G00 Z2.0000
G00 X23.3286 Y35.0097
G01 F60.00
G01 Z-0.0500
G01 F120.00
G01 X39.3700 Y35.0097
G01 X39.5712 Y35.0100
G01 X39.6239 Y35.0126
G01 X39.6773 Y35.0206
G01 X39.7297 Y35.0337
G01 X39.7805 Y35.0519
G01 X39.8293 Y35.0749
G01 X39.8756 Y35.1027
G01 X39.9189 Y35.1348
G01 X39.9589 Y35.1711
G01 X39.9952 Y35.2111
G01 X40.0273 Y35.2544
G01 X40.0551 Y35.3007
G01 X40.0781 Y35.3495
G01 X40.0963 Y35.4003
G01 X40.1094 Y35.4527
G01 X40.1174 Y35.5061
G01 X40.1200 Y35.5612
G01 X40.1174 Y35.6139
G01 X40.1094 Y35.6673
G01 X40.0963 Y35.7197
G01 X40.0781 Y35.7705
G01 X40.0551 Y35.8193
G01 X40.0273 Y35.8656
G01 X39.9952 Y35.9089
G01 X39.9589 Y35.9489
G01 X39.9189 Y35.9852
G01 X39.8756 Y36.0173
G01 X39.8293 Y36.0451
G01 X39.7805 Y36.0681
G01 X39.7297 Y36.0863
G01 X39.6773 Y36.0994
G01 X39.6239 Y36.1074
G01 X39.5712 Y36.1100
G01 X39.3700 Y36.1103
G01 X23.5350 Y36.1103
G01 X23.5350 Y38.2462
G01 X23.5314 Y38.3136
G01 X23.5220 Y38.3767
G01 X23.5063 Y38.4398
G01 X23.4836 Y38.5033
G01 X23.4564 Y38.5610
G01 X23.4198 Y38.6220
G01 X23.3818 Y38.6732
G01 X23.3373 Y38.7223
G01 X23.2882 Y38.7668
G01 X23.2350 Y38.8062
G01 X23.1782 Y38.8403
G01 X23.1183 Y38.8686
G01 X23.0559 Y38.8909
G01 X22.9941 Y38.9065
G01 X22.9237 Y38.9169
G01 X22.8600 Y38.9200
G01 X22.7914 Y38.9164
G01 X22.7283 Y38.9070
G01 X22.6641 Y38.8909
G01 X22.6017 Y38.8686
G01 X22.5440 Y38.8414
G01 X22.4830 Y38.8048
G01 X22.4318 Y38.7668
G01 X22.3845 Y38.7240
G01 X22.3367 Y38.6713
G01 X22.2988 Y38.6200
G01 X22.2647 Y38.5632
G01 X22.2364 Y38.5033
G01 X22.2148 Y38.4433
G01 X22.1977 Y38.3755
G01 X22.1883 Y38.3112
G01 X22.1850 Y38.2450
G01 X22.1850 Y35.4950
G01 X22.1886 Y35.4264
G01 X22.1980 Y35.3633
G01 X22.2134 Y35.3014
G01 X22.2364 Y35.2367
G01 X22.2659 Y35.1747
G01 X22.2988 Y35.1200
G01 X22.3367 Y35.0687
G01 X22.3827 Y35.0177
G01 X22.4337 Y34.9717
G01 X22.4850 Y34.9338
G01 X22.5397 Y34.9009
G01 X22.6040 Y34.8705
G01 X22.6641 Y34.8491
G01 X22.7259 Y34.8335
G01 X22.7938 Y34.8233
G01 X22.8600 Y34.8200
G01 X22.9237 Y34.8231
G01 X22.9917 Y34.8330
G01 X23.0559 Y34.8491
G01 X23.1160 Y34.8705
G01 X23.1782 Y34.8997
G01 X23.2370 Y34.9352
G01 X23.2882 Y34.9732
G01 X23.3286 Y35.0097
G00 Z2.0000
G00 X22.3098 Y28.2065
G01 F60.00
G01 Z-0.0500
G01 F120.00
G01 X22.3124 Y28.1551
G01 X22.3203 Y28.1017
G01 X22.3334 Y28.0493
G01 X22.3516 Y27.9984
G01 X22.3747 Y27.9496
G01 X22.4025 Y27.9033
G01 X22.4347 Y27.8599
G01 X22.4709 Y27.8199
G01 X37.8369 Y12.4539
G01 X37.8769 Y12.4177
G01 X37.9203 Y12.3855
G01 X37.9666 Y12.3577
G01 X38.0166 Y12.3342
G01 X38.0663 Y12.3164
G01 X38.1187 Y12.3033
G01 X38.1721 Y12.2954
G01 X38.2260 Y12.2927
G01 X63.1350 Y12.2927
G01 X63.1877 Y12.2953
G01 X63.2423 Y12.3033
G01 X63.2924 Y12.3158
G01 X63.3478 Y12.3356
G01 X63.3944 Y12.3577
G01 X63.4407 Y12.3855
G01 X63.4841 Y12.4177
G01 X63.5232 Y12.4531
G01 X65.6069 Y14.5368
G01 X65.6439 Y14.5779
G01 X65.6745 Y14.6193
G01 X65.7011 Y14.6635
G01 X65.7254 Y14.7144
G01 X65.7436 Y14.7653
G01 X65.7571 Y14.8201
G01 X65.7646 Y14.8711
G01 X65.7673 Y14.9250
G01 X65.7673 Y24.9687
G01 X67.3100 Y24.9687
G01 X67.3664 Y24.9717
G01 X67.4197 Y24.9799
G01 X67.4697 Y24.9924
G01 X67.5183 Y25.0098
G01 X67.5694 Y25.0337
G01 X67.6157 Y25.0615
G01 X67.6609 Y25.0953
G01 X67.6991 Y25.1299
G01 X67.7337 Y25.1681
G01 X67.7675 Y25.2133
G01 X67.7964 Y25.2618
G01 X67.8184 Y25.3084
G01 X67.8366 Y25.3593
G01 X67.8497 Y25.4117
G01 X67.8578 Y25.4675
G01 X67.8603 Y25.5190
G01 X67.8603 Y27.3116
G01 X67.8782 Y27.3496
G01 X67.8977 Y27.4041
G01 X67.9129 Y27.4638
G01 X67.9220 Y27.5247
G01 X67.9250 Y27.5850
G01 X67.9250 Y30.4562
G01 X67.9220 Y30.5153
G01 X67.9126 Y30.5774
G01 X67.8977 Y30.6359
G01 X67.8782 Y30.6904
G01 X67.8603 Y30.7284
G01 X67.8603 Y30.9611
G01 X69.3109 Y32.4117
G01 X85.7291 Y32.4117
G01 X86.7808 Y31.3601
G01 X86.8199 Y31.3247
G01 X86.8633 Y31.2925
G01 X86.9096 Y31.2647
G01 X86.9573 Y31.2421
G01 X87.0093 Y31.2234
G01 X87.0617 Y31.2103
G01 X87.1151 Y31.2024
G01 X87.1678 Y31.1998
G01 X88.8147 Y31.1997
G01 X88.8812 Y31.0889
G01 X88.9703 Y30.9686
G01 X89.0740 Y30.8540
G01 X89.1886 Y30.7503
G01 X89.3089 Y30.6612
G01 X89.4372 Y30.5842
G01 X89.5768 Y30.5180
G01 X89.7224 Y30.4661
G01 X89.8676 Y30.4298
G01 X90.0156 Y30.4078
G01 X90.1712 Y30.4000
G01 X90.3219 Y30.4075
G01 X90.4700 Y30.4294
G01 X90.6199 Y30.4667
G01 X90.7654 Y30.5190
G01 X90.9007 Y30.5830
G01 X91.0291 Y30.6599
G01 X91.1533 Y30.7518
G01 X91.2677 Y30.8558
G01 X91.3682 Y30.9667
G01 X91.4574 Y31.0869
G01 X91.5364 Y31.2183
G01 X91.6020 Y31.3568
G01 X91.6533 Y31.5001
G01 X91.6902 Y31.6476
G01 X91.7125 Y31.7981
G01 X91.7200 Y31.9500
G01 X91.7200 Y32.9500
G01 X91.7126 Y33.1007
G01 X91.6902 Y33.2524
G01 X91.6533 Y33.3999
G01 X91.6020 Y33.5432
G01 X91.5381 Y33.6785
G01 X91.4574 Y33.8131
G01 X91.3682 Y33.9333
G01 X91.2642 Y34.0477
G01 X91.1533 Y34.1482
G01 X91.0311 Y34.2388
G01 X90.9007 Y34.3170
G01 X90.7632 Y34.3820
G01 X90.6199 Y34.4333
G01 X90.4724 Y34.4702
G01 X90.3219 Y34.4925
G01 X90.1712 Y34.5000
G01 X90.0181 Y34.4925
G01 X89.8652 Y34.4697
G01 X89.7201 Y34.4333
G01 X89.5791 Y34.3829
G01 X89.4393 Y34.3170
G01 X89.3089 Y34.2388
G01 X89.1848 Y34.1466
G01 X89.0740 Y34.0460
G01 X88.9734 Y33.9352
G01 X88.8819 Y33.8121
G01 X88.8030 Y33.6807
G01 X88.7380 Y33.5432
G01 X88.6867 Y33.3999
G01 X88.6496 Y33.2512
G01 X88.6275 Y33.1019
G01 X88.6200 Y32.9512
G01 X88.6200 Y32.3003
G01 X87.3969 Y32.3003
G01 X86.3461 Y33.3511
G01 X86.3070 Y33.3866
G01 X86.2606 Y33.4208
G01 X86.2164 Y33.4473
G01 X86.1676 Y33.4704
G01 X86.1167 Y33.4886
G01 X86.0667 Y33.5011
G01 X86.0085 Y33.5098
G01 X85.9570 Y33.5123
G01 X69.0830 Y33.5123
G01 X69.0266 Y33.5093
G01 X68.9757 Y33.5017
G01 X68.9244 Y33.4889
G01 X68.8724 Y33.4704
G01 X68.8215 Y33.4461
G01 X68.7773 Y33.4195
G01 X68.7359 Y33.3889
G01 X68.6939 Y33.3511
G01 X66.9201 Y31.5772
G01 X66.8831 Y31.5361
G01 X66.8525 Y31.4947
G01 X66.8259 Y31.4505
G01 X66.8016 Y31.3996
G01 X66.7834 Y31.3487
G01 X66.7699 Y31.2939
G01 X66.7624 Y31.2429
G01 X66.7598 Y31.1915
G01 X66.7597 Y30.7284
G01 X66.7418 Y30.6904
G01 X66.7223 Y30.6359
G01 X66.7071 Y30.5762
G01 X66.6980 Y30.5153
G01 X66.6950 Y30.4550
G01 X66.6950 Y27.5838
G01 X66.6980 Y27.5247
G01 X66.7074 Y27.4626
G01 X66.7223 Y27.4041
G01 X66.7418 Y27.3496
G01 X66.7597 Y27.3116
G01 X66.7597 Y26.0693
G01 X61.4909 Y26.0693
G01 X59.2302 Y28.3299
G01 X59.1911 Y28.3653
G01 X59.1477 Y28.3975
G01 X59.1014 Y28.4253
G01 X59.0548 Y28.4474
G01 X58.9994 Y28.4672
G01 X58.9493 Y28.4797
G01 X58.8947 Y28.4877
G01 X58.8420 Y28.4903
G01 X41.9100 Y28.4903
G01 X41.7088 Y28.4900
G01 X41.6537 Y28.4871
G01 X41.6027 Y28.4794
G01 X41.5527 Y28.4670
G01 X41.4995 Y28.4481
G01 X41.4507 Y28.4251
G01 X41.4044 Y28.3973
G01 X41.3592 Y28.3636
G01 X41.3211 Y28.3289
G01 X41.2864 Y28.2908
G01 X41.2527 Y28.2456
G01 X41.2238 Y28.1971
G01 X41.2019 Y28.1505
G01 X41.1845 Y28.1020
G01 X41.1706 Y28.0473
G01 X41.1625 Y27.9915
G01 X41.1600 Y27.9400
G01 X41.1625 Y27.8885
G01 X41.1706 Y27.8327
G01 X41.1845 Y27.7780
G01 X41.2019 Y27.7295
G01 X41.2238 Y27.6829
G01 X41.2527 Y27.6344
G01 X41.2864 Y27.5892
G01 X41.3211 Y27.5511
G01 X41.3592 Y27.5164
G01 X41.4044 Y27.4827
G01 X41.4529 Y27.4538
G01 X41.4995 Y27.4319
G01 X41.5480 Y27.4145
G01 X41.6027 Y27.4006
G01 X41.6585 Y27.3925
G01 X41.7100 Y27.3900
G01 X41.9100 Y27.3897
G01 X58.6141 Y27.3897
G01 X60.8748 Y25.1291
G01 X60.9139 Y25.0937
G01 X60.9573 Y25.0615
G01 X61.0036 Y25.0337
G01 X61.0524 Y25.0106
G01 X61.1033 Y24.9924
G01 X61.1557 Y24.9793
G01 X61.2091 Y24.9714
G01 X61.2630 Y24.9687
G01 X64.6667 Y24.9687
G01 X64.6667 Y15.1529
G01 X62.9071 Y13.3933
G01 X38.4539 Y13.3933
G01 X23.4103 Y28.4369
G01 X23.4103 Y29.9451
G01 X23.4219 Y29.9610
G01 X23.4559 Y30.0179
G01 X23.4836 Y30.0767
G01 X23.5056 Y30.1379
G01 X23.5224 Y30.2057
G01 X23.5317 Y30.2688
G01 X23.5350 Y30.3338
G01 X23.5350 Y33.0850
G01 X23.5317 Y33.1512
G01 X23.5220 Y33.2167
G01 X23.5059 Y33.2809
G01 X23.4836 Y33.3433
G01 X23.4564 Y33.4010
G01 X23.4198 Y33.4620
G01 X23.3818 Y33.5132
G01 X23.3373 Y33.5623
G01 X23.2882 Y33.6068
G01 X23.2370 Y33.6448
G01 X23.1760 Y33.6814
G01 X23.1183 Y33.7086
G01 X23.0559 Y33.7309
G01 X22.9917 Y33.7470
G01 X22.9274 Y33.7566
G01 X22.8600 Y33.7600
G01 X22.7938 Y33.7567
G01 X22.7283 Y33.7470
G01 X22.6641 Y33.7309
G01 X22.6017 Y33.7086
G01 X22.5418 Y33.6803
G01 X22.4850 Y33.6462
G01 X22.4318 Y33.6068
G01 X22.3827 Y33.5623
G01 X22.3382 Y33.5132
G01 X22.2988 Y33.4600
G01 X22.2647 Y33.4032
G01 X22.2364 Y33.3433
G01 X22.2141 Y33.2809
G01 X22.1980 Y33.2167
G01 X22.1884 Y33.1524
G01 X22.1850 Y33.0850
G01 X22.1850 Y30.3338
G01 X22.1883 Y30.2688
G01 X22.1976 Y30.2057
G01 X22.2144 Y30.1379
G01 X22.2364 Y30.0767
G01 X22.2641 Y30.0179
G01 X22.2981 Y29.9610
G01 X22.3097 Y29.9451
G01 X22.3098 Y28.2065
G00 Z2.0000
G00 X36.5700 Y27.3900
G01 F60.00
G01 Z-0.0500
G01 F120.00
G01 X39.5700 Y27.3900
G01 X39.6239 Y27.3926
G01 X39.6761 Y27.4003
G01 X39.7297 Y27.4137
G01 X39.7805 Y27.4319
G01 X39.8293 Y27.4549
G01 X39.8756 Y27.4827
G01 X39.9189 Y27.5148
G01 X39.9589 Y27.5511
G01 X39.9952 Y27.5911
G01 X40.0273 Y27.6344
G01 X40.0551 Y27.6807
G01 X40.0781 Y27.7295
G01 X40.0963 Y27.7803
G01 X40.1094 Y27.8327
G01 X40.1174 Y27.8861
G01 X40.1200 Y27.9400
G01 X40.1174 Y27.9939
G01 X40.1097 Y28.0461
G01 X40.0955 Y28.1020
G01 X40.0781 Y28.1505
G01 X40.0551 Y28.1993
G01 X40.0273 Y28.2456
G01 X39.9967 Y28.2870
G01 X39.9571 Y28.3306
G01 X39.9189 Y28.3652
G01 X39.8756 Y28.3973
G01 X39.8293 Y28.4251
G01 X39.7827 Y28.4471
G01 X39.7273 Y28.4670
G01 X39.6773 Y28.4794
G01 X39.6251 Y28.4872
G01 X39.5700 Y28.4900
G01 X36.5700 Y28.4900
G01 X36.5161 Y28.4874
G01 X36.4639 Y28.4797
G01 X36.4103 Y28.4663
G01 X36.3595 Y28.4481
G01 X36.3107 Y28.4251
G01 X36.2665 Y28.3986
G01 X36.2192 Y28.3636
G01 X36.1811 Y28.3289
G01 X36.1433 Y28.2870
G01 X36.1127 Y28.2456
G01 X36.0849 Y28.1993
G01 X36.0619 Y28.1505
G01 X36.0437 Y28.0997
G01 X36.0306 Y28.0473
G01 X36.0226 Y27.9939
G01 X36.0200 Y27.9400
G01 X36.0226 Y27.8861
G01 X36.0306 Y27.8327
G01 X36.0437 Y27.7803
G01 X36.0619 Y27.7295
G01 X36.0849 Y27.6807
G01 X36.1127 Y27.6344
G01 X36.1448 Y27.5911
G01 X36.1811 Y27.5511
G01 X36.2192 Y27.5164
G01 X36.2665 Y27.4814
G01 X36.3107 Y27.4549
G01 X36.3618 Y27.4310
G01 X36.4103 Y27.4137
G01 X36.4627 Y27.4006
G01 X36.5161 Y27.3926
G01 X36.5700 Y27.3900
G00 Z2.0000
G00 X36.5700 Y24.8500
G01 F60.00
G01 Z-0.0500
G01 F120.00
G01 X39.5700 Y24.8500
G01 X39.6239 Y24.8526
G01 X39.6761 Y24.8603
G01 X39.7297 Y24.8737
G01 X39.7805 Y24.8919
G01 X39.8293 Y24.9149
G01 X39.8756 Y24.9427
G01 X39.9189 Y24.9748
G01 X39.9589 Y25.0111
G01 X39.9952 Y25.0511
G01 X40.0273 Y25.0944
G01 X40.0551 Y25.1407
G01 X40.0781 Y25.1895
G01 X40.0963 Y25.2403
G01 X40.1094 Y25.2927
G01 X40.1174 Y25.3461
G01 X40.1200 Y25.4000
G01 X40.1174 Y25.4539
G01 X40.1097 Y25.5061
G01 X40.0955 Y25.5620
G01 X40.0781 Y25.6105
G01 X40.0551 Y25.6593
G01 X40.0273 Y25.7056
G01 X39.9967 Y25.7470
G01 X39.9571 Y25.7906
G01 X39.9189 Y25.8252
G01 X39.8756 Y25.8573
G01 X39.8293 Y25.8851
G01 X39.7827 Y25.9071
G01 X39.7273 Y25.9270
G01 X39.6773 Y25.9394
G01 X39.6251 Y25.9472
G01 X39.5700 Y25.9500
G01 X36.5700 Y25.9500
G01 X36.5161 Y25.9474
G01 X36.4639 Y25.9397
G01 X36.4103 Y25.9263
G01 X36.3595 Y25.9081
G01 X36.3107 Y25.8851
G01 X36.2665 Y25.8586
G01 X36.2192 Y25.8236
G01 X36.1811 Y25.7889
G01 X36.1433 Y25.7470
G01 X36.1127 Y25.7056
G01 X36.0849 Y25.6593
G01 X36.0619 Y25.6105
G01 X36.0437 Y25.5597
G01 X36.0306 Y25.5073
G01 X36.0226 Y25.4539
G01 X36.0200 Y25.4000
G01 X36.0226 Y25.3461
G01 X36.0306 Y25.2927
G01 X36.0437 Y25.2403
G01 X36.0619 Y25.1895
G01 X36.0849 Y25.1407
G01 X36.1127 Y25.0944
G01 X36.1448 Y25.0511
G01 X36.1811 Y25.0111
G01 X36.2192 Y24.9764
G01 X36.2665 Y24.9414
G01 X36.3107 Y24.9149
G01 X36.3618 Y24.8910
G01 X36.4103 Y24.8737
G01 X36.4627 Y24.8606
G01 X36.5161 Y24.8526
G01 X36.5700 Y24.8500
G00 Z2.0000
G00 X36.5700 Y22.3100
G01 F60.00
G01 Z-0.0500
G01 F120.00
G01 X39.5700 Y22.3100
G01 X39.6239 Y22.3126
G01 X39.6761 Y22.3203
G01 X39.7297 Y22.3337
G01 X39.7805 Y22.3519
G01 X39.8293 Y22.3749
G01 X39.8756 Y22.4027
G01 X39.9189 Y22.4348
G01 X39.9589 Y22.4711
G01 X39.9952 Y22.5111
G01 X40.0273 Y22.5544
G01 X40.0551 Y22.6007
G01 X40.0781 Y22.6495
G01 X40.0963 Y22.7003
G01 X40.1094 Y22.7527
G01 X40.1174 Y22.8061
G01 X40.1200 Y22.8600
G01 X40.1174 Y22.9139
G01 X40.1097 Y22.9661
G01 X40.0955 Y23.0220
G01 X40.0781 Y23.0705
G01 X40.0551 Y23.1193
G01 X40.0273 Y23.1656
G01 X39.9967 Y23.2070
G01 X39.9571 Y23.2506
G01 X39.9189 Y23.2852
G01 X39.8756 Y23.3173
G01 X39.8293 Y23.3451
G01 X39.7827 Y23.3671
G01 X39.7273 Y23.3870
G01 X39.6773 Y23.3994
G01 X39.6251 Y23.4072
G01 X39.5700 Y23.4100
G01 X36.5700 Y23.4100
G01 X36.5161 Y23.4074
G01 X36.4639 Y23.3997
G01 X36.4103 Y23.3863
G01 X36.3595 Y23.3681
G01 X36.3107 Y23.3451
G01 X36.2665 Y23.3186
G01 X36.2192 Y23.2836
G01 X36.1811 Y23.2489
G01 X36.1433 Y23.2070
G01 X36.1127 Y23.1656
G01 X36.0849 Y23.1193
G01 X36.0619 Y23.0705
G01 X36.0437 Y23.0197
G01 X36.0306 Y22.9673
G01 X36.0226 Y22.9139
G01 X36.0200 Y22.8600
G01 X36.0226 Y22.8061
G01 X36.0306 Y22.7527
G01 X36.0437 Y22.7003
G01 X36.0619 Y22.6495
G01 X36.0849 Y22.6007
G01 X36.1127 Y22.5544
G01 X36.1448 Y22.5111
G01 X36.1811 Y22.4711
G01 X36.2192 Y22.4364
G01 X36.2665 Y22.4014
G01 X36.3107 Y22.3749
G01 X36.3618 Y22.3510
G01 X36.4103 Y22.3337
G01 X36.4627 Y22.3206
G01 X36.5161 Y22.3126
G01 X36.5700 Y22.3100
G00 Z2.0000
G00 X41.7100 Y22.3100
G01 F60.00
G01 Z-0.0500
G01 F120.00
G01 X44.7100 Y22.3100
G01 X44.7639 Y22.3126
G01 X44.8161 Y22.3203
G01 X44.8697 Y22.3337
G01 X44.9205 Y22.3519
G01 X44.9693 Y22.3749
G01 X45.0156 Y22.4027
G01 X45.0589 Y22.4348
G01 X45.0989 Y22.4711
G01 X45.1352 Y22.5111
G01 X45.1673 Y22.5544
G01 X45.1951 Y22.6007
G01 X45.2181 Y22.6495
G01 X45.2363 Y22.7003
G01 X45.2494 Y22.7527
G01 X45.2574 Y22.8061
G01 X45.2600 Y22.8600
G01 X45.2574 Y22.9139
G01 X45.2497 Y22.9661
G01 X45.2355 Y23.0220
G01 X45.2181 Y23.0705
G01 X45.1951 Y23.1193
G01 X45.1673 Y23.1656
G01 X45.1367 Y23.2070
G01 X45.0971 Y23.2506
G01 X45.0589 Y23.2852
G01 X45.0156 Y23.3173
G01 X44.9693 Y23.3451
G01 X44.9227 Y23.3671
G01 X44.8673 Y23.3870
G01 X44.8173 Y23.3994
G01 X44.7651 Y23.4072
G01 X44.7100 Y23.4100
G01 X41.7100 Y23.4100
G01 X41.6561 Y23.4074
G01 X41.6039 Y23.3997
G01 X41.5503 Y23.3863
G01 X41.4995 Y23.3681
G01 X41.4507 Y23.3451
G01 X41.4065 Y23.3186
G01 X41.3592 Y23.2836
G01 X41.3211 Y23.2489
G01 X41.2833 Y23.2070
G01 X41.2527 Y23.1656
G01 X41.2249 Y23.1193
G01 X41.2019 Y23.0705
G01 X41.1837 Y23.0197
G01 X41.1706 Y22.9673
G01 X41.1626 Y22.9139
G01 X41.1600 Y22.8600
G01 X41.1626 Y22.8061
G01 X41.1706 Y22.7527
G01 X41.1837 Y22.7003
G01 X41.2019 Y22.6495
G01 X41.2249 Y22.6007
G01 X41.2527 Y22.5544
G01 X41.2848 Y22.5111
G01 X41.3211 Y22.4711
G01 X41.3592 Y22.4364
G01 X41.4065 Y22.4014
G01 X41.4507 Y22.3749
G01 X41.5018 Y22.3510
G01 X41.5503 Y22.3337
G01 X41.6027 Y22.3206
G01 X41.6561 Y22.3126
G01 X41.7100 Y22.3100
G00 Z2.0000
G00 X41.7100 Y24.8500
G01 F60.00
G01 Z-0.0500
G01 F120.00
G01 X55.7681 Y24.8497
G01 X61.6797 Y18.9381
G01 X61.6797 Y17.7150
G01 X61.0300 Y17.7150
G01 X60.8781 Y17.7075
G01 X60.7276 Y17.6852
G01 X60.5824 Y17.6489
G01 X60.4368 Y17.5970
G01 X60.2993 Y17.5320
G01 X60.1689 Y17.4538
G01 X60.0467 Y17.3632
G01 X59.9358 Y17.2627
G01 X59.8303 Y17.1464
G01 X59.7412 Y17.0261
G01 X59.6625 Y16.8946
G01 X59.5980 Y16.7582
G01 X59.5475 Y16.6173
G01 X59.5098 Y16.4674
G01 X59.4875 Y16.3169
G01 X59.4801 Y16.1675
G01 X59.4875 Y16.0131
G01 X59.5098 Y15.8626
G01 X59.5461 Y15.7174
G01 X59.5980 Y15.5718
G01 X59.6630 Y15.4343
G01 X59.7399 Y15.3059
G01 X59.8318 Y15.1817
G01 X59.9340 Y15.0690
G01 X60.0448 Y14.9684
G01 X60.1709 Y14.8749
G01 X60.2993 Y14.7980
G01 X60.4368 Y14.7330
G01 X60.5801 Y14.6817
G01 X60.7252 Y14.6453
G01 X60.8781 Y14.6225
G01 X61.0288 Y14.6150
G01 X62.0300 Y14.6150
G01 X62.1819 Y14.6225
G01 X62.3348 Y14.6453
G01 X62.4799 Y14.6817
G01 X62.6209 Y14.7321
G01 X62.7607 Y14.7980
G01 X62.8931 Y14.8776
G01 X63.0133 Y14.9668
G01 X63.1242 Y15.0673
G01 X63.2282 Y15.1817
G01 X63.3201 Y15.3059
G01 X63.3970 Y15.4343
G01 X63.4620 Y15.5718
G01 X63.5133 Y15.7151
G01 X63.5502 Y15.8626
G01 X63.5725 Y16.0131
G01 X63.5799 Y16.1625
G01 X63.5722 Y16.3194
G01 X63.5502 Y16.4674
G01 X63.5125 Y16.6173
G01 X63.4620 Y16.7582
G01 X63.3970 Y16.8957
G01 X63.3188 Y17.0261
G01 X63.2282 Y17.1483
G01 X63.1260 Y17.2610
G01 X63.0133 Y17.3632
G01 X62.8911 Y17.4538
G01 X62.7803 Y17.5203
G01 X62.7802 Y19.1685
G01 X62.7776 Y19.2199
G01 X62.7701 Y19.2709
G01 X62.7566 Y19.3257
G01 X62.7384 Y19.3766
G01 X62.7164 Y19.4232
G01 X62.6868 Y19.4727
G01 X62.6553 Y19.5151
G01 X62.6191 Y19.5551
G01 X56.3851 Y25.7891
G01 X56.3451 Y25.8253
G01 X56.3017 Y25.8575
G01 X56.2554 Y25.8853
G01 X56.2066 Y25.9084
G01 X56.1557 Y25.9266
G01 X56.1033 Y25.9397
G01 X56.0499 Y25.9476
G01 X55.9960 Y25.9503
G01 X41.9100 Y25.9503
G01 X41.7100 Y25.9500
G01 X41.6573 Y25.9475
G01 X41.6027 Y25.9394
G01 X41.5503 Y25.9263
G01 X41.4995 Y25.9081
G01 X41.4507 Y25.8851
G01 X41.4044 Y25.8573
G01 X41.3611 Y25.8252
G01 X41.3211 Y25.7889
G01 X41.2864 Y25.7508
G01 X41.2514 Y25.7035
G01 X41.2249 Y25.6593
G01 X41.2010 Y25.6082
G01 X41.1837 Y25.5597
G01 X41.1706 Y25.5073
G01 X41.1626 Y25.4539
G01 X41.1601 Y25.3975
G01 X41.1626 Y25.3461
G01 X41.1706 Y25.2927
G01 X41.1837 Y25.2403
G01 X41.2019 Y25.1895
G01 X41.2249 Y25.1407
G01 X41.2527 Y25.0944
G01 X41.2848 Y25.0511
G01 X41.3211 Y25.0111
G01 X41.3611 Y24.9748
G01 X41.4044 Y24.9427
G01 X41.4507 Y24.9149
G01 X41.4995 Y24.8919
G01 X41.5503 Y24.8737
G01 X41.6027 Y24.8606
G01 X41.6561 Y24.8526
G01 X41.7100 Y24.8500
G00 Z2.0000
G00 X41.7100 Y29.9300
G01 F60.00
G01 Z-0.0500
G01 F120.00
G01 X44.7100 Y29.9300
G01 X44.7639 Y29.9326
G01 X44.8161 Y29.9403
G01 X44.8697 Y29.9537
G01 X44.9205 Y29.9719
G01 X44.9693 Y29.9949
G01 X45.0156 Y30.0227
G01 X45.0589 Y30.0548
G01 X45.0989 Y30.0911
G01 X45.1352 Y30.1311
G01 X45.1673 Y30.1744
G01 X45.1951 Y30.2207
G01 X45.2181 Y30.2695
G01 X45.2363 Y30.3203
G01 X45.2494 Y30.3727
G01 X45.2574 Y30.4261
G01 X45.2600 Y30.4800
G01 X45.2574 Y30.5339
G01 X45.2497 Y30.5861
G01 X45.2355 Y30.6420
G01 X45.2181 Y30.6905
G01 X45.1951 Y30.7393
G01 X45.1673 Y30.7856
G01 X45.1367 Y30.8270
G01 X45.0971 Y30.8706
G01 X45.0589 Y30.9052
G01 X45.0156 Y30.9373
G01 X44.9693 Y30.9651
G01 X44.9227 Y30.9871
G01 X44.8673 Y31.0070
G01 X44.8173 Y31.0194
G01 X44.7651 Y31.0272
G01 X44.7100 Y31.0300
G01 X41.7100 Y31.0300
G01 X41.6561 Y31.0274
G01 X41.6039 Y31.0197
G01 X41.5503 Y31.0063
G01 X41.4995 Y30.9881
G01 X41.4507 Y30.9651
G01 X41.4065 Y30.9386
G01 X41.3592 Y30.9036
G01 X41.3211 Y30.8689
G01 X41.2833 Y30.8270
G01 X41.2527 Y30.7856
G01 X41.2249 Y30.7393
G01 X41.2019 Y30.6905
G01 X41.1837 Y30.6397
G01 X41.1706 Y30.5873
G01 X41.1626 Y30.5339
G01 X41.1600 Y30.4800
G01 X41.1626 Y30.4261
G01 X41.1706 Y30.3727
G01 X41.1837 Y30.3203
G01 X41.2019 Y30.2695
G01 X41.2249 Y30.2207
G01 X41.2527 Y30.1744
G01 X41.2848 Y30.1311
G01 X41.3211 Y30.0911
G01 X41.3592 Y30.0564
G01 X41.4065 Y30.0214
G01 X41.4507 Y29.9949
G01 X41.5018 Y29.9710
G01 X41.5503 Y29.9537
G01 X41.6027 Y29.9406
G01 X41.6561 Y29.9326
G01 X41.7100 Y29.9300
G00 Z2.0000
G00 X41.7100 Y32.4700
G01 F60.00
G01 Z-0.0500
G01 F120.00
G01 X66.3100 Y32.4697
G01 X66.3664 Y32.4727
G01 X66.4173 Y32.4803
G01 X66.4697 Y32.4934
G01 X66.5206 Y32.5116
G01 X66.5672 Y32.5336
G01 X66.6177 Y32.5639
G01 X66.6591 Y32.5947
G01 X66.6982 Y32.6301
G01 X70.0779 Y36.0097
G01 X84.3590 Y36.0097
G01 X84.4129 Y36.0124
G01 X84.4651 Y36.0201
G01 X84.5211 Y36.0342
G01 X84.5696 Y36.0516
G01 X84.6184 Y36.0747
G01 X84.6667 Y36.1039
G01 X84.7081 Y36.1347
G01 X84.7472 Y36.1701
G01 X87.3969 Y38.8197
G01 X88.6200 Y38.8197
G01 X88.6200 Y38.1688
G01 X88.6275 Y38.0181
G01 X88.6500 Y37.8664
G01 X88.6875 Y37.7177
G01 X88.7380 Y37.5768
G01 X88.8019 Y37.4415
G01 X88.8812 Y37.3089
G01 X88.9726 Y37.1858
G01 X89.0758 Y37.0723
G01 X89.1867 Y36.9718
G01 X89.3069 Y36.8826
G01 X89.4393 Y36.8030
G01 X89.5791 Y36.7371
G01 X89.7201 Y36.6867
G01 X89.8652 Y36.6503
G01 X90.0181 Y36.6275
G01 X90.1725 Y36.6201
G01 X90.3219 Y36.6275
G01 X90.4700 Y36.6494
G01 X90.6199 Y36.6867
G01 X90.7654 Y36.7390
G01 X90.9007 Y36.8030
G01 X91.0291 Y36.8799
G01 X91.1533 Y36.9718
G01 X91.2660 Y37.0740
G01 X91.3697 Y37.1886
G01 X91.4601 Y37.3109
G01 X91.5370 Y37.4393
G01 X91.6010 Y37.5746
G01 X91.6539 Y37.7224
G01 X91.6902 Y37.8676
G01 X91.7126 Y38.0193
G01 X91.7200 Y38.1700
G01 X91.7200 Y39.1700
G01 X91.7122 Y39.3244
G01 X91.6902 Y39.4724
G01 X91.6533 Y39.6199
G01 X91.6020 Y39.7632
G01 X91.5370 Y39.9007
G01 X91.4588 Y40.0311
G01 X91.3682 Y40.1533
G01 X91.2660 Y40.2660
G01 X91.1533 Y40.3682
G01 X91.0311 Y40.4588
G01 X90.9007 Y40.5370
G01 X90.7632 Y40.6020
G01 X90.6199 Y40.6533
G01 X90.4724 Y40.6902
G01 X90.3219 Y40.7125
G01 X90.1700 Y40.7200
G01 X90.0181 Y40.7125
G01 X89.8676 Y40.6902
G01 X89.7177 Y40.6525
G01 X89.5768 Y40.6020
G01 X89.4415 Y40.5381
G01 X89.3089 Y40.4588
G01 X89.1867 Y40.3682
G01 X89.0723 Y40.2642
G01 X88.9703 Y40.1514
G01 X88.8812 Y40.0311
G01 X88.8147 Y39.9203
G01 X87.1665 Y39.9202
G01 X87.1151 Y39.9176
G01 X87.0641 Y39.9101
G01 X87.0093 Y39.8966
G01 X86.9562 Y39.8774
G01 X86.9096 Y39.8553
G01 X86.8654 Y39.8288
G01 X86.8199 Y39.7953
G01 X86.7799 Y39.7591
G01 X84.1311 Y37.1103
G01 X70.4003 Y37.1103
G01 X70.4003 Y37.5100
G01 X70.4175 Y37.5101
G01 X70.4260 Y37.5112
G01 X70.4307 Y37.5125
G01 X70.4364 Y37.5148
G01 X70.4448 Y37.5198
G01 X70.4495 Y37.5238
G01 X70.4529 Y37.5273
G01 X70.4566 Y37.5322
G01 X70.4591 Y37.5364
G01 X70.4612 Y37.5409
G01 X70.4632 Y37.5467
G01 X70.4645 Y37.5527
G01 X70.4650 Y37.5588
G01 X70.4650 Y41.5600
G01 X70.4646 Y41.5661
G01 X70.4635 Y41.5721
G01 X70.4607 Y41.5803
G01 X70.4566 Y41.5878
G01 X70.4512 Y41.5945
G01 X70.4458 Y41.5994
G01 X70.4386 Y41.6041
G01 X70.4318 Y41.6071
G01 X70.4235 Y41.6093
G01 X70.4162 Y41.6100
G01 X69.2850 Y41.6100
G01 X69.2777 Y41.6095
G01 X69.2693 Y41.6075
G01 X69.2614 Y41.6041
G01 X69.2533 Y41.5987
G01 X69.2471 Y41.5927
G01 X69.2421 Y41.5857
G01 X69.2384 Y41.5780
G01 X69.2357 Y41.5685
G01 X69.2350 Y41.5600
G01 X69.2350 Y37.5600
G01 X69.2354 Y37.5539
G01 X69.2362 Y37.5490
G01 X69.2375 Y37.5443
G01 X69.2398 Y37.5386
G01 X69.2428 Y37.5333
G01 X69.2456 Y37.5292
G01 X69.2496 Y37.5246
G01 X69.2542 Y37.5206
G01 X69.2583 Y37.5178
G01 X69.2636 Y37.5148
G01 X69.2682 Y37.5129
G01 X69.2740 Y37.5112
G01 X69.2825 Y37.5101
G01 X69.2997 Y37.5100
G01 X69.2997 Y36.7879
G01 X66.0821 Y33.5703
G01 X41.9100 Y33.5703
G01 X41.7075 Y33.5699
G01 X41.6561 Y33.5674
G01 X41.6027 Y33.5594
G01 X41.5503 Y33.5463
G01 X41.4995 Y33.5281
G01 X41.4507 Y33.5051
G01 X41.4044 Y33.4773
G01 X41.3611 Y33.4452
G01 X41.3211 Y33.4089
G01 X41.2848 Y33.3689
G01 X41.2527 Y33.3256
G01 X41.2249 Y33.2793
G01 X41.2019 Y33.2305
G01 X41.1837 Y33.1797
G01 X41.1706 Y33.1273
G01 X41.1626 Y33.0739
G01 X41.1600 Y33.0200
G01 X41.1626 Y32.9661
G01 X41.1706 Y32.9127
G01 X41.1837 Y32.8603
G01 X41.2019 Y32.8095
G01 X41.2249 Y32.7607
G01 X41.2527 Y32.7144
G01 X41.2848 Y32.6711
G01 X41.3211 Y32.6311
G01 X41.3611 Y32.5948
G01 X41.4044 Y32.5627
G01 X41.4507 Y32.5349
G01 X41.4995 Y32.5119
G01 X41.5503 Y32.4937
G01 X41.6027 Y32.4806
G01 X41.6561 Y32.4726
G01 X41.7100 Y32.4700
G00 Z2.0000
G00 X41.7100 Y35.0100
G01 F60.00
G01 Z-0.0500
G01 F120.00
G01 X46.7110 Y35.0097
G01 X46.7649 Y35.0124
G01 X46.8207 Y35.0209
G01 X46.8707 Y35.0334
G01 X46.9193 Y35.0508
G01 X46.9704 Y35.0747
G01 X47.0187 Y35.1039
G01 X47.0601 Y35.1347
G01 X47.0992 Y35.1701
G01 X47.4379 Y35.5087
G01 X64.7700 Y35.5087
G01 X64.8264 Y35.5117
G01 X64.8773 Y35.5193
G01 X64.9274 Y35.5318
G01 X64.9828 Y35.5516
G01 X65.0294 Y35.5737
G01 X65.0757 Y35.6015
G01 X65.1209 Y35.6353
G01 X65.1591 Y35.6699
G01 X65.1953 Y35.7099
G01 X65.2275 Y35.7533
G01 X65.2541 Y35.7975
G01 X65.2784 Y35.8484
G01 X65.2966 Y35.8993
G01 X65.3091 Y35.9493
G01 X65.3177 Y36.0063
G01 X65.3203 Y36.0590
G01 X65.3203 Y37.8516
G01 X65.3382 Y37.8896
G01 X65.3577 Y37.9441
G01 X65.3729 Y38.0038
G01 X65.3820 Y38.0647
G01 X65.3850 Y38.1250
G01 X65.3850 Y40.9950
G01 X65.3817 Y41.0577
G01 X65.3732 Y41.1150
G01 X65.3592 Y41.1712
G01 X65.3382 Y41.2304
G01 X65.3135 Y41.2827
G01 X65.2799 Y41.3387
G01 X65.2454 Y41.3852
G01 X65.2049 Y41.4299
G01 X65.1602 Y41.4704
G01 X65.1137 Y41.5049
G01 X65.0577 Y41.5385
G01 X65.0054 Y41.5632
G01 X64.9485 Y41.5835
G01 X64.8900 Y41.5982
G01 X64.8327 Y41.6067
G01 X64.7675 Y41.6099
G01 X64.7097 Y41.6070
G01 X64.6500 Y41.5982
G01 X64.5915 Y41.5835
G01 X64.5369 Y41.5641
G01 X64.4780 Y41.5362
G01 X64.4283 Y41.5064
G01 X64.3798 Y41.4704
G01 X64.3351 Y41.4299
G01 X64.2962 Y41.3870
G01 X64.2573 Y41.3346
G01 X64.2276 Y41.2849
G01 X64.2018 Y41.2304
G01 X64.1815 Y41.1735
G01 X64.1674 Y41.1174
G01 X64.1580 Y41.0553
G01 X64.1550 Y40.9950
G01 X64.1550 Y38.1250
G01 X64.1580 Y38.0647
G01 X64.1671 Y38.0038
G01 X64.1823 Y37.9441
G01 X64.2018 Y37.8896
G01 X64.2197 Y37.8516
G01 X64.2197 Y36.6093
G01 X47.2100 Y36.6093
G01 X47.1573 Y36.6067
G01 X47.1003 Y36.5981
G01 X47.0503 Y36.5856
G01 X47.0017 Y36.5682
G01 X46.9506 Y36.5443
G01 X46.9023 Y36.5151
G01 X46.8609 Y36.4843
G01 X46.8218 Y36.4489
G01 X46.4831 Y36.1103
G01 X41.7100 Y36.1100
G01 X41.6537 Y36.1071
G01 X41.6027 Y36.0994
G01 X41.5503 Y36.0863
G01 X41.4995 Y36.0681
G01 X41.4507 Y36.0451
G01 X41.4044 Y36.0173
G01 X41.3630 Y35.9867
G01 X41.3211 Y35.9489
G01 X41.2864 Y35.9108
G01 X41.2514 Y35.8635
G01 X41.2249 Y35.8193
G01 X41.2019 Y35.7705
G01 X41.1837 Y35.7197
G01 X41.1706 Y35.6673
G01 X41.1626 Y35.6139
G01 X41.1600 Y35.5600
G01 X41.1626 Y35.5061
G01 X41.1701 Y35.4551
G01 X41.1837 Y35.4003
G01 X41.2010 Y35.3518
G01 X41.2262 Y35.2986
G01 X41.2527 Y35.2544
G01 X41.2848 Y35.2111
G01 X41.3211 Y35.1711
G01 X41.3611 Y35.1348
G01 X41.4044 Y35.1027
G01 X41.4507 Y35.0749
G01 X41.4995 Y35.0519
G01 X41.5480 Y35.0345
G01 X41.6051 Y35.0201
G01 X41.6561 Y35.0126
G01 X41.7100 Y35.0100
G00 Z2.0000
G00 X41.7100 Y37.5500
G01 F60.00
G01 Z-0.0500
G01 F120.00
G01 X44.7100 Y37.5500
G01 X44.7639 Y37.5526
G01 X44.8161 Y37.5603
G01 X44.8697 Y37.5737
G01 X44.9205 Y37.5919
G01 X44.9693 Y37.6149
G01 X45.0156 Y37.6427
G01 X45.0589 Y37.6748
G01 X45.0989 Y37.7111
G01 X45.1352 Y37.7511
G01 X45.1673 Y37.7944
G01 X45.1951 Y37.8407
G01 X45.2181 Y37.8895
G01 X45.2363 Y37.9403
G01 X45.2494 Y37.9927
G01 X45.2574 Y38.0461
G01 X45.2600 Y38.1000
G01 X45.2574 Y38.1539
G01 X45.2497 Y38.2061
G01 X45.2355 Y38.2620
G01 X45.2181 Y38.3105
G01 X45.1951 Y38.3593
G01 X45.1673 Y38.4056
G01 X45.1367 Y38.4470
G01 X45.0971 Y38.4906
G01 X45.0589 Y38.5252
G01 X45.0156 Y38.5573
G01 X44.9693 Y38.5851
G01 X44.9227 Y38.6071
G01 X44.8673 Y38.6270
G01 X44.8173 Y38.6394
G01 X44.7651 Y38.6472
G01 X44.7100 Y38.6500
G01 X41.7100 Y38.6500
G01 X41.6561 Y38.6474
G01 X41.6039 Y38.6397
G01 X41.5503 Y38.6263
G01 X41.4995 Y38.6081
G01 X41.4507 Y38.5851
G01 X41.4065 Y38.5586
G01 X41.3592 Y38.5236
G01 X41.3211 Y38.4889
G01 X41.2833 Y38.4470
G01 X41.2527 Y38.4056
G01 X41.2249 Y38.3593
G01 X41.2019 Y38.3105
G01 X41.1837 Y38.2597
G01 X41.1706 Y38.2073
G01 X41.1626 Y38.1539
G01 X41.1600 Y38.1000
G01 X41.1626 Y38.0461
G01 X41.1706 Y37.9927
G01 X41.1837 Y37.9403
G01 X41.2019 Y37.8895
G01 X41.2249 Y37.8407
G01 X41.2527 Y37.7944
G01 X41.2848 Y37.7511
G01 X41.3211 Y37.7111
G01 X41.3592 Y37.6764
G01 X41.4065 Y37.6414
G01 X41.4507 Y37.6149
G01 X41.5018 Y37.5910
G01 X41.5503 Y37.5737
G01 X41.6027 Y37.5606
G01 X41.6561 Y37.5526
G01 X41.7100 Y37.5500
G00 Z2.0000
G00 X41.7100 Y40.0900
G01 F60.00
G01 Z-0.0500
G01 F120.00
G01 X46.7135 Y40.0898
G01 X46.7649 Y40.0924
G01 X46.8207 Y40.1009
G01 X46.8707 Y40.1134
G01 X46.9193 Y40.1308
G01 X46.9682 Y40.1536
G01 X47.0167 Y40.1825
G01 X47.0601 Y40.2147
G01 X47.1001 Y40.2509
G01 X47.1356 Y40.2900
G01 X47.1685 Y40.3343
G01 X47.1951 Y40.3785
G01 X47.2202 Y40.4317
G01 X47.2376 Y40.4803
G01 X47.2507 Y40.5327
G01 X47.2586 Y40.5861
G01 X47.2612 Y40.6388
G01 X47.2613 Y44.7521
G01 X62.6191 Y60.1099
G01 X62.6561 Y60.1509
G01 X62.6875 Y60.1933
G01 X62.7141 Y60.2375
G01 X62.7384 Y60.2884
G01 X62.7566 Y60.3393
G01 X62.7691 Y60.3893
G01 X62.7777 Y60.4463
G01 X62.7803 Y60.4990
G01 X62.7803 Y62.1447
G01 X62.8911 Y62.2112
G01 X63.0114 Y62.3003
G01 X63.1242 Y62.4023
G01 X63.2282 Y62.5167
G01 X63.3188 Y62.6389
G01 X63.3981 Y62.7715
G01 X63.4620 Y62.9068
G01 X63.5125 Y63.0477
G01 X63.5502 Y63.1976
G01 X63.5726 Y63.3493
G01 X63.5799 Y63.5025
G01 X63.5725 Y63.6519
G01 X63.5506 Y63.8000
G01 X63.5133 Y63.9499
G01 X63.4620 Y64.0932
G01 X63.3970 Y64.2307
G01 X63.3174 Y64.3631
G01 X63.2282 Y64.4833
G01 X63.1277 Y64.5942
G01 X63.0142 Y64.6974
G01 X62.8891 Y64.7901
G01 X62.7607 Y64.8670
G01 X62.6254 Y64.9310
G01 X62.4799 Y64.9833
G01 X62.3312 Y65.0204
G01 X62.1819 Y65.0425
G01 X62.0312 Y65.0500
G01 X61.0300 Y65.0500
G01 X60.8781 Y65.0425
G01 X60.7276 Y65.0202
G01 X60.5801 Y64.9833
G01 X60.4368 Y64.9320
G01 X60.2972 Y64.8658
G01 X60.1669 Y64.7874
G01 X60.0467 Y64.6982
G01 X59.9358 Y64.5977
G01 X59.8318 Y64.4833
G01 X59.7419 Y64.3621
G01 X59.6619 Y64.2285
G01 X59.5980 Y64.0932
G01 X59.5475 Y63.9523
G01 X59.5098 Y63.8024
G01 X59.4873 Y63.6495
G01 X59.4800 Y63.5000
G01 X59.4873 Y63.3505
G01 X59.5098 Y63.1976
G01 X59.5467 Y63.0501
G01 X59.5971 Y62.9091
G01 X59.6630 Y62.7693
G01 X59.7412 Y62.6389
G01 X59.8303 Y62.5186
G01 X59.9358 Y62.4023
G01 X60.0467 Y62.3018
G01 X60.1689 Y62.2112
G01 X60.2993 Y62.1330
G01 X60.4368 Y62.0680
G01 X60.5801 Y62.0167
G01 X60.7252 Y61.9803
G01 X60.8781 Y61.9575
G01 X61.0300 Y61.9500
G01 X61.6797 Y61.9500
G01 X61.6797 Y60.7269
G01 X46.3219 Y45.3691
G01 X46.2849 Y45.3281
G01 X46.2535 Y45.2857
G01 X46.2269 Y45.2415
G01 X46.2018 Y45.1883
G01 X46.1844 Y45.1397
G01 X46.1713 Y45.0873
G01 X46.1634 Y45.0339
G01 X46.1608 Y44.9812
G01 X46.1607 Y41.1903
G01 X41.7100 Y41.1900
G01 X41.6561 Y41.1874
G01 X41.6003 Y41.1789
G01 X41.5503 Y41.1663
G01 X41.4995 Y41.1481
G01 X41.4507 Y41.1251
G01 X41.4044 Y41.0973
G01 X41.3611 Y41.0652
G01 X41.3211 Y41.0289
G01 X41.2848 Y40.9889
G01 X41.2541 Y40.9476
G01 X41.2249 Y40.8993
G01 X41.2029 Y40.8527
G01 X41.1830 Y40.7973
G01 X41.1706 Y40.7473
G01 X41.1626 Y40.6939
G01 X41.1600 Y40.6400
G01 X41.1626 Y40.5861
G01 X41.1706 Y40.5327
G01 X41.1837 Y40.4803
G01 X41.2019 Y40.4295
G01 X41.2249 Y40.3807
G01 X41.2527 Y40.3344
G01 X41.2848 Y40.2911
G01 X41.3211 Y40.2511
G01 X41.3592 Y40.2164
G01 X41.4065 Y40.1814
G01 X41.4507 Y40.1549
G01 X41.5018 Y40.1310
G01 X41.5503 Y40.1137
G01 X41.6027 Y40.1006
G01 X41.6561 Y40.0926
G01 X41.7100 Y40.0900
G00 Z2.0000
G00 X41.7100 Y42.6300
G01 F60.00
G01 Z-0.0500
G01 F120.00
G01 X44.7100 Y42.6300
G01 X44.7639 Y42.6326
G01 X44.8161 Y42.6403
G01 X44.8697 Y42.6537
G01 X44.9205 Y42.6719
G01 X44.9693 Y42.6949
G01 X45.0156 Y42.7227
G01 X45.0589 Y42.7548
G01 X45.0989 Y42.7911
G01 X45.1352 Y42.8311
G01 X45.1673 Y42.8744
G01 X45.1951 Y42.9207
G01 X45.2181 Y42.9695
G01 X45.2363 Y43.0203
G01 X45.2494 Y43.0727
G01 X45.2574 Y43.1261
G01 X45.2600 Y43.1800
G01 X45.2574 Y43.2339
G01 X45.2497 Y43.2861
G01 X45.2355 Y43.3420
G01 X45.2181 Y43.3905
G01 X45.1951 Y43.4393
G01 X45.1673 Y43.4856
G01 X45.1367 Y43.5270
G01 X45.0971 Y43.5706
G01 X45.0589 Y43.6052
G01 X45.0156 Y43.6373
G01 X44.9693 Y43.6651
G01 X44.9227 Y43.6871
G01 X44.8673 Y43.7070
G01 X44.8173 Y43.7194
G01 X44.7651 Y43.7272
G01 X44.7100 Y43.7300
G01 X41.7100 Y43.7300
G01 X41.6561 Y43.7274
G01 X41.6039 Y43.7197
G01 X41.5503 Y43.7063
G01 X41.4995 Y43.6881
G01 X41.4507 Y43.6651
G01 X41.4065 Y43.6386
G01 X41.3592 Y43.6036
G01 X41.3211 Y43.5689
G01 X41.2833 Y43.5270
G01 X41.2527 Y43.4856
G01 X41.2249 Y43.4393
G01 X41.2019 Y43.3905
G01 X41.1837 Y43.3397
G01 X41.1706 Y43.2873
G01 X41.1626 Y43.2339
G01 X41.1600 Y43.1800
G01 X41.1626 Y43.1261
G01 X41.1706 Y43.0727
G01 X41.1837 Y43.0203
G01 X41.2019 Y42.9695
G01 X41.2249 Y42.9207
G01 X41.2527 Y42.8744
G01 X41.2848 Y42.8311
G01 X41.3211 Y42.7911
G01 X41.3592 Y42.7564
G01 X41.4065 Y42.7214
G01 X41.4507 Y42.6949
G01 X41.5018 Y42.6710
G01 X41.5503 Y42.6537
G01 X41.6027 Y42.6406
G01 X41.6561 Y42.6326
G01 X41.7100 Y42.6300
G00 Z2.0000
G00 X41.7100 Y45.1700
G01 F60.00
G01 Z-0.0500
G01 F120.00
G01 X44.7100 Y45.1700
G01 X44.7639 Y45.1726
G01 X44.8161 Y45.1803
G01 X44.8697 Y45.1937
G01 X44.9205 Y45.2119
G01 X44.9693 Y45.2349
G01 X45.0156 Y45.2627
G01 X45.0589 Y45.2948
G01 X45.0989 Y45.3311
G01 X45.1352 Y45.3711
G01 X45.1673 Y45.4144
G01 X45.1951 Y45.4607
G01 X45.2181 Y45.5095
G01 X45.2363 Y45.5603
G01 X45.2494 Y45.6127
G01 X45.2574 Y45.6661
G01 X45.2600 Y45.7200
G01 X45.2574 Y45.7739
G01 X45.2497 Y45.8261
G01 X45.2355 Y45.8820
G01 X45.2181 Y45.9305
G01 X45.1951 Y45.9793
G01 X45.1673 Y46.0256
G01 X45.1367 Y46.0670
G01 X45.0971 Y46.1106
G01 X45.0589 Y46.1452
G01 X45.0156 Y46.1773
G01 X44.9693 Y46.2051
G01 X44.9227 Y46.2271
G01 X44.8673 Y46.2470
G01 X44.8173 Y46.2594
G01 X44.7651 Y46.2672
G01 X44.7100 Y46.2700
G01 X41.7100 Y46.2700
G01 X41.6561 Y46.2674
G01 X41.6039 Y46.2597
G01 X41.5503 Y46.2463
G01 X41.4995 Y46.2281
G01 X41.4507 Y46.2051
G01 X41.4065 Y46.1786
G01 X41.3592 Y46.1436
G01 X41.3211 Y46.1089
G01 X41.2833 Y46.0670
G01 X41.2527 Y46.0256
G01 X41.2249 Y45.9793
G01 X41.2019 Y45.9305
G01 X41.1837 Y45.8797
G01 X41.1706 Y45.8273
G01 X41.1626 Y45.7739
G01 X41.1600 Y45.7200
G01 X41.1626 Y45.6661
G01 X41.1706 Y45.6127
G01 X41.1837 Y45.5603
G01 X41.2019 Y45.5095
G01 X41.2249 Y45.4607
G01 X41.2527 Y45.4144
G01 X41.2848 Y45.3711
G01 X41.3211 Y45.3311
G01 X41.3592 Y45.2964
G01 X41.4065 Y45.2614
G01 X41.4507 Y45.2349
G01 X41.5018 Y45.2110
G01 X41.5503 Y45.1937
G01 X41.6027 Y45.1806
G01 X41.6561 Y45.1726
G01 X41.7100 Y45.1700
G00 Z2.0000
G00 X36.5700 Y42.6300
G01 F60.00
G01 Z-0.0500
G01 F120.00
G01 X39.5700 Y42.6300
G01 X39.6239 Y42.6326
G01 X39.6761 Y42.6403
G01 X39.7297 Y42.6537
G01 X39.7805 Y42.6719
G01 X39.8293 Y42.6949
G01 X39.8756 Y42.7227
G01 X39.9189 Y42.7548
G01 X39.9589 Y42.7911
G01 X39.9952 Y42.8311
G01 X40.0273 Y42.8744
G01 X40.0551 Y42.9207
G01 X40.0781 Y42.9695
G01 X40.0963 Y43.0203
G01 X40.1094 Y43.0727
G01 X40.1174 Y43.1261
G01 X40.1200 Y43.1800
G01 X40.1174 Y43.2339
G01 X40.1097 Y43.2861
G01 X40.0955 Y43.3420
G01 X40.0781 Y43.3905
G01 X40.0551 Y43.4393
G01 X40.0273 Y43.4856
G01 X39.9967 Y43.5270
G01 X39.9571 Y43.5706
G01 X39.9189 Y43.6052
G01 X39.8756 Y43.6373
G01 X39.8293 Y43.6651
G01 X39.7827 Y43.6871
G01 X39.7273 Y43.7070
G01 X39.6773 Y43.7194
G01 X39.6251 Y43.7272
G01 X39.5700 Y43.7300
G01 X36.5700 Y43.7300
G01 X36.5161 Y43.7274
G01 X36.4639 Y43.7197
G01 X36.4103 Y43.7063
G01 X36.3595 Y43.6881
G01 X36.3107 Y43.6651
G01 X36.2665 Y43.6386
G01 X36.2192 Y43.6036
G01 X36.1811 Y43.5689
G01 X36.1433 Y43.5270
G01 X36.1127 Y43.4856
G01 X36.0849 Y43.4393
G01 X36.0619 Y43.3905
G01 X36.0437 Y43.3397
G01 X36.0306 Y43.2873
G01 X36.0226 Y43.2339
G01 X36.0200 Y43.1800
G01 X36.0226 Y43.1261
G01 X36.0306 Y43.0727
G01 X36.0437 Y43.0203
G01 X36.0619 Y42.9695
G01 X36.0849 Y42.9207
G01 X36.1127 Y42.8744
G01 X36.1448 Y42.8311
G01 X36.1811 Y42.7911
G01 X36.2192 Y42.7564
G01 X36.2665 Y42.7214
G01 X36.3107 Y42.6949
G01 X36.3618 Y42.6710
G01 X36.4103 Y42.6537
G01 X36.4627 Y42.6406
G01 X36.5161 Y42.6326
G01 X36.5700 Y42.6300
G00 Z2.0000
G00 X36.5700 Y40.0900
G01 F60.00
G01 Z-0.0500
G01 F120.00
G01 X39.5700 Y40.0900
G01 X39.6239 Y40.0926
G01 X39.6761 Y40.1003
G01 X39.7297 Y40.1137
G01 X39.7805 Y40.1319
G01 X39.8293 Y40.1549
G01 X39.8756 Y40.1827
G01 X39.9189 Y40.2148
G01 X39.9589 Y40.2511
G01 X39.9952 Y40.2911
G01 X40.0273 Y40.3344
G01 X40.0551 Y40.3807
G01 X40.0781 Y40.4295
G01 X40.0963 Y40.4803
G01 X40.1094 Y40.5327
G01 X40.1174 Y40.5861
G01 X40.1200 Y40.6400
G01 X40.1174 Y40.6939
G01 X40.1097 Y40.7461
G01 X40.0955 Y40.8020
G01 X40.0781 Y40.8505
G01 X40.0551 Y40.8993
G01 X40.0273 Y40.9456
G01 X39.9967 Y40.9870
G01 X39.9571 Y41.0306
G01 X39.9189 Y41.0652
G01 X39.8756 Y41.0973
G01 X39.8293 Y41.1251
G01 X39.7827 Y41.1471
G01 X39.7273 Y41.1670
G01 X39.6773 Y41.1794
G01 X39.6251 Y41.1872
G01 X39.5700 Y41.1900
G01 X36.5700 Y41.1900
G01 X36.5161 Y41.1874
G01 X36.4639 Y41.1797
G01 X36.4103 Y41.1663
G01 X36.3595 Y41.1481
G01 X36.3107 Y41.1251
G01 X36.2665 Y41.0986
G01 X36.2192 Y41.0636
G01 X36.1811 Y41.0289
G01 X36.1433 Y40.9870
G01 X36.1127 Y40.9456
G01 X36.0849 Y40.8993
G01 X36.0619 Y40.8505
G01 X36.0437 Y40.7997
G01 X36.0306 Y40.7473
G01 X36.0226 Y40.6939
G01 X36.0200 Y40.6400
G01 X36.0226 Y40.5861
G01 X36.0306 Y40.5327
G01 X36.0437 Y40.4803
G01 X36.0619 Y40.4295
G01 X36.0849 Y40.3807
G01 X36.1127 Y40.3344
G01 X36.1448 Y40.2911
G01 X36.1811 Y40.2511
G01 X36.2192 Y40.2164
G01 X36.2665 Y40.1814
G01 X36.3107 Y40.1549
G01 X36.3618 Y40.1310
G01 X36.4103 Y40.1137
G01 X36.4627 Y40.1006
G01 X36.5161 Y40.0926
G01 X36.5700 Y40.0900
G00 Z2.0000
G00 X36.5700 Y37.5500
G01 F60.00
G01 Z-0.0500
G01 F120.00
G01 X39.5700 Y37.5500
G01 X39.6239 Y37.5526
G01 X39.6761 Y37.5603
G01 X39.7297 Y37.5737
G01 X39.7805 Y37.5919
G01 X39.8293 Y37.6149
G01 X39.8756 Y37.6427
G01 X39.9189 Y37.6748
G01 X39.9589 Y37.7111
G01 X39.9952 Y37.7511
G01 X40.0273 Y37.7944
G01 X40.0551 Y37.8407
G01 X40.0781 Y37.8895
G01 X40.0963 Y37.9403
G01 X40.1094 Y37.9927
G01 X40.1174 Y38.0461
G01 X40.1200 Y38.1000
G01 X40.1174 Y38.1539
G01 X40.1097 Y38.2061
G01 X40.0955 Y38.2620
G01 X40.0781 Y38.3105
G01 X40.0551 Y38.3593
G01 X40.0273 Y38.4056
G01 X39.9967 Y38.4470
G01 X39.9571 Y38.4906
G01 X39.9189 Y38.5252
G01 X39.8756 Y38.5573
G01 X39.8293 Y38.5851
G01 X39.7827 Y38.6071
G01 X39.7273 Y38.6270
G01 X39.6773 Y38.6394
G01 X39.6251 Y38.6472
G01 X39.5700 Y38.6500
G01 X36.5700 Y38.6500
G01 X36.5161 Y38.6474
G01 X36.4639 Y38.6397
G01 X36.4103 Y38.6263
G01 X36.3595 Y38.6081
G01 X36.3107 Y38.5851
G01 X36.2665 Y38.5586
G01 X36.2192 Y38.5236
G01 X36.1811 Y38.4889
G01 X36.1433 Y38.4470
G01 X36.1127 Y38.4056
G01 X36.0849 Y38.3593
G01 X36.0619 Y38.3105
G01 X36.0437 Y38.2597
G01 X36.0306 Y38.2073
G01 X36.0226 Y38.1539
G01 X36.0200 Y38.1000
G01 X36.0226 Y38.0461
G01 X36.0306 Y37.9927
G01 X36.0437 Y37.9403
G01 X36.0619 Y37.8895
G01 X36.0849 Y37.8407
G01 X36.1127 Y37.7944
G01 X36.1448 Y37.7511
G01 X36.1811 Y37.7111
G01 X36.2192 Y37.6764
G01 X36.2665 Y37.6414
G01 X36.3107 Y37.6149
G01 X36.3618 Y37.5910
G01 X36.4103 Y37.5737
G01 X36.4627 Y37.5606
G01 X36.5161 Y37.5526
G01 X36.5700 Y37.5500
G00 Z2.0000
G00 X36.5700 Y32.4700
G01 F60.00
G01 Z-0.0500
G01 F120.00
G01 X39.5700 Y32.4700
G01 X39.6239 Y32.4726
G01 X39.6761 Y32.4803
G01 X39.7297 Y32.4937
G01 X39.7805 Y32.5119
G01 X39.8293 Y32.5349
G01 X39.8756 Y32.5627
G01 X39.9189 Y32.5948
G01 X39.9589 Y32.6311
G01 X39.9952 Y32.6711
G01 X40.0273 Y32.7144
G01 X40.0551 Y32.7607
G01 X40.0781 Y32.8095
G01 X40.0963 Y32.8603
G01 X40.1094 Y32.9127
G01 X40.1174 Y32.9661
G01 X40.1200 Y33.0200
G01 X40.1174 Y33.0739
G01 X40.1097 Y33.1261
G01 X40.0955 Y33.1820
G01 X40.0781 Y33.2305
G01 X40.0551 Y33.2793
G01 X40.0273 Y33.3256
G01 X39.9967 Y33.3670
G01 X39.9571 Y33.4106
G01 X39.9189 Y33.4452
G01 X39.8756 Y33.4773
G01 X39.8293 Y33.5051
G01 X39.7827 Y33.5271
G01 X39.7273 Y33.5470
G01 X39.6773 Y33.5594
G01 X39.6251 Y33.5672
G01 X39.5700 Y33.5700
G01 X36.5700 Y33.5700
G01 X36.5161 Y33.5674
G01 X36.4639 Y33.5597
G01 X36.4103 Y33.5463
G01 X36.3595 Y33.5281
G01 X36.3107 Y33.5051
G01 X36.2665 Y33.4786
G01 X36.2192 Y33.4436
G01 X36.1811 Y33.4089
G01 X36.1433 Y33.3670
G01 X36.1127 Y33.3256
G01 X36.0849 Y33.2793
G01 X36.0619 Y33.2305
G01 X36.0437 Y33.1797
G01 X36.0306 Y33.1273
G01 X36.0226 Y33.0739
G01 X36.0200 Y33.0200
G01 X36.0226 Y32.9661
G01 X36.0306 Y32.9127
G01 X36.0437 Y32.8603
G01 X36.0619 Y32.8095
G01 X36.0849 Y32.7607
G01 X36.1127 Y32.7144
G01 X36.1448 Y32.6711
G01 X36.1811 Y32.6311
G01 X36.2192 Y32.5964
G01 X36.2665 Y32.5614
G01 X36.3107 Y32.5349
G01 X36.3618 Y32.5110
G01 X36.4103 Y32.4937
G01 X36.4627 Y32.4806
G01 X36.5161 Y32.4726
G01 X36.5700 Y32.4700
G00 Z2.0000
G00 X36.5700 Y29.9300
G01 F60.00
G01 Z-0.0500
G01 F120.00
G01 X39.5700 Y29.9300
G01 X39.6239 Y29.9326
G01 X39.6761 Y29.9403
G01 X39.7297 Y29.9537
G01 X39.7805 Y29.9719
G01 X39.8293 Y29.9949
G01 X39.8756 Y30.0227
G01 X39.9189 Y30.0548
G01 X39.9589 Y30.0911
G01 X39.9952 Y30.1311
G01 X40.0273 Y30.1744
G01 X40.0551 Y30.2207
G01 X40.0781 Y30.2695
G01 X40.0963 Y30.3203
G01 X40.1094 Y30.3727
G01 X40.1174 Y30.4261
G01 X40.1200 Y30.4800
G01 X40.1174 Y30.5339
G01 X40.1097 Y30.5861
G01 X40.0955 Y30.6420
G01 X40.0781 Y30.6905
G01 X40.0551 Y30.7393
G01 X40.0273 Y30.7856
G01 X39.9967 Y30.8270
G01 X39.9571 Y30.8706
G01 X39.9189 Y30.9052
G01 X39.8756 Y30.9373
G01 X39.8293 Y30.9651
G01 X39.7827 Y30.9871
G01 X39.7273 Y31.0070
G01 X39.6773 Y31.0194
G01 X39.6251 Y31.0272
G01 X39.5700 Y31.0300
G01 X36.5700 Y31.0300
G01 X36.5161 Y31.0274
G01 X36.4639 Y31.0197
G01 X36.4103 Y31.0063
G01 X36.3595 Y30.9881
G01 X36.3107 Y30.9651
G01 X36.2665 Y30.9386
G01 X36.2192 Y30.9036
G01 X36.1811 Y30.8689
G01 X36.1433 Y30.8270
G01 X36.1127 Y30.7856
G01 X36.0849 Y30.7393
G01 X36.0619 Y30.6905
G01 X36.0437 Y30.6397
G01 X36.0306 Y30.5873
G01 X36.0226 Y30.5339
G01 X36.0200 Y30.4800
G01 X36.0226 Y30.4261
G01 X36.0306 Y30.3727
G01 X36.0437 Y30.3203
G01 X36.0619 Y30.2695
G01 X36.0849 Y30.2207
G01 X36.1127 Y30.1744
G01 X36.1448 Y30.1311
G01 X36.1811 Y30.0911
G01 X36.2192 Y30.0564
G01 X36.2665 Y30.0214
G01 X36.3107 Y29.9949
G01 X36.3618 Y29.9710
G01 X36.4103 Y29.9537
G01 X36.4627 Y29.9406
G01 X36.5161 Y29.9326
G01 X36.5700 Y29.9300
G00 Z2.0000
G00 X62.2325 Y26.9701
G01 F60.00
G01 Z-0.0500
G01 F120.00
G01 X62.2903 Y26.9730
G01 X62.3500 Y26.9818
G01 X62.4085 Y26.9965
G01 X62.4631 Y27.0159
G01 X62.5220 Y27.0438
G01 X62.5717 Y27.0736
G01 X62.6202 Y27.1096
G01 X62.6649 Y27.1501
G01 X62.7054 Y27.1948
G01 X62.7414 Y27.2433
G01 X62.7712 Y27.2930
G01 X62.7991 Y27.3519
G01 X62.8185 Y27.4065
G01 X62.8334 Y27.4662
G01 X62.8420 Y27.5247
G01 X62.8450 Y27.5850
G01 X62.8450 Y30.4550
G01 X62.8420 Y30.5153
G01 X62.8332 Y30.5750
G01 X62.8185 Y30.6335
G01 X62.7982 Y30.6904
G01 X62.7724 Y30.7449
G01 X62.7414 Y30.7967
G01 X62.7054 Y30.8452
G01 X62.6649 Y30.8899
G01 X62.6202 Y30.9304
G01 X62.5717 Y30.9664
G01 X62.5199 Y30.9974
G01 X62.4654 Y31.0232
G01 X62.4085 Y31.0435
G01 X62.3500 Y31.0582
G01 X62.2903 Y31.0670
G01 X62.2300 Y31.0700
G01 X62.1697 Y31.0670
G01 X62.1100 Y31.0582
G01 X62.0515 Y31.0435
G01 X61.9969 Y31.0241
G01 X61.9380 Y30.9962
G01 X61.8883 Y30.9664
G01 X61.8398 Y30.9304
G01 X61.7951 Y30.8899
G01 X61.7546 Y30.8452
G01 X61.7186 Y30.7967
G01 X61.6888 Y30.7470
G01 X61.6609 Y30.6881
G01 X61.6415 Y30.6335
G01 X61.6266 Y30.5738
G01 X61.6180 Y30.5153
G01 X61.6150 Y30.4550
G01 X61.6150 Y27.5850
G01 X61.6180 Y27.5247
G01 X61.6268 Y27.4650
G01 X61.6415 Y27.4065
G01 X61.6618 Y27.3496
G01 X61.6876 Y27.2951
G01 X61.7186 Y27.2433
G01 X61.7546 Y27.1948
G01 X61.7951 Y27.1501
G01 X61.8398 Y27.1096
G01 X61.8883 Y27.0736
G01 X61.9401 Y27.0426
G01 X61.9946 Y27.0168
G01 X62.0515 Y26.9965
G01 X62.1100 Y26.9818
G01 X62.1697 Y26.9730
G01 X62.2325 Y26.9701
G00 Z2.0000
G00 X64.7725 Y26.9701
G01 F60.00
G01 Z-0.0500
G01 F120.00
G01 X64.8303 Y26.9730
G01 X64.8900 Y26.9818
G01 X64.9485 Y26.9965
G01 X65.0031 Y27.0159
G01 X65.0620 Y27.0438
G01 X65.1117 Y27.0736
G01 X65.1602 Y27.1096
G01 X65.2049 Y27.1501
G01 X65.2454 Y27.1948
G01 X65.2814 Y27.2433
G01 X65.3112 Y27.2930
G01 X65.3391 Y27.3519
G01 X65.3585 Y27.4065
G01 X65.3734 Y27.4662
G01 X65.3820 Y27.5247
G01 X65.3850 Y27.5850
G01 X65.3850 Y30.4550
G01 X65.3820 Y30.5153
G01 X65.3732 Y30.5750
G01 X65.3585 Y30.6335
G01 X65.3382 Y30.6904
G01 X65.3124 Y30.7449
G01 X65.2814 Y30.7967
G01 X65.2454 Y30.8452
G01 X65.2049 Y30.8899
G01 X65.1602 Y30.9304
G01 X65.1117 Y30.9664
G01 X65.0599 Y30.9974
G01 X65.0054 Y31.0232
G01 X64.9485 Y31.0435
G01 X64.8900 Y31.0582
G01 X64.8303 Y31.0670
G01 X64.7700 Y31.0700
G01 X64.7097 Y31.0670
G01 X64.6500 Y31.0582
G01 X64.5915 Y31.0435
G01 X64.5369 Y31.0241
G01 X64.4780 Y30.9962
G01 X64.4283 Y30.9664
G01 X64.3798 Y30.9304
G01 X64.3351 Y30.8899
G01 X64.2946 Y30.8452
G01 X64.2586 Y30.7967
G01 X64.2288 Y30.7470
G01 X64.2009 Y30.6881
G01 X64.1815 Y30.6335
G01 X64.1666 Y30.5738
G01 X64.1580 Y30.5153
G01 X64.1550 Y30.4550
G01 X64.1550 Y27.5850
G01 X64.1580 Y27.5247
G01 X64.1668 Y27.4650
G01 X64.1815 Y27.4065
G01 X64.2018 Y27.3496
G01 X64.2276 Y27.2951
G01 X64.2586 Y27.2433
G01 X64.2946 Y27.1948
G01 X64.3351 Y27.1501
G01 X64.3798 Y27.1096
G01 X64.4283 Y27.0736
G01 X64.4801 Y27.0426
G01 X64.5346 Y27.0168
G01 X64.5915 Y26.9965
G01 X64.6500 Y26.9818
G01 X64.7097 Y26.9730
G01 X64.7725 Y26.9701
G00 Z2.0000
G00 X69.8525 Y26.9701
G01 F60.00
G01 Z-0.0500
G01 F120.00
G01 X69.9103 Y26.9730
G01 X69.9700 Y26.9818
G01 X70.0285 Y26.9965
G01 X70.0831 Y27.0159
G01 X70.1420 Y27.0438
G01 X70.1917 Y27.0736
G01 X70.2402 Y27.1096
G01 X70.2849 Y27.1501
G01 X70.3254 Y27.1948
G01 X70.3614 Y27.2433
G01 X70.3912 Y27.2930
G01 X70.4191 Y27.3519
G01 X70.4385 Y27.4065
G01 X70.4534 Y27.4662
G01 X70.4620 Y27.5247
G01 X70.4650 Y27.5850
G01 X70.4650 Y30.4550
G01 X70.4620 Y30.5153
G01 X70.4532 Y30.5750
G01 X70.4385 Y30.6335
G01 X70.4182 Y30.6904
G01 X70.3924 Y30.7449
G01 X70.3614 Y30.7967
G01 X70.3254 Y30.8452
G01 X70.2849 Y30.8899
G01 X70.2402 Y30.9304
G01 X70.1917 Y30.9664
G01 X70.1399 Y30.9974
G01 X70.0854 Y31.0232
G01 X70.0285 Y31.0435
G01 X69.9700 Y31.0582
G01 X69.9103 Y31.0670
G01 X69.8500 Y31.0700
G01 X69.7897 Y31.0670
G01 X69.7300 Y31.0582
G01 X69.6715 Y31.0435
G01 X69.6169 Y31.0241
G01 X69.5580 Y30.9962
G01 X69.5083 Y30.9664
G01 X69.4598 Y30.9304
G01 X69.4151 Y30.8899
G01 X69.3746 Y30.8452
G01 X69.3386 Y30.7967
G01 X69.3088 Y30.7470
G01 X69.2809 Y30.6881
G01 X69.2615 Y30.6335
G01 X69.2466 Y30.5738
G01 X69.2380 Y30.5153
G01 X69.2350 Y30.4550
G01 X69.2350 Y27.5850
G01 X69.2380 Y27.5247
G01 X69.2468 Y27.4650
G01 X69.2615 Y27.4065
G01 X69.2818 Y27.3496
G01 X69.3076 Y27.2951
G01 X69.3386 Y27.2433
G01 X69.3746 Y27.1948
G01 X69.4151 Y27.1501
G01 X69.4598 Y27.1096
G01 X69.5083 Y27.0736
G01 X69.5601 Y27.0426
G01 X69.6146 Y27.0168
G01 X69.6715 Y26.9965
G01 X69.7300 Y26.9818
G01 X69.7897 Y26.9730
G01 X69.8525 Y26.9701
G00 Z2.0000
G00 X62.2325 Y37.5101
G01 F60.00
G01 Z-0.0500
G01 F120.00
G01 X62.2903 Y37.5130
G01 X62.3500 Y37.5218
G01 X62.4085 Y37.5365
G01 X62.4631 Y37.5559
G01 X62.5220 Y37.5838
G01 X62.5717 Y37.6136
G01 X62.6202 Y37.6496
G01 X62.6649 Y37.6901
G01 X62.7054 Y37.7348
G01 X62.7414 Y37.7833
G01 X62.7712 Y37.8330
G01 X62.7991 Y37.8919
G01 X62.8185 Y37.9465
G01 X62.8334 Y38.0062
G01 X62.8420 Y38.0647
G01 X62.8450 Y38.1250
G01 X62.8450 Y40.9950
G01 X62.8420 Y41.0553
G01 X62.8332 Y41.1150
G01 X62.8185 Y41.1735
G01 X62.7982 Y41.2304
G01 X62.7724 Y41.2849
G01 X62.7414 Y41.3367
G01 X62.7054 Y41.3852
G01 X62.6649 Y41.4299
G01 X62.6202 Y41.4704
G01 X62.5717 Y41.5064
G01 X62.5199 Y41.5374
G01 X62.4654 Y41.5632
G01 X62.4085 Y41.5835
G01 X62.3500 Y41.5982
G01 X62.2903 Y41.6070
G01 X62.2300 Y41.6100
G01 X62.1697 Y41.6070
G01 X62.1100 Y41.5982
G01 X62.0515 Y41.5835
G01 X61.9969 Y41.5641
G01 X61.9380 Y41.5362
G01 X61.8883 Y41.5064
G01 X61.8398 Y41.4704
G01 X61.7951 Y41.4299
G01 X61.7546 Y41.3852
G01 X61.7186 Y41.3367
G01 X61.6888 Y41.2870
G01 X61.6609 Y41.2281
G01 X61.6415 Y41.1735
G01 X61.6266 Y41.1138
G01 X61.6180 Y41.0553
G01 X61.6150 Y40.9950
G01 X61.6150 Y38.1250
G01 X61.6180 Y38.0647
G01 X61.6268 Y38.0050
G01 X61.6415 Y37.9465
G01 X61.6618 Y37.8896
G01 X61.6876 Y37.8351
G01 X61.7186 Y37.7833
G01 X61.7546 Y37.7348
G01 X61.7951 Y37.6901
G01 X61.8398 Y37.6496
G01 X61.8883 Y37.6136
G01 X61.9401 Y37.5826
G01 X61.9946 Y37.5568
G01 X62.0515 Y37.5365
G01 X62.1100 Y37.5218
G01 X62.1697 Y37.5130
G01 X62.2325 Y37.5101
G00 Z2.0000
G00 X66.7597 Y41.2684
G01 F60.00
G01 Z-0.0500
G01 F120.00
G01 X66.7418 Y41.2304
G01 X66.7223 Y41.1759
G01 X66.7074 Y41.1174
G01 X66.6980 Y41.0553
G01 X66.6950 Y40.9962
G01 X66.6950 Y38.1250
G01 X66.6980 Y38.0647
G01 X66.7066 Y38.0062
G01 X66.7215 Y37.9465
G01 X66.7418 Y37.8896
G01 X66.7676 Y37.8351
G01 X66.7986 Y37.7833
G01 X66.8346 Y37.7348
G01 X66.8751 Y37.6901
G01 X66.9198 Y37.6496
G01 X66.9683 Y37.6136
G01 X67.0201 Y37.5826
G01 X67.0746 Y37.5568
G01 X67.1315 Y37.5365
G01 X67.1900 Y37.5218
G01 X67.2497 Y37.5130
G01 X67.3100 Y37.5100
G01 X67.3703 Y37.5130
G01 X67.4288 Y37.5216
G01 X67.4885 Y37.5365
G01 X67.5431 Y37.5559
G01 X67.6020 Y37.5838
G01 X67.6517 Y37.6136
G01 X67.7002 Y37.6496
G01 X67.7449 Y37.6901
G01 X67.7854 Y37.7348
G01 X67.8214 Y37.7833
G01 X67.8512 Y37.8330
G01 X67.8791 Y37.8919
G01 X67.8985 Y37.9465
G01 X67.9132 Y38.0050
G01 X67.9220 Y38.0647
G01 X67.9249 Y38.1225
G01 X67.9250 Y40.9962
G01 X67.9220 Y41.0553
G01 X67.9126 Y41.1174
G01 X67.8977 Y41.1759
G01 X67.8782 Y41.2304
G01 X67.8603 Y41.2684
G01 X67.8603 Y46.6461
G01 X70.0779 Y48.8637
G01 X81.8971 Y48.8637
G01 X86.7799 Y43.9809
G01 X86.8199 Y43.9447
G01 X86.8623 Y43.9132
G01 X86.9118 Y43.8836
G01 X86.9584 Y43.8616
G01 X87.0093 Y43.8434
G01 X87.0641 Y43.8299
G01 X87.1151 Y43.8224
G01 X87.1665 Y43.8198
G01 X88.8147 Y43.8197
G01 X88.8812 Y43.7089
G01 X88.9703 Y43.5886
G01 X89.0723 Y43.4758
G01 X89.1867 Y43.3718
G01 X89.3089 Y43.2812
G01 X89.4393 Y43.2030
G01 X89.5791 Y43.1371
G01 X89.7201 Y43.0867
G01 X89.8652 Y43.0503
G01 X90.0156 Y43.0278
G01 X90.1725 Y43.0201
G01 X90.3219 Y43.0275
G01 X90.4724 Y43.0498
G01 X90.6199 Y43.0867
G01 X90.7609 Y43.1371
G01 X90.9007 Y43.2030
G01 X91.0331 Y43.2826
G01 X91.1533 Y43.3718
G01 X91.2660 Y43.4740
G01 X91.3697 Y43.5886
G01 X91.4588 Y43.7089
G01 X91.5358 Y43.8372
G01 X91.6020 Y43.9768
G01 X91.6533 Y44.1201
G01 X91.6902 Y44.2676
G01 X91.7126 Y44.4193
G01 X91.7200 Y44.5700
G01 X91.7200 Y45.5712
G01 X91.7125 Y45.7219
G01 X91.6904 Y45.8712
G01 X91.6533 Y46.0199
G01 X91.6020 Y46.1632
G01 X91.5370 Y46.3007
G01 X91.4588 Y46.4311
G01 X91.3682 Y46.5533
G01 X91.2660 Y46.6660
G01 X91.1533 Y46.7682
G01 X91.0311 Y46.8588
G01 X90.9007 Y46.9370
G01 X90.7632 Y47.0020
G01 X90.6199 Y47.0533
G01 X90.4724 Y47.0902
G01 X90.3219 Y47.1125
G01 X90.1700 Y47.1200
G01 X90.0181 Y47.1125
G01 X89.8664 Y47.0900
G01 X89.7201 Y47.0533
G01 X89.5768 Y47.0020
G01 X89.4393 Y46.9370
G01 X89.3069 Y46.8574
G01 X89.1867 Y46.7682
G01 X89.0758 Y46.6677
G01 X88.9734 Y46.5552
G01 X88.8812 Y46.4311
G01 X88.8036 Y46.3017
G01 X88.7380 Y46.1632
G01 X88.6867 Y46.0199
G01 X88.6498 Y45.8724
G01 X88.6276 Y45.7231
G01 X88.6200 Y45.5700
G01 X88.6200 Y44.9203
G01 X87.3969 Y44.9203
G01 X82.5132 Y49.8039
G01 X82.4741 Y49.8393
G01 X82.4327 Y49.8701
G01 X82.3844 Y49.8993
G01 X82.3333 Y49.9232
G01 X82.2847 Y49.9406
G01 X82.2323 Y49.9537
G01 X82.1789 Y49.9616
G01 X82.1250 Y49.9643
G01 X70.4003 Y49.9643
G01 X70.4003 Y50.8650
G01 X71.0512 Y50.8650
G01 X71.2019 Y50.8725
G01 X71.3536 Y50.8950
G01 X71.5023 Y50.9325
G01 X71.6432 Y50.9830
G01 X71.7785 Y51.0469
G01 X71.9111 Y51.1262
G01 X72.0342 Y51.2176
G01 X72.1477 Y51.3208
G01 X72.2482 Y51.4317
G01 X72.3374 Y51.5519
G01 X72.4170 Y51.6843
G01 X72.4829 Y51.8241
G01 X72.5333 Y51.9651
G01 X72.5697 Y52.1102
G01 X72.5925 Y52.2631
G01 X72.5999 Y52.4175
G01 X72.5925 Y52.5669
G01 X72.5704 Y52.7162
G01 X72.5333 Y52.8649
G01 X72.4810 Y53.0104
G01 X72.4170 Y53.1457
G01 X72.3401 Y53.2741
G01 X72.2482 Y53.3983
G01 X72.1460 Y53.5110
G01 X72.0314 Y53.6147
G01 X71.9111 Y53.7038
G01 X71.7828 Y53.7808
G01 X71.6443 Y53.8465
G01 X71.4999 Y53.8983
G01 X71.3524 Y53.9352
G01 X71.2019 Y53.9575
G01 X71.0525 Y53.9649
G01 X70.0488 Y53.9650
G01 X69.8981 Y53.9575
G01 X69.7488 Y53.9354
G01 X69.5977 Y53.8975
G01 X69.4568 Y53.8470
G01 X69.3193 Y53.7820
G01 X69.1889 Y53.7038
G01 X69.0686 Y53.6147
G01 X68.9523 Y53.5092
G01 X68.8518 Y53.3983
G01 X68.7612 Y53.2761
G01 X68.6830 Y53.1457
G01 X68.6190 Y53.0104
G01 X68.5661 Y52.8626
G01 X68.5298 Y52.7174
G01 X68.5075 Y52.5669
G01 X68.5001 Y52.4125
G01 X68.5075 Y52.2631
G01 X68.5298 Y52.1126
G01 X68.5667 Y51.9651
G01 X68.6171 Y51.8241
G01 X68.6830 Y51.6843
G01 X68.7626 Y51.5519
G01 X68.8518 Y51.4317
G01 X68.9540 Y51.3190
G01 X69.0686 Y51.2153
G01 X69.1889 Y51.1262
G01 X69.2997 Y51.0597
G01 X69.2997 Y49.6419
G01 X66.9201 Y47.2622
G01 X66.8847 Y47.2231
G01 X66.8539 Y47.1817
G01 X66.8247 Y47.1334
G01 X66.8008 Y47.0823
G01 X66.7834 Y47.0337
G01 X66.7706 Y46.9825
G01 X66.7624 Y46.9279
G01 X66.7597 Y46.8740
G01 X66.7597 Y41.2684
G00 Z2.0000
G00 X61.0300 Y50.8650
G01 F60.00
G01 Z-0.0500
G01 F120.00
G01 X62.0325 Y50.8651
G01 X62.1819 Y50.8725
G01 X62.3300 Y50.8944
G01 X62.4799 Y50.9317
G01 X62.6232 Y50.9830
G01 X62.7585 Y51.0469
G01 X62.8931 Y51.1276
G01 X63.0133 Y51.2168
G01 X63.1260 Y51.3190
G01 X63.2282 Y51.4317
G01 X63.3188 Y51.5539
G01 X63.3970 Y51.6843
G01 X63.4620 Y51.8218
G01 X63.5133 Y51.9651
G01 X63.5502 Y52.1126
G01 X63.5725 Y52.2631
G01 X63.5800 Y52.4150
G01 X63.5725 Y52.5669
G01 X63.5502 Y52.7174
G01 X63.5133 Y52.8649
G01 X63.4620 Y53.0082
G01 X63.3970 Y53.1457
G01 X63.3188 Y53.2761
G01 X63.2282 Y53.3983
G01 X63.1260 Y53.5110
G01 X63.0133 Y53.6132
G01 X62.8911 Y53.7038
G01 X62.7607 Y53.7820
G01 X62.6209 Y53.8479
G01 X62.4799 Y53.8983
G01 X62.3348 Y53.9347
G01 X62.1831 Y53.9574
G01 X62.0300 Y53.9650
G01 X61.0300 Y53.9650
G01 X60.8769 Y53.9574
G01 X60.7276 Y53.9352
G01 X60.5777 Y53.8975
G01 X60.4346 Y53.8460
G01 X60.2993 Y53.7820
G01 X60.1709 Y53.7051
G01 X60.0467 Y53.6132
G01 X59.9340 Y53.5110
G01 X59.8318 Y53.3983
G01 X59.7412 Y53.2761
G01 X59.6630 Y53.1457
G01 X59.5990 Y53.0104
G01 X59.5467 Y52.8649
G01 X59.5094 Y52.7150
G01 X59.4875 Y52.5669
G01 X59.4801 Y52.4175
G01 X59.4875 Y52.2631
G01 X59.5103 Y52.1102
G01 X59.5467 Y51.9651
G01 X59.5971 Y51.8241
G01 X59.6630 Y51.6843
G01 X59.7426 Y51.5519
G01 X59.8318 Y51.4317
G01 X59.9340 Y51.3190
G01 X60.0486 Y51.2153
G01 X60.1689 Y51.1262
G01 X60.2972 Y51.0492
G01 X60.4368 Y50.9830
G01 X60.5824 Y50.9311
G01 X60.7276 Y50.8948
G01 X60.8756 Y50.8728
G01 X61.0300 Y50.8650
G00 Z2.0000
G00 X70.0500 Y61.9500
G01 F60.00
G01 Z-0.0500
G01 F120.00
G01 X71.0525 Y61.9501
G01 X71.2019 Y61.9575
G01 X71.3500 Y61.9794
G01 X71.4999 Y62.0167
G01 X71.6432 Y62.0680
G01 X71.7785 Y62.1319
G01 X71.9131 Y62.2126
G01 X72.0333 Y62.3018
G01 X72.1460 Y62.4040
G01 X72.2482 Y62.5167
G01 X72.3388 Y62.6389
G01 X72.4170 Y62.7693
G01 X72.4820 Y62.9068
G01 X72.5333 Y63.0501
G01 X72.5702 Y63.1976
G01 X72.5925 Y63.3481
G01 X72.6000 Y63.5000
G01 X72.5925 Y63.6519
G01 X72.5702 Y63.8024
G01 X72.5333 Y63.9499
G01 X72.4820 Y64.0932
G01 X72.4170 Y64.2307
G01 X72.3388 Y64.3611
G01 X72.2482 Y64.4833
G01 X72.1460 Y64.5960
G01 X72.0333 Y64.6982
G01 X71.9111 Y64.7888
G01 X71.7807 Y64.8670
G01 X71.6409 Y64.9329
G01 X71.4999 Y64.9833
G01 X71.3548 Y65.0197
G01 X71.2031 Y65.0424
G01 X71.0500 Y65.0500
G01 X70.0500 Y65.0500
G01 X69.8969 Y65.0424
G01 X69.7476 Y65.0202
G01 X69.5977 Y64.9825
G01 X69.4546 Y64.9310
G01 X69.3193 Y64.8670
G01 X69.1909 Y64.7901
G01 X69.0667 Y64.6982
G01 X68.9540 Y64.5960
G01 X68.8518 Y64.4833
G01 X68.7612 Y64.3611
G01 X68.6830 Y64.2307
G01 X68.6190 Y64.0954
G01 X68.5667 Y63.9499
G01 X68.5294 Y63.8000
G01 X68.5075 Y63.6519
G01 X68.5001 Y63.5025
G01 X68.5075 Y63.3481
G01 X68.5303 Y63.1952
G01 X68.5667 Y63.0501
G01 X68.6171 Y62.9091
G01 X68.6830 Y62.7693
G01 X68.7626 Y62.6369
G01 X68.8518 Y62.5167
G01 X68.9540 Y62.4040
G01 X69.0686 Y62.3003
G01 X69.1889 Y62.2112
G01 X69.3172 Y62.1342
G01 X69.4568 Y62.0680
G01 X69.6024 Y62.0161
G01 X69.7476 Y61.9798
G01 X69.8956 Y61.9578
G01 X70.0500 Y61.9500
G00 Z2.0000
G00 X69.2997 Y6.4353
G01 F60.00
G01 Z-0.0500
G01 F120.00
G01 X69.1889 Y6.3688
G01 X69.0686 Y6.2797
G01 X68.9558 Y6.1777
G01 X68.8518 Y6.0633
G01 X68.7612 Y5.9411
G01 X68.6830 Y5.8107
G01 X68.6171 Y5.6709
G01 X68.5667 Y5.5299
G01 X68.5303 Y5.3848
G01 X68.5075 Y5.2319
G01 X68.5000 Y5.0800
G01 X68.5078 Y4.9256
G01 X68.5298 Y4.7776
G01 X68.5661 Y4.6324
G01 X68.6180 Y4.4868
G01 X68.6842 Y4.3472
G01 X68.7612 Y4.2189
G01 X68.8503 Y4.0986
G01 X68.9540 Y3.9840
G01 X69.0676 Y3.8811
G01 X69.1909 Y3.7899
G01 X69.3193 Y3.7130
G01 X69.4546 Y3.6490
G01 X69.6001 Y3.5967
G01 X69.7488 Y3.5596
G01 X69.8981 Y3.5375
G01 X70.0488 Y3.5300
G01 X71.0500 Y3.5300
G01 X71.2007 Y3.5374
G01 X71.3524 Y3.5598
G01 X71.4999 Y3.5967
G01 X71.6432 Y3.6480
G01 X71.7807 Y3.7130
G01 X71.9111 Y3.7912
G01 X72.0333 Y3.8818
G01 X72.1460 Y3.9840
G01 X72.2489 Y4.0976
G01 X72.3388 Y4.2189
G01 X72.4158 Y4.3472
G01 X72.4829 Y4.4891
G01 X72.5333 Y4.6301
G01 X72.5702 Y4.7776
G01 X72.5925 Y4.9281
G01 X72.5999 Y5.0775
G01 X72.5922 Y5.2344
G01 X72.5702 Y5.3824
G01 X72.5333 Y5.5299
G01 X72.4820 Y5.6732
G01 X72.4181 Y5.8085
G01 X72.3374 Y5.9431
G01 X72.2482 Y6.0633
G01 X72.1460 Y6.1760
G01 X72.0333 Y6.2782
G01 X71.9131 Y6.3674
G01 X71.7785 Y6.4481
G01 X71.6432 Y6.5120
G01 X71.5023 Y6.5625
G01 X71.3524 Y6.6002
G01 X71.1995 Y6.6227
G01 X71.0500 Y6.6300
G01 X70.4003 Y6.6300
G01 X70.4003 Y14.6150
G01 X71.0500 Y14.6150
G01 X71.2031 Y14.6226
G01 X71.3524 Y14.6448
G01 X71.4999 Y14.6817
G01 X71.6432 Y14.7330
G01 X71.7785 Y14.7969
G01 X71.9111 Y14.8762
G01 X72.0333 Y14.9668
G01 X72.1460 Y15.0690
G01 X72.2474 Y15.1808
G01 X72.3388 Y15.3039
G01 X72.4164 Y15.4333
G01 X72.4815 Y15.5707
G01 X72.4974 Y15.6147
G01 X76.5852 Y15.6148
G01 X76.6379 Y15.6174
G01 X76.6889 Y15.6249
G01 X76.7437 Y15.6384
G01 X76.7946 Y15.6566
G01 X76.8412 Y15.6786
G01 X76.8897 Y15.7075
G01 X76.9331 Y15.7397
G01 X76.9731 Y15.7759
G01 X87.3969 Y26.1997
G01 X88.6200 Y26.1997
G01 X88.6200 Y25.5500
G01 X88.6275 Y25.3981
G01 X88.6498 Y25.2476
G01 X88.6861 Y25.1024
G01 X88.7380 Y24.9568
G01 X88.8030 Y24.8193
G01 X88.8812 Y24.6889
G01 X88.9718 Y24.5667
G01 X89.0723 Y24.4558
G01 X89.1886 Y24.3503
G01 X89.3089 Y24.2612
G01 X89.4393 Y24.1830
G01 X89.5791 Y24.1171
G01 X89.7201 Y24.0667
G01 X89.8652 Y24.0303
G01 X90.0181 Y24.0075
G01 X90.1725 Y24.0001
G01 X90.3219 Y24.0075
G01 X90.4700 Y24.0294
G01 X90.6199 Y24.0667
G01 X90.7654 Y24.1190
G01 X90.9007 Y24.1830
G01 X91.0301 Y24.2606
G01 X91.1533 Y24.3518
G01 X91.2660 Y24.4540
G01 X91.3682 Y24.5667
G01 X91.4601 Y24.6909
G01 X91.5370 Y24.8193
G01 X91.6010 Y24.9546
G01 X91.6525 Y25.0977
G01 X91.6902 Y25.2476
G01 X91.7126 Y25.3993
G01 X91.7200 Y25.5500
G01 X91.7200 Y26.5512
G01 X91.7125 Y26.7019
G01 X91.6902 Y26.8524
G01 X91.6533 Y26.9999
G01 X91.6029 Y27.1409
G01 X91.5370 Y27.2807
G01 X91.4574 Y27.4131
G01 X91.3682 Y27.5333
G01 X91.2669 Y27.6451
G01 X91.1533 Y27.7482
G01 X91.0311 Y27.8388
G01 X90.9007 Y27.9170
G01 X90.7609 Y27.9829
G01 X90.6199 Y28.0333
G01 X90.4748 Y28.0697
G01 X90.3244 Y28.0922
G01 X90.1700 Y28.1000
G01 X90.0181 Y28.0925
G01 X89.8676 Y28.0702
G01 X89.7177 Y28.0325
G01 X89.5768 Y27.9820
G01 X89.4415 Y27.9181
G01 X89.3089 Y27.8388
G01 X89.1867 Y27.7482
G01 X89.0723 Y27.6442
G01 X88.9703 Y27.5314
G01 X88.8812 Y27.4111
G01 X88.8147 Y27.3003
G01 X87.1665 Y27.3002
G01 X87.1151 Y27.2976
G01 X87.0641 Y27.2901
G01 X87.0093 Y27.2766
G01 X86.9584 Y27.2584
G01 X86.9118 Y27.2364
G01 X86.8613 Y27.2061
G01 X86.8199 Y27.1753
G01 X86.7799 Y27.1391
G01 X76.3561 Y16.7153
G01 X72.4974 Y16.7153
G01 X72.4815 Y16.7593
G01 X72.4175 Y16.8946
G01 X72.3381 Y17.0271
G01 X72.2482 Y17.1483
G01 X72.1477 Y17.2592
G01 X72.0324 Y17.3639
G01 X71.9111 Y17.4538
G01 X71.7828 Y17.5308
G01 X71.6432 Y17.5970
G01 X71.4999 Y17.6483
G01 X71.3548 Y17.6847
G01 X71.2007 Y17.7076
G01 X71.0500 Y17.7150
G01 X70.0488 Y17.7150
G01 X69.8981 Y17.7075
G01 X69.7476 Y17.6852
G01 X69.6001 Y17.6483
G01 X69.4591 Y17.5979
G01 X69.3193 Y17.5320
G01 X69.1869 Y17.4524
G01 X69.0667 Y17.3632
G01 X68.9549 Y17.2619
G01 X68.8518 Y17.1483
G01 X68.7612 Y17.0261
G01 X68.6830 Y16.8957
G01 X68.6180 Y16.7582
G01 X68.5667 Y16.6149
G01 X68.5298 Y16.4674
G01 X68.5075 Y16.3169
G01 X68.5000 Y16.1638
G01 X68.5078 Y16.0106
G01 X68.5298 Y15.8626
G01 X68.5661 Y15.7174
G01 X68.6180 Y15.5718
G01 X68.6842 Y15.4322
G01 X68.7612 Y15.3039
G01 X68.8503 Y15.1836
G01 X68.9540 Y15.0690
G01 X69.0686 Y14.9653
G01 X69.1889 Y14.8762
G01 X69.2997 Y14.8097
G01 X69.2997 Y6.4353
G00 Z2.0000
G00 X61.0300 Y3.5300
G01 F60.00
G01 Z-0.0500
G01 F120.00
G01 X62.0325 Y3.5301
G01 X62.1819 Y3.5375
G01 X62.3300 Y3.5594
G01 X62.4799 Y3.5967
G01 X62.6232 Y3.6480
G01 X62.7585 Y3.7119
G01 X62.8931 Y3.7926
G01 X63.0133 Y3.8818
G01 X63.1260 Y3.9840
G01 X63.2282 Y4.0967
G01 X63.3188 Y4.2189
G01 X63.3970 Y4.3493
G01 X63.4620 Y4.4868
G01 X63.5133 Y4.6301
G01 X63.5502 Y4.7776
G01 X63.5725 Y4.9281
G01 X63.5800 Y5.0800
G01 X63.5725 Y5.2319
G01 X63.5502 Y5.3824
G01 X63.5133 Y5.5299
G01 X63.4620 Y5.6732
G01 X63.3970 Y5.8107
G01 X63.3188 Y5.9411
G01 X63.2282 Y6.0633
G01 X63.1260 Y6.1760
G01 X63.0133 Y6.2782
G01 X62.8911 Y6.3688
G01 X62.7607 Y6.4470
G01 X62.6209 Y6.5129
G01 X62.4799 Y6.5633
G01 X62.3348 Y6.5997
G01 X62.1831 Y6.6224
G01 X62.0300 Y6.6300
G01 X61.0300 Y6.6300
G01 X60.8769 Y6.6224
G01 X60.7276 Y6.6002
G01 X60.5777 Y6.5625
G01 X60.4346 Y6.5110
G01 X60.2993 Y6.4470
G01 X60.1709 Y6.3701
G01 X60.0467 Y6.2782
G01 X59.9340 Y6.1760
G01 X59.8318 Y6.0633
G01 X59.7412 Y5.9411
G01 X59.6630 Y5.8107
G01 X59.5990 Y5.6754
G01 X59.5467 Y5.5299
G01 X59.5094 Y5.3800
G01 X59.4875 Y5.2319
G01 X59.4801 Y5.0825
G01 X59.4875 Y4.9281
G01 X59.5103 Y4.7752
G01 X59.5467 Y4.6301
G01 X59.5971 Y4.4891
G01 X59.6630 Y4.3493
G01 X59.7426 Y4.2169
G01 X59.8318 Y4.0967
G01 X59.9340 Y3.9840
G01 X60.0486 Y3.8803
G01 X60.1689 Y3.7912
G01 X60.2972 Y3.7142
G01 X60.4368 Y3.6480
G01 X60.5824 Y3.5961
G01 X60.7276 Y3.5598
G01 X60.8756 Y3.5378
G01 X61.0300 Y3.5300
G00 Z2.0000
M05
G00 Z2.0000
G00 Z15.00


