(G-CODE GENERATED BY FLATCAM v8.994 - www.flatcam.org - Version Date: 2020/11/7)

(Name: preamp-board-v4-B_Cu.gbr_iso_combined_cnc)
(Type: G-code from Geometry)
(Units: MM)

(Created on Wednesday, 05 May 2021 at 14:43)

(This preprocessor is the default preprocessor used by FlatCAM.)
(It is made to work with MACH3 compatible motion controllers.)

(TOOL DIAMETER: 0.1 mm)
(Feedrate_XY: 120.0 mm/min)
(Feedrate_Z: 60.0 mm/min)
(Feedrate rapids 1500.0 mm/min)

(Z_Cut: -0.05 mm)
(Z_Move: 2.0 mm)
(Z Start: None mm)
(Z End: 15.0 mm)
(X,Y End: None mm)
(Steps per circle: 64)
(Preprocessor Geometry: default)

(X range:   10.7550 ...   91.7200  mm)
(Y range:    3.5300 ...   65.0500  mm)

(Spindle Speed: 10000.0 RPM)
G21
G90
G94

G01 F120.00

M5
G00 Z15.0000
G00 X0.0000 Y0.0000
T1
M6    
(MSG, Change to Tool Dia = 0.1000)
M0
G00 Z15.0000

M03 S10000.0
G01 F120.00
G00 X11.4325 Y33.7599
G01 F60.00
G01 Z-0.0500
G01 F120.00
G01 X11.3638 Y33.7567
G01 X11.2983 Y33.7470
G01 X11.2341 Y33.7309
G01 X11.1717 Y33.7086
G01 X11.1118 Y33.6803
G01 X11.0550 Y33.6462
G01 X11.0018 Y33.6068
G01 X10.9527 Y33.5623
G01 X10.9082 Y33.5132
G01 X10.8688 Y33.4600
G01 X10.8347 Y33.4032
G01 X10.8064 Y33.3433
G01 X10.7841 Y33.2809
G01 X10.7680 Y33.2167
G01 X10.7583 Y33.1512
G01 X10.7550 Y33.0850
G01 X10.7550 Y30.3350
G01 X10.7583 Y30.2688
G01 X10.7680 Y30.2033
G01 X10.7841 Y30.1391
G01 X10.8064 Y30.0767
G01 X10.8347 Y30.0168
G01 X10.8674 Y29.9621
G01 X10.9098 Y29.9049
G01 X10.9527 Y29.8577
G01 X11.0018 Y29.8132
G01 X11.0550 Y29.7738
G01 X11.1118 Y29.7397
G01 X11.1717 Y29.7114
G01 X11.2317 Y29.6898
G01 X11.3007 Y29.6726
G01 X11.3638 Y29.6633
G01 X11.4300 Y29.6600
G01 X11.4962 Y29.6633
G01 X11.5617 Y29.6730
G01 X11.6259 Y29.6891
G01 X11.6883 Y29.7114
G01 X11.7482 Y29.7397
G01 X11.8050 Y29.7738
G01 X11.8582 Y29.8132
G01 X11.9073 Y29.8577
G01 X11.9518 Y29.9068
G01 X11.9912 Y29.9600
G01 X12.0253 Y30.0168
G01 X12.0536 Y30.0767
G01 X12.0759 Y30.1391
G01 X12.0920 Y30.2033
G01 X12.1017 Y30.2688
G01 X12.1050 Y30.3350
G01 X12.1050 Y33.0850
G01 X12.1017 Y33.1512
G01 X12.0920 Y33.2167
G01 X12.0759 Y33.2809
G01 X12.0536 Y33.3433
G01 X12.0253 Y33.4032
G01 X11.9926 Y33.4579
G01 X11.9502 Y33.5151
G01 X11.9073 Y33.5623
G01 X11.8582 Y33.6068
G01 X11.8050 Y33.6462
G01 X11.7503 Y33.6791
G01 X11.6860 Y33.7095
G01 X11.6259 Y33.7309
G01 X11.5617 Y33.7470
G01 X11.4962 Y33.7567
G01 X11.4325 Y33.7599
G00 Z2.0000
G00 X11.8765 Y34.9897
G01 F60.00
G01 Z-0.0500
G01 F120.00
G01 X12.4781 Y34.9897
G01 X31.8319 Y15.6359
G01 X31.8719 Y15.5997
G01 X31.9153 Y15.5675
G01 X31.9616 Y15.5397
G01 X32.0116 Y15.5162
G01 X32.0613 Y15.4984
G01 X32.1137 Y15.4853
G01 X32.1671 Y15.4774
G01 X32.2210 Y15.4747
G01 X43.6820 Y15.4747
G01 X43.7384 Y15.4777
G01 X43.7893 Y15.4853
G01 X43.8417 Y15.4984
G01 X43.8948 Y15.5176
G01 X43.9414 Y15.5397
G01 X43.9856 Y15.5662
G01 X44.0311 Y15.5997
G01 X44.0711 Y15.6359
G01 X49.1011 Y20.6659
G01 X49.1373 Y20.7059
G01 X49.1695 Y20.7493
G01 X49.1973 Y20.7956
G01 X49.2208 Y20.8456
G01 X49.2386 Y20.8953
G01 X49.2517 Y20.9477
G01 X49.2596 Y21.0011
G01 X49.2623 Y21.0550
G01 X49.2623 Y32.3710
G01 X49.2596 Y32.4249
G01 X49.2514 Y32.4795
G01 X49.2386 Y32.5307
G01 X49.2212 Y32.5793
G01 X49.1973 Y32.6304
G01 X49.1695 Y32.6767
G01 X49.1389 Y32.7181
G01 X49.1011 Y32.7601
G01 X45.9121 Y35.9491
G01 X45.8721 Y35.9853
G01 X45.8287 Y36.0175
G01 X45.7824 Y36.0453
G01 X45.7324 Y36.0688
G01 X45.6827 Y36.0866
G01 X45.6303 Y36.0997
G01 X45.5769 Y36.1076
G01 X45.5230 Y36.1103
G01 X41.9100 Y36.1103
G01 X41.7100 Y36.1100
G01 X41.6561 Y36.1074
G01 X41.6027 Y36.0994
G01 X41.5503 Y36.0863
G01 X41.4995 Y36.0681
G01 X41.4529 Y36.0462
G01 X41.4024 Y36.0159
G01 X41.3611 Y35.9852
G01 X41.3211 Y35.9489
G01 X41.2848 Y35.9089
G01 X41.2541 Y35.8676
G01 X41.2238 Y35.8171
G01 X41.2019 Y35.7705
G01 X41.1837 Y35.7197
G01 X41.1706 Y35.6673
G01 X41.1628 Y35.6151
G01 X41.1600 Y35.5600
G01 X41.1626 Y35.5061
G01 X41.1706 Y35.4527
G01 X41.1837 Y35.4003
G01 X41.2019 Y35.3495
G01 X41.2249 Y35.3007
G01 X41.2527 Y35.2544
G01 X41.2848 Y35.2111
G01 X41.3211 Y35.1711
G01 X41.3611 Y35.1348
G01 X41.4044 Y35.1027
G01 X41.4507 Y35.0749
G01 X41.4995 Y35.0519
G01 X41.5503 Y35.0337
G01 X41.6027 Y35.0206
G01 X41.6537 Y35.0129
G01 X41.7088 Y35.0100
G01 X41.9100 Y35.0097
G01 X45.2951 Y35.0097
G01 X48.1617 Y32.1431
G01 X48.1617 Y21.2829
G01 X43.4541 Y16.5753
G01 X32.4489 Y16.5753
G01 X13.0942 Y35.9299
G01 X13.0551 Y35.9653
G01 X13.0137 Y35.9961
G01 X12.9654 Y36.0253
G01 X12.9166 Y36.0484
G01 X12.8681 Y36.0658
G01 X12.8121 Y36.0799
G01 X12.7599 Y36.0876
G01 X12.7072 Y36.0902
G01 X12.1050 Y36.0903
G01 X12.1050 Y38.2450
G01 X12.1014 Y38.3136
G01 X12.0920 Y38.3767
G01 X12.0766 Y38.4386
G01 X12.0536 Y38.5033
G01 X12.0264 Y38.5610
G01 X11.9898 Y38.6220
G01 X11.9518 Y38.6732
G01 X11.9073 Y38.7223
G01 X11.8582 Y38.7668
G01 X11.8050 Y38.8062
G01 X11.7482 Y38.8403
G01 X11.6883 Y38.8686
G01 X11.6259 Y38.8909
G01 X11.5641 Y38.9065
G01 X11.4937 Y38.9169
G01 X11.4300 Y38.9200
G01 X11.3626 Y38.9166
G01 X11.2983 Y38.9070
G01 X11.2364 Y38.8916
G01 X11.1694 Y38.8676
G01 X11.1118 Y38.8403
G01 X11.0550 Y38.8062
G01 X11.0018 Y38.7668
G01 X10.9545 Y38.7240
G01 X10.9067 Y38.6713
G01 X10.8688 Y38.6200
G01 X10.8347 Y38.5632
G01 X10.8064 Y38.5033
G01 X10.7848 Y38.4433
G01 X10.7677 Y38.3755
G01 X10.7583 Y38.3112
G01 X10.7550 Y38.2450
G01 X10.7550 Y35.4950
G01 X10.7584 Y35.4276
G01 X10.7680 Y35.3633
G01 X10.7834 Y35.3014
G01 X10.8064 Y35.2367
G01 X10.8359 Y35.1747
G01 X10.8688 Y35.1200
G01 X10.9067 Y35.0687
G01 X10.9527 Y35.0177
G01 X11.0037 Y34.9717
G01 X11.0550 Y34.9338
G01 X11.1097 Y34.9009
G01 X11.1728 Y34.8709
G01 X11.2341 Y34.8491
G01 X11.2959 Y34.8335
G01 X11.3638 Y34.8233
G01 X11.4325 Y34.8201
G01 X11.4962 Y34.8233
G01 X11.5605 Y34.8327
G01 X11.6283 Y34.8498
G01 X11.6883 Y34.8714
G01 X11.7471 Y34.8991
G01 X11.8060 Y34.9345
G01 X11.8573 Y34.9725
G01 X11.8765 Y34.9897
G00 Z2.0000
G00 X22.8625 Y33.7599
G01 F60.00
G01 Z-0.0500
G01 F120.00
G01 X22.7938 Y33.7567
G01 X22.7283 Y33.7470
G01 X22.6641 Y33.7309
G01 X22.6017 Y33.7086
G01 X22.5418 Y33.6803
G01 X22.4850 Y33.6462
G01 X22.4318 Y33.6068
G01 X22.3827 Y33.5623
G01 X22.3382 Y33.5132
G01 X22.2988 Y33.4600
G01 X22.2647 Y33.4032
G01 X22.2364 Y33.3433
G01 X22.2141 Y33.2809
G01 X22.1980 Y33.2167
G01 X22.1883 Y33.1512
G01 X22.1850 Y33.0850
G01 X22.1850 Y30.3350
G01 X22.1883 Y30.2688
G01 X22.1980 Y30.2033
G01 X22.2141 Y30.1391
G01 X22.2364 Y30.0767
G01 X22.2647 Y30.0168
G01 X22.2974 Y29.9621
G01 X22.3398 Y29.9049
G01 X22.3827 Y29.8577
G01 X22.4318 Y29.8132
G01 X22.4850 Y29.7738
G01 X22.5418 Y29.7397
G01 X22.6017 Y29.7114
G01 X22.6617 Y29.6898
G01 X22.7307 Y29.6726
G01 X22.7938 Y29.6633
G01 X22.8600 Y29.6600
G01 X22.9262 Y29.6633
G01 X22.9917 Y29.6730
G01 X23.0559 Y29.6891
G01 X23.1183 Y29.7114
G01 X23.1782 Y29.7397
G01 X23.2350 Y29.7738
G01 X23.2882 Y29.8132
G01 X23.3373 Y29.8577
G01 X23.3818 Y29.9068
G01 X23.4212 Y29.9600
G01 X23.4553 Y30.0168
G01 X23.4836 Y30.0767
G01 X23.5059 Y30.1391
G01 X23.5220 Y30.2033
G01 X23.5317 Y30.2688
G01 X23.5350 Y30.3350
G01 X23.5350 Y33.0850
G01 X23.5317 Y33.1512
G01 X23.5220 Y33.2167
G01 X23.5059 Y33.2809
G01 X23.4836 Y33.3433
G01 X23.4553 Y33.4032
G01 X23.4226 Y33.4579
G01 X23.3802 Y33.5151
G01 X23.3373 Y33.5623
G01 X23.2882 Y33.6068
G01 X23.2350 Y33.6462
G01 X23.1803 Y33.6791
G01 X23.1160 Y33.7095
G01 X23.0559 Y33.7309
G01 X22.9917 Y33.7470
G01 X22.9262 Y33.7567
G01 X22.8625 Y33.7599
G00 Z2.0000
G00 X22.8625 Y38.9199
G01 F60.00
G01 Z-0.0500
G01 F120.00
G01 X22.7938 Y38.9167
G01 X22.7283 Y38.9070
G01 X22.6641 Y38.8909
G01 X22.6017 Y38.8686
G01 X22.5418 Y38.8403
G01 X22.4850 Y38.8062
G01 X22.4318 Y38.7668
G01 X22.3827 Y38.7223
G01 X22.3382 Y38.6732
G01 X22.2988 Y38.6200
G01 X22.2647 Y38.5632
G01 X22.2364 Y38.5033
G01 X22.2141 Y38.4409
G01 X22.1980 Y38.3767
G01 X22.1883 Y38.3112
G01 X22.1850 Y38.2450
G01 X22.1850 Y35.4950
G01 X22.1883 Y35.4288
G01 X22.1980 Y35.3633
G01 X22.2141 Y35.2991
G01 X22.2364 Y35.2367
G01 X22.2647 Y35.1768
G01 X22.2974 Y35.1221
G01 X22.3398 Y35.0649
G01 X22.3827 Y35.0177
G01 X22.4318 Y34.9732
G01 X22.4850 Y34.9338
G01 X22.5418 Y34.8997
G01 X22.6017 Y34.8714
G01 X22.6617 Y34.8498
G01 X22.7307 Y34.8326
G01 X22.7938 Y34.8233
G01 X22.8600 Y34.8200
G01 X22.9262 Y34.8233
G01 X22.9917 Y34.8330
G01 X23.0559 Y34.8491
G01 X23.1183 Y34.8714
G01 X23.1782 Y34.8997
G01 X23.2350 Y34.9338
G01 X23.2882 Y34.9732
G01 X23.3373 Y35.0177
G01 X23.3818 Y35.0668
G01 X23.4212 Y35.1200
G01 X23.4553 Y35.1768
G01 X23.4836 Y35.2367
G01 X23.5059 Y35.2991
G01 X23.5220 Y35.3633
G01 X23.5317 Y35.4288
G01 X23.5350 Y35.4950
G01 X23.5350 Y38.2450
G01 X23.5317 Y38.3112
G01 X23.5220 Y38.3767
G01 X23.5059 Y38.4409
G01 X23.4836 Y38.5033
G01 X23.4553 Y38.5632
G01 X23.4226 Y38.6179
G01 X23.3802 Y38.6751
G01 X23.3373 Y38.7223
G01 X23.2882 Y38.7668
G01 X23.2350 Y38.8062
G01 X23.1803 Y38.8391
G01 X23.1160 Y38.8695
G01 X23.0559 Y38.8909
G01 X22.9917 Y38.9070
G01 X22.9262 Y38.9167
G01 X22.8625 Y38.9199
G00 Z2.0000
G00 X36.5700 Y38.6500
G01 F60.00
G01 Z-0.0500
G01 F120.00
G01 X36.5161 Y38.6474
G01 X36.4651 Y38.6399
G01 X36.4080 Y38.6255
G01 X36.3595 Y38.6081
G01 X36.3107 Y38.5851
G01 X36.2644 Y38.5573
G01 X36.2211 Y38.5252
G01 X36.1811 Y38.4889
G01 X36.1464 Y38.4508
G01 X36.1114 Y38.4035
G01 X36.0849 Y38.3593
G01 X36.0619 Y38.3105
G01 X36.0437 Y38.2597
G01 X36.0311 Y38.2097
G01 X36.0225 Y38.1515
G01 X36.0200 Y38.1000
G01 X36.0226 Y38.0461
G01 X36.0306 Y37.9927
G01 X36.0430 Y37.9427
G01 X36.0629 Y37.8873
G01 X36.0849 Y37.8407
G01 X36.1127 Y37.7944
G01 X36.1448 Y37.7511
G01 X36.1794 Y37.7129
G01 X36.2230 Y37.6733
G01 X36.2644 Y37.6427
G01 X36.3118 Y37.6144
G01 X36.3618 Y37.5910
G01 X36.4103 Y37.5737
G01 X36.4603 Y37.5611
G01 X36.5161 Y37.5526
G01 X36.5688 Y37.5500
G01 X38.8197 Y37.5500
G01 X38.8197 Y36.1100
G01 X36.5700 Y36.1100
G01 X36.5161 Y36.1074
G01 X36.4651 Y36.0999
G01 X36.4080 Y36.0855
G01 X36.3573 Y36.0671
G01 X36.3107 Y36.0451
G01 X36.2665 Y36.0186
G01 X36.2211 Y35.9852
G01 X36.1794 Y35.9471
G01 X36.1448 Y35.9089
G01 X36.1141 Y35.8676
G01 X36.0849 Y35.8193
G01 X36.0610 Y35.7682
G01 X36.0437 Y35.7197
G01 X36.0311 Y35.6697
G01 X36.0226 Y35.6139
G01 X36.0201 Y35.5575
G01 X36.0226 Y35.5061
G01 X36.0301 Y35.4551
G01 X36.0437 Y35.4003
G01 X36.0619 Y35.3495
G01 X36.0862 Y35.2986
G01 X36.1127 Y35.2544
G01 X36.1433 Y35.2130
G01 X36.1802 Y35.1720
G01 X36.2211 Y35.1348
G01 X36.2644 Y35.1027
G01 X36.3107 Y35.0749
G01 X36.3595 Y35.0519
G01 X36.4103 Y35.0337
G01 X36.4627 Y35.0206
G01 X36.5161 Y35.0126
G01 X36.5700 Y35.0100
G01 X39.3700 Y35.0097
G01 X39.5725 Y35.0101
G01 X39.6239 Y35.0126
G01 X39.6773 Y35.0206
G01 X39.7297 Y35.0337
G01 X39.7805 Y35.0519
G01 X39.8293 Y35.0749
G01 X39.8756 Y35.1027
G01 X39.9189 Y35.1348
G01 X39.9580 Y35.1702
G01 X39.9952 Y35.2111
G01 X40.0273 Y35.2544
G01 X40.0551 Y35.3007
G01 X40.0781 Y35.3495
G01 X40.0963 Y35.4003
G01 X40.1094 Y35.4527
G01 X40.1174 Y35.5061
G01 X40.1200 Y35.5600
G01 X40.1174 Y35.6139
G01 X40.1094 Y35.6673
G01 X40.0963 Y35.7197
G01 X40.0771 Y35.7727
G01 X40.0538 Y35.8214
G01 X40.0273 Y35.8656
G01 X39.9967 Y35.9070
G01 X39.9589 Y35.9489
G01 X39.9203 Y35.9840
G01 X39.9203 Y37.6760
G01 X39.9589 Y37.7111
G01 X39.9967 Y37.7530
G01 X40.0286 Y37.7965
G01 X40.0551 Y37.8407
G01 X40.0771 Y37.8873
G01 X40.0963 Y37.9403
G01 X40.1094 Y37.9927
G01 X40.1174 Y38.0461
G01 X40.1200 Y38.0988
G01 X40.1174 Y38.1539
G01 X40.1094 Y38.2073
G01 X40.0963 Y38.2597
G01 X40.0781 Y38.3105
G01 X40.0551 Y38.3593
G01 X40.0273 Y38.4056
G01 X39.9952 Y38.4489
G01 X39.9598 Y38.4880
G01 X39.9189 Y38.5252
G01 X39.8756 Y38.5573
G01 X39.8293 Y38.5851
G01 X39.7805 Y38.6081
G01 X39.7297 Y38.6263
G01 X39.6773 Y38.6394
G01 X39.6239 Y38.6474
G01 X39.5725 Y38.6499
G01 X39.3700 Y38.6503
G01 X36.5700 Y38.6500
G00 Z2.0000
G00 X36.5700 Y43.7300
G01 F60.00
G01 Z-0.0500
G01 F120.00
G01 X36.5161 Y43.7274
G01 X36.4627 Y43.7194
G01 X36.4103 Y43.7063
G01 X36.3618 Y43.6890
G01 X36.3107 Y43.6651
G01 X36.2665 Y43.6386
G01 X36.2192 Y43.6036
G01 X36.1811 Y43.5689
G01 X36.1448 Y43.5289
G01 X36.1127 Y43.4856
G01 X36.0849 Y43.4393
G01 X36.0619 Y43.3905
G01 X36.0437 Y43.3397
G01 X36.0306 Y43.2873
G01 X36.0226 Y43.2339
G01 X36.0200 Y43.1800
G01 X36.0226 Y43.1261
G01 X36.0306 Y43.0727
G01 X36.0437 Y43.0203
G01 X36.0619 Y42.9695
G01 X36.0849 Y42.9207
G01 X36.1127 Y42.8744
G01 X36.1433 Y42.8330
G01 X36.1829 Y42.7894
G01 X36.2211 Y42.7548
G01 X36.2665 Y42.7214
G01 X36.3107 Y42.6949
G01 X36.3595 Y42.6719
G01 X36.4103 Y42.6537
G01 X36.4639 Y42.6403
G01 X36.5161 Y42.6326
G01 X36.5700 Y42.6300
G01 X39.5700 Y42.6300
G01 X39.6251 Y42.6328
G01 X39.6773 Y42.6406
G01 X39.7273 Y42.6530
G01 X39.7827 Y42.6729
G01 X39.8293 Y42.6949
G01 X39.8756 Y42.7227
G01 X39.9189 Y42.7548
G01 X39.9571 Y42.7894
G01 X39.9967 Y42.8330
G01 X40.0273 Y42.8744
G01 X40.0551 Y42.9207
G01 X40.0781 Y42.9695
G01 X40.0955 Y43.0180
G01 X40.1097 Y43.0739
G01 X40.1174 Y43.1261
G01 X40.1200 Y43.1800
G01 X40.1174 Y43.2339
G01 X40.1094 Y43.2873
G01 X40.0963 Y43.3397
G01 X40.0781 Y43.3905
G01 X40.0551 Y43.4393
G01 X40.0273 Y43.4856
G01 X39.9952 Y43.5289
G01 X39.9589 Y43.5689
G01 X39.9189 Y43.6052
G01 X39.8756 Y43.6373
G01 X39.8293 Y43.6651
G01 X39.7805 Y43.6881
G01 X39.7297 Y43.7063
G01 X39.6761 Y43.7197
G01 X39.6239 Y43.7274
G01 X39.5700 Y43.7300
G01 X36.5700 Y43.7300
G00 Z2.0000
G00 X36.5700 Y46.2700
G01 F60.00
G01 Z-0.0500
G01 F120.00
G01 X36.5161 Y46.2674
G01 X36.4627 Y46.2594
G01 X36.4103 Y46.2463
G01 X36.3618 Y46.2290
G01 X36.3107 Y46.2051
G01 X36.2665 Y46.1786
G01 X36.2192 Y46.1436
G01 X36.1811 Y46.1089
G01 X36.1448 Y46.0689
G01 X36.1127 Y46.0256
G01 X36.0849 Y45.9793
G01 X36.0619 Y45.9305
G01 X36.0437 Y45.8797
G01 X36.0306 Y45.8273
G01 X36.0226 Y45.7739
G01 X36.0200 Y45.7200
G01 X36.0226 Y45.6661
G01 X36.0306 Y45.6127
G01 X36.0437 Y45.5603
G01 X36.0619 Y45.5095
G01 X36.0849 Y45.4607
G01 X36.1127 Y45.4144
G01 X36.1433 Y45.3730
G01 X36.1811 Y45.3311
G01 X36.2192 Y45.2964
G01 X36.2665 Y45.2614
G01 X36.3107 Y45.2349
G01 X36.3595 Y45.2119
G01 X36.4103 Y45.1937
G01 X36.4639 Y45.1803
G01 X36.5161 Y45.1726
G01 X36.5700 Y45.1700
G01 X39.5700 Y45.1700
G01 X39.6251 Y45.1728
G01 X39.6773 Y45.1806
G01 X39.7273 Y45.1930
G01 X39.7827 Y45.2129
G01 X39.8293 Y45.2349
G01 X39.8756 Y45.2627
G01 X39.9189 Y45.2948
G01 X39.9571 Y45.3294
G01 X39.9967 Y45.3730
G01 X40.0273 Y45.4144
G01 X40.0551 Y45.4607
G01 X40.0781 Y45.5095
G01 X40.0955 Y45.5580
G01 X40.1097 Y45.6139
G01 X40.1174 Y45.6661
G01 X40.1200 Y45.7200
G01 X40.1174 Y45.7739
G01 X40.1094 Y45.8273
G01 X40.0963 Y45.8797
G01 X40.0781 Y45.9305
G01 X40.0551 Y45.9793
G01 X40.0273 Y46.0256
G01 X39.9952 Y46.0689
G01 X39.9589 Y46.1089
G01 X39.9189 Y46.1452
G01 X39.8756 Y46.1773
G01 X39.8293 Y46.2051
G01 X39.7805 Y46.2281
G01 X39.7297 Y46.2463
G01 X39.6761 Y46.2597
G01 X39.6239 Y46.2674
G01 X39.5700 Y46.2700
G01 X36.5700 Y46.2700
G00 Z2.0000
G00 X41.7100 Y46.2700
G01 F60.00
G01 Z-0.0500
G01 F120.00
G01 X41.6561 Y46.2674
G01 X41.6027 Y46.2594
G01 X41.5503 Y46.2463
G01 X41.5018 Y46.2290
G01 X41.4507 Y46.2051
G01 X41.4065 Y46.1786
G01 X41.3592 Y46.1436
G01 X41.3211 Y46.1089
G01 X41.2848 Y46.0689
G01 X41.2527 Y46.0256
G01 X41.2249 Y45.9793
G01 X41.2019 Y45.9305
G01 X41.1837 Y45.8797
G01 X41.1706 Y45.8273
G01 X41.1626 Y45.7739
G01 X41.1600 Y45.7200
G01 X41.1626 Y45.6661
G01 X41.1706 Y45.6127
G01 X41.1830 Y45.5627
G01 X41.2029 Y45.5073
G01 X41.2249 Y45.4607
G01 X41.2541 Y45.4124
G01 X41.2848 Y45.3711
G01 X41.3211 Y45.3311
G01 X41.3611 Y45.2948
G01 X41.4044 Y45.2627
G01 X41.4507 Y45.2349
G01 X41.4995 Y45.2119
G01 X41.5503 Y45.1937
G01 X41.6015 Y45.1808
G01 X41.6561 Y45.1726
G01 X41.7100 Y45.1700
G01 X46.6021 Y45.1697
G01 X61.6150 Y30.1568
G01 X61.6150 Y27.5850
G01 X61.6180 Y27.5247
G01 X61.6264 Y27.4674
G01 X61.6423 Y27.4041
G01 X61.6628 Y27.3474
G01 X61.6876 Y27.2951
G01 X61.7173 Y27.2454
G01 X61.7546 Y27.1948
G01 X61.7969 Y27.1484
G01 X61.8398 Y27.1096
G01 X61.8863 Y27.0751
G01 X61.9401 Y27.0426
G01 X61.9969 Y27.0159
G01 X62.0515 Y26.9965
G01 X62.1076 Y26.9824
G01 X62.1697 Y26.9730
G01 X62.2325 Y26.9701
G01 X62.2903 Y26.9730
G01 X62.3476 Y26.9814
G01 X62.4085 Y26.9965
G01 X62.4676 Y27.0178
G01 X62.5199 Y27.0426
G01 X62.5696 Y27.0723
G01 X62.6202 Y27.1096
G01 X62.6666 Y27.1519
G01 X62.7054 Y27.1948
G01 X62.7414 Y27.2433
G01 X62.7724 Y27.2951
G01 X62.7982 Y27.3496
G01 X62.8185 Y27.4065
G01 X62.8332 Y27.4650
G01 X62.8420 Y27.5247
G01 X62.8450 Y27.5850
G01 X62.8449 Y30.4575
G01 X62.8420 Y30.5153
G01 X62.8332 Y30.5750
G01 X62.8185 Y30.6335
G01 X62.7991 Y30.6881
G01 X62.7712 Y30.7470
G01 X62.7414 Y30.7967
G01 X62.7054 Y30.8452
G01 X62.6649 Y30.8899
G01 X62.6202 Y30.9304
G01 X62.5717 Y30.9664
G01 X62.5188 Y30.9979
G01 X62.4654 Y31.0232
G01 X62.4073 Y31.0439
G01 X62.3488 Y31.0584
G01 X62.2915 Y31.0669
G01 X62.2596 Y31.0686
G01 X47.2173 Y46.1108
G01 X47.1791 Y46.1453
G01 X47.1357 Y46.1775
G01 X47.0894 Y46.2053
G01 X47.0406 Y46.2284
G01 X46.9897 Y46.2466
G01 X46.9373 Y46.2597
G01 X46.8839 Y46.2676
G01 X46.8312 Y46.2702
G01 X41.7100 Y46.2700
G00 Z2.0000
G00 X41.7100 Y43.7300
G01 F60.00
G01 Z-0.0500
G01 F120.00
G01 X41.6561 Y43.7274
G01 X41.6027 Y43.7194
G01 X41.5503 Y43.7063
G01 X41.5018 Y43.6890
G01 X41.4507 Y43.6651
G01 X41.4065 Y43.6386
G01 X41.3592 Y43.6036
G01 X41.3211 Y43.5689
G01 X41.2848 Y43.5289
G01 X41.2527 Y43.4856
G01 X41.2249 Y43.4393
G01 X41.2019 Y43.3905
G01 X41.1837 Y43.3397
G01 X41.1706 Y43.2873
G01 X41.1626 Y43.2339
G01 X41.1600 Y43.1800
G01 X41.1626 Y43.1261
G01 X41.1706 Y43.0727
G01 X41.1837 Y43.0203
G01 X41.2019 Y42.9695
G01 X41.2249 Y42.9207
G01 X41.2527 Y42.8744
G01 X41.2833 Y42.8330
G01 X41.3229 Y42.7894
G01 X41.3611 Y42.7548
G01 X41.4065 Y42.7214
G01 X41.4507 Y42.6949
G01 X41.4995 Y42.6719
G01 X41.5503 Y42.6537
G01 X41.6039 Y42.6403
G01 X41.6561 Y42.6326
G01 X41.7100 Y42.6300
G01 X44.7100 Y42.6300
G01 X44.7651 Y42.6328
G01 X44.8173 Y42.6406
G01 X44.8673 Y42.6530
G01 X44.9227 Y42.6729
G01 X44.9693 Y42.6949
G01 X45.0156 Y42.7227
G01 X45.0589 Y42.7548
G01 X45.0971 Y42.7894
G01 X45.1367 Y42.8330
G01 X45.1673 Y42.8744
G01 X45.1951 Y42.9207
G01 X45.2181 Y42.9695
G01 X45.2355 Y43.0180
G01 X45.2497 Y43.0739
G01 X45.2574 Y43.1261
G01 X45.2600 Y43.1800
G01 X45.2574 Y43.2339
G01 X45.2494 Y43.2873
G01 X45.2363 Y43.3397
G01 X45.2181 Y43.3905
G01 X45.1951 Y43.4393
G01 X45.1673 Y43.4856
G01 X45.1352 Y43.5289
G01 X45.0989 Y43.5689
G01 X45.0589 Y43.6052
G01 X45.0156 Y43.6373
G01 X44.9693 Y43.6651
G01 X44.9205 Y43.6881
G01 X44.8697 Y43.7063
G01 X44.8161 Y43.7197
G01 X44.7639 Y43.7274
G01 X44.7100 Y43.7300
G01 X41.7100 Y43.7300
G00 Z2.0000
G00 X41.7100 Y41.1900
G01 F60.00
G01 Z-0.0500
G01 F120.00
G01 X41.6561 Y41.1874
G01 X41.6027 Y41.1794
G01 X41.5503 Y41.1663
G01 X41.5018 Y41.1490
G01 X41.4507 Y41.1251
G01 X41.4065 Y41.0986
G01 X41.3592 Y41.0636
G01 X41.3211 Y41.0289
G01 X41.2848 Y40.9889
G01 X41.2527 Y40.9456
G01 X41.2249 Y40.8993
G01 X41.2019 Y40.8505
G01 X41.1837 Y40.7997
G01 X41.1706 Y40.7473
G01 X41.1626 Y40.6939
G01 X41.1600 Y40.6400
G01 X41.1626 Y40.5861
G01 X41.1706 Y40.5327
G01 X41.1837 Y40.4803
G01 X41.2019 Y40.4295
G01 X41.2249 Y40.3807
G01 X41.2527 Y40.3344
G01 X41.2833 Y40.2930
G01 X41.3211 Y40.2511
G01 X41.3592 Y40.2164
G01 X41.4065 Y40.1814
G01 X41.4507 Y40.1549
G01 X41.4995 Y40.1319
G01 X41.5503 Y40.1137
G01 X41.6039 Y40.1003
G01 X41.6561 Y40.0926
G01 X41.7100 Y40.0900
G01 X44.7100 Y40.0900
G01 X44.7651 Y40.0928
G01 X44.8173 Y40.1006
G01 X44.8673 Y40.1130
G01 X44.9227 Y40.1329
G01 X44.9693 Y40.1549
G01 X45.0156 Y40.1827
G01 X45.0589 Y40.2148
G01 X45.0971 Y40.2494
G01 X45.1367 Y40.2930
G01 X45.1673 Y40.3344
G01 X45.1951 Y40.3807
G01 X45.2181 Y40.4295
G01 X45.2355 Y40.4780
G01 X45.2497 Y40.5339
G01 X45.2574 Y40.5861
G01 X45.2600 Y40.6400
G01 X45.2574 Y40.6939
G01 X45.2494 Y40.7473
G01 X45.2363 Y40.7997
G01 X45.2181 Y40.8505
G01 X45.1951 Y40.8993
G01 X45.1673 Y40.9456
G01 X45.1352 Y40.9889
G01 X45.0989 Y41.0289
G01 X45.0589 Y41.0652
G01 X45.0156 Y41.0973
G01 X44.9693 Y41.1251
G01 X44.9205 Y41.1481
G01 X44.8697 Y41.1663
G01 X44.8161 Y41.1797
G01 X44.7639 Y41.1874
G01 X44.7100 Y41.1900
G01 X41.7100 Y41.1900
G00 Z2.0000
G00 X41.7100 Y38.6500
G01 F60.00
G01 Z-0.0500
G01 F120.00
G01 X41.6561 Y38.6474
G01 X41.6027 Y38.6394
G01 X41.5503 Y38.6263
G01 X41.5018 Y38.6090
G01 X41.4507 Y38.5851
G01 X41.4065 Y38.5586
G01 X41.3592 Y38.5236
G01 X41.3211 Y38.4889
G01 X41.2848 Y38.4489
G01 X41.2527 Y38.4056
G01 X41.2249 Y38.3593
G01 X41.2019 Y38.3105
G01 X41.1837 Y38.2597
G01 X41.1706 Y38.2073
G01 X41.1626 Y38.1539
G01 X41.1600 Y38.1000
G01 X41.1626 Y38.0461
G01 X41.1706 Y37.9927
G01 X41.1830 Y37.9427
G01 X41.2029 Y37.8873
G01 X41.2249 Y37.8407
G01 X41.2541 Y37.7924
G01 X41.2848 Y37.7511
G01 X41.3211 Y37.7111
G01 X41.3611 Y37.6748
G01 X41.4044 Y37.6427
G01 X41.4507 Y37.6149
G01 X41.4995 Y37.5919
G01 X41.5503 Y37.5737
G01 X41.6015 Y37.5608
G01 X41.6561 Y37.5526
G01 X41.7100 Y37.5500
G01 X46.4831 Y37.5497
G01 X61.6797 Y22.3531
G01 X61.6797 Y17.7150
G01 X61.0288 Y17.7150
G01 X60.8781 Y17.7075
G01 X60.7264 Y17.6850
G01 X60.5777 Y17.6475
G01 X60.4368 Y17.5970
G01 X60.3015 Y17.5331
G01 X60.1689 Y17.4538
G01 X60.0458 Y17.3624
G01 X59.9323 Y17.2592
G01 X59.8318 Y17.1483
G01 X59.7426 Y17.0281
G01 X59.6630 Y16.8957
G01 X59.5971 Y16.7559
G01 X59.5467 Y16.6149
G01 X59.5103 Y16.4698
G01 X59.4875 Y16.3169
G01 X59.4801 Y16.1625
G01 X59.4875 Y16.0131
G01 X59.5096 Y15.8638
G01 X59.5475 Y15.7127
G01 X59.5980 Y15.5718
G01 X59.6630 Y15.4343
G01 X59.7426 Y15.3019
G01 X59.8318 Y15.1817
G01 X59.9323 Y15.0708
G01 X60.0486 Y14.9653
G01 X60.1689 Y14.8762
G01 X60.2972 Y14.7992
G01 X60.4368 Y14.7330
G01 X60.5824 Y14.6811
G01 X60.7276 Y14.6448
G01 X60.8756 Y14.6228
G01 X61.0288 Y14.6150
G01 X62.0300 Y14.6150
G01 X62.1831 Y14.6226
G01 X62.3324 Y14.6448
G01 X62.4776 Y14.6811
G01 X62.6232 Y14.7330
G01 X62.7607 Y14.7980
G01 X62.8891 Y14.8749
G01 X63.0152 Y14.9684
G01 X63.1260 Y15.0690
G01 X63.2297 Y15.1836
G01 X63.3188 Y15.3039
G01 X63.3958 Y15.4322
G01 X63.4610 Y15.5696
G01 X63.5133 Y15.7151
G01 X63.5502 Y15.8626
G01 X63.5725 Y16.0131
G01 X63.5799 Y16.1675
G01 X63.5725 Y16.3169
G01 X63.5506 Y16.4650
G01 X63.5139 Y16.6126
G01 X63.4620 Y16.7582
G01 X63.3958 Y16.8978
G01 X63.3188 Y17.0261
G01 X63.2297 Y17.1464
G01 X63.1260 Y17.2610
G01 X63.0114 Y17.3647
G01 X62.8911 Y17.4538
G01 X62.7803 Y17.5203
G01 X62.7802 Y22.5822
G01 X62.7776 Y22.6349
G01 X62.7697 Y22.6883
G01 X62.7566 Y22.7407
G01 X62.7392 Y22.7893
G01 X62.7141 Y22.8425
G01 X62.6875 Y22.8867
G01 X62.6537 Y22.9319
G01 X62.6191 Y22.9701
G01 X47.1001 Y38.4891
G01 X47.0581 Y38.5269
G01 X47.0167 Y38.5575
G01 X46.9704 Y38.5853
G01 X46.9216 Y38.6084
G01 X46.8731 Y38.6258
G01 X46.8159 Y38.6401
G01 X46.7649 Y38.6476
G01 X46.7122 Y38.6502
G01 X41.7100 Y38.6500
G00 Z2.0000
G00 X41.7100 Y33.5700
G01 F60.00
G01 Z-0.0500
G01 F120.00
G01 X41.6561 Y33.5674
G01 X41.6027 Y33.5594
G01 X41.5503 Y33.5463
G01 X41.5018 Y33.5290
G01 X41.4486 Y33.5038
G01 X41.4044 Y33.4773
G01 X41.3592 Y33.4436
G01 X41.3211 Y33.4089
G01 X41.2848 Y33.3689
G01 X41.2527 Y33.3256
G01 X41.2249 Y33.2793
G01 X41.2019 Y33.2305
G01 X41.1837 Y33.1797
G01 X41.1706 Y33.1273
G01 X41.1626 Y33.0739
G01 X41.1600 Y33.0200
G01 X41.1626 Y32.9661
G01 X41.1706 Y32.9127
G01 X41.1837 Y32.8603
G01 X41.2019 Y32.8095
G01 X41.2249 Y32.7607
G01 X41.2527 Y32.7144
G01 X41.2833 Y32.6730
G01 X41.3229 Y32.6294
G01 X41.3611 Y32.5948
G01 X41.4065 Y32.5614
G01 X41.4507 Y32.5349
G01 X41.4995 Y32.5119
G01 X41.5503 Y32.4937
G01 X41.6039 Y32.4803
G01 X41.6561 Y32.4726
G01 X41.7100 Y32.4700
G01 X44.7100 Y32.4700
G01 X44.7651 Y32.4728
G01 X44.8173 Y32.4806
G01 X44.8673 Y32.4930
G01 X44.9227 Y32.5129
G01 X44.9693 Y32.5349
G01 X45.0156 Y32.5627
G01 X45.0589 Y32.5948
G01 X45.0971 Y32.6294
G01 X45.1367 Y32.6730
G01 X45.1673 Y32.7144
G01 X45.1951 Y32.7607
G01 X45.2181 Y32.8095
G01 X45.2355 Y32.8580
G01 X45.2497 Y32.9139
G01 X45.2574 Y32.9661
G01 X45.2600 Y33.0200
G01 X45.2574 Y33.0739
G01 X45.2494 Y33.1273
G01 X45.2363 Y33.1797
G01 X45.2181 Y33.2305
G01 X45.1951 Y33.2793
G01 X45.1673 Y33.3256
G01 X45.1352 Y33.3689
G01 X45.0989 Y33.4089
G01 X45.0589 Y33.4452
G01 X45.0156 Y33.4773
G01 X44.9693 Y33.5051
G01 X44.9205 Y33.5281
G01 X44.8697 Y33.5463
G01 X44.8161 Y33.5597
G01 X44.7639 Y33.5674
G01 X44.7100 Y33.5700
G01 X41.7100 Y33.5700
G00 Z2.0000
G00 X41.7100 Y28.4900
G01 F60.00
G01 Z-0.0500
G01 F120.00
G01 X41.6561 Y28.4874
G01 X41.6027 Y28.4794
G01 X41.5503 Y28.4663
G01 X41.5018 Y28.4490
G01 X41.4486 Y28.4238
G01 X41.4044 Y28.3973
G01 X41.3592 Y28.3636
G01 X41.3211 Y28.3289
G01 X41.2848 Y28.2889
G01 X41.2527 Y28.2456
G01 X41.2249 Y28.1993
G01 X41.2019 Y28.1505
G01 X41.1837 Y28.0997
G01 X41.1706 Y28.0473
G01 X41.1626 Y27.9939
G01 X41.1600 Y27.9400
G01 X41.1626 Y27.8861
G01 X41.1706 Y27.8327
G01 X41.1837 Y27.7803
G01 X41.2019 Y27.7295
G01 X41.2249 Y27.6807
G01 X41.2527 Y27.6344
G01 X41.2833 Y27.5930
G01 X41.3229 Y27.5494
G01 X41.3611 Y27.5148
G01 X41.4065 Y27.4814
G01 X41.4507 Y27.4549
G01 X41.4995 Y27.4319
G01 X41.5503 Y27.4137
G01 X41.6039 Y27.4003
G01 X41.6561 Y27.3926
G01 X41.7100 Y27.3900
G01 X44.7100 Y27.3900
G01 X44.7651 Y27.3928
G01 X44.8173 Y27.4006
G01 X44.8673 Y27.4130
G01 X44.9227 Y27.4329
G01 X44.9693 Y27.4549
G01 X45.0156 Y27.4827
G01 X45.0589 Y27.5148
G01 X45.0971 Y27.5494
G01 X45.1367 Y27.5930
G01 X45.1673 Y27.6344
G01 X45.1951 Y27.6807
G01 X45.2181 Y27.7295
G01 X45.2355 Y27.7780
G01 X45.2497 Y27.8339
G01 X45.2574 Y27.8861
G01 X45.2600 Y27.9400
G01 X45.2574 Y27.9939
G01 X45.2494 Y28.0473
G01 X45.2363 Y28.0997
G01 X45.2181 Y28.1505
G01 X45.1951 Y28.1993
G01 X45.1673 Y28.2456
G01 X45.1352 Y28.2889
G01 X45.0989 Y28.3289
G01 X45.0589 Y28.3652
G01 X45.0156 Y28.3973
G01 X44.9693 Y28.4251
G01 X44.9205 Y28.4481
G01 X44.8697 Y28.4663
G01 X44.8161 Y28.4797
G01 X44.7639 Y28.4874
G01 X44.7100 Y28.4900
G01 X41.7100 Y28.4900
G00 Z2.0000
G00 X41.7100 Y25.9500
G01 F60.00
G01 Z-0.0500
G01 F120.00
G01 X41.6561 Y25.9474
G01 X41.6027 Y25.9394
G01 X41.5503 Y25.9263
G01 X41.5018 Y25.9090
G01 X41.4486 Y25.8838
G01 X41.4044 Y25.8573
G01 X41.3592 Y25.8236
G01 X41.3211 Y25.7889
G01 X41.2848 Y25.7489
G01 X41.2527 Y25.7056
G01 X41.2249 Y25.6593
G01 X41.2019 Y25.6105
G01 X41.1837 Y25.5597
G01 X41.1706 Y25.5073
G01 X41.1626 Y25.4539
G01 X41.1600 Y25.4000
G01 X41.1626 Y25.3461
G01 X41.1706 Y25.2927
G01 X41.1837 Y25.2403
G01 X41.2019 Y25.1895
G01 X41.2249 Y25.1407
G01 X41.2527 Y25.0944
G01 X41.2833 Y25.0530
G01 X41.3229 Y25.0094
G01 X41.3611 Y24.9748
G01 X41.4065 Y24.9414
G01 X41.4507 Y24.9149
G01 X41.4995 Y24.8919
G01 X41.5503 Y24.8737
G01 X41.6039 Y24.8603
G01 X41.6561 Y24.8526
G01 X41.7100 Y24.8500
G01 X44.7100 Y24.8500
G01 X44.7651 Y24.8528
G01 X44.8173 Y24.8606
G01 X44.8673 Y24.8730
G01 X44.9227 Y24.8929
G01 X44.9693 Y24.9149
G01 X45.0156 Y24.9427
G01 X45.0589 Y24.9748
G01 X45.0971 Y25.0094
G01 X45.1367 Y25.0530
G01 X45.1673 Y25.0944
G01 X45.1951 Y25.1407
G01 X45.2181 Y25.1895
G01 X45.2355 Y25.2380
G01 X45.2497 Y25.2939
G01 X45.2574 Y25.3461
G01 X45.2600 Y25.4000
G01 X45.2574 Y25.4539
G01 X45.2494 Y25.5073
G01 X45.2363 Y25.5597
G01 X45.2181 Y25.6105
G01 X45.1951 Y25.6593
G01 X45.1673 Y25.7056
G01 X45.1352 Y25.7489
G01 X45.0989 Y25.7889
G01 X45.0589 Y25.8252
G01 X45.0156 Y25.8573
G01 X44.9693 Y25.8851
G01 X44.9205 Y25.9081
G01 X44.8697 Y25.9263
G01 X44.8161 Y25.9397
G01 X44.7639 Y25.9474
G01 X44.7100 Y25.9500
G01 X41.7100 Y25.9500
G00 Z2.0000
G00 X36.5700 Y28.4900
G01 F60.00
G01 Z-0.0500
G01 F120.00
G01 X36.5161 Y28.4874
G01 X36.4651 Y28.4799
G01 X36.4080 Y28.4655
G01 X36.3595 Y28.4481
G01 X36.3107 Y28.4251
G01 X36.2644 Y28.3973
G01 X36.2211 Y28.3652
G01 X36.1811 Y28.3289
G01 X36.1464 Y28.2908
G01 X36.1114 Y28.2435
G01 X36.0849 Y28.1993
G01 X36.0619 Y28.1505
G01 X36.0437 Y28.0997
G01 X36.0311 Y28.0497
G01 X36.0225 Y27.9915
G01 X36.0200 Y27.9400
G01 X36.0226 Y27.8861
G01 X36.0306 Y27.8327
G01 X36.0430 Y27.7827
G01 X36.0629 Y27.7273
G01 X36.0849 Y27.6807
G01 X36.1127 Y27.6344
G01 X36.1448 Y27.5911
G01 X36.1794 Y27.5529
G01 X36.2230 Y27.5133
G01 X36.2644 Y27.4827
G01 X36.3118 Y27.4544
G01 X36.3618 Y27.4310
G01 X36.4103 Y27.4137
G01 X36.4603 Y27.4011
G01 X36.5161 Y27.3926
G01 X36.5688 Y27.3900
G01 X38.8197 Y27.3900
G01 X38.8197 Y25.9500
G01 X36.5700 Y25.9500
G01 X36.5161 Y25.9474
G01 X36.4651 Y25.9399
G01 X36.4080 Y25.9255
G01 X36.3573 Y25.9071
G01 X36.3107 Y25.8851
G01 X36.2665 Y25.8586
G01 X36.2211 Y25.8252
G01 X36.1794 Y25.7871
G01 X36.1448 Y25.7489
G01 X36.1141 Y25.7076
G01 X36.0849 Y25.6593
G01 X36.0610 Y25.6082
G01 X36.0437 Y25.5597
G01 X36.0311 Y25.5097
G01 X36.0226 Y25.4539
G01 X36.0201 Y25.3975
G01 X36.0226 Y25.3461
G01 X36.0301 Y25.2951
G01 X36.0437 Y25.2403
G01 X36.0619 Y25.1895
G01 X36.0862 Y25.1386
G01 X36.1127 Y25.0944
G01 X36.1433 Y25.0530
G01 X36.1802 Y25.0120
G01 X36.2211 Y24.9748
G01 X36.2644 Y24.9427
G01 X36.3107 Y24.9149
G01 X36.3595 Y24.8919
G01 X36.4103 Y24.8737
G01 X36.4627 Y24.8606
G01 X36.5161 Y24.8526
G01 X36.5700 Y24.8500
G01 X39.3700 Y24.8497
G01 X39.5725 Y24.8501
G01 X39.6239 Y24.8526
G01 X39.6773 Y24.8606
G01 X39.7297 Y24.8737
G01 X39.7805 Y24.8919
G01 X39.8293 Y24.9149
G01 X39.8756 Y24.9427
G01 X39.9189 Y24.9748
G01 X39.9580 Y25.0102
G01 X39.9952 Y25.0511
G01 X40.0273 Y25.0944
G01 X40.0551 Y25.1407
G01 X40.0781 Y25.1895
G01 X40.0963 Y25.2403
G01 X40.1094 Y25.2927
G01 X40.1174 Y25.3461
G01 X40.1200 Y25.4000
G01 X40.1174 Y25.4539
G01 X40.1094 Y25.5073
G01 X40.0963 Y25.5597
G01 X40.0771 Y25.6127
G01 X40.0538 Y25.6614
G01 X40.0273 Y25.7056
G01 X39.9967 Y25.7470
G01 X39.9589 Y25.7889
G01 X39.9203 Y25.8240
G01 X39.9203 Y27.5160
G01 X39.9589 Y27.5511
G01 X39.9967 Y27.5930
G01 X40.0273 Y27.6344
G01 X40.0538 Y27.6786
G01 X40.0771 Y27.7273
G01 X40.0963 Y27.7803
G01 X40.1094 Y27.8327
G01 X40.1174 Y27.8861
G01 X40.1200 Y27.9388
G01 X40.1174 Y27.9939
G01 X40.1094 Y28.0473
G01 X40.0963 Y28.0997
G01 X40.0781 Y28.1505
G01 X40.0551 Y28.1993
G01 X40.0273 Y28.2456
G01 X39.9952 Y28.2889
G01 X39.9598 Y28.3280
G01 X39.9189 Y28.3652
G01 X39.8756 Y28.3973
G01 X39.8293 Y28.4251
G01 X39.7805 Y28.4481
G01 X39.7297 Y28.4663
G01 X39.6773 Y28.4794
G01 X39.6239 Y28.4874
G01 X39.5725 Y28.4899
G01 X39.3700 Y28.4903
G01 X36.5700 Y28.4900
G00 Z2.0000
G00 X34.0187 Y30.4800
G01 F60.00
G01 Z-0.0500
G01 F120.00
G01 X34.0214 Y30.4261
G01 X34.0293 Y30.3727
G01 X34.0424 Y30.3203
G01 X34.0606 Y30.2694
G01 X34.0837 Y30.2206
G01 X34.1115 Y30.1743
G01 X34.1437 Y30.1309
G01 X34.1799 Y30.0909
G01 X34.2199 Y30.0547
G01 X34.2633 Y30.0225
G01 X34.3096 Y29.9947
G01 X34.3584 Y29.9716
G01 X34.4093 Y29.9534
G01 X34.4617 Y29.9403
G01 X34.5151 Y29.9324
G01 X34.5690 Y29.9297
G01 X39.3700 Y29.9297
G01 X39.5700 Y29.9300
G01 X39.6239 Y29.9326
G01 X39.6773 Y29.9406
G01 X39.7297 Y29.9537
G01 X39.7805 Y29.9719
G01 X39.8271 Y29.9938
G01 X39.8776 Y30.0241
G01 X39.9189 Y30.0548
G01 X39.9589 Y30.0911
G01 X39.9952 Y30.1311
G01 X40.0273 Y30.1744
G01 X40.0551 Y30.2207
G01 X40.0771 Y30.2673
G01 X40.0970 Y30.3227
G01 X40.1094 Y30.3727
G01 X40.1174 Y30.4261
G01 X40.1200 Y30.4800
G01 X40.1174 Y30.5339
G01 X40.1094 Y30.5873
G01 X40.0963 Y30.6397
G01 X40.0781 Y30.6905
G01 X40.0551 Y30.7393
G01 X40.0273 Y30.7856
G01 X39.9952 Y30.8289
G01 X39.9589 Y30.8689
G01 X39.9189 Y30.9052
G01 X39.8756 Y30.9373
G01 X39.8293 Y30.9651
G01 X39.7805 Y30.9881
G01 X39.7297 Y31.0063
G01 X39.6773 Y31.0194
G01 X39.6251 Y31.0272
G01 X39.5700 Y31.0300
G01 X39.3700 Y31.0303
G01 X35.1193 Y31.0303
G01 X35.1193 Y40.0897
G01 X39.3700 Y40.0897
G01 X39.5700 Y40.0900
G01 X39.6239 Y40.0926
G01 X39.6773 Y40.1006
G01 X39.7297 Y40.1137
G01 X39.7805 Y40.1319
G01 X39.8271 Y40.1538
G01 X39.8776 Y40.1841
G01 X39.9189 Y40.2148
G01 X39.9606 Y40.2529
G01 X39.9952 Y40.2911
G01 X40.0273 Y40.3344
G01 X40.0551 Y40.3807
G01 X40.0781 Y40.4295
G01 X40.0963 Y40.4803
G01 X40.1094 Y40.5327
G01 X40.1174 Y40.5861
G01 X40.1200 Y40.6388
G01 X40.1174 Y40.6939
G01 X40.1094 Y40.7473
G01 X40.0963 Y40.7997
G01 X40.0790 Y40.8482
G01 X40.0538 Y40.9014
G01 X40.0273 Y40.9456
G01 X39.9936 Y40.9908
G01 X39.9589 Y41.0289
G01 X39.9189 Y41.0652
G01 X39.8756 Y41.0973
G01 X39.8293 Y41.1251
G01 X39.7805 Y41.1481
G01 X39.7297 Y41.1663
G01 X39.6773 Y41.1794
G01 X39.6239 Y41.1874
G01 X39.5700 Y41.1900
G01 X39.3700 Y41.1903
G01 X35.1193 Y41.1903
G01 X35.1193 Y47.0141
G01 X35.6309 Y47.5257
G01 X56.9871 Y47.5257
G01 X61.6797 Y42.8331
G01 X61.6797 Y41.2684
G01 X61.6618 Y41.2304
G01 X61.6423 Y41.1759
G01 X61.6274 Y41.1174
G01 X61.6180 Y41.0553
G01 X61.6150 Y40.9962
G01 X61.6150 Y38.1250
G01 X61.6180 Y38.0647
G01 X61.6271 Y38.0038
G01 X61.6423 Y37.9441
G01 X61.6618 Y37.8896
G01 X61.6797 Y37.8516
G01 X61.6797 Y35.0610
G01 X61.6824 Y35.0071
G01 X61.6909 Y34.9513
G01 X61.7034 Y34.9013
G01 X61.7208 Y34.8527
G01 X61.7447 Y34.8016
G01 X61.7739 Y34.7533
G01 X61.8047 Y34.7119
G01 X61.8401 Y34.6728
G01 X64.2197 Y32.2931
G01 X64.2197 Y30.7284
G01 X64.2018 Y30.6904
G01 X64.1823 Y30.6359
G01 X64.1674 Y30.5774
G01 X64.1580 Y30.5153
G01 X64.1550 Y30.4562
G01 X64.1550 Y27.5850
G01 X64.1580 Y27.5247
G01 X64.1674 Y27.4626
G01 X64.1815 Y27.4065
G01 X64.2009 Y27.3519
G01 X64.2271 Y27.2962
G01 X64.2601 Y27.2413
G01 X64.2946 Y27.1948
G01 X64.3351 Y27.1501
G01 X64.3798 Y27.1096
G01 X64.4263 Y27.0751
G01 X64.4823 Y27.0415
G01 X64.5346 Y27.0168
G01 X64.5915 Y26.9965
G01 X64.6500 Y26.9818
G01 X64.7073 Y26.9733
G01 X64.7725 Y26.9701
G01 X64.8303 Y26.9730
G01 X64.8900 Y26.9818
G01 X64.9485 Y26.9965
G01 X65.0031 Y27.0159
G01 X65.0599 Y27.0426
G01 X65.1117 Y27.0736
G01 X65.1582 Y27.1081
G01 X65.2066 Y27.1519
G01 X65.2454 Y27.1948
G01 X65.2814 Y27.2433
G01 X65.3124 Y27.2951
G01 X65.3372 Y27.3474
G01 X65.3592 Y27.4088
G01 X65.3732 Y27.4650
G01 X65.3820 Y27.5247
G01 X65.3850 Y27.5850
G01 X65.3850 Y30.4562
G01 X65.3820 Y30.5153
G01 X65.3726 Y30.5774
G01 X65.3577 Y30.6359
G01 X65.3382 Y30.6904
G01 X65.3203 Y30.7284
G01 X65.3202 Y32.5222
G01 X65.3176 Y32.5749
G01 X65.3101 Y32.6259
G01 X65.2962 Y32.6819
G01 X65.2774 Y32.7338
G01 X65.2553 Y32.7804
G01 X65.2288 Y32.8246
G01 X65.1953 Y32.8701
G01 X65.1599 Y32.9092
G01 X62.7803 Y35.2889
G01 X62.7803 Y37.8516
G01 X62.7982 Y37.8896
G01 X62.8177 Y37.9441
G01 X62.8329 Y38.0038
G01 X62.8420 Y38.0647
G01 X62.8450 Y38.1250
G01 X62.8450 Y40.9950
G01 X62.8420 Y41.0553
G01 X62.8329 Y41.1162
G01 X62.8177 Y41.1759
G01 X62.7982 Y41.2304
G01 X62.7803 Y41.2684
G01 X62.7802 Y43.0622
G01 X62.7776 Y43.1149
G01 X62.7697 Y43.1683
G01 X62.7566 Y43.2207
G01 X62.7388 Y43.2704
G01 X62.7153 Y43.3204
G01 X62.6875 Y43.3667
G01 X62.6553 Y43.4101
G01 X62.6191 Y43.4501
G01 X57.6041 Y48.4651
G01 X57.5641 Y48.5013
G01 X57.5227 Y48.5321
G01 X57.4722 Y48.5624
G01 X57.4256 Y48.5844
G01 X57.3747 Y48.6026
G01 X57.3223 Y48.6157
G01 X57.2689 Y48.6236
G01 X57.2150 Y48.6263
G01 X35.4030 Y48.6263
G01 X35.3491 Y48.6236
G01 X35.2981 Y48.6161
G01 X35.2409 Y48.6018
G01 X35.1924 Y48.5844
G01 X35.1436 Y48.5613
G01 X35.0973 Y48.5335
G01 X35.0549 Y48.5021
G01 X35.0139 Y48.4651
G01 X34.1799 Y47.6311
G01 X34.1444 Y47.5920
G01 X34.1102 Y47.5456
G01 X34.0837 Y47.5014
G01 X34.0606 Y47.4526
G01 X34.0424 Y47.4017
G01 X34.0299 Y47.3517
G01 X34.0212 Y47.2935
G01 X34.0187 Y47.2420
G01 X34.0187 Y30.4800
G00 Z2.0000
G00 X36.5700 Y33.5700
G01 F60.00
G01 Z-0.0500
G01 F120.00
G01 X36.5161 Y33.5674
G01 X36.4627 Y33.5594
G01 X36.4103 Y33.5463
G01 X36.3618 Y33.5290
G01 X36.3086 Y33.5038
G01 X36.2644 Y33.4773
G01 X36.2192 Y33.4436
G01 X36.1811 Y33.4089
G01 X36.1448 Y33.3689
G01 X36.1127 Y33.3256
G01 X36.0849 Y33.2793
G01 X36.0619 Y33.2305
G01 X36.0437 Y33.1797
G01 X36.0306 Y33.1273
G01 X36.0226 Y33.0739
G01 X36.0200 Y33.0200
G01 X36.0226 Y32.9661
G01 X36.0306 Y32.9127
G01 X36.0437 Y32.8603
G01 X36.0619 Y32.8095
G01 X36.0849 Y32.7607
G01 X36.1127 Y32.7144
G01 X36.1433 Y32.6730
G01 X36.1829 Y32.6294
G01 X36.2211 Y32.5948
G01 X36.2665 Y32.5614
G01 X36.3107 Y32.5349
G01 X36.3595 Y32.5119
G01 X36.4103 Y32.4937
G01 X36.4639 Y32.4803
G01 X36.5161 Y32.4726
G01 X36.5700 Y32.4700
G01 X39.5700 Y32.4700
G01 X39.6251 Y32.4728
G01 X39.6773 Y32.4806
G01 X39.7273 Y32.4930
G01 X39.7827 Y32.5129
G01 X39.8293 Y32.5349
G01 X39.8756 Y32.5627
G01 X39.9189 Y32.5948
G01 X39.9571 Y32.6294
G01 X39.9967 Y32.6730
G01 X40.0273 Y32.7144
G01 X40.0551 Y32.7607
G01 X40.0781 Y32.8095
G01 X40.0955 Y32.8580
G01 X40.1097 Y32.9139
G01 X40.1174 Y32.9661
G01 X40.1200 Y33.0200
G01 X40.1174 Y33.0739
G01 X40.1094 Y33.1273
G01 X40.0963 Y33.1797
G01 X40.0781 Y33.2305
G01 X40.0551 Y33.2793
G01 X40.0273 Y33.3256
G01 X39.9952 Y33.3689
G01 X39.9589 Y33.4089
G01 X39.9189 Y33.4452
G01 X39.8756 Y33.4773
G01 X39.8293 Y33.5051
G01 X39.7805 Y33.5281
G01 X39.7297 Y33.5463
G01 X39.6761 Y33.5597
G01 X39.6239 Y33.5674
G01 X39.5700 Y33.5700
G01 X36.5700 Y33.5700
G00 Z2.0000
G00 X36.0201 Y23.2155
G01 F60.00
G01 Z-0.0500
G01 F120.00
G01 X36.0200 Y22.5070
G01 X36.0209 Y22.4877
G01 X36.0236 Y22.4698
G01 X36.0293 Y22.4475
G01 X36.0350 Y22.4316
G01 X36.0433 Y22.4141
G01 X36.0532 Y22.3976
G01 X36.0632 Y22.3840
G01 X36.0777 Y22.3677
G01 X36.0920 Y22.3547
G01 X36.1055 Y22.3446
G01 X36.1241 Y22.3333
G01 X36.1416 Y22.3250
G01 X36.1575 Y22.3193
G01 X36.1798 Y22.3136
G01 X36.1977 Y22.3109
G01 X36.2170 Y22.3100
G01 X39.9255 Y22.3101
G01 X39.9423 Y22.3109
G01 X39.9614 Y22.3138
G01 X39.9802 Y22.3185
G01 X39.9961 Y22.3241
G01 X40.0180 Y22.3345
G01 X40.0324 Y22.3432
G01 X40.0480 Y22.3547
G01 X40.0623 Y22.3677
G01 X40.0753 Y22.3820
G01 X40.0868 Y22.3976
G01 X40.0955 Y22.4120
G01 X40.1059 Y22.4339
G01 X40.1115 Y22.4498
G01 X40.1164 Y22.4698
G01 X40.1191 Y22.4877
G01 X40.1200 Y22.5070
G01 X40.1200 Y23.2130
G01 X40.1192 Y23.2312
G01 X40.1168 Y23.2481
G01 X40.1118 Y23.2691
G01 X40.1067 Y23.2842
G01 X40.0993 Y23.3008
G01 X40.0905 Y23.3167
G01 X40.0816 Y23.3298
G01 X40.0670 Y23.3474
G01 X40.0557 Y23.3586
G01 X40.0417 Y23.3702
G01 X40.0267 Y23.3805
G01 X40.0129 Y23.3883
G01 X39.9920 Y23.3975
G01 X39.9769 Y23.4025
G01 X39.9592 Y23.4066
G01 X39.9412 Y23.4092
G01 X39.9230 Y23.4100
G01 X36.2145 Y23.4099
G01 X36.1977 Y23.4091
G01 X36.1786 Y23.4062
G01 X36.1598 Y23.4015
G01 X36.1416 Y23.3950
G01 X36.1241 Y23.3867
G01 X36.1076 Y23.3768
G01 X36.0920 Y23.3653
G01 X36.0777 Y23.3523
G01 X36.0647 Y23.3380
G01 X36.0532 Y23.3224
G01 X36.0433 Y23.3059
G01 X36.0350 Y23.2884
G01 X36.0285 Y23.2702
G01 X36.0238 Y23.2514
G01 X36.0209 Y23.2323
G01 X36.0201 Y23.2155
G00 Z2.0000
G00 X31.4757 Y23.5560
G01 F60.00
G01 Z-0.0500
G01 F120.00
G01 X31.4784 Y23.5021
G01 X31.4863 Y23.4487
G01 X31.4994 Y23.3963
G01 X31.5176 Y23.3454
G01 X31.5407 Y23.2966
G01 X31.5685 Y23.2503
G01 X31.6007 Y23.2069
G01 X31.6369 Y23.1669
G01 X34.9268 Y19.8771
G01 X34.9659 Y19.8417
G01 X35.0093 Y19.8095
G01 X35.0556 Y19.7817
G01 X35.1022 Y19.7596
G01 X35.1576 Y19.7398
G01 X35.2077 Y19.7273
G01 X35.2623 Y19.7193
G01 X35.3150 Y19.7167
G01 X40.4450 Y19.7167
G01 X40.5014 Y19.7197
G01 X40.5523 Y19.7273
G01 X40.6047 Y19.7404
G01 X40.6556 Y19.7586
G01 X40.7065 Y19.7829
G01 X40.7507 Y19.8095
G01 X40.7921 Y19.8401
G01 X40.8332 Y19.8771
G01 X42.2991 Y21.3429
G01 X42.3353 Y21.3829
G01 X42.3668 Y21.4253
G01 X42.3953 Y21.4726
G01 X42.4192 Y21.5237
G01 X42.4366 Y21.5723
G01 X42.4491 Y21.6223
G01 X42.4576 Y21.6781
G01 X42.4603 Y21.7320
G01 X42.4603 Y22.3100
G01 X44.7100 Y22.3100
G01 X44.7663 Y22.3129
G01 X44.8173 Y22.3206
G01 X44.8673 Y22.3330
G01 X44.9205 Y22.3519
G01 X44.9714 Y22.3762
G01 X45.0156 Y22.4027
G01 X45.0589 Y22.4348
G01 X45.1006 Y22.4729
G01 X45.1352 Y22.5111
G01 X45.1673 Y22.5544
G01 X45.1951 Y22.6007
G01 X45.2171 Y22.6473
G01 X45.2367 Y22.7015
G01 X45.2494 Y22.7527
G01 X45.2574 Y22.8061
G01 X45.2600 Y22.8600
G01 X45.2571 Y22.9163
G01 X45.2489 Y22.9697
G01 X45.2363 Y23.0197
G01 X45.2190 Y23.0682
G01 X45.1951 Y23.1193
G01 X45.1686 Y23.1635
G01 X45.1352 Y23.2089
G01 X45.0989 Y23.2489
G01 X45.0589 Y23.2852
G01 X45.0156 Y23.3173
G01 X44.9693 Y23.3451
G01 X44.9205 Y23.3681
G01 X44.8697 Y23.3863
G01 X44.8173 Y23.3994
G01 X44.7639 Y23.4074
G01 X44.7100 Y23.4100
G01 X41.9100 Y23.4103
G01 X41.7088 Y23.4100
G01 X41.6561 Y23.4074
G01 X41.6027 Y23.3994
G01 X41.5503 Y23.3863
G01 X41.5018 Y23.3690
G01 X41.4507 Y23.3451
G01 X41.4044 Y23.3173
G01 X41.3630 Y23.2867
G01 X41.3211 Y23.2489
G01 X41.2848 Y23.2089
G01 X41.2541 Y23.1676
G01 X41.2249 Y23.1193
G01 X41.2019 Y23.0705
G01 X41.1845 Y23.0220
G01 X41.1703 Y22.9661
G01 X41.1625 Y22.9115
G01 X41.1600 Y22.8600
G01 X41.1625 Y22.8085
G01 X41.1706 Y22.7527
G01 X41.1845 Y22.6980
G01 X41.2019 Y22.6495
G01 X41.2238 Y22.6029
G01 X41.2527 Y22.5544
G01 X41.2864 Y22.5092
G01 X41.3211 Y22.4711
G01 X41.3597 Y22.4360
G01 X41.3597 Y21.9599
G01 X40.2171 Y20.8173
G01 X35.5429 Y20.8173
G01 X32.5763 Y23.7839
G01 X32.5763 Y47.3931
G01 X40.3889 Y55.2057
G01 X71.8071 Y55.2057
G01 X73.7047 Y53.3081
G01 X73.7047 Y47.6939
G01 X69.4609 Y43.4501
G01 X69.4247 Y43.4101
G01 X69.3925 Y43.3667
G01 X69.3647 Y43.3204
G01 X69.3412 Y43.2704
G01 X69.3234 Y43.2207
G01 X69.3103 Y43.1683
G01 X69.3024 Y43.1149
G01 X69.2998 Y43.0622
G01 X69.2997 Y41.2684
G01 X69.2818 Y41.2304
G01 X69.2623 Y41.1759
G01 X69.2474 Y41.1174
G01 X69.2380 Y41.0553
G01 X69.2350 Y40.9962
G01 X69.2350 Y38.1250
G01 X69.2380 Y38.0647
G01 X69.2468 Y38.0050
G01 X69.2615 Y37.9465
G01 X69.2818 Y37.8896
G01 X69.3065 Y37.8373
G01 X69.3401 Y37.7813
G01 X69.3746 Y37.7348
G01 X69.4169 Y37.6884
G01 X69.4598 Y37.6496
G01 X69.5083 Y37.6136
G01 X69.5601 Y37.5826
G01 X69.6146 Y37.5568
G01 X69.6715 Y37.5365
G01 X69.7300 Y37.5218
G01 X69.7897 Y37.5130
G01 X69.8475 Y37.5101
G01 X69.9103 Y37.5130
G01 X69.9676 Y37.5214
G01 X70.0309 Y37.5373
G01 X70.0854 Y37.5568
G01 X70.1399 Y37.5826
G01 X70.1917 Y37.6136
G01 X70.2420 Y37.6512
G01 X70.2849 Y37.6901
G01 X70.3254 Y37.7348
G01 X70.3614 Y37.7833
G01 X70.3924 Y37.8351
G01 X70.4182 Y37.8896
G01 X70.4385 Y37.9465
G01 X70.4532 Y38.0050
G01 X70.4620 Y38.0647
G01 X70.4650 Y38.1250
G01 X70.4650 Y40.9962
G01 X70.4620 Y41.0553
G01 X70.4526 Y41.1174
G01 X70.4377 Y41.1759
G01 X70.4182 Y41.2304
G01 X70.4003 Y41.2684
G01 X70.4003 Y42.8331
G01 X74.6441 Y47.0769
G01 X74.6803 Y47.1169
G01 X74.7138 Y47.1624
G01 X74.7403 Y47.2066
G01 X74.7624 Y47.2532
G01 X74.7816 Y47.3063
G01 X74.7947 Y47.3587
G01 X74.8023 Y47.4096
G01 X74.8053 Y47.4660
G01 X74.8053 Y53.5360
G01 X74.8023 Y53.5924
G01 X74.7947 Y53.6433
G01 X74.7816 Y53.6957
G01 X74.7634 Y53.7466
G01 X74.7414 Y53.7932
G01 X74.7118 Y53.8427
G01 X74.6803 Y53.8851
G01 X74.6441 Y53.9251
G01 X72.4232 Y56.1459
G01 X72.3841 Y56.1813
G01 X72.3407 Y56.2135
G01 X72.2944 Y56.2413
G01 X72.2478 Y56.2634
G01 X72.1924 Y56.2832
G01 X72.1423 Y56.2957
G01 X72.0877 Y56.3037
G01 X72.0350 Y56.3063
G01 X40.1610 Y56.3063
G01 X40.1046 Y56.3033
G01 X40.0537 Y56.2957
G01 X40.0013 Y56.2826
G01 X39.9504 Y56.2644
G01 X39.9038 Y56.2424
G01 X39.8543 Y56.2128
G01 X39.8119 Y56.1813
G01 X39.7719 Y56.1451
G01 X31.6369 Y48.0101
G01 X31.5991 Y47.9681
G01 X31.5685 Y47.9267
G01 X31.5419 Y47.8825
G01 X31.5176 Y47.8316
G01 X31.4988 Y47.7784
G01 X31.4863 Y47.7283
G01 X31.4787 Y47.6774
G01 X31.4757 Y47.6210
G01 X31.4757 Y23.5560
G00 Z2.0000
G00 X29.4737 Y22.7270
G01 F60.00
G01 Z-0.0500
G01 F120.00
G01 X29.4764 Y22.6731
G01 X29.4843 Y22.6197
G01 X29.4974 Y22.5673
G01 X29.5156 Y22.5164
G01 X29.5387 Y22.4676
G01 X29.5665 Y22.4213
G01 X29.5987 Y22.3779
G01 X29.6349 Y22.3379
G01 X34.3368 Y17.6361
G01 X34.3759 Y17.6007
G01 X34.4193 Y17.5685
G01 X34.4656 Y17.5407
G01 X34.5144 Y17.5176
G01 X34.5653 Y17.4994
G01 X34.6177 Y17.4863
G01 X34.6711 Y17.4784
G01 X34.7225 Y17.4758
G01 X42.8530 Y17.4757
G01 X42.9069 Y17.4784
G01 X42.9579 Y17.4859
G01 X43.0151 Y17.5002
G01 X43.0658 Y17.5186
G01 X43.1124 Y17.5407
G01 X43.1566 Y17.5672
G01 X43.2021 Y17.6007
G01 X43.2421 Y17.6369
G01 X47.1009 Y21.4958
G01 X47.1363 Y21.5349
G01 X47.1685 Y21.5783
G01 X47.1963 Y21.6246
G01 X47.2194 Y21.6734
G01 X47.2376 Y21.7243
G01 X47.2507 Y21.7767
G01 X47.2586 Y21.8301
G01 X47.2612 Y21.8815
G01 X47.2613 Y30.4800
G01 X47.2588 Y30.5315
G01 X47.2507 Y30.5873
G01 X47.2382 Y30.6374
G01 X47.2184 Y30.6928
G01 X47.1963 Y30.7394
G01 X47.1685 Y30.7857
G01 X47.1363 Y30.8291
G01 X47.1001 Y30.8691
G01 X47.0601 Y30.9053
G01 X47.0167 Y30.9375
G01 X46.9704 Y30.9653
G01 X46.9238 Y30.9874
G01 X46.8684 Y31.0072
G01 X46.8183 Y31.0197
G01 X46.7637 Y31.0277
G01 X46.7110 Y31.0303
G01 X41.9100 Y31.0303
G01 X41.7100 Y31.0300
G01 X41.6573 Y31.0275
G01 X41.6003 Y31.0189
G01 X41.5503 Y31.0063
G01 X41.4995 Y30.9881
G01 X41.4486 Y30.9638
G01 X41.4044 Y30.9373
G01 X41.3611 Y30.9052
G01 X41.3194 Y30.8671
G01 X41.2848 Y30.8289
G01 X41.2527 Y30.7856
G01 X41.2238 Y30.7371
G01 X41.2019 Y30.6905
G01 X41.1841 Y30.6408
G01 X41.1706 Y30.5873
G01 X41.1626 Y30.5339
G01 X41.1600 Y30.4800
G01 X41.1629 Y30.4237
G01 X41.1711 Y30.3703
G01 X41.1837 Y30.3203
G01 X41.2010 Y30.2718
G01 X41.2249 Y30.2207
G01 X41.2527 Y30.1744
G01 X41.2848 Y30.1311
G01 X41.3211 Y30.0911
G01 X41.3611 Y30.0548
G01 X41.4065 Y30.0214
G01 X41.4507 Y29.9949
G01 X41.5018 Y29.9710
G01 X41.5503 Y29.9537
G01 X41.6003 Y29.9411
G01 X41.6537 Y29.9329
G01 X41.7088 Y29.9300
G01 X41.9100 Y29.9297
G01 X46.1607 Y29.9297
G01 X46.1607 Y22.1119
G01 X42.6251 Y18.5763
G01 X34.9529 Y18.5763
G01 X30.5743 Y22.9549
G01 X30.5743 Y48.9361
G01 X44.5879 Y62.9497
G01 X59.5826 Y62.9497
G01 X59.5985 Y62.9057
G01 X59.6625 Y62.7704
G01 X59.7406 Y62.6399
G01 X59.8318 Y62.5167
G01 X59.9331 Y62.4049
G01 X60.0467 Y62.3018
G01 X60.1689 Y62.2112
G01 X60.2993 Y62.1330
G01 X60.4380 Y62.0675
G01 X60.5801 Y62.0167
G01 X60.7252 Y61.9803
G01 X60.8793 Y61.9574
G01 X61.0300 Y61.9500
G01 X62.0300 Y61.9500
G01 X62.1819 Y61.9575
G01 X62.3324 Y61.9798
G01 X62.4776 Y62.0161
G01 X62.6232 Y62.0680
G01 X62.7607 Y62.1330
G01 X62.8891 Y62.2099
G01 X63.0133 Y62.3018
G01 X63.1260 Y62.4040
G01 X63.2266 Y62.5148
G01 X63.3188 Y62.6389
G01 X63.3981 Y62.7715
G01 X63.4620 Y62.9068
G01 X63.5133 Y63.0501
G01 X63.5502 Y63.1976
G01 X63.5722 Y63.3456
G01 X63.5800 Y63.5000
G01 X63.5725 Y63.6519
G01 X63.5506 Y63.8000
G01 X63.5133 Y63.9499
G01 X63.4620 Y64.0932
G01 X63.3981 Y64.2285
G01 X63.3188 Y64.3611
G01 X63.2282 Y64.4833
G01 X63.1277 Y64.5942
G01 X63.0124 Y64.6989
G01 X62.8911 Y64.7888
G01 X62.7628 Y64.8658
G01 X62.6232 Y64.9320
G01 X62.4776 Y64.9839
G01 X62.3324 Y65.0202
G01 X62.1844 Y65.0422
G01 X62.0300 Y65.0500
G01 X61.0288 Y65.0500
G01 X60.8781 Y65.0425
G01 X60.7276 Y65.0202
G01 X60.5777 Y64.9825
G01 X60.4368 Y64.9320
G01 X60.3015 Y64.8681
G01 X60.1689 Y64.7888
G01 X60.0458 Y64.6974
G01 X59.9340 Y64.5960
G01 X59.8334 Y64.4852
G01 X59.7419 Y64.3621
G01 X59.6625 Y64.2296
G01 X59.5985 Y64.0943
G01 X59.5826 Y64.0503
G01 X44.3600 Y64.0503
G01 X44.3061 Y64.0476
G01 X44.2527 Y64.0397
G01 X44.2003 Y64.0266
G01 X44.1483 Y64.0079
G01 X44.1006 Y63.9853
G01 X44.0543 Y63.9575
G01 X44.0109 Y63.9253
G01 X43.9709 Y63.8891
G01 X29.6349 Y49.5531
G01 X29.5979 Y49.5121
G01 X29.5665 Y49.4697
G01 X29.5387 Y49.4234
G01 X29.5156 Y49.3746
G01 X29.4982 Y49.3261
G01 X29.4839 Y49.2689
G01 X29.4764 Y49.2179
G01 X29.4737 Y49.1640
G01 X29.4737 Y22.7270
G00 Z2.0000
G00 X61.0300 Y6.6300
G01 F60.00
G01 Z-0.0500
G01 F120.00
G01 X60.8756 Y6.6222
G01 X60.7276 Y6.6002
G01 X60.5824 Y6.5639
G01 X60.4368 Y6.5120
G01 X60.2972 Y6.4458
G01 X60.1689 Y6.3688
G01 X60.0486 Y6.2797
G01 X59.9340 Y6.1760
G01 X59.8318 Y6.0633
G01 X59.7426 Y5.9431
G01 X59.6630 Y5.8107
G01 X59.5971 Y5.6709
G01 X59.5467 Y5.5299
G01 X59.5098 Y5.3824
G01 X59.4873 Y5.2295
G01 X59.4800 Y5.0800
G01 X59.4873 Y4.9305
G01 X59.5098 Y4.7776
G01 X59.5475 Y4.6277
G01 X59.5980 Y4.4868
G01 X59.6619 Y4.3515
G01 X59.7412 Y4.2189
G01 X59.8318 Y4.0967
G01 X59.9340 Y3.9840
G01 X60.0467 Y3.8818
G01 X60.1709 Y3.7899
G01 X60.3015 Y3.7119
G01 X60.4368 Y3.6480
G01 X60.5777 Y3.5975
G01 X60.7276 Y3.5598
G01 X60.8769 Y3.5376
G01 X61.0300 Y3.5300
G01 X62.0300 Y3.5300
G01 X62.1831 Y3.5376
G01 X62.3348 Y3.5603
G01 X62.4799 Y3.5967
G01 X62.6209 Y3.6471
G01 X62.7607 Y3.7130
G01 X62.8911 Y3.7912
G01 X63.0133 Y3.8818
G01 X63.1260 Y3.9840
G01 X63.2282 Y4.0967
G01 X63.3188 Y4.2189
G01 X63.3970 Y4.3493
G01 X63.4620 Y4.4868
G01 X63.5133 Y4.6301
G01 X63.5502 Y4.7776
G01 X63.5725 Y4.9281
G01 X63.5800 Y5.0800
G01 X63.5725 Y5.2319
G01 X63.5502 Y5.3824
G01 X63.5133 Y5.5299
G01 X63.4620 Y5.6732
G01 X63.3970 Y5.8107
G01 X63.3188 Y5.9411
G01 X63.2282 Y6.0633
G01 X63.1260 Y6.1760
G01 X63.0133 Y6.2782
G01 X62.8931 Y6.3674
G01 X62.7585 Y6.4481
G01 X62.6232 Y6.5120
G01 X62.4799 Y6.5633
G01 X62.3300 Y6.6006
G01 X62.1819 Y6.6225
G01 X62.0325 Y6.6299
G01 X61.0300 Y6.6300
G00 Z2.0000
G00 X69.2997 Y14.8097
G01 F60.00
G01 Z-0.0500
G01 F120.00
G01 X69.2997 Y6.4353
G01 X69.1889 Y6.3688
G01 X69.0667 Y6.2782
G01 X68.9540 Y6.1760
G01 X68.8534 Y6.0652
G01 X68.7599 Y5.9391
G01 X68.6830 Y5.8107
G01 X68.6190 Y5.6754
G01 X68.5661 Y5.5276
G01 X68.5298 Y5.3824
G01 X68.5075 Y5.2319
G01 X68.5001 Y5.0775
G01 X68.5075 Y4.9281
G01 X68.5296 Y4.7788
G01 X68.5667 Y4.6301
G01 X68.6190 Y4.4846
G01 X68.6830 Y4.3493
G01 X68.7599 Y4.2209
G01 X68.8518 Y4.0967
G01 X68.9540 Y3.9840
G01 X69.0686 Y3.8803
G01 X69.1889 Y3.7912
G01 X69.3172 Y3.7142
G01 X69.4557 Y3.6485
G01 X69.6001 Y3.5967
G01 X69.7476 Y3.5598
G01 X69.8981 Y3.5375
G01 X70.0475 Y3.5301
G01 X71.0512 Y3.5300
G01 X71.2019 Y3.5375
G01 X71.3512 Y3.5596
G01 X71.4999 Y3.5967
G01 X71.6432 Y3.6480
G01 X71.7807 Y3.7130
G01 X71.9091 Y3.7899
G01 X72.0333 Y3.8818
G01 X72.1442 Y3.9823
G01 X72.2497 Y4.0986
G01 X72.3388 Y4.2189
G01 X72.4170 Y4.3493
G01 X72.4820 Y4.4868
G01 X72.5333 Y4.6301
G01 X72.5702 Y4.7776
G01 X72.5925 Y4.9281
G01 X72.6000 Y5.0800
G01 X72.5926 Y5.2307
G01 X72.5702 Y5.3824
G01 X72.5325 Y5.5323
G01 X72.4820 Y5.6732
G01 X72.4181 Y5.8085
G01 X72.3401 Y5.9391
G01 X72.2482 Y6.0633
G01 X72.1460 Y6.1760
G01 X72.0333 Y6.2782
G01 X71.9101 Y6.3694
G01 X71.7807 Y6.4470
G01 X71.6432 Y6.5120
G01 X71.4999 Y6.5633
G01 X71.3512 Y6.6004
G01 X71.2019 Y6.6225
G01 X71.0512 Y6.6300
G01 X70.4003 Y6.6300
G01 X70.4003 Y14.6150
G01 X71.0500 Y14.6150
G01 X71.1995 Y14.6223
G01 X71.3524 Y14.6448
G01 X71.5023 Y14.6825
G01 X71.6432 Y14.7330
G01 X71.7785 Y14.7969
G01 X71.9131 Y14.8776
G01 X72.0333 Y14.9668
G01 X72.1460 Y15.0690
G01 X72.2482 Y15.1817
G01 X72.3374 Y15.3019
G01 X72.4181 Y15.4365
G01 X72.4820 Y15.5718
G01 X72.5333 Y15.7151
G01 X72.5702 Y15.8626
G01 X72.5922 Y16.0106
G01 X72.5999 Y16.1675
G01 X72.5925 Y16.3169
G01 X72.5702 Y16.4674
G01 X72.5333 Y16.6149
G01 X72.4829 Y16.7559
G01 X72.4158 Y16.8978
G01 X72.3388 Y17.0261
G01 X72.2489 Y17.1474
G01 X72.1460 Y17.2610
G01 X72.0333 Y17.3632
G01 X71.9111 Y17.4538
G01 X71.7807 Y17.5320
G01 X71.6432 Y17.5970
G01 X71.4999 Y17.6483
G01 X71.3524 Y17.6852
G01 X71.2007 Y17.7076
G01 X71.0500 Y17.7150
G01 X70.0488 Y17.7150
G01 X69.8981 Y17.7075
G01 X69.7488 Y17.6854
G01 X69.6001 Y17.6483
G01 X69.4546 Y17.5960
G01 X69.3193 Y17.5320
G01 X69.1909 Y17.4551
G01 X69.0676 Y17.3639
G01 X68.9540 Y17.2610
G01 X68.8503 Y17.1464
G01 X68.7612 Y17.0261
G01 X68.6842 Y16.8978
G01 X68.6180 Y16.7582
G01 X68.5661 Y16.6126
G01 X68.5298 Y16.4674
G01 X68.5078 Y16.3194
G01 X68.5000 Y16.1650
G01 X68.5075 Y16.0131
G01 X68.5298 Y15.8626
G01 X68.5675 Y15.7127
G01 X68.6180 Y15.5718
G01 X68.6819 Y15.4365
G01 X68.7612 Y15.3039
G01 X68.8518 Y15.1817
G01 X68.9558 Y15.0673
G01 X69.0686 Y14.9653
G01 X69.1889 Y14.8762
G01 X69.2997 Y14.8097
G00 Z2.0000
G00 X69.2850 Y31.0700
G01 F60.00
G01 Z-0.0500
G01 F120.00
G01 X69.2752 Y31.0690
G01 X69.2659 Y31.0662
G01 X69.2572 Y31.0616
G01 X69.2496 Y31.0554
G01 X69.2434 Y31.0478
G01 X69.2388 Y31.0391
G01 X69.2360 Y31.0298
G01 X69.2350 Y31.0200
G01 X69.2350 Y27.0200
G01 X69.2354 Y27.0139
G01 X69.2368 Y27.0067
G01 X69.2398 Y26.9986
G01 X69.2434 Y26.9922
G01 X69.2480 Y26.9864
G01 X69.2542 Y26.9806
G01 X69.2614 Y26.9759
G01 X69.2682 Y26.9729
G01 X69.2765 Y26.9707
G01 X69.2838 Y26.9700
G01 X70.4150 Y26.9700
G01 X70.4223 Y26.9705
G01 X70.4283 Y26.9718
G01 X70.4353 Y26.9743
G01 X70.4428 Y26.9784
G01 X70.4495 Y26.9838
G01 X70.4544 Y26.9892
G01 X70.4585 Y26.9954
G01 X70.4621 Y27.0032
G01 X70.4643 Y27.0115
G01 X70.4650 Y27.0200
G01 X70.4650 Y31.0200
G01 X70.4645 Y31.0273
G01 X70.4632 Y31.0333
G01 X70.4602 Y31.0414
G01 X70.4566 Y31.0478
G01 X70.4512 Y31.0545
G01 X70.4458 Y31.0594
G01 X70.4396 Y31.0635
G01 X70.4318 Y31.0671
G01 X70.4248 Y31.0690
G01 X70.4162 Y31.0700
G01 X69.2850 Y31.0700
G00 Z2.0000
G00 X67.3125 Y31.0699
G01 F60.00
G01 Z-0.0500
G01 F120.00
G01 X67.2497 Y31.0670
G01 X67.1900 Y31.0582
G01 X67.1315 Y31.0435
G01 X67.0746 Y31.0232
G01 X67.0201 Y30.9974
G01 X66.9683 Y30.9664
G01 X66.9198 Y30.9304
G01 X66.8751 Y30.8899
G01 X66.8346 Y30.8452
G01 X66.7986 Y30.7967
G01 X66.7676 Y30.7449
G01 X66.7418 Y30.6904
G01 X66.7215 Y30.6335
G01 X66.7068 Y30.5750
G01 X66.6980 Y30.5153
G01 X66.6950 Y30.4550
G01 X66.6950 Y27.5850
G01 X66.6980 Y27.5247
G01 X66.7066 Y27.4662
G01 X66.7215 Y27.4065
G01 X66.7409 Y27.3519
G01 X66.7688 Y27.2930
G01 X66.7986 Y27.2433
G01 X66.8346 Y27.1948
G01 X66.8751 Y27.1501
G01 X66.9198 Y27.1096
G01 X66.9683 Y27.0736
G01 X67.0201 Y27.0426
G01 X67.0746 Y27.0168
G01 X67.1291 Y26.9973
G01 X67.1924 Y26.9814
G01 X67.2497 Y26.9730
G01 X67.3100 Y26.9700
G01 X67.3703 Y26.9730
G01 X67.4300 Y26.9818
G01 X67.4885 Y26.9965
G01 X67.5454 Y27.0168
G01 X67.5999 Y27.0426
G01 X67.6517 Y27.0736
G01 X67.7002 Y27.1096
G01 X67.7449 Y27.1501
G01 X67.7854 Y27.1948
G01 X67.8214 Y27.2433
G01 X67.8524 Y27.2951
G01 X67.8782 Y27.3496
G01 X67.8985 Y27.4065
G01 X67.9132 Y27.4650
G01 X67.9220 Y27.5247
G01 X67.9250 Y27.5850
G01 X67.9250 Y30.4550
G01 X67.9220 Y30.5153
G01 X67.9134 Y30.5738
G01 X67.8985 Y30.6335
G01 X67.8791 Y30.6881
G01 X67.8512 Y30.7470
G01 X67.8214 Y30.7967
G01 X67.7854 Y30.8452
G01 X67.7449 Y30.8899
G01 X67.7002 Y30.9304
G01 X67.6517 Y30.9664
G01 X67.6020 Y30.9962
G01 X67.5431 Y31.0241
G01 X67.4885 Y31.0435
G01 X67.4300 Y31.0582
G01 X67.3703 Y31.0670
G01 X67.3125 Y31.0699
G00 Z2.0000
G00 X67.3125 Y41.6099
G01 F60.00
G01 Z-0.0500
G01 F120.00
G01 X67.2497 Y41.6070
G01 X67.1900 Y41.5982
G01 X67.1315 Y41.5835
G01 X67.0746 Y41.5632
G01 X67.0201 Y41.5374
G01 X66.9683 Y41.5064
G01 X66.9198 Y41.4704
G01 X66.8751 Y41.4299
G01 X66.8346 Y41.3852
G01 X66.7986 Y41.3367
G01 X66.7676 Y41.2849
G01 X66.7418 Y41.2304
G01 X66.7215 Y41.1735
G01 X66.7068 Y41.1150
G01 X66.6980 Y41.0553
G01 X66.6950 Y40.9950
G01 X66.6950 Y38.1250
G01 X66.6980 Y38.0647
G01 X66.7066 Y38.0062
G01 X66.7215 Y37.9465
G01 X66.7409 Y37.8919
G01 X66.7688 Y37.8330
G01 X66.7986 Y37.7833
G01 X66.8346 Y37.7348
G01 X66.8751 Y37.6901
G01 X66.9198 Y37.6496
G01 X66.9683 Y37.6136
G01 X67.0201 Y37.5826
G01 X67.0746 Y37.5568
G01 X67.1291 Y37.5373
G01 X67.1924 Y37.5214
G01 X67.2497 Y37.5130
G01 X67.3100 Y37.5100
G01 X67.3703 Y37.5130
G01 X67.4300 Y37.5218
G01 X67.4885 Y37.5365
G01 X67.5454 Y37.5568
G01 X67.5999 Y37.5826
G01 X67.6517 Y37.6136
G01 X67.7002 Y37.6496
G01 X67.7449 Y37.6901
G01 X67.7854 Y37.7348
G01 X67.8214 Y37.7833
G01 X67.8524 Y37.8351
G01 X67.8782 Y37.8896
G01 X67.8985 Y37.9465
G01 X67.9132 Y38.0050
G01 X67.9220 Y38.0647
G01 X67.9250 Y38.1250
G01 X67.9250 Y40.9950
G01 X67.9220 Y41.0553
G01 X67.9134 Y41.1138
G01 X67.8985 Y41.1735
G01 X67.8791 Y41.2281
G01 X67.8512 Y41.2870
G01 X67.8214 Y41.3367
G01 X67.7854 Y41.3852
G01 X67.7449 Y41.4299
G01 X67.7002 Y41.4704
G01 X67.6517 Y41.5064
G01 X67.6020 Y41.5362
G01 X67.5431 Y41.5641
G01 X67.4885 Y41.5835
G01 X67.4300 Y41.5982
G01 X67.3703 Y41.6070
G01 X67.3125 Y41.6099
G00 Z2.0000
G00 X64.2197 Y41.2684
G01 F60.00
G01 Z-0.0500
G01 F120.00
G01 X64.2018 Y41.2304
G01 X64.1823 Y41.1759
G01 X64.1674 Y41.1174
G01 X64.1580 Y41.0553
G01 X64.1550 Y40.9962
G01 X64.1550 Y38.1250
G01 X64.1580 Y38.0647
G01 X64.1666 Y38.0062
G01 X64.1815 Y37.9465
G01 X64.2018 Y37.8896
G01 X64.2276 Y37.8351
G01 X64.2586 Y37.7833
G01 X64.2946 Y37.7348
G01 X64.3351 Y37.6901
G01 X64.3798 Y37.6496
G01 X64.4283 Y37.6136
G01 X64.4801 Y37.5826
G01 X64.5346 Y37.5568
G01 X64.5915 Y37.5365
G01 X64.6500 Y37.5218
G01 X64.7097 Y37.5130
G01 X64.7700 Y37.5100
G01 X64.8303 Y37.5130
G01 X64.8888 Y37.5216
G01 X64.9485 Y37.5365
G01 X65.0031 Y37.5559
G01 X65.0620 Y37.5838
G01 X65.1117 Y37.6136
G01 X65.1602 Y37.6496
G01 X65.2049 Y37.6901
G01 X65.2454 Y37.7348
G01 X65.2814 Y37.7833
G01 X65.3112 Y37.8330
G01 X65.3391 Y37.8919
G01 X65.3585 Y37.9465
G01 X65.3732 Y38.0050
G01 X65.3820 Y38.0647
G01 X65.3850 Y38.1238
G01 X65.3850 Y40.9962
G01 X65.3820 Y41.0553
G01 X65.3726 Y41.1174
G01 X65.3577 Y41.1759
G01 X65.3382 Y41.2304
G01 X65.3203 Y41.2684
G01 X65.3203 Y49.9081
G01 X67.2769 Y51.8647
G01 X68.6026 Y51.8647
G01 X68.6185 Y51.8207
G01 X68.6825 Y51.6854
G01 X68.7619 Y51.5529
G01 X68.8518 Y51.4317
G01 X68.9523 Y51.3208
G01 X69.0658 Y51.2176
G01 X69.1889 Y51.1262
G01 X69.3215 Y51.0469
G01 X69.4568 Y50.9830
G01 X69.5977 Y50.9325
G01 X69.7488 Y50.8946
G01 X69.8981 Y50.8725
G01 X70.0488 Y50.8650
G01 X71.0500 Y50.8650
G01 X71.2007 Y50.8724
G01 X71.3524 Y50.8948
G01 X71.4999 Y50.9317
G01 X71.6432 Y50.9830
G01 X71.7817 Y51.0486
G01 X71.9131 Y51.1276
G01 X72.0333 Y51.2168
G01 X72.1442 Y51.3173
G01 X72.2482 Y51.4317
G01 X72.3401 Y51.5559
G01 X72.4170 Y51.6843
G01 X72.4810 Y51.8196
G01 X72.5333 Y51.9651
G01 X72.5706 Y52.1150
G01 X72.5925 Y52.2631
G01 X72.5999 Y52.4125
G01 X72.5925 Y52.5669
G01 X72.5697 Y52.7198
G01 X72.5333 Y52.8649
G01 X72.4829 Y53.0059
G01 X72.4170 Y53.1457
G01 X72.3374 Y53.2781
G01 X72.2482 Y53.3983
G01 X72.1477 Y53.5092
G01 X72.0333 Y53.6132
G01 X71.9101 Y53.7044
G01 X71.7785 Y53.7831
G01 X71.6432 Y53.8470
G01 X71.5023 Y53.8975
G01 X71.3524 Y53.9352
G01 X71.2019 Y53.9575
G01 X71.0500 Y53.9650
G01 X70.0488 Y53.9650
G01 X69.8981 Y53.9575
G01 X69.7500 Y53.9356
G01 X69.6001 Y53.8983
G01 X69.4546 Y53.8460
G01 X69.3193 Y53.7820
G01 X69.1909 Y53.7051
G01 X69.0658 Y53.6124
G01 X68.9523 Y53.5092
G01 X68.8518 Y53.3983
G01 X68.7619 Y53.2771
G01 X68.6825 Y53.1446
G01 X68.6185 Y53.0093
G01 X68.6026 Y52.9653
G01 X67.0478 Y52.9652
G01 X66.9951 Y52.9626
G01 X66.9417 Y52.9547
G01 X66.8893 Y52.9416
G01 X66.8373 Y52.9229
G01 X66.7896 Y52.9003
G01 X66.7433 Y52.8725
G01 X66.6999 Y52.8403
G01 X66.6599 Y52.8041
G01 X64.3809 Y50.5251
G01 X64.3447 Y50.4851
G01 X64.3118 Y50.4407
G01 X64.2847 Y50.3954
G01 X64.2626 Y50.3488
G01 X64.2434 Y50.2957
G01 X64.2303 Y50.2433
G01 X64.2227 Y50.1924
G01 X64.2197 Y50.1360
G01 X64.2197 Y41.2684
G00 Z2.0000
G00 X61.0300 Y53.9650
G01 F60.00
G01 Z-0.0500
G01 F120.00
G01 X60.8756 Y53.9572
G01 X60.7276 Y53.9352
G01 X60.5824 Y53.8989
G01 X60.4368 Y53.8470
G01 X60.2972 Y53.7808
G01 X60.1689 Y53.7038
G01 X60.0486 Y53.6147
G01 X59.9340 Y53.5110
G01 X59.8318 Y53.3983
G01 X59.7426 Y53.2781
G01 X59.6630 Y53.1457
G01 X59.5980 Y53.0082
G01 X59.5475 Y52.8673
G01 X59.5098 Y52.7174
G01 X59.4873 Y52.5645
G01 X59.4800 Y52.4150
G01 X59.4873 Y52.2655
G01 X59.5098 Y52.1126
G01 X59.5475 Y51.9627
G01 X59.5980 Y51.8218
G01 X59.6619 Y51.6865
G01 X59.7412 Y51.5539
G01 X59.8318 Y51.4317
G01 X59.9340 Y51.3190
G01 X60.0467 Y51.2168
G01 X60.1709 Y51.1249
G01 X60.3015 Y51.0469
G01 X60.4368 Y50.9830
G01 X60.5777 Y50.9325
G01 X60.7276 Y50.8948
G01 X60.8769 Y50.8726
G01 X61.0300 Y50.8650
G01 X62.0300 Y50.8650
G01 X62.1831 Y50.8726
G01 X62.3348 Y50.8953
G01 X62.4799 Y50.9317
G01 X62.6209 Y50.9821
G01 X62.7607 Y51.0480
G01 X62.8911 Y51.1262
G01 X63.0133 Y51.2168
G01 X63.1260 Y51.3190
G01 X63.2282 Y51.4317
G01 X63.3188 Y51.5539
G01 X63.3970 Y51.6843
G01 X63.4620 Y51.8218
G01 X63.5133 Y51.9651
G01 X63.5502 Y52.1126
G01 X63.5725 Y52.2631
G01 X63.5800 Y52.4150
G01 X63.5725 Y52.5669
G01 X63.5502 Y52.7174
G01 X63.5133 Y52.8649
G01 X63.4620 Y53.0082
G01 X63.3970 Y53.1457
G01 X63.3188 Y53.2761
G01 X63.2282 Y53.3983
G01 X63.1260 Y53.5110
G01 X63.0133 Y53.6132
G01 X62.8931 Y53.7024
G01 X62.7585 Y53.7831
G01 X62.6232 Y53.8470
G01 X62.4799 Y53.8983
G01 X62.3300 Y53.9356
G01 X62.1819 Y53.9575
G01 X62.0325 Y53.9649
G01 X61.0300 Y53.9650
G00 Z2.0000
G00 X70.0500 Y65.0500
G01 F60.00
G01 Z-0.0500
G01 F120.00
G01 X69.8956 Y65.0422
G01 X69.7476 Y65.0202
G01 X69.6024 Y64.9839
G01 X69.4568 Y64.9320
G01 X69.3172 Y64.8658
G01 X69.1889 Y64.7888
G01 X69.0686 Y64.6997
G01 X68.9540 Y64.5960
G01 X68.8518 Y64.4833
G01 X68.7626 Y64.3631
G01 X68.6830 Y64.2307
G01 X68.6171 Y64.0909
G01 X68.5667 Y63.9499
G01 X68.5303 Y63.8048
G01 X68.5075 Y63.6519
G01 X68.5001 Y63.4975
G01 X68.5075 Y63.3481
G01 X68.5294 Y63.2000
G01 X68.5667 Y63.0501
G01 X68.6180 Y62.9068
G01 X68.6819 Y62.7715
G01 X68.7612 Y62.6389
G01 X68.8518 Y62.5167
G01 X68.9540 Y62.4040
G01 X69.0667 Y62.3018
G01 X69.1909 Y62.2099
G01 X69.3215 Y62.1319
G01 X69.4568 Y62.0680
G01 X69.5977 Y62.0175
G01 X69.7476 Y61.9798
G01 X69.8969 Y61.9576
G01 X70.0500 Y61.9500
G01 X71.0500 Y61.9500
G01 X71.2031 Y61.9576
G01 X71.3548 Y61.9803
G01 X71.4999 Y62.0167
G01 X71.6409 Y62.0671
G01 X71.7807 Y62.1330
G01 X71.9111 Y62.2112
G01 X72.0333 Y62.3018
G01 X72.1460 Y62.4040
G01 X72.2482 Y62.5167
G01 X72.3388 Y62.6389
G01 X72.4170 Y62.7693
G01 X72.4820 Y62.9068
G01 X72.5333 Y63.0501
G01 X72.5702 Y63.1976
G01 X72.5925 Y63.3481
G01 X72.6000 Y63.5000
G01 X72.5925 Y63.6519
G01 X72.5702 Y63.8024
G01 X72.5333 Y63.9499
G01 X72.4820 Y64.0932
G01 X72.4170 Y64.2307
G01 X72.3388 Y64.3611
G01 X72.2482 Y64.4833
G01 X72.1477 Y64.5942
G01 X72.0314 Y64.6997
G01 X71.9111 Y64.7888
G01 X71.7807 Y64.8670
G01 X71.6432 Y64.9320
G01 X71.4999 Y64.9833
G01 X71.3500 Y65.0206
G01 X71.2019 Y65.0425
G01 X71.0525 Y65.0499
G01 X70.0500 Y65.0500
G00 Z2.0000
G00 X90.1725 Y44.5799
G01 F60.00
G01 Z-0.0500
G01 F120.00
G01 X90.0181 Y44.5725
G01 X89.8676 Y44.5502
G01 X89.7201 Y44.5133
G01 X89.5768 Y44.4620
G01 X89.4393 Y44.3970
G01 X89.3089 Y44.3188
G01 X89.1867 Y44.2282
G01 X89.0740 Y44.1260
G01 X88.9718 Y44.0133
G01 X88.8812 Y43.8911
G01 X88.8030 Y43.7607
G01 X88.7380 Y43.6232
G01 X88.6867 Y43.4799
G01 X88.6498 Y43.3324
G01 X88.6275 Y43.1819
G01 X88.6200 Y43.0300
G01 X88.6200 Y42.0300
G01 X88.6278 Y41.8756
G01 X88.6498 Y41.7276
G01 X88.6875 Y41.5777
G01 X88.7380 Y41.4368
G01 X88.8019 Y41.3015
G01 X88.8799 Y41.1709
G01 X88.9718 Y41.0467
G01 X89.0758 Y40.9323
G01 X89.1867 Y40.8318
G01 X89.3069 Y40.7426
G01 X89.4393 Y40.6630
G01 X89.5768 Y40.5980
G01 X89.7224 Y40.5461
G01 X89.8676 Y40.5098
G01 X90.0156 Y40.4878
G01 X90.1700 Y40.4800
G01 X90.3219 Y40.4875
G01 X90.4724 Y40.5098
G01 X90.6199 Y40.5467
G01 X90.7632 Y40.5980
G01 X90.9007 Y40.6630
G01 X91.0311 Y40.7412
G01 X91.1533 Y40.8318
G01 X91.2660 Y40.9340
G01 X91.3682 Y41.0467
G01 X91.4588 Y41.1689
G01 X91.5370 Y41.2993
G01 X91.6020 Y41.4368
G01 X91.6533 Y41.5801
G01 X91.6902 Y41.7276
G01 X91.7125 Y41.8781
G01 X91.7200 Y42.0300
G01 X91.7200 Y43.0300
G01 X91.7122 Y43.1844
G01 X91.6902 Y43.3324
G01 X91.6525 Y43.4823
G01 X91.6020 Y43.6232
G01 X91.5381 Y43.7585
G01 X91.4601 Y43.8891
G01 X91.3682 Y44.0133
G01 X91.2642 Y44.1277
G01 X91.1533 Y44.2282
G01 X91.0331 Y44.3174
G01 X90.9007 Y44.3970
G01 X90.7632 Y44.4620
G01 X90.6176 Y44.5139
G01 X90.4724 Y44.5502
G01 X90.3244 Y44.5722
G01 X90.1725 Y44.5799
G00 Z2.0000
G00 X90.1725 Y38.1799
G01 F60.00
G01 Z-0.0500
G01 F120.00
G01 X90.0181 Y38.1725
G01 X89.8676 Y38.1502
G01 X89.7201 Y38.1133
G01 X89.5768 Y38.0620
G01 X89.4393 Y37.9970
G01 X89.3089 Y37.9188
G01 X89.1867 Y37.8282
G01 X89.0740 Y37.7260
G01 X88.9718 Y37.6133
G01 X88.8812 Y37.4911
G01 X88.8030 Y37.3607
G01 X88.7380 Y37.2232
G01 X88.6867 Y37.0799
G01 X88.6498 Y36.9324
G01 X88.6275 Y36.7819
G01 X88.6200 Y36.6300
G01 X88.6200 Y35.6300
G01 X88.6278 Y35.4756
G01 X88.6498 Y35.3276
G01 X88.6875 Y35.1777
G01 X88.7380 Y35.0368
G01 X88.8019 Y34.9015
G01 X88.8799 Y34.7709
G01 X88.9718 Y34.6467
G01 X89.0758 Y34.5323
G01 X89.1867 Y34.4318
G01 X89.3069 Y34.3426
G01 X89.4393 Y34.2630
G01 X89.5791 Y34.1971
G01 X89.7201 Y34.1467
G01 X89.8652 Y34.1103
G01 X90.0181 Y34.0875
G01 X90.1700 Y34.0800
G01 X90.3219 Y34.0875
G01 X90.4724 Y34.1098
G01 X90.6199 Y34.1467
G01 X90.7632 Y34.1980
G01 X90.9007 Y34.2630
G01 X91.0311 Y34.3412
G01 X91.1533 Y34.4318
G01 X91.2660 Y34.5340
G01 X91.3682 Y34.6467
G01 X91.4588 Y34.7689
G01 X91.5370 Y34.8993
G01 X91.6020 Y35.0368
G01 X91.6533 Y35.1801
G01 X91.6902 Y35.3276
G01 X91.7125 Y35.4781
G01 X91.7200 Y35.6300
G01 X91.7200 Y36.6300
G01 X91.7122 Y36.7844
G01 X91.6902 Y36.9324
G01 X91.6525 Y37.0823
G01 X91.6020 Y37.2232
G01 X91.5381 Y37.3585
G01 X91.4601 Y37.4891
G01 X91.3682 Y37.6133
G01 X91.2642 Y37.7277
G01 X91.1533 Y37.8282
G01 X91.0331 Y37.9174
G01 X90.9007 Y37.9970
G01 X90.7632 Y38.0620
G01 X90.6176 Y38.1139
G01 X90.4724 Y38.1502
G01 X90.3244 Y38.1722
G01 X90.1725 Y38.1799
G00 Z2.0000
G00 X90.1725 Y31.9599
G01 F60.00
G01 Z-0.0500
G01 F120.00
G01 X90.0181 Y31.9525
G01 X89.8676 Y31.9302
G01 X89.7201 Y31.8933
G01 X89.5768 Y31.8420
G01 X89.4393 Y31.7770
G01 X89.3089 Y31.6988
G01 X89.1867 Y31.6082
G01 X89.0740 Y31.5060
G01 X88.9718 Y31.3933
G01 X88.8812 Y31.2711
G01 X88.8030 Y31.1407
G01 X88.7380 Y31.0032
G01 X88.6867 Y30.8599
G01 X88.6498 Y30.7124
G01 X88.6275 Y30.5619
G01 X88.6200 Y30.4100
G01 X88.6200 Y29.4100
G01 X88.6278 Y29.2556
G01 X88.6498 Y29.1076
G01 X88.6875 Y28.9577
G01 X88.7380 Y28.8168
G01 X88.8019 Y28.6815
G01 X88.8799 Y28.5509
G01 X88.9718 Y28.4267
G01 X89.0758 Y28.3123
G01 X89.1867 Y28.2118
G01 X89.3069 Y28.1226
G01 X89.4393 Y28.0430
G01 X89.5791 Y27.9771
G01 X89.7201 Y27.9267
G01 X89.8652 Y27.8903
G01 X90.0181 Y27.8675
G01 X90.1700 Y27.8600
G01 X90.3219 Y27.8675
G01 X90.4724 Y27.8898
G01 X90.6199 Y27.9267
G01 X90.7632 Y27.9780
G01 X90.9007 Y28.0430
G01 X91.0311 Y28.1212
G01 X91.1533 Y28.2118
G01 X91.2660 Y28.3140
G01 X91.3682 Y28.4267
G01 X91.4588 Y28.5489
G01 X91.5370 Y28.6793
G01 X91.6020 Y28.8168
G01 X91.6533 Y28.9601
G01 X91.6902 Y29.1076
G01 X91.7125 Y29.2581
G01 X91.7200 Y29.4100
G01 X91.7200 Y30.4100
G01 X91.7122 Y30.5644
G01 X91.6902 Y30.7124
G01 X91.6525 Y30.8623
G01 X91.6020 Y31.0032
G01 X91.5381 Y31.1385
G01 X91.4601 Y31.2691
G01 X91.3682 Y31.3933
G01 X91.2642 Y31.5077
G01 X91.1533 Y31.6082
G01 X91.0331 Y31.6974
G01 X90.9007 Y31.7770
G01 X90.7632 Y31.8420
G01 X90.6176 Y31.8939
G01 X90.4724 Y31.9302
G01 X90.3244 Y31.9522
G01 X90.1725 Y31.9599
G00 Z2.0000
G00 X90.1725 Y25.5599
G01 F60.00
G01 Z-0.0500
G01 F120.00
G01 X90.0181 Y25.5525
G01 X89.8676 Y25.5302
G01 X89.7201 Y25.4933
G01 X89.5768 Y25.4420
G01 X89.4393 Y25.3770
G01 X89.3089 Y25.2988
G01 X89.1867 Y25.2082
G01 X89.0740 Y25.1060
G01 X88.9718 Y24.9933
G01 X88.8812 Y24.8711
G01 X88.8030 Y24.7407
G01 X88.7380 Y24.6032
G01 X88.6867 Y24.4599
G01 X88.6498 Y24.3124
G01 X88.6275 Y24.1619
G01 X88.6200 Y24.0100
G01 X88.6200 Y23.0100
G01 X88.6278 Y22.8556
G01 X88.6498 Y22.7076
G01 X88.6875 Y22.5577
G01 X88.7380 Y22.4168
G01 X88.8019 Y22.2815
G01 X88.8799 Y22.1509
G01 X88.9718 Y22.0267
G01 X89.0758 Y21.9123
G01 X89.1867 Y21.8118
G01 X89.3069 Y21.7226
G01 X89.4393 Y21.6430
G01 X89.5791 Y21.5771
G01 X89.7201 Y21.5267
G01 X89.8652 Y21.4903
G01 X90.0181 Y21.4675
G01 X90.1700 Y21.4600
G01 X90.3219 Y21.4675
G01 X90.4724 Y21.4898
G01 X90.6199 Y21.5267
G01 X90.7632 Y21.5780
G01 X90.9007 Y21.6430
G01 X91.0311 Y21.7212
G01 X91.1533 Y21.8118
G01 X91.2660 Y21.9140
G01 X91.3682 Y22.0267
G01 X91.4588 Y22.1489
G01 X91.5370 Y22.2793
G01 X91.6020 Y22.4168
G01 X91.6533 Y22.5601
G01 X91.6902 Y22.7076
G01 X91.7125 Y22.8581
G01 X91.7200 Y23.0100
G01 X91.7200 Y24.0100
G01 X91.7122 Y24.1644
G01 X91.6902 Y24.3124
G01 X91.6525 Y24.4623
G01 X91.6020 Y24.6032
G01 X91.5381 Y24.7385
G01 X91.4601 Y24.8691
G01 X91.3682 Y24.9933
G01 X91.2642 Y25.1077
G01 X91.1533 Y25.2082
G01 X91.0331 Y25.2974
G01 X90.9007 Y25.3770
G01 X90.7632 Y25.4420
G01 X90.6176 Y25.4939
G01 X90.4724 Y25.5302
G01 X90.3244 Y25.5522
G01 X90.1725 Y25.5599
G00 Z2.0000
M05
G00 Z2.0000
G00 Z15.00


