(G-CODE GENERATED BY FLATCAM v8.994 - www.flatcam.org - Version Date: 2020/11/7)

(Name: preamp-board-v4-F_Cu.gbr_iso_combined_cnc)
(Type: G-code from Geometry)
(Units: MM)

(Created on Friday, 07 May 2021 at 11:59)

(This preprocessor is the default preprocessor used by FlatCAM.)
(It is made to work with MACH3 compatible motion controllers.)

(TOOL DIAMETER: 1.0 mm)
(Feedrate_XY: 480.0 mm/min)
(Feedrate_Z: 240.0 mm/min)
(Feedrate rapids 1500.0 mm/min)

(Z_Cut: -0.2 mm)
(Z_Move: 2.0 mm)
(Z Start: None mm)
(Z End: 15.0 mm)
(X,Y End: None mm)
(Steps per circle: 64)
(Preprocessor Geometry: default)

(X range:   10.3050 ...   92.1700  mm)
(Y range:    3.0800 ...   65.5000  mm)

(Spindle Speed: 10000.0 RPM)
G21
G90
G94

G01 F480.00

M5
G00 Z15.0000
G00 X0.0000 Y0.0000
T1
M6    
(MSG, Change to Tool Dia = 1.0000)
M0
G00 Z15.0000

M03 S10000.0
G01 F480.00
G00 X11.4545 Y29.2106
G01 F240.00
G01 Z-0.2000
G01 F480.00
G01 X11.5158 Y29.2136
G01 X11.5403 Y29.2154
G01 X11.5646 Y29.2184
G01 X11.6253 Y29.2274
G01 X11.6495 Y29.2316
G01 X11.6734 Y29.2370
G01 X11.7329 Y29.2519
G01 X11.7566 Y29.2584
G01 X11.7799 Y29.2661
G01 X11.8376 Y29.2868
G01 X11.8605 Y29.2956
G01 X11.8830 Y29.3056
G01 X11.9494 Y29.3372
G01 X11.9711 Y29.3488
G01 X12.0343 Y29.3865
G01 X12.0550 Y29.3996
G01 X12.0751 Y29.4137
G01 X12.1341 Y29.4577
G01 X12.1531 Y29.4733
G01 X12.2077 Y29.5226
G01 X12.2255 Y29.5395
G01 X12.2424 Y29.5573
G01 X12.2836 Y29.6027
G01 X12.2996 Y29.6213
G01 X12.3147 Y29.6407
G01 X12.3513 Y29.6899
G01 X12.3654 Y29.7100
G01 X12.3785 Y29.7307
G01 X12.4101 Y29.7833
G01 X12.4222 Y29.8047
G01 X12.4332 Y29.8266
G01 X12.4594 Y29.8820
G01 X12.4694 Y29.9045
G01 X12.4782 Y29.9274
G01 X12.5029 Y29.9967
G01 X12.5100 Y30.0202
G01 X12.5308 Y30.1035
G01 X12.5334 Y30.1155
G01 X12.5376 Y30.1397
G01 X12.5466 Y30.2004
G01 X12.5496 Y30.2247
G01 X12.5514 Y30.2492
G01 X12.5548 Y30.3227
G01 X12.5550 Y33.0850
G01 X12.5544 Y33.1095
G01 X12.5514 Y33.1708
G01 X12.5496 Y33.1953
G01 X12.5466 Y33.2196
G01 X12.5376 Y33.2803
G01 X12.5334 Y33.3045
G01 X12.5280 Y33.3284
G01 X12.5131 Y33.3879
G01 X12.5066 Y33.4116
G01 X12.4989 Y33.4349
G01 X12.4782 Y33.4926
G01 X12.4694 Y33.5155
G01 X12.4594 Y33.5380
G01 X12.4332 Y33.5934
G01 X12.4222 Y33.6153
G01 X12.4101 Y33.6367
G01 X12.3785 Y33.6893
G01 X12.3654 Y33.7100
G01 X12.3513 Y33.7301
G01 X12.3147 Y33.7793
G01 X12.2996 Y33.7987
G01 X12.2836 Y33.8173
G01 X12.2424 Y33.8627
G01 X12.2255 Y33.8805
G01 X12.2077 Y33.8974
G01 X12.1623 Y33.9386
G01 X12.1437 Y33.9546
G01 X12.1243 Y33.9697
G01 X12.0751 Y34.0063
G01 X12.0550 Y34.0204
G01 X12.0343 Y34.0335
G01 X11.9817 Y34.0651
G01 X11.9603 Y34.0772
G01 X11.9384 Y34.0882
G01 X11.8830 Y34.1144
G01 X11.8605 Y34.1244
G01 X11.8376 Y34.1332
G01 X11.7799 Y34.1539
G01 X11.7566 Y34.1616
G01 X11.7329 Y34.1681
G01 X11.6734 Y34.1830
G01 X11.6495 Y34.1884
G01 X11.6253 Y34.1926
G01 X11.5646 Y34.2016
G01 X11.5403 Y34.2046
G01 X11.5158 Y34.2064
G01 X11.4545 Y34.2094
G01 X11.4300 Y34.2100
G01 X11.4055 Y34.2094
G01 X11.3442 Y34.2064
G01 X11.3197 Y34.2046
G01 X11.2954 Y34.2016
G01 X11.2347 Y34.1926
G01 X11.2105 Y34.1884
G01 X11.1866 Y34.1830
G01 X11.1152 Y34.1650
G01 X11.1034 Y34.1616
G01 X11.0801 Y34.1539
G01 X11.0224 Y34.1332
G01 X10.9995 Y34.1244
G01 X10.9770 Y34.1144
G01 X10.9216 Y34.0882
G01 X10.8997 Y34.0772
G01 X10.8783 Y34.0651
G01 X10.8257 Y34.0335
G01 X10.8050 Y34.0204
G01 X10.7849 Y34.0063
G01 X10.7357 Y33.9697
G01 X10.7163 Y33.9546
G01 X10.6977 Y33.9386
G01 X10.6433 Y33.8891
G01 X10.6345 Y33.8805
G01 X10.6176 Y33.8627
G01 X10.5764 Y33.8173
G01 X10.5604 Y33.7987
G01 X10.5453 Y33.7793
G01 X10.5087 Y33.7301
G01 X10.4946 Y33.7100
G01 X10.4815 Y33.6893
G01 X10.4499 Y33.6367
G01 X10.4378 Y33.6153
G01 X10.4268 Y33.5934
G01 X10.4006 Y33.5380
G01 X10.3906 Y33.5155
G01 X10.3861 Y33.5041
G01 X10.3611 Y33.4349
G01 X10.3534 Y33.4116
G01 X10.3469 Y33.3879
G01 X10.3292 Y33.3165
G01 X10.3266 Y33.3045
G01 X10.3224 Y33.2803
G01 X10.3134 Y33.2196
G01 X10.3104 Y33.1953
G01 X10.3086 Y33.1708
G01 X10.3052 Y33.0973
G01 X10.3050 Y30.3350
G01 X10.3056 Y30.3105
G01 X10.3086 Y30.2492
G01 X10.3104 Y30.2247
G01 X10.3134 Y30.2004
G01 X10.3224 Y30.1397
G01 X10.3266 Y30.1155
G01 X10.3320 Y30.0916
G01 X10.3469 Y30.0321
G01 X10.3534 Y30.0084
G01 X10.3611 Y29.9851
G01 X10.3818 Y29.9274
G01 X10.3906 Y29.9045
G01 X10.4006 Y29.8820
G01 X10.4268 Y29.8266
G01 X10.4378 Y29.8047
G01 X10.4499 Y29.7833
G01 X10.4815 Y29.7307
G01 X10.4946 Y29.7100
G01 X10.5087 Y29.6899
G01 X10.5453 Y29.6407
G01 X10.5604 Y29.6213
G01 X10.5764 Y29.6027
G01 X10.6176 Y29.5573
G01 X10.6345 Y29.5395
G01 X10.6523 Y29.5226
G01 X10.6977 Y29.4814
G01 X10.7163 Y29.4654
G01 X10.7357 Y29.4503
G01 X10.7849 Y29.4137
G01 X10.8050 Y29.3996
G01 X10.8257 Y29.3865
G01 X10.8783 Y29.3549
G01 X10.8997 Y29.3428
G01 X10.9216 Y29.3318
G01 X10.9770 Y29.3056
G01 X10.9995 Y29.2956
G01 X11.0224 Y29.2868
G01 X11.0801 Y29.2661
G01 X11.1034 Y29.2584
G01 X11.1271 Y29.2519
G01 X11.1866 Y29.2370
G01 X11.2105 Y29.2316
G01 X11.2347 Y29.2274
G01 X11.2954 Y29.2184
G01 X11.3197 Y29.2154
G01 X11.3442 Y29.2136
G01 X11.4177 Y29.2102
G01 X11.4300 Y29.2100
G01 X11.4545 Y29.2106
G00 Z2.0000
G00 X10.4297 Y38.7594
G01 F240.00
G01 Z-0.2000
G01 F480.00
G01 X10.3955 Y38.6868
G01 X10.3906 Y38.6755
G01 X10.3818 Y38.6526
G01 X10.3611 Y38.5949
G01 X10.3534 Y38.5716
G01 X10.3469 Y38.5479
G01 X10.3320 Y38.4884
G01 X10.3266 Y38.4645
G01 X10.3244 Y38.4524
G01 X10.3118 Y38.3675
G01 X10.3104 Y38.3553
G01 X10.3086 Y38.3308
G01 X10.3052 Y38.2573
G01 X10.3052 Y35.4827
G01 X10.3094 Y35.3970
G01 X10.3118 Y35.3725
G01 X10.3134 Y35.3604
G01 X10.3224 Y35.2997
G01 X10.3266 Y35.2755
G01 X10.3320 Y35.2516
G01 X10.3500 Y35.1802
G01 X10.3571 Y35.1567
G01 X10.3611 Y35.1451
G01 X10.3818 Y35.0874
G01 X10.3906 Y35.0645
G01 X10.4006 Y35.0420
G01 X10.4268 Y34.9866
G01 X10.4378 Y34.9647
G01 X10.4499 Y34.9433
G01 X10.4815 Y34.8907
G01 X10.4946 Y34.8700
G01 X10.5087 Y34.8499
G01 X10.5527 Y34.7909
G01 X10.5683 Y34.7719
G01 X10.5764 Y34.7627
G01 X10.6176 Y34.7173
G01 X10.6345 Y34.6995
G01 X10.6523 Y34.6826
G01 X10.7069 Y34.6333
G01 X10.7259 Y34.6177
G01 X10.7357 Y34.6103
G01 X10.7949 Y34.5665
G01 X10.8153 Y34.5529
G01 X10.8783 Y34.5149
G01 X10.8997 Y34.5028
G01 X10.9106 Y34.4972
G01 X10.9770 Y34.4656
G01 X10.9995 Y34.4556
G01 X11.0224 Y34.4468
G01 X11.0917 Y34.4221
G01 X11.1152 Y34.4150
G01 X11.1985 Y34.3942
G01 X11.2105 Y34.3916
G01 X11.2347 Y34.3874
G01 X11.3075 Y34.3768
G01 X11.3320 Y34.3744
G01 X11.4055 Y34.3706
G01 X11.4177 Y34.3702
G01 X11.4423 Y34.3702
G01 X11.5158 Y34.3736
G01 X11.5403 Y34.3754
G01 X11.5525 Y34.3768
G01 X11.6374 Y34.3894
G01 X11.6615 Y34.3942
G01 X11.6734 Y34.3970
G01 X11.7329 Y34.4119
G01 X11.7566 Y34.4184
G01 X11.7799 Y34.4261
G01 X11.8376 Y34.4468
G01 X11.8605 Y34.4556
G01 X11.8830 Y34.4656
G01 X11.9384 Y34.4918
G01 X11.9603 Y34.5028
G01 X11.9817 Y34.5149
G01 X12.0343 Y34.5465
G01 X12.0550 Y34.5596
G01 X12.0751 Y34.5737
G01 X12.1341 Y34.6177
G01 X12.1531 Y34.6333
G01 X12.2077 Y34.6826
G01 X12.2255 Y34.6995
G01 X12.2424 Y34.7173
G01 X12.2836 Y34.7627
G01 X12.2996 Y34.7813
G01 X12.3147 Y34.8007
G01 X12.3585 Y34.8599
G01 X12.3721 Y34.8803
G01 X12.4101 Y34.9433
G01 X12.4222 Y34.9647
G01 X12.4332 Y34.9866
G01 X12.4645 Y35.0532
G01 X12.4694 Y35.0645
G01 X12.4782 Y35.0874
G01 X12.5029 Y35.1567
G01 X12.5100 Y35.1802
G01 X12.5280 Y35.2516
G01 X12.5334 Y35.2755
G01 X12.5376 Y35.2997
G01 X12.5466 Y35.3604
G01 X12.5482 Y35.3725
G01 X12.5506 Y35.3970
G01 X12.5544 Y35.4705
G01 X12.5550 Y35.4950
G01 X12.5548 Y38.2573
G01 X12.5514 Y38.3308
G01 X12.5506 Y38.3430
G01 X12.5482 Y38.3675
G01 X12.5356 Y38.4524
G01 X12.5334 Y38.4645
G01 X12.5280 Y38.4884
G01 X12.5131 Y38.5479
G01 X12.5066 Y38.5716
G01 X12.4989 Y38.5949
G01 X12.4782 Y38.6526
G01 X12.4739 Y38.6641
G01 X12.4645 Y38.6868
G01 X12.4303 Y38.7594
G01 X12.4303 Y39.9567
G01 X17.1933 Y44.7197
G01 X39.3700 Y44.7197
G01 X39.9230 Y44.7200
G01 X39.9461 Y44.7205
G01 X39.9712 Y44.7218
G01 X39.9942 Y44.7240
G01 X40.0191 Y44.7273
G01 X40.0419 Y44.7310
G01 X40.0645 Y44.7358
G01 X40.0889 Y44.7417
G01 X40.1111 Y44.7480
G01 X40.1350 Y44.7558
G01 X40.1567 Y44.7637
G01 X40.1781 Y44.7725
G01 X40.2010 Y44.7828
G01 X40.2217 Y44.7931
G01 X40.2437 Y44.8052
G01 X40.2636 Y44.8169
G01 X40.2734 Y44.8231
G01 X40.2942 Y44.8372
G01 X40.3129 Y44.8507
G01 X40.3310 Y44.8650
G01 X40.3503 Y44.8812
G01 X40.3673 Y44.8967
G01 X40.3756 Y44.9048
G01 X40.3933 Y44.9227
G01 X40.4088 Y44.9397
G01 X40.4250 Y44.9590
G01 X40.4393 Y44.9771
G01 X40.4528 Y44.9958
G01 X40.4669 Y45.0166
G01 X40.4731 Y45.0264
G01 X40.4848 Y45.0463
G01 X40.4969 Y45.0683
G01 X40.5072 Y45.0890
G01 X40.5175 Y45.1119
G01 X40.5263 Y45.1333
G01 X40.5342 Y45.1550
G01 X40.5453 Y45.1899
G01 X40.5542 Y45.2255
G01 X40.5590 Y45.2481
G01 X40.5627 Y45.2709
G01 X40.5672 Y45.3073
G01 X40.5688 Y45.3303
G01 X40.5699 Y45.3555
G01 X40.5698 Y46.0853
G01 X40.5679 Y46.1242
G01 X40.5655 Y46.1486
G01 X40.5598 Y46.1872
G01 X40.5576 Y46.1992
G01 X40.5522 Y46.2232
G01 X40.5456 Y46.2490
G01 X40.5384 Y46.2725
G01 X40.5296 Y46.2977
G01 X40.5207 Y46.3206
G01 X40.5159 Y46.3319
G01 X40.5046 Y46.3561
G01 X40.4936 Y46.3780
G01 X40.4815 Y46.3993
G01 X40.4677 Y46.4222
G01 X40.4540 Y46.4426
G01 X40.4382 Y46.4641
G01 X40.4231 Y46.4835
G01 X40.4071 Y46.5020
G01 X40.3891 Y46.5217
G01 X40.3717 Y46.5391
G01 X40.3520 Y46.5571
G01 X40.3335 Y46.5731
G01 X40.3239 Y46.5808
G01 X40.3025 Y46.5968
G01 X40.2825 Y46.6110
G01 X40.2617 Y46.6241
G01 X40.2387 Y46.6377
G01 X40.2171 Y46.6493
G01 X40.1930 Y46.6608
G01 X40.1706 Y46.6707
G01 X40.1477 Y46.6796
G01 X40.1225 Y46.6884
G01 X40.0990 Y46.6956
G01 X40.0732 Y46.7022
G01 X40.0492 Y46.7076
G01 X40.0372 Y46.7098
G01 X40.0108 Y46.7139
G01 X39.9864 Y46.7169
G01 X39.9619 Y46.7187
G01 X39.9353 Y46.7198
G01 X39.3700 Y46.7203
G01 X16.7790 Y46.7203
G01 X16.7545 Y46.7196
G01 X16.7054 Y46.7172
G01 X16.6932 Y46.7165
G01 X16.6688 Y46.7141
G01 X16.5959 Y46.7033
G01 X16.5719 Y46.6985
G01 X16.5599 Y46.6957
G01 X16.5123 Y46.6837
G01 X16.4886 Y46.6772
G01 X16.4653 Y46.6695
G01 X16.4191 Y46.6529
G01 X16.3962 Y46.6441
G01 X16.3849 Y46.6393
G01 X16.3294 Y46.6132
G01 X16.3075 Y46.6021
G01 X16.2861 Y46.5900
G01 X16.2336 Y46.5584
G01 X16.2233 Y46.5517
G01 X16.2032 Y46.5375
G01 X16.1638 Y46.5083
G01 X16.1444 Y46.4932
G01 X16.1259 Y46.4772
G01 X16.0805 Y46.4359
G01 X10.7227 Y41.0783
G01 X10.7058 Y41.0605
G01 X10.6728 Y41.0241
G01 X10.6568 Y41.0056
G01 X10.6491 Y40.9960
G01 X10.6125 Y40.9468
G01 X10.5983 Y40.9267
G01 X10.5852 Y40.9060
G01 X10.5600 Y40.8639
G01 X10.5538 Y40.8533
G01 X10.5422 Y40.8316
G01 X10.5158 Y40.7762
G01 X10.5059 Y40.7538
G01 X10.4971 Y40.7309
G01 X10.4805 Y40.6847
G01 X10.4728 Y40.6614
G01 X10.4663 Y40.6377
G01 X10.4543 Y40.5901
G01 X10.4515 Y40.5781
G01 X10.4467 Y40.5541
G01 X10.4376 Y40.4934
G01 X10.4346 Y40.4690
G01 X10.4328 Y40.4446
G01 X10.4304 Y40.3955
G01 X10.4297 Y40.3710
G01 X10.4297 Y38.7594
G00 Z2.0000
G00 X23.4852 Y34.5597
G01 F240.00
G01 Z-0.2000
G01 F480.00
G01 X39.3700 Y34.5597
G01 X39.5823 Y34.5602
G01 X39.6558 Y34.5638
G01 X39.6802 Y34.5662
G01 X39.7530 Y34.5770
G01 X39.7771 Y34.5818
G01 X39.8485 Y34.5996
G01 X39.8720 Y34.6068
G01 X39.9413 Y34.6316
G01 X39.9640 Y34.6410
G01 X40.0305 Y34.6724
G01 X40.0521 Y34.6840
G01 X40.1153 Y34.7218
G01 X40.1357 Y34.7355
G01 X40.1948 Y34.7793
G01 X40.2138 Y34.7949
G01 X40.2683 Y34.8443
G01 X40.2857 Y34.8617
G01 X40.3351 Y34.9162
G01 X40.3507 Y34.9352
G01 X40.3945 Y34.9943
G01 X40.4082 Y35.0147
G01 X40.4460 Y35.0779
G01 X40.4576 Y35.0995
G01 X40.4890 Y35.1660
G01 X40.4984 Y35.1887
G01 X40.5232 Y35.2580
G01 X40.5304 Y35.2815
G01 X40.5482 Y35.3529
G01 X40.5530 Y35.3770
G01 X40.5638 Y35.4498
G01 X40.5662 Y35.4742
G01 X40.5698 Y35.5477
G01 X40.5698 Y35.5723
G01 X40.5662 Y35.6458
G01 X40.5638 Y35.6702
G01 X40.5530 Y35.7430
G01 X40.5482 Y35.7671
G01 X40.5335 Y35.8266
G01 X40.5269 Y35.8503
G01 X40.5232 Y35.8620
G01 X40.5027 Y35.9198
G01 X40.4939 Y35.9427
G01 X40.4839 Y35.9651
G01 X40.4630 Y36.0095
G01 X40.4519 Y36.0314
G01 X40.4398 Y36.0527
G01 X40.4146 Y36.0948
G01 X40.4015 Y36.1156
G01 X40.3873 Y36.1356
G01 X40.3581 Y36.1750
G01 X40.3430 Y36.1944
G01 X40.3270 Y36.2130
G01 X40.2940 Y36.2493
G01 X40.2771 Y36.2671
G01 X40.2593 Y36.2840
G01 X40.2230 Y36.3170
G01 X40.2044 Y36.3330
G01 X40.1850 Y36.3481
G01 X40.1456 Y36.3773
G01 X40.1256 Y36.3915
G01 X40.1048 Y36.4046
G01 X40.0627 Y36.4298
G01 X40.0414 Y36.4419
G01 X40.0195 Y36.4530
G01 X39.9640 Y36.4790
G01 X39.9413 Y36.4884
G01 X39.8720 Y36.5132
G01 X39.8485 Y36.5204
G01 X39.7890 Y36.5354
G01 X39.7651 Y36.5408
G01 X39.7409 Y36.5450
G01 X39.6802 Y36.5538
G01 X39.6680 Y36.5552
G01 X39.6435 Y36.5570
G01 X39.5945 Y36.5594
G01 X39.5700 Y36.5600
G01 X39.3700 Y36.5603
G01 X23.9850 Y36.5603
G01 X23.9850 Y38.2450
G01 X23.9844 Y38.2695
G01 X23.9814 Y38.3308
G01 X23.9796 Y38.3553
G01 X23.9782 Y38.3675
G01 X23.9656 Y38.4524
G01 X23.9634 Y38.4645
G01 X23.9580 Y38.4884
G01 X23.9400 Y38.5598
G01 X23.9329 Y38.5833
G01 X23.9289 Y38.5949
G01 X23.9039 Y38.6641
G01 X23.8945 Y38.6868
G01 X23.8632 Y38.7534
G01 X23.8522 Y38.7753
G01 X23.8401 Y38.7967
G01 X23.8021 Y38.8597
G01 X23.7954 Y38.8700
G01 X23.7813 Y38.8901
G01 X23.7447 Y38.9393
G01 X23.7296 Y38.9587
G01 X23.7136 Y38.9773
G01 X23.6724 Y39.0227
G01 X23.6555 Y39.0405
G01 X23.6377 Y39.0574
G01 X23.5923 Y39.0986
G01 X23.5737 Y39.1146
G01 X23.5543 Y39.1297
G01 X23.5051 Y39.1663
G01 X23.4850 Y39.1804
G01 X23.4643 Y39.1935
G01 X23.4011 Y39.2312
G01 X23.3794 Y39.2428
G01 X23.3130 Y39.2744
G01 X23.2905 Y39.2844
G01 X23.2676 Y39.2932
G01 X23.1983 Y39.3179
G01 X23.1748 Y39.3250
G01 X23.1034 Y39.3430
G01 X23.0795 Y39.3484
G01 X23.0553 Y39.3526
G01 X22.9946 Y39.3616
G01 X22.9703 Y39.3646
G01 X22.9458 Y39.3664
G01 X22.8845 Y39.3694
G01 X22.8600 Y39.3700
G01 X22.8355 Y39.3694
G01 X22.7742 Y39.3664
G01 X22.7497 Y39.3646
G01 X22.7254 Y39.3616
G01 X22.6526 Y39.3506
G01 X22.6285 Y39.3458
G01 X22.5571 Y39.3281
G01 X22.5334 Y39.3216
G01 X22.5101 Y39.3139
G01 X22.4524 Y39.2932
G01 X22.4295 Y39.2844
G01 X22.4070 Y39.2744
G01 X22.3516 Y39.2482
G01 X22.3297 Y39.2372
G01 X22.3083 Y39.2251
G01 X22.2557 Y39.1935
G01 X22.2350 Y39.1804
G01 X22.2149 Y39.1663
G01 X22.1657 Y39.1297
G01 X22.1559 Y39.1223
G01 X22.1369 Y39.1067
G01 X22.0823 Y39.0574
G01 X22.0645 Y39.0405
G01 X22.0476 Y39.0227
G01 X21.9983 Y38.9681
G01 X21.9827 Y38.9491
G01 X21.9753 Y38.9393
G01 X21.9387 Y38.8901
G01 X21.9246 Y38.8700
G01 X21.9115 Y38.8493
G01 X21.8799 Y38.7967
G01 X21.8678 Y38.7753
G01 X21.8568 Y38.7534
G01 X21.8255 Y38.6868
G01 X21.8206 Y38.6755
G01 X21.8118 Y38.6526
G01 X21.7911 Y38.5949
G01 X21.7834 Y38.5716
G01 X21.7769 Y38.5479
G01 X21.7592 Y38.4765
G01 X21.7566 Y38.4645
G01 X21.7524 Y38.4403
G01 X21.7434 Y38.3796
G01 X21.7404 Y38.3553
G01 X21.7386 Y38.3308
G01 X21.7356 Y38.2695
G01 X21.7350 Y38.2450
G01 X21.7350 Y35.4950
G01 X21.7356 Y35.4705
G01 X21.7386 Y35.4092
G01 X21.7404 Y35.3847
G01 X21.7434 Y35.3604
G01 X21.7544 Y35.2876
G01 X21.7566 Y35.2755
G01 X21.7620 Y35.2516
G01 X21.7769 Y35.1921
G01 X21.7834 Y35.1684
G01 X21.7911 Y35.1451
G01 X21.8161 Y35.0759
G01 X21.8206 Y35.0645
G01 X21.8306 Y35.0420
G01 X21.8568 Y34.9866
G01 X21.8678 Y34.9647
G01 X21.8799 Y34.9433
G01 X21.9115 Y34.8907
G01 X21.9246 Y34.8700
G01 X21.9315 Y34.8599
G01 X21.9753 Y34.8007
G01 X21.9904 Y34.7813
G01 X22.0064 Y34.7627
G01 X22.0476 Y34.7173
G01 X22.0645 Y34.6995
G01 X22.0823 Y34.6826
G01 X22.1369 Y34.6333
G01 X22.1463 Y34.6254
G01 X22.1657 Y34.6103
G01 X22.2149 Y34.5737
G01 X22.2350 Y34.5596
G01 X22.2557 Y34.5465
G01 X22.3083 Y34.5149
G01 X22.3189 Y34.5088
G01 X22.3406 Y34.4972
G01 X22.4070 Y34.4656
G01 X22.4295 Y34.4556
G01 X22.4524 Y34.4468
G01 X22.5101 Y34.4261
G01 X22.5334 Y34.4184
G01 X22.5571 Y34.4119
G01 X22.6285 Y34.3942
G01 X22.6405 Y34.3916
G01 X22.6647 Y34.3874
G01 X22.7254 Y34.3784
G01 X22.7497 Y34.3754
G01 X22.7742 Y34.3736
G01 X22.8355 Y34.3706
G01 X22.8477 Y34.3702
G01 X22.8723 Y34.3702
G01 X22.9458 Y34.3736
G01 X22.9703 Y34.3754
G01 X22.9946 Y34.3784
G01 X23.0674 Y34.3894
G01 X23.0795 Y34.3916
G01 X23.1034 Y34.3970
G01 X23.1629 Y34.4119
G01 X23.1866 Y34.4184
G01 X23.2099 Y34.4261
G01 X23.2676 Y34.4468
G01 X23.2905 Y34.4556
G01 X23.3018 Y34.4605
G01 X23.3684 Y34.4918
G01 X23.3903 Y34.5028
G01 X23.4117 Y34.5149
G01 X23.4643 Y34.5465
G01 X23.4852 Y34.5597
G00 Z2.0000
G00 X21.8597 Y29.8206
G01 F240.00
G01 Z-0.2000
G01 F480.00
G01 X21.8597 Y28.2090
G01 X21.8604 Y28.1845
G01 X21.8628 Y28.1354
G01 X21.8646 Y28.1110
G01 X21.8676 Y28.0866
G01 X21.8748 Y28.0380
G01 X21.8790 Y28.0139
G01 X21.8843 Y27.9899
G01 X21.8963 Y27.9423
G01 X21.9028 Y27.9186
G01 X21.9105 Y27.8953
G01 X21.9313 Y27.8376
G01 X21.9407 Y27.8149
G01 X21.9668 Y27.7594
G01 X21.9779 Y27.7375
G01 X21.9900 Y27.7161
G01 X22.0216 Y27.6636
G01 X22.0353 Y27.6432
G01 X22.0717 Y27.5938
G01 X22.0868 Y27.5744
G01 X22.1028 Y27.5559
G01 X22.1358 Y27.5195
G01 X22.1527 Y27.5017
G01 X37.5187 Y12.1357
G01 X37.5365 Y12.1188
G01 X37.5729 Y12.0858
G01 X37.5914 Y12.0698
G01 X37.6108 Y12.0547
G01 X37.6502 Y12.0255
G01 X37.6703 Y12.0113
G01 X37.6910 Y11.9982
G01 X37.7331 Y11.9730
G01 X37.7545 Y11.9609
G01 X37.7764 Y11.9498
G01 X37.8319 Y11.9237
G01 X37.8432 Y11.9189
G01 X37.8661 Y11.9101
G01 X37.9123 Y11.8935
G01 X37.9356 Y11.8858
G01 X37.9593 Y11.8793
G01 X38.0069 Y11.8673
G01 X38.0309 Y11.8620
G01 X38.0550 Y11.8578
G01 X38.1036 Y11.8506
G01 X38.1280 Y11.8476
G01 X38.1524 Y11.8458
G01 X38.2015 Y11.8434
G01 X38.2260 Y11.8427
G01 X63.1350 Y11.8427
G01 X63.1595 Y11.8434
G01 X63.2086 Y11.8458
G01 X63.2330 Y11.8476
G01 X63.2574 Y11.8506
G01 X63.3060 Y11.8578
G01 X63.3301 Y11.8620
G01 X63.3541 Y11.8673
G01 X63.4017 Y11.8793
G01 X63.4254 Y11.8858
G01 X63.4487 Y11.8935
G01 X63.4949 Y11.9101
G01 X63.5178 Y11.9189
G01 X63.5402 Y11.9288
G01 X63.5846 Y11.9498
G01 X63.6065 Y11.9609
G01 X63.6279 Y11.9730
G01 X63.6700 Y11.9982
G01 X63.6907 Y12.0113
G01 X63.7108 Y12.0255
G01 X63.7502 Y12.0547
G01 X63.7696 Y12.0698
G01 X63.7881 Y12.0858
G01 X63.8245 Y12.1188
G01 X63.8423 Y12.1357
G01 X65.9329 Y14.2265
G01 X65.9823 Y14.2811
G01 X65.9979 Y14.3000
G01 X66.0053 Y14.3098
G01 X66.0345 Y14.3492
G01 X66.0487 Y14.3693
G01 X66.0618 Y14.3900
G01 X66.0870 Y14.4321
G01 X66.0991 Y14.4535
G01 X66.1048 Y14.4644
G01 X66.1363 Y14.5309
G01 X66.1457 Y14.5536
G01 X66.1499 Y14.5651
G01 X66.1665 Y14.6113
G01 X66.1742 Y14.6346
G01 X66.1807 Y14.6583
G01 X66.1955 Y14.7179
G01 X66.1980 Y14.7299
G01 X66.2022 Y14.7540
G01 X66.2094 Y14.8026
G01 X66.2124 Y14.8270
G01 X66.2142 Y14.8514
G01 X66.2166 Y14.9005
G01 X66.2173 Y14.9250
G01 X66.2173 Y24.5187
G01 X67.3223 Y24.5189
G01 X67.3836 Y24.5218
G01 X67.4080 Y24.5236
G01 X67.4324 Y24.5266
G01 X67.4810 Y24.5338
G01 X67.5051 Y24.5380
G01 X67.5171 Y24.5405
G01 X67.5767 Y24.5553
G01 X67.6004 Y24.5618
G01 X67.6237 Y24.5695
G01 X67.6699 Y24.5861
G01 X67.6928 Y24.5949
G01 X67.7152 Y24.6048
G01 X67.7596 Y24.6258
G01 X67.7815 Y24.6369
G01 X67.7923 Y24.6428
G01 X67.8450 Y24.6742
G01 X67.8554 Y24.6806
G01 X67.8758 Y24.6943
G01 X67.9350 Y24.7381
G01 X67.9539 Y24.7537
G01 X67.9631 Y24.7618
G01 X67.9995 Y24.7948
G01 X68.0173 Y24.8117
G01 X68.0342 Y24.8295
G01 X68.0672 Y24.8659
G01 X68.0753 Y24.8751
G01 X68.0909 Y24.8940
G01 X68.1275 Y24.9432
G01 X68.1417 Y24.9633
G01 X68.1484 Y24.9736
G01 X68.1862 Y25.0367
G01 X68.1921 Y25.0475
G01 X68.2032 Y25.0694
G01 X68.2293 Y25.1249
G01 X68.2387 Y25.1476
G01 X68.2429 Y25.1591
G01 X68.2635 Y25.2169
G01 X68.2706 Y25.2404
G01 X68.2857 Y25.2999
G01 X68.2910 Y25.3239
G01 X68.2952 Y25.3480
G01 X68.3041 Y25.4088
G01 X68.3054 Y25.4210
G01 X68.3072 Y25.4454
G01 X68.3096 Y25.4945
G01 X68.3103 Y25.5190
G01 X68.3103 Y27.2213
G01 X68.3254 Y27.2641
G01 X68.3326 Y27.2876
G01 X68.3492 Y27.3533
G01 X68.3520 Y27.3652
G01 X68.3568 Y27.3893
G01 X68.3669 Y27.4563
G01 X68.3699 Y27.4806
G01 X68.3717 Y27.5051
G01 X68.3748 Y27.5727
G01 X68.3748 Y30.4673
G01 X68.3717 Y30.5349
G01 X68.3699 Y30.5594
G01 X68.3669 Y30.5837
G01 X68.3568 Y30.6507
G01 X68.3520 Y30.6748
G01 X68.3357 Y30.7405
G01 X68.3291 Y30.7642
G01 X68.3218 Y30.7863
G01 X69.4973 Y31.9617
G01 X85.5427 Y31.9617
G01 X86.4617 Y31.0427
G01 X86.4795 Y31.0258
G01 X86.5159 Y30.9928
G01 X86.5344 Y30.9768
G01 X86.5538 Y30.9617
G01 X86.5932 Y30.9325
G01 X86.6133 Y30.9183
G01 X86.6340 Y30.9052
G01 X86.6761 Y30.8800
G01 X86.6975 Y30.8679
G01 X86.7194 Y30.8568
G01 X86.7749 Y30.8307
G01 X86.7862 Y30.8259
G01 X86.8091 Y30.8171
G01 X86.8553 Y30.8005
G01 X86.8786 Y30.7928
G01 X86.9023 Y30.7863
G01 X86.9619 Y30.7715
G01 X86.9859 Y30.7667
G01 X86.9980 Y30.7648
G01 X87.0588 Y30.7559
G01 X87.0832 Y30.7535
G01 X87.1445 Y30.7504
G01 X87.1690 Y30.7497
G01 X88.5724 Y30.7497
G01 X88.6163 Y30.6908
G01 X88.6319 Y30.6718
G01 X88.7472 Y30.5446
G01 X88.7558 Y30.5358
G01 X88.7736 Y30.5189
G01 X88.8918 Y30.4119
G01 X88.9108 Y30.3963
G01 X88.9206 Y30.3889
G01 X89.0388 Y30.3012
G01 X89.0589 Y30.2871
G01 X89.0796 Y30.2739
G01 X89.2059 Y30.1983
G01 X89.2165 Y30.1921
G01 X89.2381 Y30.1805
G01 X89.3822 Y30.1122
G01 X89.4046 Y30.1022
G01 X89.4275 Y30.0934
G01 X89.5661 Y30.0438
G01 X89.5894 Y30.0361
G01 X89.6131 Y30.0296
G01 X89.7559 Y29.9938
G01 X89.7798 Y29.9884
G01 X89.8040 Y29.9842
G01 X89.9496 Y29.9626
G01 X89.9740 Y29.9596
G01 X89.9984 Y29.9578
G01 X90.1455 Y29.9506
G01 X90.1700 Y29.9500
G01 X90.1945 Y29.9506
G01 X90.3416 Y29.9578
G01 X90.3660 Y29.9596
G01 X90.3904 Y29.9626
G01 X90.5360 Y29.9842
G01 X90.5602 Y29.9884
G01 X90.5841 Y29.9938
G01 X90.7269 Y30.0296
G01 X90.7506 Y30.0361
G01 X90.7739 Y30.0438
G01 X90.9125 Y30.0934
G01 X90.9354 Y30.1022
G01 X90.9578 Y30.1122
G01 X91.0909 Y30.1751
G01 X91.1128 Y30.1862
G01 X91.1341 Y30.1983
G01 X91.2604 Y30.2739
G01 X91.2811 Y30.2871
G01 X91.3012 Y30.3012
G01 X91.4194 Y30.3889
G01 X91.4388 Y30.4040
G01 X91.4574 Y30.4200
G01 X91.5664 Y30.5189
G01 X91.5842 Y30.5358
G01 X91.6011 Y30.5536
G01 X91.7000 Y30.6626
G01 X91.7160 Y30.6812
G01 X91.7311 Y30.7006
G01 X91.8188 Y30.8188
G01 X91.8329 Y30.8389
G01 X91.8461 Y30.8596
G01 X91.9217 Y30.9859
G01 X91.9338 Y31.0072
G01 X91.9449 Y31.0291
G01 X92.0078 Y31.1622
G01 X92.0178 Y31.1846
G01 X92.0266 Y31.2075
G01 X92.0762 Y31.3461
G01 X92.0839 Y31.3694
G01 X92.0904 Y31.3931
G01 X92.1262 Y31.5359
G01 X92.1316 Y31.5598
G01 X92.1358 Y31.5840
G01 X92.1574 Y31.7296
G01 X92.1604 Y31.7540
G01 X92.1622 Y31.7784
G01 X92.1698 Y31.9377
G01 X92.1700 Y32.9500
G01 X92.1694 Y32.9745
G01 X92.1622 Y33.1216
G01 X92.1604 Y33.1460
G01 X92.1574 Y33.1704
G01 X92.1358 Y33.3160
G01 X92.1316 Y33.3402
G01 X92.1262 Y33.3641
G01 X92.0904 Y33.5069
G01 X92.0839 Y33.5306
G01 X92.0762 Y33.5539
G01 X92.0266 Y33.6925
G01 X92.0178 Y33.7154
G01 X92.0078 Y33.7378
G01 X91.9449 Y33.8709
G01 X91.9338 Y33.8928
G01 X91.9217 Y33.9141
G01 X91.8461 Y34.0404
G01 X91.8329 Y34.0611
G01 X91.8188 Y34.0812
G01 X91.7311 Y34.1994
G01 X91.7160 Y34.2188
G01 X91.7000 Y34.2374
G01 X91.6011 Y34.3464
G01 X91.5842 Y34.3642
G01 X91.5664 Y34.3811
G01 X91.4574 Y34.4800
G01 X91.4388 Y34.4960
G01 X91.4194 Y34.5111
G01 X91.3012 Y34.5988
G01 X91.2811 Y34.6129
G01 X91.2604 Y34.6261
G01 X91.1341 Y34.7017
G01 X91.1128 Y34.7138
G01 X91.0909 Y34.7249
G01 X90.9578 Y34.7878
G01 X90.9354 Y34.7978
G01 X90.9125 Y34.8066
G01 X90.7739 Y34.8562
G01 X90.7506 Y34.8639
G01 X90.7269 Y34.8704
G01 X90.5841 Y34.9062
G01 X90.5602 Y34.9116
G01 X90.5360 Y34.9158
G01 X90.3904 Y34.9374
G01 X90.3660 Y34.9404
G01 X90.3416 Y34.9422
G01 X90.1945 Y34.9494
G01 X90.1700 Y34.9500
G01 X90.1455 Y34.9494
G01 X89.9984 Y34.9422
G01 X89.9740 Y34.9404
G01 X89.9496 Y34.9374
G01 X89.8040 Y34.9158
G01 X89.7798 Y34.9116
G01 X89.7559 Y34.9062
G01 X89.6131 Y34.8704
G01 X89.5894 Y34.8639
G01 X89.5661 Y34.8562
G01 X89.4275 Y34.8066
G01 X89.4046 Y34.7978
G01 X89.3822 Y34.7878
G01 X89.2491 Y34.7249
G01 X89.2272 Y34.7138
G01 X89.2059 Y34.7017
G01 X89.0796 Y34.6261
G01 X89.0589 Y34.6129
G01 X89.0388 Y34.5988
G01 X88.9206 Y34.5111
G01 X88.9012 Y34.4960
G01 X88.8826 Y34.4800
G01 X88.7736 Y34.3811
G01 X88.7558 Y34.3642
G01 X88.7389 Y34.3464
G01 X88.6400 Y34.2374
G01 X88.6240 Y34.2188
G01 X88.6089 Y34.1994
G01 X88.5212 Y34.0812
G01 X88.5071 Y34.0611
G01 X88.4939 Y34.0404
G01 X88.4183 Y33.9141
G01 X88.4062 Y33.8928
G01 X88.3951 Y33.8709
G01 X88.3322 Y33.7378
G01 X88.3222 Y33.7154
G01 X88.3134 Y33.6925
G01 X88.2638 Y33.5539
G01 X88.2561 Y33.5306
G01 X88.2496 Y33.5069
G01 X88.2138 Y33.3641
G01 X88.2084 Y33.3402
G01 X88.2042 Y33.3160
G01 X88.1810 Y33.1582
G01 X88.1786 Y33.1338
G01 X88.1778 Y33.1216
G01 X88.1702 Y32.9623
G01 X88.1700 Y32.7503
G01 X87.5833 Y32.7503
G01 X86.6643 Y33.6693
G01 X86.6465 Y33.6862
G01 X86.6101 Y33.7192
G01 X86.6009 Y33.7273
G01 X86.5820 Y33.7429
G01 X86.5328 Y33.7795
G01 X86.5127 Y33.7937
G01 X86.4920 Y33.8068
G01 X86.4499 Y33.8320
G01 X86.4285 Y33.8441
G01 X86.4176 Y33.8498
G01 X86.3622 Y33.8762
G01 X86.3398 Y33.8861
G01 X86.3169 Y33.8949
G01 X86.2707 Y33.9115
G01 X86.2474 Y33.9192
G01 X86.2237 Y33.9257
G01 X86.1761 Y33.9377
G01 X86.1521 Y33.9430
G01 X86.1280 Y33.9472
G01 X86.0672 Y33.9561
G01 X86.0428 Y33.9585
G01 X85.9815 Y33.9616
G01 X85.9570 Y33.9623
G01 X69.0830 Y33.9623
G01 X69.0585 Y33.9616
G01 X69.0094 Y33.9592
G01 X68.9850 Y33.9574
G01 X68.9728 Y33.9561
G01 X68.8999 Y33.9453
G01 X68.8759 Y33.9405
G01 X68.8639 Y33.9377
G01 X68.8163 Y33.9257
G01 X68.7926 Y33.9192
G01 X68.7693 Y33.9115
G01 X68.7231 Y33.8949
G01 X68.7116 Y33.8907
G01 X68.6889 Y33.8813
G01 X68.6334 Y33.8552
G01 X68.6115 Y33.8441
G01 X68.5901 Y33.8320
G01 X68.5376 Y33.8004
G01 X68.5172 Y33.7867
G01 X68.5072 Y33.7795
G01 X68.4678 Y33.7503
G01 X68.4484 Y33.7352
G01 X68.4299 Y33.7192
G01 X68.3845 Y33.6779
G01 X66.5941 Y31.8875
G01 X66.5528 Y31.8421
G01 X66.5368 Y31.8236
G01 X66.5291 Y31.8140
G01 X66.4853 Y31.7548
G01 X66.4783 Y31.7447
G01 X66.4652 Y31.7240
G01 X66.4338 Y31.6713
G01 X66.4279 Y31.6605
G01 X66.4168 Y31.6386
G01 X66.3958 Y31.5942
G01 X66.3859 Y31.5718
G01 X66.3771 Y31.5489
G01 X66.3605 Y31.5027
G01 X66.3565 Y31.4911
G01 X66.3494 Y31.4676
G01 X66.3343 Y31.4081
G01 X66.3290 Y31.3841
G01 X66.3248 Y31.3600
G01 X66.3176 Y31.3114
G01 X66.3159 Y31.2992
G01 X66.3135 Y31.2748
G01 X66.3104 Y31.2135
G01 X66.3097 Y31.1890
G01 X66.3097 Y30.8187
G01 X66.2946 Y30.7759
G01 X66.2874 Y30.7524
G01 X66.2708 Y30.6867
G01 X66.2680 Y30.6748
G01 X66.2632 Y30.6507
G01 X66.2531 Y30.5837
G01 X66.2501 Y30.5594
G01 X66.2483 Y30.5349
G01 X66.2456 Y30.4795
G01 X66.2450 Y30.4550
G01 X66.2452 Y27.5727
G01 X66.2483 Y27.5051
G01 X66.2501 Y27.4806
G01 X66.2531 Y27.4563
G01 X66.2632 Y27.3893
G01 X66.2655 Y27.3772
G01 X66.2708 Y27.3533
G01 X66.2874 Y27.2876
G01 X66.2946 Y27.2641
G01 X66.3097 Y27.2213
G01 X66.3097 Y26.5193
G01 X61.6773 Y26.5193
G01 X59.5493 Y28.6473
G01 X59.5315 Y28.6642
G01 X59.4859 Y28.7053
G01 X59.4670 Y28.7209
G01 X59.4178 Y28.7575
G01 X59.3977 Y28.7717
G01 X59.3770 Y28.7848
G01 X59.3349 Y28.8100
G01 X59.3135 Y28.8221
G01 X59.2916 Y28.8332
G01 X59.2472 Y28.8542
G01 X59.2248 Y28.8641
G01 X59.2019 Y28.8729
G01 X59.1557 Y28.8895
G01 X59.1324 Y28.8972
G01 X59.1087 Y28.9037
G01 X59.0611 Y28.9157
G01 X59.0371 Y28.9210
G01 X59.0130 Y28.9252
G01 X58.9522 Y28.9341
G01 X58.9278 Y28.9365
G01 X58.8665 Y28.9396
G01 X58.8420 Y28.9403
G01 X41.9100 Y28.9403
G01 X41.6977 Y28.9398
G01 X41.6242 Y28.9362
G01 X41.5998 Y28.9338
G01 X41.5876 Y28.9322
G01 X41.5391 Y28.9250
G01 X41.5149 Y28.9208
G01 X41.4910 Y28.9154
G01 X41.4434 Y28.9035
G01 X41.4315 Y28.9004
G01 X41.4080 Y28.8932
G01 X41.3387 Y28.8684
G01 X41.3160 Y28.8590
G01 X41.3049 Y28.8539
G01 X41.2605 Y28.8330
G01 X41.2386 Y28.8219
G01 X41.2173 Y28.8098
G01 X41.1752 Y28.7846
G01 X41.1647 Y28.7782
G01 X41.1443 Y28.7645
G01 X41.0852 Y28.7207
G01 X41.0662 Y28.7051
G01 X41.0570 Y28.6970
G01 X41.0207 Y28.6640
G01 X41.0029 Y28.6471
G01 X40.9860 Y28.6293
G01 X40.9530 Y28.5930
G01 X40.9449 Y28.5838
G01 X40.9293 Y28.5648
G01 X40.8927 Y28.5156
G01 X40.8785 Y28.4956
G01 X40.8654 Y28.4748
G01 X40.8340 Y28.4221
G01 X40.8224 Y28.4005
G01 X40.8170 Y28.3895
G01 X40.7961 Y28.3451
G01 X40.7861 Y28.3227
G01 X40.7773 Y28.2998
G01 X40.7608 Y28.2536
G01 X40.7531 Y28.2303
G01 X40.7496 Y28.2185
G01 X40.7346 Y28.1590
G01 X40.7292 Y28.1351
G01 X40.7250 Y28.1109
G01 X40.7178 Y28.0624
G01 X40.7148 Y28.0380
G01 X40.7138 Y28.0258
G01 X40.7102 Y27.9523
G01 X40.7100 Y27.9400
G01 X40.7106 Y27.9155
G01 X40.7130 Y27.8665
G01 X40.7148 Y27.8420
G01 X40.7178 Y27.8176
G01 X40.7270 Y27.7570
G01 X40.7292 Y27.7449
G01 X40.7346 Y27.7210
G01 X40.7465 Y27.6734
G01 X40.7531 Y27.6497
G01 X40.7608 Y27.6264
G01 X40.7816 Y27.5687
G01 X40.7861 Y27.5573
G01 X40.7961 Y27.5349
G01 X40.8170 Y27.4905
G01 X40.8281 Y27.4686
G01 X40.8402 Y27.4473
G01 X40.8654 Y27.4052
G01 X40.8718 Y27.3947
G01 X40.8855 Y27.3743
G01 X40.9219 Y27.3250
G01 X40.9370 Y27.3056
G01 X40.9530 Y27.2870
G01 X40.9943 Y27.2417
G01 X41.0117 Y27.2243
G01 X41.0207 Y27.2160
G01 X41.0570 Y27.1830
G01 X41.0756 Y27.1670
G01 X41.0950 Y27.1519
G01 X41.1344 Y27.1227
G01 X41.1544 Y27.1085
G01 X41.1647 Y27.1018
G01 X41.2173 Y27.0702
G01 X41.2386 Y27.0581
G01 X41.2605 Y27.0470
G01 X41.3049 Y27.0261
G01 X41.3273 Y27.0161
G01 X41.3387 Y27.0116
G01 X41.3964 Y26.9908
G01 X41.4197 Y26.9831
G01 X41.4434 Y26.9765
G01 X41.4910 Y26.9646
G01 X41.5149 Y26.9592
G01 X41.5270 Y26.9570
G01 X41.5876 Y26.9478
G01 X41.6120 Y26.9448
G01 X41.6365 Y26.9430
G01 X41.6977 Y26.9402
G01 X41.9100 Y26.9397
G01 X58.4277 Y26.9397
G01 X60.5645 Y24.8031
G01 X60.6099 Y24.7618
G01 X60.6284 Y24.7458
G01 X60.6478 Y24.7307
G01 X60.6872 Y24.7015
G01 X60.7073 Y24.6873
G01 X60.7280 Y24.6742
G01 X60.7701 Y24.6490
G01 X60.7915 Y24.6369
G01 X60.8134 Y24.6258
G01 X60.8578 Y24.6048
G01 X60.8802 Y24.5949
G01 X60.9031 Y24.5861
G01 X60.9493 Y24.5695
G01 X60.9726 Y24.5618
G01 X60.9963 Y24.5553
G01 X61.0439 Y24.5433
G01 X61.0679 Y24.5380
G01 X61.0920 Y24.5338
G01 X61.1406 Y24.5266
G01 X61.1650 Y24.5236
G01 X61.1894 Y24.5218
G01 X61.2507 Y24.5189
G01 X64.2167 Y24.5187
G01 X64.2167 Y15.3393
G01 X62.7207 Y13.8433
G01 X38.6403 Y13.8433
G01 X23.8603 Y28.6233
G01 X23.8603 Y29.8206
G01 X23.8945 Y29.8932
G01 X23.8994 Y29.9045
G01 X23.9082 Y29.9274
G01 X23.9289 Y29.9851
G01 X23.9366 Y30.0084
G01 X23.9431 Y30.0321
G01 X23.9580 Y30.0916
G01 X23.9608 Y30.1035
G01 X23.9656 Y30.1276
G01 X23.9782 Y30.2125
G01 X23.9796 Y30.2247
G01 X23.9814 Y30.2492
G01 X23.9848 Y30.3227
G01 X23.9850 Y33.0850
G01 X23.9844 Y33.1095
G01 X23.9814 Y33.1708
G01 X23.9806 Y33.1830
G01 X23.9782 Y33.2075
G01 X23.9676 Y33.2803
G01 X23.9634 Y33.3045
G01 X23.9580 Y33.3284
G01 X23.9431 Y33.3879
G01 X23.9366 Y33.4116
G01 X23.9329 Y33.4233
G01 X23.9082 Y33.4926
G01 X23.8994 Y33.5155
G01 X23.8894 Y33.5380
G01 X23.8578 Y33.6044
G01 X23.8462 Y33.6261
G01 X23.8401 Y33.6367
G01 X23.8085 Y33.6893
G01 X23.7954 Y33.7100
G01 X23.7813 Y33.7301
G01 X23.7447 Y33.7793
G01 X23.7296 Y33.7987
G01 X23.7136 Y33.8173
G01 X23.6724 Y33.8627
G01 X23.6555 Y33.8805
G01 X23.6377 Y33.8974
G01 X23.5923 Y33.9386
G01 X23.5737 Y33.9546
G01 X23.5641 Y33.9623
G01 X23.5051 Y34.0063
G01 X23.4850 Y34.0204
G01 X23.4643 Y34.0335
G01 X23.4117 Y34.0651
G01 X23.3903 Y34.0772
G01 X23.3684 Y34.0882
G01 X23.3130 Y34.1144
G01 X23.3018 Y34.1195
G01 X23.2791 Y34.1289
G01 X23.2099 Y34.1539
G01 X23.1866 Y34.1616
G01 X23.1629 Y34.1681
G01 X23.1034 Y34.1830
G01 X23.0795 Y34.1884
G01 X23.0553 Y34.1926
G01 X22.9946 Y34.2016
G01 X22.9703 Y34.2046
G01 X22.9458 Y34.2064
G01 X22.8845 Y34.2094
G01 X22.8600 Y34.2100
G01 X22.8355 Y34.2094
G01 X22.7742 Y34.2064
G01 X22.7497 Y34.2046
G01 X22.7254 Y34.2016
G01 X22.6647 Y34.1926
G01 X22.6405 Y34.1884
G01 X22.6166 Y34.1830
G01 X22.5571 Y34.1681
G01 X22.5334 Y34.1616
G01 X22.5101 Y34.1539
G01 X22.4524 Y34.1332
G01 X22.4295 Y34.1244
G01 X22.4070 Y34.1144
G01 X22.3516 Y34.0882
G01 X22.3297 Y34.0772
G01 X22.3083 Y34.0651
G01 X22.2557 Y34.0335
G01 X22.2350 Y34.0204
G01 X22.2149 Y34.0063
G01 X22.1657 Y33.9697
G01 X22.1463 Y33.9546
G01 X22.1277 Y33.9386
G01 X22.0823 Y33.8974
G01 X22.0645 Y33.8805
G01 X22.0476 Y33.8627
G01 X22.0064 Y33.8173
G01 X21.9904 Y33.7987
G01 X21.9753 Y33.7793
G01 X21.9387 Y33.7301
G01 X21.9246 Y33.7100
G01 X21.9115 Y33.6893
G01 X21.8799 Y33.6367
G01 X21.8678 Y33.6153
G01 X21.8568 Y33.5934
G01 X21.8306 Y33.5380
G01 X21.8206 Y33.5155
G01 X21.8118 Y33.4926
G01 X21.7911 Y33.4349
G01 X21.7834 Y33.4116
G01 X21.7769 Y33.3879
G01 X21.7592 Y33.3165
G01 X21.7544 Y33.2924
G01 X21.7524 Y33.2803
G01 X21.7434 Y33.2196
G01 X21.7404 Y33.1953
G01 X21.7386 Y33.1708
G01 X21.7352 Y33.0973
G01 X21.7352 Y30.3227
G01 X21.7386 Y30.2492
G01 X21.7404 Y30.2247
G01 X21.7418 Y30.2125
G01 X21.7544 Y30.1276
G01 X21.7566 Y30.1155
G01 X21.7620 Y30.0916
G01 X21.7769 Y30.0321
G01 X21.7834 Y30.0084
G01 X21.7911 Y29.9851
G01 X21.8118 Y29.9274
G01 X21.8206 Y29.9045
G01 X21.8255 Y29.8932
G01 X21.8597 Y29.8206
G00 Z2.0000
G00 X36.5700 Y29.4800
G01 F240.00
G01 Z-0.2000
G01 F480.00
G01 X39.5823 Y29.4802
G01 X39.6435 Y29.4830
G01 X39.6680 Y29.4848
G01 X39.6924 Y29.4878
G01 X39.7530 Y29.4970
G01 X39.7771 Y29.5018
G01 X39.8366 Y29.5165
G01 X39.8485 Y29.5196
G01 X39.8720 Y29.5268
G01 X39.9413 Y29.5516
G01 X39.9640 Y29.5610
G01 X40.0305 Y29.5924
G01 X40.0521 Y29.6040
G01 X40.1153 Y29.6418
G01 X40.1357 Y29.6555
G01 X40.1948 Y29.6993
G01 X40.2138 Y29.7149
G01 X40.2683 Y29.7643
G01 X40.2857 Y29.7817
G01 X40.3351 Y29.8362
G01 X40.3507 Y29.8552
G01 X40.3945 Y29.9143
G01 X40.4082 Y29.9347
G01 X40.4460 Y29.9979
G01 X40.4576 Y30.0195
G01 X40.4890 Y30.0860
G01 X40.4984 Y30.1087
G01 X40.5232 Y30.1780
G01 X40.5304 Y30.2015
G01 X40.5482 Y30.2729
G01 X40.5530 Y30.2970
G01 X40.5638 Y30.3698
G01 X40.5662 Y30.3942
G01 X40.5698 Y30.4677
G01 X40.5698 Y30.4923
G01 X40.5662 Y30.5658
G01 X40.5638 Y30.5902
G01 X40.5530 Y30.6630
G01 X40.5482 Y30.6871
G01 X40.5304 Y30.7585
G01 X40.5232 Y30.7820
G01 X40.5027 Y30.8398
G01 X40.4939 Y30.8627
G01 X40.4839 Y30.8851
G01 X40.4630 Y30.9295
G01 X40.4576 Y30.9405
G01 X40.4460 Y30.9621
G01 X40.4146 Y31.0148
G01 X40.4015 Y31.0356
G01 X40.3873 Y31.0556
G01 X40.3507 Y31.1048
G01 X40.3430 Y31.1144
G01 X40.3270 Y31.1330
G01 X40.2940 Y31.1693
G01 X40.2771 Y31.1871
G01 X40.2593 Y31.2040
G01 X40.2138 Y31.2451
G01 X40.1948 Y31.2607
G01 X40.1456 Y31.2973
G01 X40.1256 Y31.3115
G01 X40.1153 Y31.3182
G01 X40.0627 Y31.3498
G01 X40.0414 Y31.3619
G01 X40.0195 Y31.3730
G01 X39.9751 Y31.3939
G01 X39.9527 Y31.4039
G01 X39.9413 Y31.4084
G01 X39.8836 Y31.4292
G01 X39.8603 Y31.4369
G01 X39.8366 Y31.4435
G01 X39.7771 Y31.4582
G01 X39.7530 Y31.4630
G01 X39.7409 Y31.4650
G01 X39.6924 Y31.4722
G01 X39.6680 Y31.4752
G01 X39.6435 Y31.4770
G01 X39.5945 Y31.4794
G01 X39.5700 Y31.4800
G01 X36.5700 Y31.4800
G01 X36.5455 Y31.4794
G01 X36.4965 Y31.4770
G01 X36.4720 Y31.4752
G01 X36.4476 Y31.4722
G01 X36.3991 Y31.4650
G01 X36.3749 Y31.4608
G01 X36.3510 Y31.4554
G01 X36.2915 Y31.4404
G01 X36.2680 Y31.4332
G01 X36.2102 Y31.4127
G01 X36.1873 Y31.4039
G01 X36.1649 Y31.3939
G01 X36.1205 Y31.3730
G01 X36.0986 Y31.3619
G01 X36.0773 Y31.3498
G01 X36.0352 Y31.3246
G01 X36.0144 Y31.3115
G01 X35.9944 Y31.2973
G01 X35.9452 Y31.2607
G01 X35.9262 Y31.2451
G01 X35.8717 Y31.1957
G01 X35.8543 Y31.1783
G01 X35.8130 Y31.1330
G01 X35.7970 Y31.1144
G01 X35.7893 Y31.1048
G01 X35.7527 Y31.0556
G01 X35.7385 Y31.0356
G01 X35.7254 Y31.0148
G01 X35.7002 Y30.9727
G01 X35.6881 Y30.9514
G01 X35.6770 Y30.9295
G01 X35.6561 Y30.8851
G01 X35.6461 Y30.8627
G01 X35.6373 Y30.8398
G01 X35.6208 Y30.7936
G01 X35.6131 Y30.7703
G01 X35.6065 Y30.7466
G01 X35.5946 Y30.6990
G01 X35.5892 Y30.6751
G01 X35.5850 Y30.6509
G01 X35.5778 Y30.6024
G01 X35.5748 Y30.5780
G01 X35.5730 Y30.5535
G01 X35.5706 Y30.5045
G01 X35.5700 Y30.4800
G01 X35.5706 Y30.4555
G01 X35.5730 Y30.4065
G01 X35.5748 Y30.3820
G01 X35.5778 Y30.3576
G01 X35.5850 Y30.3091
G01 X35.5870 Y30.2970
G01 X35.5918 Y30.2729
G01 X35.6065 Y30.2134
G01 X35.6131 Y30.1897
G01 X35.6208 Y30.1664
G01 X35.6416 Y30.1087
G01 X35.6510 Y30.0860
G01 X35.6824 Y30.0195
G01 X35.6940 Y29.9979
G01 X35.7254 Y29.9452
G01 X35.7385 Y29.9244
G01 X35.7527 Y29.9044
G01 X35.7819 Y29.8650
G01 X35.7970 Y29.8456
G01 X35.8130 Y29.8270
G01 X35.8460 Y29.7907
G01 X35.8629 Y29.7729
G01 X35.8807 Y29.7560
G01 X35.9262 Y29.7149
G01 X35.9452 Y29.6993
G01 X36.0043 Y29.6555
G01 X36.0247 Y29.6418
G01 X36.0773 Y29.6102
G01 X36.0986 Y29.5981
G01 X36.1095 Y29.5924
G01 X36.1649 Y29.5661
G01 X36.1873 Y29.5561
G01 X36.2102 Y29.5473
G01 X36.2564 Y29.5308
G01 X36.2797 Y29.5231
G01 X36.3034 Y29.5165
G01 X36.3510 Y29.5046
G01 X36.3749 Y29.4992
G01 X36.3991 Y29.4950
G01 X36.4476 Y29.4878
G01 X36.4720 Y29.4848
G01 X36.4965 Y29.4830
G01 X36.5455 Y29.4806
G01 X36.5700 Y29.4800
G00 Z2.0000
G00 X36.5700 Y26.9400
G01 F240.00
G01 Z-0.2000
G01 F480.00
G01 X39.5823 Y26.9402
G01 X39.6435 Y26.9430
G01 X39.6680 Y26.9448
G01 X39.6924 Y26.9478
G01 X39.7530 Y26.9570
G01 X39.7771 Y26.9618
G01 X39.8366 Y26.9765
G01 X39.8603 Y26.9831
G01 X39.8720 Y26.9868
G01 X39.9413 Y27.0116
G01 X39.9640 Y27.0210
G01 X40.0305 Y27.0524
G01 X40.0521 Y27.0640
G01 X40.1153 Y27.1018
G01 X40.1357 Y27.1155
G01 X40.1948 Y27.1593
G01 X40.2138 Y27.1749
G01 X40.2683 Y27.2243
G01 X40.2857 Y27.2417
G01 X40.3351 Y27.2962
G01 X40.3507 Y27.3152
G01 X40.3945 Y27.3743
G01 X40.4082 Y27.3947
G01 X40.4460 Y27.4579
G01 X40.4576 Y27.4795
G01 X40.4890 Y27.5460
G01 X40.4984 Y27.5687
G01 X40.5232 Y27.6380
G01 X40.5304 Y27.6615
G01 X40.5482 Y27.7329
G01 X40.5530 Y27.7570
G01 X40.5638 Y27.8298
G01 X40.5662 Y27.8542
G01 X40.5698 Y27.9277
G01 X40.5698 Y27.9523
G01 X40.5662 Y28.0258
G01 X40.5638 Y28.0502
G01 X40.5530 Y28.1230
G01 X40.5482 Y28.1471
G01 X40.5304 Y28.2185
G01 X40.5232 Y28.2420
G01 X40.5027 Y28.2998
G01 X40.4939 Y28.3227
G01 X40.4839 Y28.3451
G01 X40.4630 Y28.3895
G01 X40.4519 Y28.4114
G01 X40.4460 Y28.4221
G01 X40.4146 Y28.4748
G01 X40.4015 Y28.4956
G01 X40.3873 Y28.5156
G01 X40.3507 Y28.5648
G01 X40.3351 Y28.5838
G01 X40.3270 Y28.5930
G01 X40.2940 Y28.6293
G01 X40.2771 Y28.6471
G01 X40.2593 Y28.6640
G01 X40.2138 Y28.7051
G01 X40.1948 Y28.7207
G01 X40.1456 Y28.7573
G01 X40.1256 Y28.7715
G01 X40.1153 Y28.7782
G01 X40.0627 Y28.8098
G01 X40.0414 Y28.8219
G01 X40.0195 Y28.8330
G01 X39.9751 Y28.8539
G01 X39.9527 Y28.8639
G01 X39.9413 Y28.8684
G01 X39.8836 Y28.8892
G01 X39.8603 Y28.8969
G01 X39.8366 Y28.9035
G01 X39.7771 Y28.9182
G01 X39.7530 Y28.9230
G01 X39.7409 Y28.9250
G01 X39.6924 Y28.9322
G01 X39.6680 Y28.9352
G01 X39.6435 Y28.9370
G01 X39.5945 Y28.9394
G01 X39.5700 Y28.9400
G01 X36.5700 Y28.9400
G01 X36.5455 Y28.9394
G01 X36.4965 Y28.9370
G01 X36.4720 Y28.9352
G01 X36.4476 Y28.9322
G01 X36.3991 Y28.9250
G01 X36.3749 Y28.9208
G01 X36.3510 Y28.9154
G01 X36.2915 Y28.9004
G01 X36.2680 Y28.8932
G01 X36.2102 Y28.8727
G01 X36.1873 Y28.8639
G01 X36.1649 Y28.8539
G01 X36.1205 Y28.8330
G01 X36.0986 Y28.8219
G01 X36.0773 Y28.8098
G01 X36.0352 Y28.7846
G01 X36.0144 Y28.7715
G01 X35.9944 Y28.7573
G01 X35.9452 Y28.7207
G01 X35.9262 Y28.7051
G01 X35.8717 Y28.6557
G01 X35.8543 Y28.6383
G01 X35.8130 Y28.5930
G01 X35.8049 Y28.5838
G01 X35.7893 Y28.5648
G01 X35.7527 Y28.5156
G01 X35.7385 Y28.4956
G01 X35.7254 Y28.4748
G01 X35.7002 Y28.4327
G01 X35.6881 Y28.4114
G01 X35.6770 Y28.3895
G01 X35.6561 Y28.3451
G01 X35.6461 Y28.3227
G01 X35.6373 Y28.2998
G01 X35.6208 Y28.2536
G01 X35.6131 Y28.2303
G01 X35.6065 Y28.2066
G01 X35.5946 Y28.1590
G01 X35.5892 Y28.1351
G01 X35.5850 Y28.1109
G01 X35.5778 Y28.0624
G01 X35.5748 Y28.0380
G01 X35.5730 Y28.0135
G01 X35.5706 Y27.9645
G01 X35.5700 Y27.9400
G01 X35.5706 Y27.9155
G01 X35.5730 Y27.8665
G01 X35.5748 Y27.8420
G01 X35.5778 Y27.8176
G01 X35.5850 Y27.7691
G01 X35.5870 Y27.7570
G01 X35.5918 Y27.7329
G01 X35.6065 Y27.6734
G01 X35.6131 Y27.6497
G01 X35.6208 Y27.6264
G01 X35.6416 Y27.5687
G01 X35.6510 Y27.5460
G01 X35.6824 Y27.4795
G01 X35.6940 Y27.4579
G01 X35.7254 Y27.4052
G01 X35.7385 Y27.3844
G01 X35.7527 Y27.3644
G01 X35.7819 Y27.3250
G01 X35.7970 Y27.3056
G01 X35.8130 Y27.2870
G01 X35.8460 Y27.2507
G01 X35.8629 Y27.2329
G01 X35.8807 Y27.2160
G01 X35.9262 Y27.1749
G01 X35.9452 Y27.1593
G01 X36.0043 Y27.1155
G01 X36.0247 Y27.1018
G01 X36.0773 Y27.0702
G01 X36.0986 Y27.0581
G01 X36.1095 Y27.0524
G01 X36.1649 Y27.0261
G01 X36.1873 Y27.0161
G01 X36.2102 Y27.0073
G01 X36.2564 Y26.9908
G01 X36.2797 Y26.9831
G01 X36.3034 Y26.9765
G01 X36.3510 Y26.9646
G01 X36.3749 Y26.9592
G01 X36.3991 Y26.9550
G01 X36.4476 Y26.9478
G01 X36.4720 Y26.9448
G01 X36.4965 Y26.9430
G01 X36.5455 Y26.9406
G01 X36.5700 Y26.9400
G00 Z2.0000
G00 X36.5700 Y24.4000
G01 F240.00
G01 Z-0.2000
G01 F480.00
G01 X39.5823 Y24.4002
G01 X39.6435 Y24.4030
G01 X39.6680 Y24.4048
G01 X39.6924 Y24.4078
G01 X39.7530 Y24.4170
G01 X39.7771 Y24.4218
G01 X39.8366 Y24.4365
G01 X39.8485 Y24.4396
G01 X39.8720 Y24.4468
G01 X39.9413 Y24.4716
G01 X39.9640 Y24.4810
G01 X40.0305 Y24.5124
G01 X40.0521 Y24.5240
G01 X40.1153 Y24.5618
G01 X40.1357 Y24.5755
G01 X40.1948 Y24.6193
G01 X40.2138 Y24.6349
G01 X40.2683 Y24.6843
G01 X40.2857 Y24.7017
G01 X40.3351 Y24.7562
G01 X40.3507 Y24.7752
G01 X40.3945 Y24.8343
G01 X40.4082 Y24.8547
G01 X40.4460 Y24.9179
G01 X40.4576 Y24.9395
G01 X40.4890 Y25.0060
G01 X40.4984 Y25.0287
G01 X40.5232 Y25.0980
G01 X40.5304 Y25.1215
G01 X40.5482 Y25.1929
G01 X40.5530 Y25.2170
G01 X40.5638 Y25.2898
G01 X40.5662 Y25.3142
G01 X40.5698 Y25.3877
G01 X40.5698 Y25.4123
G01 X40.5662 Y25.4858
G01 X40.5638 Y25.5102
G01 X40.5530 Y25.5830
G01 X40.5482 Y25.6071
G01 X40.5304 Y25.6785
G01 X40.5232 Y25.7020
G01 X40.5027 Y25.7598
G01 X40.4939 Y25.7827
G01 X40.4839 Y25.8051
G01 X40.4630 Y25.8495
G01 X40.4576 Y25.8605
G01 X40.4460 Y25.8821
G01 X40.4146 Y25.9348
G01 X40.4015 Y25.9556
G01 X40.3873 Y25.9756
G01 X40.3507 Y26.0248
G01 X40.3351 Y26.0438
G01 X40.3270 Y26.0530
G01 X40.2940 Y26.0893
G01 X40.2771 Y26.1071
G01 X40.2593 Y26.1240
G01 X40.2138 Y26.1651
G01 X40.1948 Y26.1807
G01 X40.1456 Y26.2173
G01 X40.1357 Y26.2245
G01 X40.1153 Y26.2382
G01 X40.0627 Y26.2698
G01 X40.0414 Y26.2819
G01 X40.0195 Y26.2930
G01 X39.9751 Y26.3139
G01 X39.9527 Y26.3239
G01 X39.9413 Y26.3284
G01 X39.8836 Y26.3492
G01 X39.8603 Y26.3569
G01 X39.8366 Y26.3635
G01 X39.7771 Y26.3782
G01 X39.7651 Y26.3808
G01 X39.7409 Y26.3850
G01 X39.6924 Y26.3922
G01 X39.6680 Y26.3952
G01 X39.6435 Y26.3970
G01 X39.5945 Y26.3994
G01 X39.5700 Y26.4000
G01 X36.5700 Y26.4000
G01 X36.5455 Y26.3994
G01 X36.4965 Y26.3970
G01 X36.4720 Y26.3952
G01 X36.4476 Y26.3922
G01 X36.3991 Y26.3850
G01 X36.3749 Y26.3808
G01 X36.3510 Y26.3754
G01 X36.2915 Y26.3604
G01 X36.2680 Y26.3532
G01 X36.2102 Y26.3327
G01 X36.1873 Y26.3239
G01 X36.1649 Y26.3139
G01 X36.1205 Y26.2930
G01 X36.0986 Y26.2819
G01 X36.0773 Y26.2698
G01 X36.0352 Y26.2446
G01 X36.0144 Y26.2315
G01 X35.9944 Y26.2173
G01 X35.9452 Y26.1807
G01 X35.9262 Y26.1651
G01 X35.8717 Y26.1157
G01 X35.8543 Y26.0983
G01 X35.8130 Y26.0530
G01 X35.8049 Y26.0438
G01 X35.7893 Y26.0248
G01 X35.7527 Y25.9756
G01 X35.7385 Y25.9556
G01 X35.7254 Y25.9348
G01 X35.7002 Y25.8927
G01 X35.6881 Y25.8714
G01 X35.6770 Y25.8495
G01 X35.6561 Y25.8051
G01 X35.6461 Y25.7827
G01 X35.6373 Y25.7598
G01 X35.6208 Y25.7136
G01 X35.6131 Y25.6903
G01 X35.6065 Y25.6666
G01 X35.5946 Y25.6190
G01 X35.5892 Y25.5951
G01 X35.5850 Y25.5709
G01 X35.5778 Y25.5224
G01 X35.5748 Y25.4980
G01 X35.5730 Y25.4735
G01 X35.5706 Y25.4245
G01 X35.5700 Y25.4000
G01 X35.5706 Y25.3755
G01 X35.5730 Y25.3265
G01 X35.5748 Y25.3020
G01 X35.5778 Y25.2776
G01 X35.5850 Y25.2291
G01 X35.5892 Y25.2049
G01 X35.5918 Y25.1929
G01 X35.6065 Y25.1334
G01 X35.6131 Y25.1097
G01 X35.6208 Y25.0864
G01 X35.6416 Y25.0287
G01 X35.6510 Y25.0060
G01 X35.6824 Y24.9395
G01 X35.6940 Y24.9179
G01 X35.7254 Y24.8652
G01 X35.7385 Y24.8444
G01 X35.7527 Y24.8244
G01 X35.7819 Y24.7850
G01 X35.7970 Y24.7656
G01 X35.8130 Y24.7470
G01 X35.8460 Y24.7107
G01 X35.8629 Y24.6929
G01 X35.8807 Y24.6760
G01 X35.9262 Y24.6349
G01 X35.9452 Y24.6193
G01 X36.0043 Y24.5755
G01 X36.0247 Y24.5618
G01 X36.0773 Y24.5302
G01 X36.0986 Y24.5181
G01 X36.1095 Y24.5124
G01 X36.1649 Y24.4861
G01 X36.1873 Y24.4761
G01 X36.2102 Y24.4673
G01 X36.2564 Y24.4508
G01 X36.2797 Y24.4431
G01 X36.3034 Y24.4365
G01 X36.3510 Y24.4246
G01 X36.3749 Y24.4192
G01 X36.3991 Y24.4150
G01 X36.4476 Y24.4078
G01 X36.4720 Y24.4048
G01 X36.4965 Y24.4030
G01 X36.5455 Y24.4006
G01 X36.5700 Y24.4000
G00 Z2.0000
G00 X36.5700 Y21.8600
G01 F240.00
G01 Z-0.2000
G01 F480.00
G01 X39.5823 Y21.8602
G01 X39.6435 Y21.8630
G01 X39.6680 Y21.8648
G01 X39.6924 Y21.8678
G01 X39.7530 Y21.8770
G01 X39.7771 Y21.8818
G01 X39.8366 Y21.8965
G01 X39.8485 Y21.8996
G01 X39.8720 Y21.9068
G01 X39.9413 Y21.9316
G01 X39.9640 Y21.9410
G01 X40.0305 Y21.9724
G01 X40.0521 Y21.9840
G01 X40.1153 Y22.0218
G01 X40.1357 Y22.0355
G01 X40.1948 Y22.0793
G01 X40.2138 Y22.0949
G01 X40.2683 Y22.1443
G01 X40.2857 Y22.1617
G01 X40.3351 Y22.2162
G01 X40.3507 Y22.2352
G01 X40.3945 Y22.2943
G01 X40.4082 Y22.3147
G01 X40.4460 Y22.3779
G01 X40.4576 Y22.3995
G01 X40.4890 Y22.4660
G01 X40.4984 Y22.4887
G01 X40.5232 Y22.5580
G01 X40.5304 Y22.5815
G01 X40.5482 Y22.6529
G01 X40.5530 Y22.6770
G01 X40.5638 Y22.7498
G01 X40.5662 Y22.7742
G01 X40.5698 Y22.8477
G01 X40.5698 Y22.8723
G01 X40.5662 Y22.9458
G01 X40.5638 Y22.9702
G01 X40.5530 Y23.0430
G01 X40.5482 Y23.0671
G01 X40.5304 Y23.1385
G01 X40.5232 Y23.1620
G01 X40.5027 Y23.2198
G01 X40.4939 Y23.2427
G01 X40.4839 Y23.2651
G01 X40.4630 Y23.3095
G01 X40.4576 Y23.3205
G01 X40.4460 Y23.3421
G01 X40.4146 Y23.3948
G01 X40.4015 Y23.4156
G01 X40.3873 Y23.4356
G01 X40.3507 Y23.4848
G01 X40.3430 Y23.4944
G01 X40.3270 Y23.5130
G01 X40.2940 Y23.5493
G01 X40.2771 Y23.5671
G01 X40.2593 Y23.5840
G01 X40.2138 Y23.6251
G01 X40.1948 Y23.6407
G01 X40.1456 Y23.6773
G01 X40.1256 Y23.6915
G01 X40.1153 Y23.6982
G01 X40.0627 Y23.7298
G01 X40.0414 Y23.7419
G01 X40.0195 Y23.7530
G01 X39.9751 Y23.7739
G01 X39.9527 Y23.7839
G01 X39.9413 Y23.7884
G01 X39.8836 Y23.8092
G01 X39.8603 Y23.8169
G01 X39.8366 Y23.8235
G01 X39.7771 Y23.8382
G01 X39.7651 Y23.8408
G01 X39.7409 Y23.8450
G01 X39.6924 Y23.8522
G01 X39.6680 Y23.8552
G01 X39.6435 Y23.8570
G01 X39.5945 Y23.8594
G01 X39.5700 Y23.8600
G01 X36.5700 Y23.8600
G01 X36.5455 Y23.8594
G01 X36.4965 Y23.8570
G01 X36.4720 Y23.8552
G01 X36.4476 Y23.8522
G01 X36.3991 Y23.8450
G01 X36.3749 Y23.8408
G01 X36.3510 Y23.8354
G01 X36.2915 Y23.8204
G01 X36.2680 Y23.8132
G01 X36.2102 Y23.7927
G01 X36.1873 Y23.7839
G01 X36.1649 Y23.7739
G01 X36.1205 Y23.7530
G01 X36.0986 Y23.7419
G01 X36.0773 Y23.7298
G01 X36.0352 Y23.7046
G01 X36.0144 Y23.6915
G01 X35.9944 Y23.6773
G01 X35.9452 Y23.6407
G01 X35.9262 Y23.6251
G01 X35.8717 Y23.5757
G01 X35.8543 Y23.5583
G01 X35.8130 Y23.5130
G01 X35.7970 Y23.4944
G01 X35.7893 Y23.4848
G01 X35.7527 Y23.4356
G01 X35.7385 Y23.4156
G01 X35.7254 Y23.3948
G01 X35.7002 Y23.3527
G01 X35.6881 Y23.3314
G01 X35.6770 Y23.3095
G01 X35.6561 Y23.2651
G01 X35.6461 Y23.2427
G01 X35.6373 Y23.2198
G01 X35.6208 Y23.1736
G01 X35.6131 Y23.1503
G01 X35.6065 Y23.1266
G01 X35.5946 Y23.0790
G01 X35.5892 Y23.0551
G01 X35.5850 Y23.0309
G01 X35.5778 Y22.9824
G01 X35.5748 Y22.9580
G01 X35.5730 Y22.9335
G01 X35.5706 Y22.8845
G01 X35.5700 Y22.8600
G01 X35.5706 Y22.8355
G01 X35.5730 Y22.7865
G01 X35.5748 Y22.7620
G01 X35.5778 Y22.7376
G01 X35.5850 Y22.6891
G01 X35.5892 Y22.6649
G01 X35.5918 Y22.6529
G01 X35.6065 Y22.5934
G01 X35.6131 Y22.5697
G01 X35.6208 Y22.5464
G01 X35.6416 Y22.4887
G01 X35.6510 Y22.4660
G01 X35.6824 Y22.3995
G01 X35.6940 Y22.3779
G01 X35.7254 Y22.3252
G01 X35.7385 Y22.3044
G01 X35.7527 Y22.2844
G01 X35.7819 Y22.2450
G01 X35.7970 Y22.2256
G01 X35.8130 Y22.2070
G01 X35.8460 Y22.1707
G01 X35.8629 Y22.1529
G01 X35.8807 Y22.1360
G01 X35.9262 Y22.0949
G01 X35.9452 Y22.0793
G01 X36.0043 Y22.0355
G01 X36.0247 Y22.0218
G01 X36.0773 Y21.9902
G01 X36.0986 Y21.9781
G01 X36.1095 Y21.9724
G01 X36.1649 Y21.9461
G01 X36.1873 Y21.9361
G01 X36.2102 Y21.9273
G01 X36.2564 Y21.9108
G01 X36.2797 Y21.9031
G01 X36.3034 Y21.8965
G01 X36.3510 Y21.8846
G01 X36.3749 Y21.8792
G01 X36.3991 Y21.8750
G01 X36.4476 Y21.8678
G01 X36.4720 Y21.8648
G01 X36.4965 Y21.8630
G01 X36.5455 Y21.8606
G01 X36.5700 Y21.8600
G00 Z2.0000
G00 X41.7100 Y21.8600
G01 F240.00
G01 Z-0.2000
G01 F480.00
G01 X44.7223 Y21.8602
G01 X44.7835 Y21.8630
G01 X44.8080 Y21.8648
G01 X44.8324 Y21.8678
G01 X44.8930 Y21.8770
G01 X44.9171 Y21.8818
G01 X44.9766 Y21.8965
G01 X45.0003 Y21.9031
G01 X45.0120 Y21.9068
G01 X45.0813 Y21.9316
G01 X45.1040 Y21.9410
G01 X45.1705 Y21.9724
G01 X45.1921 Y21.9840
G01 X45.2553 Y22.0218
G01 X45.2757 Y22.0355
G01 X45.3348 Y22.0793
G01 X45.3538 Y22.0949
G01 X45.4083 Y22.1443
G01 X45.4257 Y22.1617
G01 X45.4751 Y22.2162
G01 X45.4907 Y22.2352
G01 X45.5345 Y22.2943
G01 X45.5482 Y22.3147
G01 X45.5860 Y22.3779
G01 X45.5976 Y22.3995
G01 X45.6290 Y22.4660
G01 X45.6384 Y22.4887
G01 X45.6632 Y22.5580
G01 X45.6704 Y22.5815
G01 X45.6882 Y22.6529
G01 X45.6930 Y22.6770
G01 X45.7038 Y22.7498
G01 X45.7062 Y22.7742
G01 X45.7098 Y22.8477
G01 X45.7098 Y22.8723
G01 X45.7062 Y22.9458
G01 X45.7038 Y22.9702
G01 X45.6930 Y23.0430
G01 X45.6882 Y23.0671
G01 X45.6704 Y23.1385
G01 X45.6632 Y23.1620
G01 X45.6427 Y23.2198
G01 X45.6339 Y23.2427
G01 X45.6239 Y23.2651
G01 X45.6030 Y23.3095
G01 X45.5919 Y23.3314
G01 X45.5860 Y23.3421
G01 X45.5546 Y23.3948
G01 X45.5415 Y23.4156
G01 X45.5273 Y23.4356
G01 X45.4907 Y23.4848
G01 X45.4751 Y23.5038
G01 X45.4670 Y23.5130
G01 X45.4340 Y23.5493
G01 X45.4171 Y23.5671
G01 X45.3993 Y23.5840
G01 X45.3538 Y23.6251
G01 X45.3348 Y23.6407
G01 X45.2856 Y23.6773
G01 X45.2656 Y23.6915
G01 X45.2553 Y23.6982
G01 X45.2027 Y23.7298
G01 X45.1814 Y23.7419
G01 X45.1595 Y23.7530
G01 X45.1151 Y23.7739
G01 X45.0927 Y23.7839
G01 X45.0813 Y23.7884
G01 X45.0236 Y23.8092
G01 X45.0003 Y23.8169
G01 X44.9766 Y23.8235
G01 X44.9171 Y23.8382
G01 X44.8930 Y23.8430
G01 X44.8809 Y23.8450
G01 X44.8324 Y23.8522
G01 X44.8080 Y23.8552
G01 X44.7835 Y23.8570
G01 X44.7345 Y23.8594
G01 X44.7100 Y23.8600
G01 X41.7100 Y23.8600
G01 X41.6855 Y23.8594
G01 X41.6365 Y23.8570
G01 X41.6120 Y23.8552
G01 X41.5876 Y23.8522
G01 X41.5391 Y23.8450
G01 X41.5149 Y23.8408
G01 X41.4910 Y23.8354
G01 X41.4315 Y23.8204
G01 X41.4080 Y23.8132
G01 X41.3502 Y23.7927
G01 X41.3273 Y23.7839
G01 X41.3049 Y23.7739
G01 X41.2605 Y23.7530
G01 X41.2386 Y23.7419
G01 X41.2173 Y23.7298
G01 X41.1752 Y23.7046
G01 X41.1544 Y23.6915
G01 X41.1344 Y23.6773
G01 X41.0852 Y23.6407
G01 X41.0662 Y23.6251
G01 X41.0117 Y23.5757
G01 X40.9943 Y23.5583
G01 X40.9530 Y23.5130
G01 X40.9370 Y23.4944
G01 X40.9293 Y23.4848
G01 X40.8927 Y23.4356
G01 X40.8785 Y23.4156
G01 X40.8654 Y23.3948
G01 X40.8402 Y23.3527
G01 X40.8281 Y23.3314
G01 X40.8170 Y23.3095
G01 X40.7961 Y23.2651
G01 X40.7861 Y23.2427
G01 X40.7773 Y23.2198
G01 X40.7608 Y23.1736
G01 X40.7531 Y23.1503
G01 X40.7465 Y23.1266
G01 X40.7346 Y23.0790
G01 X40.7292 Y23.0551
G01 X40.7250 Y23.0309
G01 X40.7178 Y22.9824
G01 X40.7148 Y22.9580
G01 X40.7130 Y22.9335
G01 X40.7106 Y22.8845
G01 X40.7100 Y22.8600
G01 X40.7106 Y22.8355
G01 X40.7130 Y22.7865
G01 X40.7148 Y22.7620
G01 X40.7178 Y22.7376
G01 X40.7250 Y22.6891
G01 X40.7292 Y22.6649
G01 X40.7318 Y22.6529
G01 X40.7465 Y22.5934
G01 X40.7531 Y22.5697
G01 X40.7608 Y22.5464
G01 X40.7816 Y22.4887
G01 X40.7910 Y22.4660
G01 X40.8224 Y22.3995
G01 X40.8340 Y22.3779
G01 X40.8654 Y22.3252
G01 X40.8785 Y22.3044
G01 X40.8927 Y22.2844
G01 X40.9219 Y22.2450
G01 X40.9370 Y22.2256
G01 X40.9530 Y22.2070
G01 X40.9860 Y22.1707
G01 X41.0029 Y22.1529
G01 X41.0207 Y22.1360
G01 X41.0662 Y22.0949
G01 X41.0852 Y22.0793
G01 X41.1443 Y22.0355
G01 X41.1647 Y22.0218
G01 X41.2173 Y21.9902
G01 X41.2279 Y21.9840
G01 X41.2495 Y21.9724
G01 X41.3049 Y21.9461
G01 X41.3273 Y21.9361
G01 X41.3502 Y21.9273
G01 X41.3964 Y21.9108
G01 X41.4197 Y21.9031
G01 X41.4434 Y21.8965
G01 X41.4910 Y21.8846
G01 X41.5149 Y21.8792
G01 X41.5391 Y21.8750
G01 X41.5876 Y21.8678
G01 X41.6120 Y21.8648
G01 X41.6365 Y21.8630
G01 X41.6855 Y21.8606
G01 X41.7100 Y21.8600
G00 Z2.0000
G00 X41.7100 Y24.4000
G01 F240.00
G01 Z-0.2000
G01 F480.00
G01 X55.5817 Y24.3997
G01 X61.2297 Y18.7517
G01 X61.2297 Y18.1650
G01 X61.0177 Y18.1648
G01 X60.8584 Y18.1572
G01 X60.8340 Y18.1554
G01 X60.8096 Y18.1524
G01 X60.6640 Y18.1308
G01 X60.6398 Y18.1266
G01 X60.6159 Y18.1212
G01 X60.4731 Y18.0854
G01 X60.4494 Y18.0789
G01 X60.4261 Y18.0712
G01 X60.2875 Y18.0216
G01 X60.2646 Y18.0128
G01 X60.2422 Y18.0028
G01 X60.1091 Y17.9399
G01 X60.0872 Y17.9288
G01 X60.0659 Y17.9167
G01 X59.9396 Y17.8411
G01 X59.9189 Y17.8279
G01 X59.8988 Y17.8138
G01 X59.7806 Y17.7261
G01 X59.7612 Y17.7110
G01 X59.7426 Y17.6950
G01 X59.6336 Y17.5961
G01 X59.6158 Y17.5792
G01 X59.5989 Y17.5614
G01 X59.5000 Y17.4524
G01 X59.4840 Y17.4338
G01 X59.4689 Y17.4144
G01 X59.3812 Y17.2962
G01 X59.3671 Y17.2761
G01 X59.3539 Y17.2554
G01 X59.2783 Y17.1291
G01 X59.2662 Y17.1078
G01 X59.2551 Y17.0859
G01 X59.1922 Y16.9528
G01 X59.1822 Y16.9304
G01 X59.1734 Y16.9075
G01 X59.1238 Y16.7689
G01 X59.1161 Y16.7456
G01 X59.1096 Y16.7219
G01 X59.0738 Y16.5791
G01 X59.0684 Y16.5552
G01 X59.0642 Y16.5310
G01 X59.0426 Y16.3854
G01 X59.0396 Y16.3610
G01 X59.0378 Y16.3366
G01 X59.0306 Y16.1895
G01 X59.0300 Y16.1650
G01 X59.0306 Y16.1405
G01 X59.0378 Y15.9934
G01 X59.0396 Y15.9690
G01 X59.0426 Y15.9446
G01 X59.0642 Y15.7990
G01 X59.0684 Y15.7748
G01 X59.0738 Y15.7509
G01 X59.1096 Y15.6081
G01 X59.1161 Y15.5844
G01 X59.1238 Y15.5611
G01 X59.1734 Y15.4225
G01 X59.1822 Y15.3996
G01 X59.1922 Y15.3772
G01 X59.2551 Y15.2441
G01 X59.2662 Y15.2222
G01 X59.2783 Y15.2009
G01 X59.3539 Y15.0746
G01 X59.3671 Y15.0539
G01 X59.3812 Y15.0338
G01 X59.4689 Y14.9156
G01 X59.4840 Y14.8962
G01 X59.5000 Y14.8776
G01 X59.5989 Y14.7686
G01 X59.6158 Y14.7508
G01 X59.6336 Y14.7339
G01 X59.7426 Y14.6350
G01 X59.7612 Y14.6190
G01 X59.7806 Y14.6039
G01 X59.8988 Y14.5162
G01 X59.9189 Y14.5021
G01 X59.9396 Y14.4889
G01 X60.0659 Y14.4133
G01 X60.0872 Y14.4012
G01 X60.1091 Y14.3901
G01 X60.2422 Y14.3272
G01 X60.2646 Y14.3172
G01 X60.2875 Y14.3084
G01 X60.4261 Y14.2588
G01 X60.4494 Y14.2511
G01 X60.4731 Y14.2446
G01 X60.6278 Y14.2060
G01 X60.6519 Y14.2012
G01 X60.6640 Y14.1992
G01 X60.8096 Y14.1776
G01 X60.8340 Y14.1746
G01 X60.8584 Y14.1728
G01 X61.0177 Y14.1652
G01 X62.0300 Y14.1650
G01 X62.0545 Y14.1656
G01 X62.2016 Y14.1728
G01 X62.2260 Y14.1746
G01 X62.2504 Y14.1776
G01 X62.3960 Y14.1992
G01 X62.4202 Y14.2034
G01 X62.4441 Y14.2088
G01 X62.5869 Y14.2446
G01 X62.6106 Y14.2511
G01 X62.6339 Y14.2588
G01 X62.7725 Y14.3084
G01 X62.7954 Y14.3172
G01 X62.8178 Y14.3272
G01 X62.9509 Y14.3901
G01 X62.9728 Y14.4012
G01 X62.9941 Y14.4133
G01 X63.1204 Y14.4889
G01 X63.1411 Y14.5021
G01 X63.1612 Y14.5162
G01 X63.2794 Y14.6039
G01 X63.2988 Y14.6190
G01 X63.3174 Y14.6350
G01 X63.4264 Y14.7339
G01 X63.4442 Y14.7508
G01 X63.4611 Y14.7686
G01 X63.5600 Y14.8776
G01 X63.5760 Y14.8962
G01 X63.5911 Y14.9156
G01 X63.6788 Y15.0338
G01 X63.6929 Y15.0539
G01 X63.7061 Y15.0746
G01 X63.7817 Y15.2009
G01 X63.7938 Y15.2222
G01 X63.8049 Y15.2441
G01 X63.8678 Y15.3772
G01 X63.8778 Y15.3996
G01 X63.8866 Y15.4225
G01 X63.9362 Y15.5611
G01 X63.9439 Y15.5844
G01 X63.9504 Y15.6081
G01 X63.9862 Y15.7509
G01 X63.9916 Y15.7748
G01 X63.9958 Y15.7990
G01 X64.0174 Y15.9446
G01 X64.0204 Y15.9690
G01 X64.0222 Y15.9934
G01 X64.0294 Y16.1405
G01 X64.0300 Y16.1650
G01 X64.0294 Y16.1895
G01 X64.0222 Y16.3366
G01 X64.0204 Y16.3610
G01 X64.0174 Y16.3854
G01 X63.9958 Y16.5310
G01 X63.9916 Y16.5552
G01 X63.9862 Y16.5791
G01 X63.9504 Y16.7219
G01 X63.9439 Y16.7456
G01 X63.9362 Y16.7689
G01 X63.8866 Y16.9075
G01 X63.8778 Y16.9304
G01 X63.8678 Y16.9528
G01 X63.8049 Y17.0859
G01 X63.7938 Y17.1078
G01 X63.7817 Y17.1291
G01 X63.6996 Y17.2659
G01 X63.6860 Y17.2863
G01 X63.6788 Y17.2962
G01 X63.5911 Y17.4144
G01 X63.5760 Y17.4338
G01 X63.5600 Y17.4524
G01 X63.4528 Y17.5704
G01 X63.4354 Y17.5878
G01 X63.4264 Y17.5961
G01 X63.3082 Y17.7031
G01 X63.2892 Y17.7187
G01 X63.2303 Y17.7626
G01 X63.2303 Y19.1660
G01 X63.2296 Y19.1905
G01 X63.2272 Y19.2396
G01 X63.2254 Y19.2640
G01 X63.2224 Y19.2884
G01 X63.2133 Y19.3491
G01 X63.2110 Y19.3611
G01 X63.2057 Y19.3851
G01 X63.1937 Y19.4327
G01 X63.1872 Y19.4564
G01 X63.1795 Y19.4797
G01 X63.1629 Y19.5259
G01 X63.1587 Y19.5374
G01 X63.1493 Y19.5601
G01 X63.1232 Y19.6156
G01 X63.1121 Y19.6375
G01 X63.1000 Y19.6589
G01 X63.0748 Y19.7010
G01 X63.0684 Y19.7114
G01 X63.0547 Y19.7318
G01 X63.0183 Y19.7812
G01 X63.0032 Y19.8006
G01 X62.9872 Y19.8191
G01 X62.9542 Y19.8555
G01 X62.9373 Y19.8733
G01 X56.7033 Y26.1073
G01 X56.6855 Y26.1242
G01 X56.6491 Y26.1572
G01 X56.6306 Y26.1732
G01 X56.6112 Y26.1883
G01 X56.5718 Y26.2175
G01 X56.5517 Y26.2317
G01 X56.5310 Y26.2448
G01 X56.4889 Y26.2700
G01 X56.4675 Y26.2821
G01 X56.4456 Y26.2932
G01 X56.4012 Y26.3142
G01 X56.3788 Y26.3241
G01 X56.3559 Y26.3329
G01 X56.3097 Y26.3495
G01 X56.2864 Y26.3572
G01 X56.2627 Y26.3637
G01 X56.2151 Y26.3757
G01 X56.1911 Y26.3810
G01 X56.1670 Y26.3852
G01 X56.1184 Y26.3924
G01 X56.0940 Y26.3954
G01 X56.0696 Y26.3972
G01 X56.0205 Y26.3996
G01 X55.9960 Y26.4003
G01 X41.9100 Y26.4003
G01 X41.6977 Y26.3998
G01 X41.6242 Y26.3962
G01 X41.5998 Y26.3938
G01 X41.5391 Y26.3850
G01 X41.5149 Y26.3808
G01 X41.4910 Y26.3754
G01 X41.4434 Y26.3635
G01 X41.4197 Y26.3569
G01 X41.3964 Y26.3492
G01 X41.3502 Y26.3327
G01 X41.3273 Y26.3239
G01 X41.3049 Y26.3139
G01 X41.2605 Y26.2930
G01 X41.2386 Y26.2819
G01 X41.2173 Y26.2698
G01 X41.1752 Y26.2446
G01 X41.1544 Y26.2315
G01 X41.1344 Y26.2173
G01 X41.0950 Y26.1881
G01 X41.0756 Y26.1730
G01 X41.0570 Y26.1570
G01 X41.0207 Y26.1240
G01 X41.0029 Y26.1071
G01 X40.9860 Y26.0893
G01 X40.9530 Y26.0530
G01 X40.9370 Y26.0344
G01 X40.9219 Y26.0150
G01 X40.8927 Y25.9756
G01 X40.8785 Y25.9556
G01 X40.8654 Y25.9348
G01 X40.8402 Y25.8927
G01 X40.8281 Y25.8714
G01 X40.8170 Y25.8495
G01 X40.7961 Y25.8051
G01 X40.7861 Y25.7827
G01 X40.7773 Y25.7598
G01 X40.7608 Y25.7136
G01 X40.7531 Y25.6903
G01 X40.7465 Y25.6666
G01 X40.7346 Y25.6190
G01 X40.7292 Y25.5951
G01 X40.7250 Y25.5709
G01 X40.7178 Y25.5224
G01 X40.7148 Y25.4980
G01 X40.7130 Y25.4735
G01 X40.7106 Y25.4245
G01 X40.7100 Y25.4000
G01 X40.7106 Y25.3755
G01 X40.7130 Y25.3265
G01 X40.7148 Y25.3020
G01 X40.7162 Y25.2898
G01 X40.7270 Y25.2170
G01 X40.7318 Y25.1929
G01 X40.7465 Y25.1334
G01 X40.7531 Y25.1097
G01 X40.7568 Y25.0980
G01 X40.7773 Y25.0402
G01 X40.7861 Y25.0173
G01 X40.7961 Y24.9949
G01 X40.8224 Y24.9395
G01 X40.8340 Y24.9179
G01 X40.8718 Y24.8547
G01 X40.8855 Y24.8343
G01 X40.9293 Y24.7752
G01 X40.9449 Y24.7562
G01 X40.9943 Y24.7017
G01 X41.0117 Y24.6843
G01 X41.0570 Y24.6430
G01 X41.0756 Y24.6270
G01 X41.0950 Y24.6119
G01 X41.1344 Y24.5827
G01 X41.1544 Y24.5685
G01 X41.1752 Y24.5554
G01 X41.2173 Y24.5302
G01 X41.2386 Y24.5181
G01 X41.2605 Y24.5070
G01 X41.3049 Y24.4861
G01 X41.3273 Y24.4761
G01 X41.3502 Y24.4673
G01 X41.3964 Y24.4508
G01 X41.4197 Y24.4431
G01 X41.4434 Y24.4365
G01 X41.4910 Y24.4246
G01 X41.5149 Y24.4192
G01 X41.5391 Y24.4150
G01 X41.5876 Y24.4078
G01 X41.6120 Y24.4048
G01 X41.6365 Y24.4030
G01 X41.6855 Y24.4006
G01 X41.7100 Y24.4000
G00 Z2.0000
G00 X41.7100 Y29.4800
G01 F240.00
G01 Z-0.2000
G01 F480.00
G01 X44.7223 Y29.4802
G01 X44.7835 Y29.4830
G01 X44.8080 Y29.4848
G01 X44.8324 Y29.4878
G01 X44.8930 Y29.4970
G01 X44.9171 Y29.5018
G01 X44.9766 Y29.5165
G01 X45.0003 Y29.5231
G01 X45.0120 Y29.5268
G01 X45.0813 Y29.5516
G01 X45.1040 Y29.5610
G01 X45.1705 Y29.5924
G01 X45.1921 Y29.6040
G01 X45.2553 Y29.6418
G01 X45.2757 Y29.6555
G01 X45.3348 Y29.6993
G01 X45.3538 Y29.7149
G01 X45.4083 Y29.7643
G01 X45.4257 Y29.7817
G01 X45.4751 Y29.8362
G01 X45.4907 Y29.8552
G01 X45.5345 Y29.9143
G01 X45.5482 Y29.9347
G01 X45.5860 Y29.9979
G01 X45.5976 Y30.0195
G01 X45.6290 Y30.0860
G01 X45.6384 Y30.1087
G01 X45.6632 Y30.1780
G01 X45.6704 Y30.2015
G01 X45.6882 Y30.2729
G01 X45.6930 Y30.2970
G01 X45.7038 Y30.3698
G01 X45.7062 Y30.3942
G01 X45.7098 Y30.4677
G01 X45.7098 Y30.4923
G01 X45.7062 Y30.5658
G01 X45.7038 Y30.5902
G01 X45.6930 Y30.6630
G01 X45.6882 Y30.6871
G01 X45.6704 Y30.7585
G01 X45.6632 Y30.7820
G01 X45.6427 Y30.8398
G01 X45.6339 Y30.8627
G01 X45.6239 Y30.8851
G01 X45.6030 Y30.9295
G01 X45.5919 Y30.9514
G01 X45.5860 Y30.9621
G01 X45.5546 Y31.0148
G01 X45.5415 Y31.0356
G01 X45.5273 Y31.0556
G01 X45.4907 Y31.1048
G01 X45.4751 Y31.1238
G01 X45.4670 Y31.1330
G01 X45.4340 Y31.1693
G01 X45.4171 Y31.1871
G01 X45.3993 Y31.2040
G01 X45.3538 Y31.2451
G01 X45.3348 Y31.2607
G01 X45.2856 Y31.2973
G01 X45.2656 Y31.3115
G01 X45.2553 Y31.3182
G01 X45.2027 Y31.3498
G01 X45.1814 Y31.3619
G01 X45.1595 Y31.3730
G01 X45.1151 Y31.3939
G01 X45.0927 Y31.4039
G01 X45.0813 Y31.4084
G01 X45.0236 Y31.4292
G01 X45.0003 Y31.4369
G01 X44.9766 Y31.4435
G01 X44.9171 Y31.4582
G01 X44.9051 Y31.4608
G01 X44.8809 Y31.4650
G01 X44.8324 Y31.4722
G01 X44.8080 Y31.4752
G01 X44.7835 Y31.4770
G01 X44.7345 Y31.4794
G01 X44.7100 Y31.4800
G01 X41.7100 Y31.4800
G01 X41.6855 Y31.4794
G01 X41.6365 Y31.4770
G01 X41.6120 Y31.4752
G01 X41.5876 Y31.4722
G01 X41.5391 Y31.4650
G01 X41.5149 Y31.4608
G01 X41.4910 Y31.4554
G01 X41.4315 Y31.4404
G01 X41.4080 Y31.4332
G01 X41.3502 Y31.4127
G01 X41.3273 Y31.4039
G01 X41.3049 Y31.3939
G01 X41.2605 Y31.3730
G01 X41.2386 Y31.3619
G01 X41.2173 Y31.3498
G01 X41.1752 Y31.3246
G01 X41.1544 Y31.3115
G01 X41.1344 Y31.2973
G01 X41.0852 Y31.2607
G01 X41.0662 Y31.2451
G01 X41.0117 Y31.1957
G01 X40.9943 Y31.1783
G01 X40.9530 Y31.1330
G01 X40.9370 Y31.1144
G01 X40.9293 Y31.1048
G01 X40.8927 Y31.0556
G01 X40.8785 Y31.0356
G01 X40.8654 Y31.0148
G01 X40.8402 Y30.9727
G01 X40.8281 Y30.9514
G01 X40.8170 Y30.9295
G01 X40.7961 Y30.8851
G01 X40.7861 Y30.8627
G01 X40.7773 Y30.8398
G01 X40.7608 Y30.7936
G01 X40.7531 Y30.7703
G01 X40.7465 Y30.7466
G01 X40.7346 Y30.6990
G01 X40.7292 Y30.6751
G01 X40.7250 Y30.6509
G01 X40.7178 Y30.6024
G01 X40.7148 Y30.5780
G01 X40.7130 Y30.5535
G01 X40.7106 Y30.5045
G01 X40.7100 Y30.4800
G01 X40.7106 Y30.4555
G01 X40.7130 Y30.4065
G01 X40.7148 Y30.3820
G01 X40.7178 Y30.3576
G01 X40.7250 Y30.3091
G01 X40.7270 Y30.2970
G01 X40.7318 Y30.2729
G01 X40.7465 Y30.2134
G01 X40.7531 Y30.1897
G01 X40.7608 Y30.1664
G01 X40.7816 Y30.1087
G01 X40.7910 Y30.0860
G01 X40.8224 Y30.0195
G01 X40.8340 Y29.9979
G01 X40.8654 Y29.9452
G01 X40.8785 Y29.9244
G01 X40.8927 Y29.9044
G01 X40.9219 Y29.8650
G01 X40.9370 Y29.8456
G01 X40.9530 Y29.8270
G01 X40.9860 Y29.7907
G01 X41.0029 Y29.7729
G01 X41.0207 Y29.7560
G01 X41.0662 Y29.7149
G01 X41.0852 Y29.6993
G01 X41.1443 Y29.6555
G01 X41.1647 Y29.6418
G01 X41.2173 Y29.6102
G01 X41.2279 Y29.6040
G01 X41.2495 Y29.5924
G01 X41.3049 Y29.5661
G01 X41.3273 Y29.5561
G01 X41.3502 Y29.5473
G01 X41.3964 Y29.5308
G01 X41.4197 Y29.5231
G01 X41.4434 Y29.5165
G01 X41.4910 Y29.5046
G01 X41.5149 Y29.4992
G01 X41.5391 Y29.4950
G01 X41.5876 Y29.4878
G01 X41.6120 Y29.4848
G01 X41.6365 Y29.4830
G01 X41.6855 Y29.4806
G01 X41.7100 Y29.4800
G00 Z2.0000
G00 X41.7100 Y32.0200
G01 F240.00
G01 Z-0.2000
G01 F480.00
G01 X66.3100 Y32.0197
G01 X66.3345 Y32.0204
G01 X66.3958 Y32.0235
G01 X66.4080 Y32.0246
G01 X66.4324 Y32.0276
G01 X66.4810 Y32.0348
G01 X66.5051 Y32.0390
G01 X66.5291 Y32.0443
G01 X66.5767 Y32.0563
G01 X66.6004 Y32.0628
G01 X66.6237 Y32.0705
G01 X66.6699 Y32.0871
G01 X66.6928 Y32.0959
G01 X66.7152 Y32.1058
G01 X66.7596 Y32.1268
G01 X66.7815 Y32.1379
G01 X66.8029 Y32.1500
G01 X66.8554 Y32.1816
G01 X66.8758 Y32.1953
G01 X66.9252 Y32.2317
G01 X66.9446 Y32.2468
G01 X66.9631 Y32.2628
G01 X66.9995 Y32.2958
G01 X67.0173 Y32.3127
G01 X70.2643 Y35.5597
G01 X84.3590 Y35.5597
G01 X84.3835 Y35.5604
G01 X84.4326 Y35.5628
G01 X84.4570 Y35.5646
G01 X84.4814 Y35.5676
G01 X84.5421 Y35.5767
G01 X84.5661 Y35.5815
G01 X84.6257 Y35.5963
G01 X84.6494 Y35.6028
G01 X84.6727 Y35.6105
G01 X84.7189 Y35.6271
G01 X84.7418 Y35.6359
G01 X84.7642 Y35.6458
G01 X84.8196 Y35.6722
G01 X84.8305 Y35.6779
G01 X84.8519 Y35.6900
G01 X84.9044 Y35.7216
G01 X84.9248 Y35.7353
G01 X84.9742 Y35.7717
G01 X84.9936 Y35.7868
G01 X85.0121 Y35.8028
G01 X85.0485 Y35.8358
G01 X85.0663 Y35.8527
G01 X87.5833 Y38.3697
G01 X88.1700 Y38.3697
G01 X88.1702 Y38.1577
G01 X88.1786 Y37.9862
G01 X88.1810 Y37.9618
G01 X88.1826 Y37.9496
G01 X88.2042 Y37.8040
G01 X88.2084 Y37.7798
G01 X88.2138 Y37.7559
G01 X88.2496 Y37.6131
G01 X88.2561 Y37.5894
G01 X88.2638 Y37.5661
G01 X88.3134 Y37.4275
G01 X88.3222 Y37.4046
G01 X88.3322 Y37.3822
G01 X88.3951 Y37.2491
G01 X88.4062 Y37.2272
G01 X88.4183 Y37.2059
G01 X88.4939 Y37.0796
G01 X88.5071 Y37.0589
G01 X88.5212 Y37.0388
G01 X88.6089 Y36.9206
G01 X88.6240 Y36.9012
G01 X88.6400 Y36.8826
G01 X88.7389 Y36.7736
G01 X88.7558 Y36.7558
G01 X88.7736 Y36.7389
G01 X88.8826 Y36.6400
G01 X88.9012 Y36.6240
G01 X88.9206 Y36.6089
G01 X89.0388 Y36.5212
G01 X89.0589 Y36.5071
G01 X89.0796 Y36.4939
G01 X89.2059 Y36.4183
G01 X89.2272 Y36.4062
G01 X89.2491 Y36.3951
G01 X89.3822 Y36.3322
G01 X89.4046 Y36.3222
G01 X89.4275 Y36.3134
G01 X89.5661 Y36.2638
G01 X89.5894 Y36.2561
G01 X89.6131 Y36.2496
G01 X89.7559 Y36.2138
G01 X89.7798 Y36.2084
G01 X89.8040 Y36.2042
G01 X89.9496 Y36.1826
G01 X89.9740 Y36.1796
G01 X89.9984 Y36.1778
G01 X90.1455 Y36.1706
G01 X90.1700 Y36.1700
G01 X90.1945 Y36.1706
G01 X90.3416 Y36.1778
G01 X90.3660 Y36.1796
G01 X90.3904 Y36.1826
G01 X90.5360 Y36.2042
G01 X90.5602 Y36.2084
G01 X90.5841 Y36.2138
G01 X90.7388 Y36.2527
G01 X90.7506 Y36.2561
G01 X90.7739 Y36.2638
G01 X90.9125 Y36.3134
G01 X90.9354 Y36.3222
G01 X90.9578 Y36.3322
G01 X91.0909 Y36.3951
G01 X91.1128 Y36.4062
G01 X91.1341 Y36.4183
G01 X91.2604 Y36.4939
G01 X91.2811 Y36.5071
G01 X91.3012 Y36.5212
G01 X91.4194 Y36.6089
G01 X91.4388 Y36.6240
G01 X91.4574 Y36.6400
G01 X91.5664 Y36.7389
G01 X91.5842 Y36.7558
G01 X91.6011 Y36.7736
G01 X91.7000 Y36.8826
G01 X91.7160 Y36.9012
G01 X91.7311 Y36.9206
G01 X91.8188 Y37.0388
G01 X91.8329 Y37.0589
G01 X91.8461 Y37.0796
G01 X91.9217 Y37.2059
G01 X91.9338 Y37.2272
G01 X91.9449 Y37.2491
G01 X92.0129 Y37.3934
G01 X92.0223 Y37.4160
G01 X92.0266 Y37.4275
G01 X92.0762 Y37.5661
G01 X92.0839 Y37.5894
G01 X92.0904 Y37.6131
G01 X92.1262 Y37.7559
G01 X92.1316 Y37.7798
G01 X92.1358 Y37.8040
G01 X92.1574 Y37.9496
G01 X92.1604 Y37.9740
G01 X92.1614 Y37.9862
G01 X92.1694 Y38.1455
G01 X92.1700 Y38.1700
G01 X92.1700 Y39.1700
G01 X92.1694 Y39.1945
G01 X92.1622 Y39.3416
G01 X92.1604 Y39.3660
G01 X92.1574 Y39.3904
G01 X92.1358 Y39.5360
G01 X92.1316 Y39.5602
G01 X92.1262 Y39.5841
G01 X92.0904 Y39.7269
G01 X92.0839 Y39.7506
G01 X92.0762 Y39.7739
G01 X92.0266 Y39.9125
G01 X92.0178 Y39.9354
G01 X92.0078 Y39.9578
G01 X91.9449 Y40.0909
G01 X91.9338 Y40.1128
G01 X91.9217 Y40.1341
G01 X91.8461 Y40.2604
G01 X91.8329 Y40.2811
G01 X91.8188 Y40.3012
G01 X91.7311 Y40.4194
G01 X91.7160 Y40.4388
G01 X91.7000 Y40.4574
G01 X91.6011 Y40.5664
G01 X91.5842 Y40.5842
G01 X91.5664 Y40.6011
G01 X91.4574 Y40.7000
G01 X91.4388 Y40.7160
G01 X91.4194 Y40.7311
G01 X91.3012 Y40.8188
G01 X91.2811 Y40.8329
G01 X91.2604 Y40.8461
G01 X91.1341 Y40.9217
G01 X91.1128 Y40.9338
G01 X91.0909 Y40.9449
G01 X90.9578 Y41.0078
G01 X90.9354 Y41.0178
G01 X90.9125 Y41.0266
G01 X90.7739 Y41.0762
G01 X90.7506 Y41.0839
G01 X90.7269 Y41.0904
G01 X90.5841 Y41.1262
G01 X90.5602 Y41.1316
G01 X90.5360 Y41.1358
G01 X90.3904 Y41.1574
G01 X90.3660 Y41.1604
G01 X90.3416 Y41.1622
G01 X90.1945 Y41.1694
G01 X90.1700 Y41.1700
G01 X90.1455 Y41.1694
G01 X89.9984 Y41.1622
G01 X89.9740 Y41.1604
G01 X89.9496 Y41.1574
G01 X89.8040 Y41.1358
G01 X89.7798 Y41.1316
G01 X89.7559 Y41.1262
G01 X89.6131 Y41.0904
G01 X89.5894 Y41.0839
G01 X89.5661 Y41.0762
G01 X89.4275 Y41.0266
G01 X89.4046 Y41.0178
G01 X89.3822 Y41.0078
G01 X89.2491 Y40.9449
G01 X89.2272 Y40.9338
G01 X89.2165 Y40.9279
G01 X89.0796 Y40.8461
G01 X89.0589 Y40.8329
G01 X89.0388 Y40.8188
G01 X88.9206 Y40.7311
G01 X88.9012 Y40.7160
G01 X88.8918 Y40.7081
G01 X88.7736 Y40.6011
G01 X88.7646 Y40.5928
G01 X88.7472 Y40.5754
G01 X88.6319 Y40.4482
G01 X88.6163 Y40.4292
G01 X88.5724 Y40.3703
G01 X87.1690 Y40.3703
G01 X87.1445 Y40.3696
G01 X87.0832 Y40.3665
G01 X87.0588 Y40.3641
G01 X87.0466 Y40.3624
G01 X86.9980 Y40.3552
G01 X86.9739 Y40.3510
G01 X86.9499 Y40.3457
G01 X86.9023 Y40.3337
G01 X86.8786 Y40.3272
G01 X86.8553 Y40.3195
G01 X86.8091 Y40.3029
G01 X86.7976 Y40.2987
G01 X86.7749 Y40.2893
G01 X86.7084 Y40.2578
G01 X86.6867 Y40.2462
G01 X86.6761 Y40.2400
G01 X86.6340 Y40.2148
G01 X86.6133 Y40.2017
G01 X86.5932 Y40.1875
G01 X86.5538 Y40.1583
G01 X86.5440 Y40.1509
G01 X86.5251 Y40.1353
G01 X86.4795 Y40.0942
G01 X86.4617 Y40.0773
G01 X83.9447 Y37.5603
G01 X70.9150 Y37.5603
G01 X70.9150 Y41.5600
G01 X70.9144 Y41.5845
G01 X70.9126 Y41.6090
G01 X70.9096 Y41.6334
G01 X70.9054 Y41.6575
G01 X70.9029 Y41.6696
G01 X70.8969 Y41.6934
G01 X70.8898 Y41.7168
G01 X70.8815 Y41.7399
G01 X70.8769 Y41.7513
G01 X70.8670 Y41.7738
G01 X70.8560 Y41.7957
G01 X70.8500 Y41.8064
G01 X70.8374 Y41.8275
G01 X70.8238 Y41.8479
G01 X70.8092 Y41.8676
G01 X70.7936 Y41.8866
G01 X70.7855 Y41.8958
G01 X70.7686 Y41.9136
G01 X70.7598 Y41.9221
G01 X70.7416 Y41.9386
G01 X70.7322 Y41.9465
G01 X70.7226 Y41.9542
G01 X70.7029 Y41.9688
G01 X70.6825 Y41.9824
G01 X70.6721 Y41.9889
G01 X70.6507 Y42.0010
G01 X70.6288 Y42.0120
G01 X70.6063 Y42.0219
G01 X70.5949 Y42.0265
G01 X70.5718 Y42.0348
G01 X70.5601 Y42.0385
G01 X70.5365 Y42.0450
G01 X70.5125 Y42.0504
G01 X70.4884 Y42.0546
G01 X70.4640 Y42.0576
G01 X70.4395 Y42.0594
G01 X70.4150 Y42.0600
G01 X69.2850 Y42.0600
G01 X69.2605 Y42.0594
G01 X69.2482 Y42.0586
G01 X69.2238 Y42.0562
G01 X69.2116 Y42.0546
G01 X69.1875 Y42.0504
G01 X69.1754 Y42.0479
G01 X69.1516 Y42.0419
G01 X69.1399 Y42.0385
G01 X69.1166 Y42.0308
G01 X69.0937 Y42.0219
G01 X69.0824 Y42.0171
G01 X69.0602 Y42.0066
G01 X69.0493 Y42.0010
G01 X69.0279 Y41.9889
G01 X69.0072 Y41.9757
G01 X68.9872 Y41.9616
G01 X68.9678 Y41.9465
G01 X68.9584 Y41.9386
G01 X68.9402 Y41.9221
G01 X68.9229 Y41.9048
G01 X68.9064 Y41.8866
G01 X68.8908 Y41.8676
G01 X68.8762 Y41.8479
G01 X68.8693 Y41.8378
G01 X68.8626 Y41.8275
G01 X68.8500 Y41.8064
G01 X68.8384 Y41.7848
G01 X68.8279 Y41.7626
G01 X68.8231 Y41.7513
G01 X68.8142 Y41.7284
G01 X68.8065 Y41.7051
G01 X68.8000 Y41.6815
G01 X68.7946 Y41.6575
G01 X68.7904 Y41.6334
G01 X68.7874 Y41.6090
G01 X68.7864 Y41.5968
G01 X68.7852 Y41.5723
G01 X68.7850 Y41.5600
G01 X68.7852 Y37.5477
G01 X68.7864 Y37.5232
G01 X68.7888 Y37.4988
G01 X68.7904 Y37.4866
G01 X68.7946 Y37.4625
G01 X68.7971 Y37.4504
G01 X68.8031 Y37.4266
G01 X68.8102 Y37.4032
G01 X68.8185 Y37.3801
G01 X68.8231 Y37.3687
G01 X68.8330 Y37.3462
G01 X68.8384 Y37.3352
G01 X68.8497 Y37.3139
G01 X68.8497 Y36.9743
G01 X65.8957 Y34.0203
G01 X41.9100 Y34.0203
G01 X41.6977 Y34.0198
G01 X41.6242 Y34.0162
G01 X41.5998 Y34.0138
G01 X41.5270 Y34.0030
G01 X41.5029 Y33.9982
G01 X41.4315 Y33.9804
G01 X41.4080 Y33.9732
G01 X41.3387 Y33.9484
G01 X41.3160 Y33.9390
G01 X41.2495 Y33.9076
G01 X41.2279 Y33.8960
G01 X41.1647 Y33.8582
G01 X41.1443 Y33.8445
G01 X41.0852 Y33.8007
G01 X41.0662 Y33.7851
G01 X41.0117 Y33.7357
G01 X40.9943 Y33.7183
G01 X40.9530 Y33.6730
G01 X40.9370 Y33.6544
G01 X40.9293 Y33.6448
G01 X40.8927 Y33.5956
G01 X40.8785 Y33.5756
G01 X40.8654 Y33.5548
G01 X40.8340 Y33.5021
G01 X40.8224 Y33.4805
G01 X40.7910 Y33.4140
G01 X40.7816 Y33.3913
G01 X40.7773 Y33.3798
G01 X40.7568 Y33.3220
G01 X40.7496 Y33.2985
G01 X40.7318 Y33.2271
G01 X40.7270 Y33.2030
G01 X40.7162 Y33.1302
G01 X40.7138 Y33.1058
G01 X40.7102 Y33.0323
G01 X40.7100 Y33.0200
G01 X40.7106 Y32.9955
G01 X40.7130 Y32.9465
G01 X40.7148 Y32.9220
G01 X40.7178 Y32.8976
G01 X40.7250 Y32.8491
G01 X40.7292 Y32.8249
G01 X40.7346 Y32.8010
G01 X40.7465 Y32.7534
G01 X40.7531 Y32.7297
G01 X40.7608 Y32.7064
G01 X40.7773 Y32.6602
G01 X40.7861 Y32.6373
G01 X40.7961 Y32.6149
G01 X40.8170 Y32.5705
G01 X40.8281 Y32.5486
G01 X40.8402 Y32.5273
G01 X40.8654 Y32.4852
G01 X40.8785 Y32.4644
G01 X40.8927 Y32.4444
G01 X40.9219 Y32.4050
G01 X40.9370 Y32.3856
G01 X40.9530 Y32.3670
G01 X40.9860 Y32.3307
G01 X41.0029 Y32.3129
G01 X41.0207 Y32.2960
G01 X41.0570 Y32.2630
G01 X41.0756 Y32.2470
G01 X41.0950 Y32.2319
G01 X41.1344 Y32.2027
G01 X41.1544 Y32.1885
G01 X41.1752 Y32.1754
G01 X41.2173 Y32.1502
G01 X41.2386 Y32.1381
G01 X41.2605 Y32.1270
G01 X41.3049 Y32.1061
G01 X41.3273 Y32.0961
G01 X41.3502 Y32.0873
G01 X41.3964 Y32.0708
G01 X41.4197 Y32.0631
G01 X41.4434 Y32.0565
G01 X41.4910 Y32.0446
G01 X41.5149 Y32.0392
G01 X41.5391 Y32.0350
G01 X41.5876 Y32.0278
G01 X41.6120 Y32.0248
G01 X41.6365 Y32.0230
G01 X41.6855 Y32.0206
G01 X41.7100 Y32.0200
G00 Z2.0000
G00 X41.7100 Y34.5600
G01 F240.00
G01 Z-0.2000
G01 F480.00
G01 X46.7110 Y34.5597
G01 X46.7355 Y34.5604
G01 X46.7968 Y34.5635
G01 X46.8212 Y34.5659
G01 X46.8334 Y34.5676
G01 X46.8820 Y34.5748
G01 X46.9061 Y34.5790
G01 X46.9301 Y34.5843
G01 X46.9777 Y34.5963
G01 X47.0014 Y34.6028
G01 X47.0247 Y34.6105
G01 X47.0709 Y34.6271
G01 X47.0938 Y34.6359
G01 X47.1051 Y34.6407
G01 X47.1716 Y34.6722
G01 X47.1933 Y34.6838
G01 X47.2039 Y34.6900
G01 X47.2564 Y34.7216
G01 X47.2768 Y34.7353
G01 X47.3262 Y34.7717
G01 X47.3360 Y34.7791
G01 X47.3549 Y34.7947
G01 X47.4005 Y34.8358
G01 X47.4183 Y34.8527
G01 X47.6243 Y35.0587
G01 X64.7700 Y35.0587
G01 X64.7945 Y35.0594
G01 X64.8558 Y35.0625
G01 X64.8680 Y35.0636
G01 X64.8924 Y35.0666
G01 X64.9410 Y35.0738
G01 X64.9651 Y35.0780
G01 X64.9891 Y35.0833
G01 X65.0486 Y35.0984
G01 X65.0721 Y35.1055
G01 X65.1299 Y35.1261
G01 X65.1528 Y35.1349
G01 X65.1752 Y35.1448
G01 X65.2196 Y35.1658
G01 X65.2415 Y35.1769
G01 X65.2629 Y35.1890
G01 X65.3050 Y35.2142
G01 X65.3257 Y35.2273
G01 X65.3458 Y35.2415
G01 X65.3950 Y35.2781
G01 X65.4139 Y35.2937
G01 X65.4231 Y35.3018
G01 X65.4595 Y35.3348
G01 X65.4773 Y35.3517
G01 X65.4942 Y35.3695
G01 X65.5272 Y35.4059
G01 X65.5432 Y35.4244
G01 X65.5583 Y35.4438
G01 X65.5875 Y35.4832
G01 X65.6017 Y35.5033
G01 X65.6148 Y35.5240
G01 X65.6400 Y35.5661
G01 X65.6462 Y35.5767
G01 X65.6578 Y35.5984
G01 X65.6842 Y35.6538
G01 X65.6941 Y35.6762
G01 X65.7029 Y35.6991
G01 X65.7235 Y35.7569
G01 X65.7272 Y35.7686
G01 X65.7337 Y35.7923
G01 X65.7457 Y35.8399
G01 X65.7510 Y35.8639
G01 X65.7552 Y35.8880
G01 X65.7641 Y35.9488
G01 X65.7654 Y35.9610
G01 X65.7672 Y35.9854
G01 X65.7696 Y36.0345
G01 X65.7703 Y36.0590
G01 X65.7703 Y37.7613
G01 X65.7854 Y37.8041
G01 X65.7926 Y37.8276
G01 X65.8092 Y37.8933
G01 X65.8120 Y37.9052
G01 X65.8168 Y37.9293
G01 X65.8269 Y37.9963
G01 X65.8299 Y38.0206
G01 X65.8317 Y38.0451
G01 X65.8344 Y38.1005
G01 X65.8350 Y38.1250
G01 X65.8348 Y41.0073
G01 X65.8309 Y41.0872
G01 X65.8285 Y41.1116
G01 X65.8269 Y41.1237
G01 X65.8187 Y41.1786
G01 X65.8145 Y41.2028
G01 X65.8092 Y41.2267
G01 X65.7926 Y41.2924
G01 X65.7854 Y41.3159
G01 X65.7628 Y41.3797
G01 X65.7539 Y41.4026
G01 X65.7440 Y41.4250
G01 X65.7203 Y41.4751
G01 X65.7092 Y41.4970
G01 X65.6971 Y41.5184
G01 X65.6686 Y41.5659
G01 X65.6555 Y41.5867
G01 X65.6414 Y41.6067
G01 X65.6084 Y41.6513
G01 X65.5933 Y41.6706
G01 X65.5772 Y41.6892
G01 X65.5400 Y41.7303
G01 X65.5316 Y41.7393
G01 X65.5143 Y41.7566
G01 X65.4642 Y41.8022
G01 X65.4456 Y41.8183
G01 X65.4263 Y41.8334
G01 X65.3718 Y41.8736
G01 X65.3514 Y41.8872
G01 X65.3409 Y41.8936
G01 X65.2934 Y41.9221
G01 X65.2720 Y41.9342
G01 X65.2501 Y41.9453
G01 X65.2000 Y41.9690
G01 X65.1776 Y41.9789
G01 X65.1547 Y41.9878
G01 X65.0909 Y42.0104
G01 X65.0792 Y42.0141
G01 X65.0555 Y42.0207
G01 X65.0017 Y42.0342
G01 X64.9778 Y42.0395
G01 X64.9536 Y42.0437
G01 X64.8987 Y42.0519
G01 X64.8744 Y42.0549
G01 X64.8499 Y42.0567
G01 X64.7945 Y42.0594
G01 X64.7700 Y42.0600
G01 X64.7455 Y42.0594
G01 X64.6901 Y42.0567
G01 X64.6656 Y42.0549
G01 X64.6534 Y42.0535
G01 X64.5864 Y42.0437
G01 X64.5622 Y42.0395
G01 X64.5383 Y42.0342
G01 X64.4845 Y42.0207
G01 X64.4608 Y42.0141
G01 X64.4375 Y42.0064
G01 X64.3853 Y41.9878
G01 X64.3624 Y41.9789
G01 X64.3512 Y41.9741
G01 X64.2899 Y41.9453
G01 X64.2680 Y41.9342
G01 X64.2466 Y41.9221
G01 X64.1886 Y41.8872
G01 X64.1682 Y41.8736
G01 X64.1583 Y41.8664
G01 X64.1137 Y41.8334
G01 X64.0944 Y41.8183
G01 X64.0758 Y41.8022
G01 X64.0347 Y41.7650
G01 X64.0169 Y41.7481
G01 X64.0000 Y41.7303
G01 X63.9628 Y41.6892
G01 X63.9467 Y41.6706
G01 X63.9316 Y41.6513
G01 X63.8914 Y41.5968
G01 X63.8778 Y41.5764
G01 X63.8429 Y41.5184
G01 X63.8308 Y41.4970
G01 X63.8197 Y41.4751
G01 X63.7909 Y41.4138
G01 X63.7815 Y41.3912
G01 X63.7772 Y41.3797
G01 X63.7586 Y41.3275
G01 X63.7509 Y41.3042
G01 X63.7443 Y41.2805
G01 X63.7308 Y41.2267
G01 X63.7255 Y41.2028
G01 X63.7232 Y41.1907
G01 X63.7115 Y41.1116
G01 X63.7101 Y41.0994
G01 X63.7083 Y41.0749
G01 X63.7056 Y41.0195
G01 X63.7050 Y40.9950
G01 X63.7052 Y38.1127
G01 X63.7083 Y38.0451
G01 X63.7101 Y38.0206
G01 X63.7131 Y37.9963
G01 X63.7232 Y37.9293
G01 X63.7255 Y37.9172
G01 X63.7308 Y37.8933
G01 X63.7474 Y37.8276
G01 X63.7546 Y37.8041
G01 X63.7697 Y37.7613
G01 X63.7697 Y37.0593
G01 X47.1977 Y37.0591
G01 X47.1242 Y37.0555
G01 X47.1120 Y37.0544
G01 X47.0876 Y37.0514
G01 X47.0390 Y37.0442
G01 X47.0149 Y37.0400
G01 X46.9909 Y37.0347
G01 X46.9433 Y37.0227
G01 X46.9196 Y37.0162
G01 X46.9079 Y37.0125
G01 X46.8501 Y36.9919
G01 X46.8272 Y36.9831
G01 X46.8048 Y36.9732
G01 X46.7604 Y36.9522
G01 X46.7385 Y36.9411
G01 X46.7277 Y36.9352
G01 X46.6750 Y36.9038
G01 X46.6543 Y36.8907
G01 X46.6342 Y36.8765
G01 X46.5948 Y36.8473
G01 X46.5754 Y36.8322
G01 X46.5661 Y36.8243
G01 X46.5205 Y36.7832
G01 X46.5027 Y36.7663
G01 X46.2967 Y36.5603
G01 X41.7100 Y36.5600
G01 X41.6855 Y36.5594
G01 X41.6365 Y36.5570
G01 X41.6242 Y36.5562
G01 X41.5998 Y36.5538
G01 X41.5391 Y36.5450
G01 X41.5149 Y36.5408
G01 X41.4910 Y36.5354
G01 X41.4434 Y36.5235
G01 X41.4197 Y36.5169
G01 X41.3964 Y36.5092
G01 X41.3502 Y36.4927
G01 X41.3273 Y36.4839
G01 X41.3049 Y36.4739
G01 X41.2605 Y36.4530
G01 X41.2386 Y36.4419
G01 X41.2173 Y36.4298
G01 X41.1752 Y36.4046
G01 X41.1544 Y36.3915
G01 X41.1344 Y36.3773
G01 X41.0950 Y36.3481
G01 X41.0756 Y36.3330
G01 X41.0570 Y36.3170
G01 X41.0207 Y36.2840
G01 X41.0029 Y36.2671
G01 X40.9860 Y36.2493
G01 X40.9530 Y36.2130
G01 X40.9370 Y36.1944
G01 X40.9219 Y36.1750
G01 X40.8927 Y36.1356
G01 X40.8785 Y36.1156
G01 X40.8654 Y36.0948
G01 X40.8402 Y36.0527
G01 X40.8281 Y36.0314
G01 X40.8170 Y36.0095
G01 X40.7961 Y35.9651
G01 X40.7861 Y35.9427
G01 X40.7773 Y35.9198
G01 X40.7608 Y35.8736
G01 X40.7531 Y35.8503
G01 X40.7465 Y35.8266
G01 X40.7346 Y35.7790
G01 X40.7292 Y35.7551
G01 X40.7250 Y35.7309
G01 X40.7178 Y35.6824
G01 X40.7148 Y35.6580
G01 X40.7130 Y35.6335
G01 X40.7106 Y35.5845
G01 X40.7100 Y35.5600
G01 X40.7106 Y35.5355
G01 X40.7130 Y35.4865
G01 X40.7138 Y35.4742
G01 X40.7162 Y35.4498
G01 X40.7270 Y35.3770
G01 X40.7318 Y35.3529
G01 X40.7465 Y35.2934
G01 X40.7496 Y35.2815
G01 X40.7568 Y35.2580
G01 X40.7773 Y35.2002
G01 X40.7861 Y35.1773
G01 X40.7961 Y35.1549
G01 X40.8224 Y35.0995
G01 X40.8340 Y35.0779
G01 X40.8718 Y35.0147
G01 X40.8855 Y34.9943
G01 X40.9293 Y34.9352
G01 X40.9449 Y34.9162
G01 X40.9943 Y34.8617
G01 X41.0117 Y34.8443
G01 X41.0570 Y34.8030
G01 X41.0756 Y34.7870
G01 X41.0950 Y34.7719
G01 X41.1344 Y34.7427
G01 X41.1544 Y34.7285
G01 X41.1752 Y34.7154
G01 X41.2173 Y34.6902
G01 X41.2386 Y34.6781
G01 X41.2605 Y34.6670
G01 X41.3049 Y34.6461
G01 X41.3273 Y34.6361
G01 X41.3502 Y34.6273
G01 X41.3964 Y34.6108
G01 X41.4197 Y34.6031
G01 X41.4434 Y34.5965
G01 X41.4910 Y34.5846
G01 X41.5149 Y34.5792
G01 X41.5391 Y34.5750
G01 X41.5876 Y34.5678
G01 X41.6120 Y34.5648
G01 X41.6365 Y34.5630
G01 X41.6855 Y34.5606
G01 X41.7100 Y34.5600
G00 Z2.0000
G00 X41.7100 Y37.1000
G01 F240.00
G01 Z-0.2000
G01 F480.00
G01 X44.7223 Y37.1002
G01 X44.7835 Y37.1030
G01 X44.8080 Y37.1048
G01 X44.8324 Y37.1078
G01 X44.8930 Y37.1170
G01 X44.9171 Y37.1218
G01 X44.9766 Y37.1365
G01 X45.0003 Y37.1431
G01 X45.0120 Y37.1468
G01 X45.0813 Y37.1716
G01 X45.1040 Y37.1810
G01 X45.1705 Y37.2124
G01 X45.1921 Y37.2240
G01 X45.2553 Y37.2618
G01 X45.2757 Y37.2755
G01 X45.3348 Y37.3193
G01 X45.3538 Y37.3349
G01 X45.4083 Y37.3843
G01 X45.4257 Y37.4017
G01 X45.4751 Y37.4562
G01 X45.4907 Y37.4752
G01 X45.5345 Y37.5343
G01 X45.5482 Y37.5547
G01 X45.5860 Y37.6179
G01 X45.5976 Y37.6395
G01 X45.6290 Y37.7060
G01 X45.6384 Y37.7287
G01 X45.6632 Y37.7980
G01 X45.6704 Y37.8215
G01 X45.6882 Y37.8929
G01 X45.6930 Y37.9170
G01 X45.7038 Y37.9898
G01 X45.7062 Y38.0142
G01 X45.7098 Y38.0877
G01 X45.7098 Y38.1123
G01 X45.7062 Y38.1858
G01 X45.7038 Y38.2102
G01 X45.6930 Y38.2830
G01 X45.6882 Y38.3071
G01 X45.6704 Y38.3785
G01 X45.6632 Y38.4020
G01 X45.6427 Y38.4598
G01 X45.6339 Y38.4827
G01 X45.6239 Y38.5051
G01 X45.6030 Y38.5495
G01 X45.5976 Y38.5605
G01 X45.5860 Y38.5821
G01 X45.5546 Y38.6348
G01 X45.5415 Y38.6556
G01 X45.5273 Y38.6756
G01 X45.4907 Y38.7248
G01 X45.4830 Y38.7344
G01 X45.4670 Y38.7530
G01 X45.4340 Y38.7893
G01 X45.4171 Y38.8071
G01 X45.3993 Y38.8240
G01 X45.3538 Y38.8651
G01 X45.3348 Y38.8807
G01 X45.2856 Y38.9173
G01 X45.2757 Y38.9245
G01 X45.2553 Y38.9382
G01 X45.2027 Y38.9698
G01 X45.1814 Y38.9819
G01 X45.1595 Y38.9930
G01 X45.1151 Y39.0139
G01 X45.0927 Y39.0239
G01 X45.0813 Y39.0284
G01 X45.0236 Y39.0492
G01 X45.0003 Y39.0569
G01 X44.9766 Y39.0635
G01 X44.9171 Y39.0782
G01 X44.8930 Y39.0830
G01 X44.8809 Y39.0850
G01 X44.8324 Y39.0922
G01 X44.8080 Y39.0952
G01 X44.7835 Y39.0970
G01 X44.7345 Y39.0994
G01 X44.7100 Y39.1000
G01 X41.7100 Y39.1000
G01 X41.6855 Y39.0994
G01 X41.6365 Y39.0970
G01 X41.6120 Y39.0952
G01 X41.5876 Y39.0922
G01 X41.5391 Y39.0850
G01 X41.5149 Y39.0808
G01 X41.4910 Y39.0754
G01 X41.4315 Y39.0604
G01 X41.4080 Y39.0532
G01 X41.3502 Y39.0327
G01 X41.3273 Y39.0239
G01 X41.3049 Y39.0139
G01 X41.2605 Y38.9930
G01 X41.2386 Y38.9819
G01 X41.2173 Y38.9698
G01 X41.1752 Y38.9446
G01 X41.1544 Y38.9315
G01 X41.1344 Y38.9173
G01 X41.0852 Y38.8807
G01 X41.0662 Y38.8651
G01 X41.0117 Y38.8157
G01 X40.9943 Y38.7983
G01 X40.9530 Y38.7530
G01 X40.9370 Y38.7344
G01 X40.9293 Y38.7248
G01 X40.8927 Y38.6756
G01 X40.8785 Y38.6556
G01 X40.8654 Y38.6348
G01 X40.8402 Y38.5927
G01 X40.8281 Y38.5714
G01 X40.8170 Y38.5495
G01 X40.7961 Y38.5051
G01 X40.7861 Y38.4827
G01 X40.7773 Y38.4598
G01 X40.7608 Y38.4136
G01 X40.7531 Y38.3903
G01 X40.7465 Y38.3666
G01 X40.7346 Y38.3190
G01 X40.7292 Y38.2951
G01 X40.7250 Y38.2709
G01 X40.7178 Y38.2224
G01 X40.7148 Y38.1980
G01 X40.7130 Y38.1735
G01 X40.7106 Y38.1245
G01 X40.7100 Y38.1000
G01 X40.7106 Y38.0755
G01 X40.7130 Y38.0265
G01 X40.7148 Y38.0020
G01 X40.7178 Y37.9776
G01 X40.7250 Y37.9291
G01 X40.7292 Y37.9049
G01 X40.7318 Y37.8929
G01 X40.7465 Y37.8334
G01 X40.7531 Y37.8097
G01 X40.7608 Y37.7864
G01 X40.7816 Y37.7287
G01 X40.7910 Y37.7060
G01 X40.8224 Y37.6395
G01 X40.8340 Y37.6179
G01 X40.8654 Y37.5652
G01 X40.8785 Y37.5444
G01 X40.8927 Y37.5244
G01 X40.9219 Y37.4850
G01 X40.9370 Y37.4656
G01 X40.9530 Y37.4470
G01 X40.9860 Y37.4107
G01 X41.0029 Y37.3929
G01 X41.0207 Y37.3760
G01 X41.0662 Y37.3349
G01 X41.0852 Y37.3193
G01 X41.1443 Y37.2755
G01 X41.1647 Y37.2618
G01 X41.2173 Y37.2302
G01 X41.2279 Y37.2240
G01 X41.2495 Y37.2124
G01 X41.3049 Y37.1861
G01 X41.3273 Y37.1761
G01 X41.3502 Y37.1673
G01 X41.3964 Y37.1508
G01 X41.4197 Y37.1431
G01 X41.4434 Y37.1365
G01 X41.4910 Y37.1246
G01 X41.5149 Y37.1192
G01 X41.5391 Y37.1150
G01 X41.5876 Y37.1078
G01 X41.6120 Y37.1048
G01 X41.6365 Y37.1030
G01 X41.6855 Y37.1006
G01 X41.7100 Y37.1000
G00 Z2.0000
G00 X41.7100 Y39.6400
G01 F240.00
G01 Z-0.2000
G01 F480.00
G01 X46.7110 Y39.6397
G01 X46.7355 Y39.6404
G01 X46.7968 Y39.6435
G01 X46.8212 Y39.6459
G01 X46.8334 Y39.6476
G01 X46.8820 Y39.6548
G01 X46.9061 Y39.6590
G01 X46.9301 Y39.6643
G01 X46.9777 Y39.6763
G01 X47.0014 Y39.6828
G01 X47.0247 Y39.6905
G01 X47.0709 Y39.7071
G01 X47.0938 Y39.7159
G01 X47.1162 Y39.7258
G01 X47.1606 Y39.7468
G01 X47.1825 Y39.7579
G01 X47.2039 Y39.7700
G01 X47.2460 Y39.7952
G01 X47.2667 Y39.8083
G01 X47.2868 Y39.8225
G01 X47.3262 Y39.8517
G01 X47.3456 Y39.8668
G01 X47.3641 Y39.8828
G01 X47.4005 Y39.9158
G01 X47.4183 Y39.9327
G01 X47.4352 Y39.9505
G01 X47.4763 Y39.9961
G01 X47.4919 Y40.0150
G01 X47.5285 Y40.0642
G01 X47.5427 Y40.0843
G01 X47.5558 Y40.1050
G01 X47.5810 Y40.1471
G01 X47.5931 Y40.1685
G01 X47.6042 Y40.1904
G01 X47.6252 Y40.2348
G01 X47.6351 Y40.2572
G01 X47.6439 Y40.2801
G01 X47.6605 Y40.3263
G01 X47.6682 Y40.3496
G01 X47.6747 Y40.3733
G01 X47.6895 Y40.4329
G01 X47.6943 Y40.4569
G01 X47.7034 Y40.5176
G01 X47.7064 Y40.5420
G01 X47.7082 Y40.5664
G01 X47.7106 Y40.6155
G01 X47.7113 Y40.6400
G01 X47.7113 Y44.5657
G01 X62.9373 Y59.7917
G01 X62.9542 Y59.8095
G01 X62.9872 Y59.8459
G01 X63.0032 Y59.8644
G01 X63.0183 Y59.8838
G01 X63.0475 Y59.9232
G01 X63.0617 Y59.9433
G01 X63.0684 Y59.9536
G01 X63.1062 Y60.0167
G01 X63.1178 Y60.0384
G01 X63.1232 Y60.0494
G01 X63.1442 Y60.0938
G01 X63.1541 Y60.1162
G01 X63.1629 Y60.1391
G01 X63.1795 Y60.1853
G01 X63.1835 Y60.1969
G01 X63.1906 Y60.2204
G01 X63.2057 Y60.2799
G01 X63.2110 Y60.3039
G01 X63.2152 Y60.3280
G01 X63.2224 Y60.3766
G01 X63.2254 Y60.4010
G01 X63.2265 Y60.4132
G01 X63.2296 Y60.4745
G01 X63.2303 Y60.4990
G01 X63.2303 Y61.9024
G01 X63.2892 Y61.9463
G01 X63.3082 Y61.9619
G01 X63.4354 Y62.0772
G01 X63.4442 Y62.0858
G01 X63.4611 Y62.1036
G01 X63.5681 Y62.2218
G01 X63.5760 Y62.2312
G01 X63.5911 Y62.2506
G01 X63.6788 Y62.3688
G01 X63.6929 Y62.3889
G01 X63.7061 Y62.4096
G01 X63.7817 Y62.5359
G01 X63.7938 Y62.5572
G01 X63.7995 Y62.5681
G01 X63.8678 Y62.7122
G01 X63.8778 Y62.7346
G01 X63.8866 Y62.7575
G01 X63.9362 Y62.8961
G01 X63.9439 Y62.9194
G01 X63.9504 Y62.9431
G01 X63.9862 Y63.0859
G01 X63.9916 Y63.1098
G01 X63.9958 Y63.1340
G01 X64.0174 Y63.2796
G01 X64.0204 Y63.3040
G01 X64.0222 Y63.3284
G01 X64.0294 Y63.4755
G01 X64.0300 Y63.5000
G01 X64.0294 Y63.5245
G01 X64.0222 Y63.6716
G01 X64.0204 Y63.6960
G01 X64.0174 Y63.7204
G01 X63.9958 Y63.8660
G01 X63.9916 Y63.8902
G01 X63.9862 Y63.9141
G01 X63.9504 Y64.0569
G01 X63.9439 Y64.0806
G01 X63.9362 Y64.1039
G01 X63.8866 Y64.2425
G01 X63.8778 Y64.2654
G01 X63.8678 Y64.2878
G01 X63.8049 Y64.4209
G01 X63.7938 Y64.4428
G01 X63.7817 Y64.4641
G01 X63.7061 Y64.5904
G01 X63.6929 Y64.6111
G01 X63.6788 Y64.6312
G01 X63.5911 Y64.7494
G01 X63.5760 Y64.7688
G01 X63.5600 Y64.7874
G01 X63.4611 Y64.8964
G01 X63.4442 Y64.9142
G01 X63.4264 Y64.9311
G01 X63.3082 Y65.0381
G01 X63.2892 Y65.0537
G01 X63.2794 Y65.0611
G01 X63.1612 Y65.1488
G01 X63.1411 Y65.1629
G01 X63.1204 Y65.1761
G01 X62.9941 Y65.2517
G01 X62.9728 Y65.2638
G01 X62.9509 Y65.2749
G01 X62.8178 Y65.3378
G01 X62.7954 Y65.3478
G01 X62.7725 Y65.3566
G01 X62.6339 Y65.4062
G01 X62.6106 Y65.4139
G01 X62.5869 Y65.4204
G01 X62.4441 Y65.4562
G01 X62.4322 Y65.4590
G01 X62.4081 Y65.4638
G01 X62.2504 Y65.4874
G01 X62.2260 Y65.4904
G01 X62.2016 Y65.4922
G01 X62.0423 Y65.4998
G01 X61.0300 Y65.5000
G01 X61.0055 Y65.4994
G01 X60.8462 Y65.4914
G01 X60.8218 Y65.4890
G01 X60.8096 Y65.4874
G01 X60.6640 Y65.4658
G01 X60.6398 Y65.4616
G01 X60.6159 Y65.4562
G01 X60.4731 Y65.4204
G01 X60.4494 Y65.4139
G01 X60.4261 Y65.4062
G01 X60.2875 Y65.3566
G01 X60.2646 Y65.3478
G01 X60.2422 Y65.3378
G01 X60.1091 Y65.2749
G01 X60.0872 Y65.2638
G01 X60.0659 Y65.2517
G01 X59.9396 Y65.1761
G01 X59.9189 Y65.1629
G01 X59.8988 Y65.1488
G01 X59.7806 Y65.0611
G01 X59.7612 Y65.0460
G01 X59.7426 Y65.0300
G01 X59.6336 Y64.9311
G01 X59.6158 Y64.9142
G01 X59.5989 Y64.8964
G01 X59.4919 Y64.7782
G01 X59.4763 Y64.7592
G01 X59.4689 Y64.7494
G01 X59.3812 Y64.6312
G01 X59.3671 Y64.6111
G01 X59.3539 Y64.5904
G01 X59.2783 Y64.4641
G01 X59.2662 Y64.4428
G01 X59.2551 Y64.4209
G01 X59.1922 Y64.2878
G01 X59.1822 Y64.2654
G01 X59.1734 Y64.2425
G01 X59.1238 Y64.1039
G01 X59.1161 Y64.0806
G01 X59.1096 Y64.0569
G01 X59.0738 Y63.9141
G01 X59.0684 Y63.8902
G01 X59.0642 Y63.8660
G01 X59.0426 Y63.7204
G01 X59.0396 Y63.6960
G01 X59.0378 Y63.6716
G01 X59.0306 Y63.5245
G01 X59.0300 Y63.5000
G01 X59.0306 Y63.4755
G01 X59.0378 Y63.3284
G01 X59.0396 Y63.3040
G01 X59.0426 Y63.2796
G01 X59.0642 Y63.1340
G01 X59.0684 Y63.1098
G01 X59.0738 Y63.0859
G01 X59.1096 Y62.9431
G01 X59.1161 Y62.9194
G01 X59.1238 Y62.8961
G01 X59.1734 Y62.7575
G01 X59.1777 Y62.7460
G01 X59.1871 Y62.7234
G01 X59.2551 Y62.5791
G01 X59.2662 Y62.5572
G01 X59.2783 Y62.5359
G01 X59.3539 Y62.4096
G01 X59.3671 Y62.3889
G01 X59.3812 Y62.3688
G01 X59.4689 Y62.2506
G01 X59.4840 Y62.2312
G01 X59.5000 Y62.2126
G01 X59.5989 Y62.1036
G01 X59.6158 Y62.0858
G01 X59.6336 Y62.0689
G01 X59.7426 Y61.9700
G01 X59.7612 Y61.9540
G01 X59.7806 Y61.9389
G01 X59.8988 Y61.8512
G01 X59.9189 Y61.8371
G01 X59.9396 Y61.8239
G01 X60.0659 Y61.7483
G01 X60.0872 Y61.7362
G01 X60.1091 Y61.7251
G01 X60.2422 Y61.6622
G01 X60.2646 Y61.6522
G01 X60.2875 Y61.6434
G01 X60.4261 Y61.5938
G01 X60.4494 Y61.5861
G01 X60.4731 Y61.5796
G01 X60.6278 Y61.5410
G01 X60.6398 Y61.5384
G01 X60.6640 Y61.5342
G01 X60.8096 Y61.5126
G01 X60.8340 Y61.5096
G01 X60.8462 Y61.5086
G01 X61.0177 Y61.5002
G01 X61.2297 Y61.5000
G01 X61.2297 Y60.9133
G01 X46.0037 Y45.6873
G01 X45.9868 Y45.6695
G01 X45.9538 Y45.6331
G01 X45.9378 Y45.6146
G01 X45.9227 Y45.5952
G01 X45.8935 Y45.5558
G01 X45.8793 Y45.5357
G01 X45.8662 Y45.5150
G01 X45.8410 Y45.4729
G01 X45.8289 Y45.4515
G01 X45.8178 Y45.4296
G01 X45.7917 Y45.3741
G01 X45.7823 Y45.3514
G01 X45.7615 Y45.2937
G01 X45.7538 Y45.2704
G01 X45.7473 Y45.2467
G01 X45.7325 Y45.1871
G01 X45.7277 Y45.1631
G01 X45.7186 Y45.1024
G01 X45.7156 Y45.0780
G01 X45.7138 Y45.0536
G01 X45.7114 Y45.0045
G01 X45.7107 Y44.9800
G01 X45.7107 Y41.6403
G01 X41.9100 Y41.6403
G01 X41.6977 Y41.6398
G01 X41.6242 Y41.6362
G01 X41.5998 Y41.6338
G01 X41.5270 Y41.6230
G01 X41.5029 Y41.6182
G01 X41.4315 Y41.6004
G01 X41.4080 Y41.5932
G01 X41.3387 Y41.5684
G01 X41.3160 Y41.5590
G01 X41.2605 Y41.5330
G01 X41.2386 Y41.5219
G01 X41.2279 Y41.5160
G01 X41.1752 Y41.4846
G01 X41.1544 Y41.4715
G01 X41.1344 Y41.4573
G01 X41.0852 Y41.4207
G01 X41.0662 Y41.4051
G01 X41.0117 Y41.3557
G01 X41.0029 Y41.3471
G01 X40.9860 Y41.3293
G01 X40.9530 Y41.2930
G01 X40.9370 Y41.2744
G01 X40.9219 Y41.2550
G01 X40.8927 Y41.2156
G01 X40.8785 Y41.1956
G01 X40.8718 Y41.1853
G01 X40.8402 Y41.1327
G01 X40.8281 Y41.1114
G01 X40.8170 Y41.0895
G01 X40.7910 Y41.0340
G01 X40.7816 Y41.0113
G01 X40.7773 Y40.9998
G01 X40.7608 Y40.9536
G01 X40.7531 Y40.9303
G01 X40.7465 Y40.9066
G01 X40.7346 Y40.8590
G01 X40.7292 Y40.8351
G01 X40.7250 Y40.8109
G01 X40.7178 Y40.7624
G01 X40.7148 Y40.7380
G01 X40.7130 Y40.7135
G01 X40.7106 Y40.6645
G01 X40.7100 Y40.6400
G01 X40.7102 Y40.6277
G01 X40.7130 Y40.5665
G01 X40.7148 Y40.5420
G01 X40.7178 Y40.5176
G01 X40.7250 Y40.4691
G01 X40.7292 Y40.4449
G01 X40.7346 Y40.4210
G01 X40.7465 Y40.3734
G01 X40.7496 Y40.3615
G01 X40.7568 Y40.3380
G01 X40.7773 Y40.2802
G01 X40.7861 Y40.2573
G01 X40.7961 Y40.2349
G01 X40.8170 Y40.1905
G01 X40.8281 Y40.1686
G01 X40.8402 Y40.1473
G01 X40.8654 Y40.1052
G01 X40.8718 Y40.0947
G01 X40.8855 Y40.0743
G01 X40.9219 Y40.0250
G01 X40.9370 Y40.0056
G01 X40.9530 Y39.9870
G01 X40.9860 Y39.9507
G01 X41.0029 Y39.9329
G01 X41.0207 Y39.9160
G01 X41.0570 Y39.8830
G01 X41.0756 Y39.8670
G01 X41.0852 Y39.8593
G01 X41.1344 Y39.8227
G01 X41.1544 Y39.8085
G01 X41.1752 Y39.7954
G01 X41.2173 Y39.7702
G01 X41.2386 Y39.7581
G01 X41.2605 Y39.7470
G01 X41.3049 Y39.7261
G01 X41.3273 Y39.7161
G01 X41.3387 Y39.7116
G01 X41.3964 Y39.6908
G01 X41.4197 Y39.6831
G01 X41.4434 Y39.6765
G01 X41.5029 Y39.6618
G01 X41.5149 Y39.6592
G01 X41.5391 Y39.6550
G01 X41.5876 Y39.6478
G01 X41.6120 Y39.6448
G01 X41.6365 Y39.6430
G01 X41.6855 Y39.6406
G01 X41.7100 Y39.6400
G00 Z2.0000
G00 X41.7100 Y42.1800
G01 F240.00
G01 Z-0.2000
G01 F480.00
G01 X44.7223 Y42.1802
G01 X44.7835 Y42.1830
G01 X44.8080 Y42.1848
G01 X44.8324 Y42.1878
G01 X44.8930 Y42.1970
G01 X44.9171 Y42.2018
G01 X44.9766 Y42.2165
G01 X45.0003 Y42.2231
G01 X45.0120 Y42.2268
G01 X45.0813 Y42.2516
G01 X45.1040 Y42.2610
G01 X45.1705 Y42.2924
G01 X45.1921 Y42.3040
G01 X45.2553 Y42.3418
G01 X45.2757 Y42.3555
G01 X45.3348 Y42.3993
G01 X45.3538 Y42.4149
G01 X45.4083 Y42.4643
G01 X45.4257 Y42.4817
G01 X45.4751 Y42.5362
G01 X45.4907 Y42.5552
G01 X45.5345 Y42.6143
G01 X45.5482 Y42.6347
G01 X45.5860 Y42.6979
G01 X45.5976 Y42.7195
G01 X45.6290 Y42.7860
G01 X45.6384 Y42.8087
G01 X45.6632 Y42.8780
G01 X45.6704 Y42.9015
G01 X45.6882 Y42.9729
G01 X45.6930 Y42.9970
G01 X45.7038 Y43.0698
G01 X45.7062 Y43.0942
G01 X45.7098 Y43.1677
G01 X45.7098 Y43.1923
G01 X45.7062 Y43.2658
G01 X45.7038 Y43.2902
G01 X45.6930 Y43.3630
G01 X45.6882 Y43.3871
G01 X45.6704 Y43.4585
G01 X45.6632 Y43.4820
G01 X45.6427 Y43.5398
G01 X45.6339 Y43.5627
G01 X45.6239 Y43.5851
G01 X45.6030 Y43.6295
G01 X45.5976 Y43.6405
G01 X45.5860 Y43.6621
G01 X45.5546 Y43.7148
G01 X45.5415 Y43.7356
G01 X45.5273 Y43.7556
G01 X45.4907 Y43.8048
G01 X45.4751 Y43.8238
G01 X45.4670 Y43.8330
G01 X45.4340 Y43.8693
G01 X45.4171 Y43.8871
G01 X45.3993 Y43.9040
G01 X45.3538 Y43.9451
G01 X45.3348 Y43.9607
G01 X45.2856 Y43.9973
G01 X45.2656 Y44.0115
G01 X45.2553 Y44.0182
G01 X45.2027 Y44.0498
G01 X45.1814 Y44.0619
G01 X45.1595 Y44.0730
G01 X45.1151 Y44.0939
G01 X45.1040 Y44.0990
G01 X45.0813 Y44.1084
G01 X45.0236 Y44.1292
G01 X45.0003 Y44.1369
G01 X44.9766 Y44.1435
G01 X44.9171 Y44.1582
G01 X44.9051 Y44.1608
G01 X44.8809 Y44.1650
G01 X44.8324 Y44.1722
G01 X44.8080 Y44.1752
G01 X44.7835 Y44.1770
G01 X44.7345 Y44.1794
G01 X44.7100 Y44.1800
G01 X41.7100 Y44.1800
G01 X41.6855 Y44.1794
G01 X41.6365 Y44.1770
G01 X41.6120 Y44.1752
G01 X41.5876 Y44.1722
G01 X41.5391 Y44.1650
G01 X41.5149 Y44.1608
G01 X41.4910 Y44.1554
G01 X41.4315 Y44.1404
G01 X41.4080 Y44.1332
G01 X41.3502 Y44.1127
G01 X41.3273 Y44.1039
G01 X41.3049 Y44.0939
G01 X41.2605 Y44.0730
G01 X41.2386 Y44.0619
G01 X41.2173 Y44.0498
G01 X41.1752 Y44.0246
G01 X41.1544 Y44.0115
G01 X41.1344 Y43.9973
G01 X41.0852 Y43.9607
G01 X41.0662 Y43.9451
G01 X41.0117 Y43.8957
G01 X40.9943 Y43.8783
G01 X40.9530 Y43.8330
G01 X40.9370 Y43.8144
G01 X40.9293 Y43.8048
G01 X40.8927 Y43.7556
G01 X40.8785 Y43.7356
G01 X40.8654 Y43.7148
G01 X40.8402 Y43.6727
G01 X40.8281 Y43.6514
G01 X40.8170 Y43.6295
G01 X40.7961 Y43.5851
G01 X40.7861 Y43.5627
G01 X40.7773 Y43.5398
G01 X40.7608 Y43.4936
G01 X40.7531 Y43.4703
G01 X40.7465 Y43.4466
G01 X40.7346 Y43.3990
G01 X40.7292 Y43.3751
G01 X40.7250 Y43.3509
G01 X40.7178 Y43.3024
G01 X40.7148 Y43.2780
G01 X40.7130 Y43.2535
G01 X40.7106 Y43.2045
G01 X40.7100 Y43.1800
G01 X40.7106 Y43.1555
G01 X40.7130 Y43.1065
G01 X40.7148 Y43.0820
G01 X40.7178 Y43.0576
G01 X40.7250 Y43.0091
G01 X40.7270 Y42.9970
G01 X40.7318 Y42.9729
G01 X40.7465 Y42.9134
G01 X40.7531 Y42.8897
G01 X40.7608 Y42.8664
G01 X40.7816 Y42.8087
G01 X40.7910 Y42.7860
G01 X40.8224 Y42.7195
G01 X40.8340 Y42.6979
G01 X40.8654 Y42.6452
G01 X40.8785 Y42.6244
G01 X40.8927 Y42.6044
G01 X40.9219 Y42.5650
G01 X40.9370 Y42.5456
G01 X40.9530 Y42.5270
G01 X40.9860 Y42.4907
G01 X41.0029 Y42.4729
G01 X41.0207 Y42.4560
G01 X41.0662 Y42.4149
G01 X41.0852 Y42.3993
G01 X41.1443 Y42.3555
G01 X41.1647 Y42.3418
G01 X41.2173 Y42.3102
G01 X41.2386 Y42.2981
G01 X41.2495 Y42.2924
G01 X41.3049 Y42.2661
G01 X41.3273 Y42.2561
G01 X41.3502 Y42.2473
G01 X41.3964 Y42.2308
G01 X41.4197 Y42.2231
G01 X41.4434 Y42.2165
G01 X41.4910 Y42.2046
G01 X41.5149 Y42.1992
G01 X41.5391 Y42.1950
G01 X41.5876 Y42.1878
G01 X41.6120 Y42.1848
G01 X41.6365 Y42.1830
G01 X41.6855 Y42.1806
G01 X41.7100 Y42.1800
G00 Z2.0000
G00 X41.7100 Y44.7200
G01 F240.00
G01 Z-0.2000
G01 F480.00
G01 X44.7223 Y44.7202
G01 X44.7835 Y44.7230
G01 X44.8080 Y44.7248
G01 X44.8324 Y44.7278
G01 X44.8930 Y44.7370
G01 X44.9171 Y44.7418
G01 X44.9766 Y44.7565
G01 X44.9885 Y44.7596
G01 X45.0120 Y44.7668
G01 X45.0813 Y44.7916
G01 X45.1040 Y44.8010
G01 X45.1705 Y44.8324
G01 X45.1921 Y44.8440
G01 X45.2553 Y44.8818
G01 X45.2757 Y44.8955
G01 X45.3348 Y44.9393
G01 X45.3538 Y44.9549
G01 X45.4083 Y45.0043
G01 X45.4257 Y45.0217
G01 X45.4751 Y45.0762
G01 X45.4907 Y45.0952
G01 X45.5345 Y45.1543
G01 X45.5482 Y45.1747
G01 X45.5860 Y45.2379
G01 X45.5976 Y45.2595
G01 X45.6290 Y45.3260
G01 X45.6384 Y45.3487
G01 X45.6632 Y45.4180
G01 X45.6704 Y45.4415
G01 X45.6882 Y45.5129
G01 X45.6930 Y45.5370
G01 X45.7038 Y45.6098
G01 X45.7062 Y45.6342
G01 X45.7098 Y45.7077
G01 X45.7098 Y45.7323
G01 X45.7062 Y45.8058
G01 X45.7038 Y45.8302
G01 X45.6930 Y45.9030
G01 X45.6882 Y45.9271
G01 X45.6704 Y45.9985
G01 X45.6632 Y46.0220
G01 X45.6427 Y46.0798
G01 X45.6339 Y46.1027
G01 X45.6239 Y46.1251
G01 X45.6030 Y46.1695
G01 X45.5976 Y46.1805
G01 X45.5860 Y46.2021
G01 X45.5546 Y46.2548
G01 X45.5415 Y46.2756
G01 X45.5273 Y46.2956
G01 X45.4907 Y46.3448
G01 X45.4830 Y46.3544
G01 X45.4670 Y46.3730
G01 X45.4340 Y46.4093
G01 X45.4171 Y46.4271
G01 X45.3993 Y46.4440
G01 X45.3538 Y46.4851
G01 X45.3348 Y46.5007
G01 X45.2856 Y46.5373
G01 X45.2757 Y46.5445
G01 X45.2553 Y46.5582
G01 X45.2027 Y46.5898
G01 X45.1814 Y46.6019
G01 X45.1595 Y46.6130
G01 X45.1151 Y46.6339
G01 X45.1040 Y46.6390
G01 X45.0813 Y46.6484
G01 X45.0236 Y46.6692
G01 X45.0003 Y46.6769
G01 X44.9766 Y46.6835
G01 X44.9171 Y46.6982
G01 X44.9051 Y46.7008
G01 X44.8809 Y46.7050
G01 X44.8324 Y46.7122
G01 X44.8080 Y46.7152
G01 X44.7835 Y46.7170
G01 X44.7345 Y46.7194
G01 X44.7100 Y46.7200
G01 X41.7100 Y46.7200
G01 X41.6855 Y46.7194
G01 X41.6365 Y46.7170
