(G-CODE GENERATED BY FLATCAM v8.994 - www.flatcam.org - Version Date: 2020/11/7)

(Name: io-board-F_Cu.gbr_iso_combined_cnc)
(Type: G-code from Geometry)
(Units: MM)

(Created on Sunday, 02 May 2021 at 16:20)

(This preprocessor is the default preprocessor used by FlatCAM.)
(It is made to work with MACH3 compatible motion controllers.)

(TOOL DIAMETER: 0.1 mm)
(Feedrate_XY: 120.0 mm/min)
(Feedrate_Z: 60.0 mm/min)
(Feedrate rapids 1500.0 mm/min)

(Z_Cut: -0.0 mm)
(Z_Move: 2.0 mm)
(Z Start: None mm)
(Z End: 15.0 mm)
(X,Y End: None mm)
(Steps per circle: 64)
(Preprocessor Geometry: default)

(X range:    4.4154 ...  169.4035  mm)
(Y range:    4.7514 ...  101.9145  mm)

(Spindle Speed: 0.0 RPM)
G21
G90
G94

G01 F120.00

M5
G00 Z15.0000
G00 X0.0000 Y0.0000
T1
M6    
(MSG, Change to Tool Dia = 0.1000)
M0
G00 Z15.0000

M03
G01 F120.00
G00 X13.7774 Y24.7066
G01 F60.00
G01 Z-0.0000
G01 F120.00
G01 X13.7815 Y24.6803
G01 X13.7895 Y24.6483
G01 X13.8006 Y24.6173
G01 X13.8132 Y24.5903
G01 X13.8282 Y24.5646
G01 X13.8353 Y24.5540
G01 X13.8533 Y24.5303
G01 X13.8690 Y24.5130
G01 X13.8756 Y24.5061
G01 X13.8978 Y24.4862
G01 X13.9242 Y24.4666
G01 X13.9525 Y24.4497
G01 X13.9794 Y24.4368
G01 X13.9882 Y24.4333
G01 X14.0103 Y24.4254
G01 X14.0391 Y24.4179
G01 X14.0516 Y24.4154
G01 X14.0747 Y24.4120
G01 X14.0842 Y24.4111
G01 X14.1108 Y24.4100
G01 X15.0992 Y24.4100
G01 X15.1321 Y24.4116
G01 X15.1584 Y24.4154
G01 X15.1709 Y24.4179
G01 X15.1967 Y24.4245
G01 X15.2218 Y24.4333
G01 X15.2335 Y24.4381
G01 X15.2575 Y24.4497
G01 X15.2804 Y24.4632
G01 X15.2910 Y24.4703
G01 X15.3122 Y24.4862
G01 X15.3320 Y24.5040
G01 X15.3410 Y24.5130
G01 X15.3588 Y24.5328
G01 X15.3747 Y24.5540
G01 X15.3818 Y24.5646
G01 X15.3953 Y24.5875
G01 X15.4069 Y24.6115
G01 X15.4117 Y24.6232
G01 X15.4205 Y24.6483
G01 X15.4285 Y24.6803
G01 X15.4334 Y24.7129
G01 X15.4350 Y24.7458
G01 X15.4348 Y28.3406
G01 X15.4334 Y28.3671
G01 X15.4291 Y28.3966
G01 X15.4271 Y28.4059
G01 X15.4196 Y28.4347
G01 X15.4094 Y28.4627
G01 X15.3982 Y28.4868
G01 X15.3922 Y28.4980
G01 X15.3766 Y28.5234
G01 X15.3588 Y28.5472
G01 X15.3410 Y28.5670
G01 X15.3320 Y28.5760
G01 X15.3097 Y28.5958
G01 X15.2858 Y28.6134
G01 X15.2603 Y28.6288
G01 X15.2335 Y28.6419
G01 X15.2218 Y28.6467
G01 X15.1967 Y28.6555
G01 X15.1647 Y28.6635
G01 X15.1321 Y28.6684
G01 X15.1024 Y28.6700
G01 X14.1108 Y28.6700
G01 X14.0842 Y28.6689
G01 X14.0747 Y28.6680
G01 X14.0453 Y28.6635
G01 X14.0195 Y28.6572
G01 X14.0073 Y28.6535
G01 X13.9823 Y28.6444
G01 X13.9582 Y28.6332
G01 X13.9470 Y28.6272
G01 X13.9242 Y28.6134
G01 X13.9003 Y28.5958
G01 X13.8780 Y28.5760
G01 X13.8711 Y28.5694
G01 X13.8512 Y28.5472
G01 X13.8353 Y28.5260
G01 X13.8282 Y28.5154
G01 X13.8147 Y28.4925
G01 X13.8031 Y28.4685
G01 X13.7983 Y28.4568
G01 X13.7895 Y28.4317
G01 X13.7815 Y28.3997
G01 X13.7766 Y28.3671
G01 X13.7750 Y28.3342
G01 X13.7750 Y24.7458
G01 X13.7761 Y24.7192
G01 X13.7774 Y24.7066
G00 Z2.0000
G00 X13.8565 Y24.7183
G01 F60.00
G01 Z-0.0000
G01 F120.00
G01 X13.8599 Y24.6959
G01 X13.8660 Y24.6715
G01 X13.8745 Y24.6479
G01 X13.8852 Y24.6252
G01 X13.8981 Y24.6037
G01 X13.9131 Y24.5835
G01 X13.9299 Y24.5649
G01 X13.9467 Y24.5497
G01 X13.9708 Y24.5318
G01 X13.9902 Y24.5202
G01 X14.0152 Y24.5086
G01 X14.0365 Y24.5010
G01 X14.0609 Y24.4949
G01 X14.0857 Y24.4912
G01 X14.1096 Y24.4900
G01 X15.0992 Y24.4900
G01 X15.1267 Y24.4915
G01 X15.1491 Y24.4949
G01 X15.1711 Y24.5004
G01 X15.1971 Y24.5095
G01 X15.2198 Y24.5202
G01 X15.2392 Y24.5318
G01 X15.2615 Y24.5481
G01 X15.2818 Y24.5667
G01 X15.2969 Y24.5835
G01 X15.3119 Y24.6037
G01 X15.3259 Y24.6274
G01 X15.3355 Y24.6479
G01 X15.3436 Y24.6704
G01 X15.3505 Y24.6983
G01 X15.3538 Y24.7207
G01 X15.3550 Y24.7458
G01 X15.3549 Y28.3367
G01 X15.3538 Y28.3593
G01 X15.3505 Y28.3817
G01 X15.3432 Y28.4108
G01 X15.3355 Y28.4321
G01 X15.3248 Y28.4548
G01 X15.3119 Y28.4763
G01 X15.2984 Y28.4945
G01 X15.2783 Y28.5168
G01 X15.2615 Y28.5319
G01 X15.2413 Y28.5469
G01 X15.2176 Y28.5609
G01 X15.1971 Y28.5705
G01 X15.1746 Y28.5786
G01 X15.1467 Y28.5855
G01 X15.1243 Y28.5888
G01 X15.0992 Y28.5900
G01 X14.1108 Y28.5900
G01 X14.0845 Y28.5886
G01 X14.0609 Y28.5851
G01 X14.0389 Y28.5796
G01 X14.0129 Y28.5705
G01 X13.9902 Y28.5598
G01 X13.9708 Y28.5482
G01 X13.9485 Y28.5319
G01 X13.9282 Y28.5133
G01 X13.9131 Y28.4965
G01 X13.8981 Y28.4763
G01 X13.8841 Y28.4526
G01 X13.8745 Y28.4321
G01 X13.8664 Y28.4096
G01 X13.8595 Y28.3817
G01 X13.8562 Y28.3593
G01 X13.8550 Y28.3342
G01 X13.8550 Y24.7458
G01 X13.8565 Y24.7183
G00 Z2.0000
G00 X18.8598 Y25.1523
G01 F60.00
G01 Z-0.0000
G01 F120.00
G01 X18.8709 Y25.0781
G01 X18.8907 Y24.9991
G01 X18.9182 Y24.9224
G01 X18.9501 Y24.8544
G01 X18.9562 Y24.8432
G01 X18.9915 Y24.7843
G01 X18.9986 Y24.7737
G01 X19.0434 Y24.7135
G01 X19.0981 Y24.6531
G01 X19.1585 Y24.5984
G01 X19.2187 Y24.5536
G01 X19.2293 Y24.5465
G01 X19.2882 Y24.5112
G01 X19.2994 Y24.5051
G01 X19.3674 Y24.4732
G01 X19.4441 Y24.4457
G01 X19.5231 Y24.4259
G01 X19.6036 Y24.4140
G01 X19.6850 Y24.4100
G01 X19.7600 Y24.4135
G01 X19.7727 Y24.4148
G01 X19.8406 Y24.4249
G01 X19.8532 Y24.4273
G01 X19.9259 Y24.4457
G01 X20.0026 Y24.4732
G01 X20.0763 Y24.5080
G01 X20.1461 Y24.5499
G01 X20.2115 Y24.5984
G01 X20.2719 Y24.6531
G01 X20.3266 Y24.7135
G01 X20.3714 Y24.7737
G01 X20.3785 Y24.7843
G01 X20.4138 Y24.8432
G01 X20.4199 Y24.8544
G01 X20.4518 Y24.9224
G01 X20.4793 Y24.9991
G01 X20.4991 Y25.0781
G01 X20.5102 Y25.1523
G01 X20.5115 Y25.1650
G01 X20.5150 Y25.2400
G01 X20.5150 Y27.8400
G01 X20.5110 Y27.9214
G01 X20.5001 Y27.9956
G01 X20.4977 Y28.0082
G01 X20.4793 Y28.0809
G01 X20.4541 Y28.1517
G01 X20.4492 Y28.1635
G01 X20.4170 Y28.2313
G01 X20.3785 Y28.2957
G01 X20.3714 Y28.3063
G01 X20.3305 Y28.3615
G01 X20.3224 Y28.3714
G01 X20.2719 Y28.4269
G01 X20.2164 Y28.4774
G01 X20.2065 Y28.4855
G01 X20.1461 Y28.5301
G01 X20.0763 Y28.5720
G01 X20.0085 Y28.6042
G01 X19.9967 Y28.6091
G01 X19.9259 Y28.6343
G01 X19.8469 Y28.6541
G01 X19.7664 Y28.6660
G01 X19.6850 Y28.6700
G01 X19.6036 Y28.6660
G01 X19.5231 Y28.6541
G01 X19.4441 Y28.6343
G01 X19.3674 Y28.6068
G01 X19.2937 Y28.5720
G01 X19.2239 Y28.5301
G01 X19.1585 Y28.4816
G01 X19.0981 Y28.4269
G01 X19.0434 Y28.3665
G01 X18.9949 Y28.3011
G01 X18.9530 Y28.2313
G01 X18.9182 Y28.1576
G01 X18.8907 Y28.0809
G01 X18.8709 Y28.0019
G01 X18.8598 Y27.9277
G01 X18.8585 Y27.9150
G01 X18.8550 Y27.8400
G01 X18.8550 Y25.2400
G01 X18.8585 Y25.1650
G01 X18.8598 Y25.1523
G00 Z2.0000
G00 X18.9389 Y25.1641
G01 F60.00
G01 Z-0.0000
G01 F120.00
G01 X18.9494 Y25.0937
G01 X18.9673 Y25.0223
G01 X18.9921 Y24.9530
G01 X19.0225 Y24.8886
G01 X19.0628 Y24.8213
G01 X19.1052 Y24.7642
G01 X19.1547 Y24.7097
G01 X19.2092 Y24.6602
G01 X19.2663 Y24.6178
G01 X19.3336 Y24.5775
G01 X19.3980 Y24.5471
G01 X19.4673 Y24.5223
G01 X19.5387 Y24.5044
G01 X19.6115 Y24.4936
G01 X19.6850 Y24.4900
G01 X19.7561 Y24.4934
G01 X19.8337 Y24.5049
G01 X19.9027 Y24.5223
G01 X19.9720 Y24.5471
G01 X20.0385 Y24.5786
G01 X20.1017 Y24.6164
G01 X20.1608 Y24.6602
G01 X20.2153 Y24.7097
G01 X20.2648 Y24.7642
G01 X20.3072 Y24.8213
G01 X20.3475 Y24.8886
G01 X20.3779 Y24.9530
G01 X20.4030 Y25.0235
G01 X20.4206 Y25.0937
G01 X20.4311 Y25.1641
G01 X20.4350 Y25.2400
G01 X20.4350 Y27.8400
G01 X20.4311 Y27.9159
G01 X20.4206 Y27.9863
G01 X20.4034 Y28.0553
G01 X20.3779 Y28.1270
G01 X20.3464 Y28.1935
G01 X20.3099 Y28.2546
G01 X20.2648 Y28.3158
G01 X20.2136 Y28.3720
G01 X20.1608 Y28.4198
G01 X20.1017 Y28.4636
G01 X20.0385 Y28.5014
G01 X19.9743 Y28.5319
G01 X19.9015 Y28.5580
G01 X19.8313 Y28.5756
G01 X19.7585 Y28.5864
G01 X19.6850 Y28.5900
G01 X19.6115 Y28.5864
G01 X19.5387 Y28.5756
G01 X19.4673 Y28.5577
G01 X19.3980 Y28.5329
G01 X19.3315 Y28.5014
G01 X19.2683 Y28.4636
G01 X19.2092 Y28.4198
G01 X19.1547 Y28.3703
G01 X19.1052 Y28.3158
G01 X19.0614 Y28.2567
G01 X19.0236 Y28.1935
G01 X18.9921 Y28.1270
G01 X18.9670 Y28.0565
G01 X18.9494 Y27.9863
G01 X18.9389 Y27.9159
G01 X18.9350 Y27.8400
G01 X18.9350 Y25.2400
G01 X18.9389 Y25.1641
G00 Z2.0000
G00 X21.3998 Y25.1523
G01 F60.00
G01 Z-0.0000
G01 F120.00
G01 X21.4109 Y25.0781
G01 X21.4307 Y24.9991
G01 X21.4582 Y24.9224
G01 X21.4901 Y24.8544
G01 X21.4962 Y24.8432
G01 X21.5315 Y24.7843
G01 X21.5386 Y24.7737
G01 X21.5834 Y24.7135
G01 X21.6381 Y24.6531
G01 X21.6985 Y24.5984
G01 X21.7587 Y24.5536
G01 X21.7693 Y24.5465
G01 X21.8282 Y24.5112
G01 X21.8394 Y24.5051
G01 X21.9074 Y24.4732
G01 X21.9841 Y24.4457
G01 X22.0631 Y24.4259
G01 X22.1436 Y24.4140
G01 X22.2250 Y24.4100
G01 X22.3064 Y24.4140
G01 X22.3869 Y24.4259
G01 X22.4598 Y24.4440
G01 X22.4720 Y24.4477
G01 X22.5367 Y24.4709
G01 X22.5485 Y24.4758
G01 X22.6163 Y24.5080
G01 X22.6861 Y24.5499
G01 X22.7515 Y24.5984
G01 X22.8119 Y24.6531
G01 X22.8666 Y24.7135
G01 X22.9114 Y24.7737
G01 X22.9185 Y24.7843
G01 X22.9538 Y24.8432
G01 X22.9599 Y24.8544
G01 X22.9918 Y24.9224
G01 X23.0193 Y24.9991
G01 X23.0391 Y25.0781
G01 X23.0502 Y25.1523
G01 X23.0515 Y25.1650
G01 X23.0550 Y25.2400
G01 X23.0550 Y27.8400
G01 X23.0510 Y27.9214
G01 X23.0401 Y27.9956
G01 X23.0377 Y28.0082
G01 X23.0193 Y28.0809
G01 X22.9941 Y28.1517
G01 X22.9892 Y28.1635
G01 X22.9570 Y28.2313
G01 X22.9185 Y28.2957
G01 X22.9114 Y28.3063
G01 X22.8705 Y28.3615
G01 X22.8624 Y28.3714
G01 X22.8119 Y28.4269
G01 X22.7564 Y28.4774
G01 X22.7465 Y28.4855
G01 X22.6861 Y28.5301
G01 X22.6163 Y28.5720
G01 X22.5485 Y28.6042
G01 X22.5367 Y28.6091
G01 X22.4659 Y28.6343
G01 X22.3869 Y28.6541
G01 X22.3064 Y28.6660
G01 X22.2250 Y28.6700
G01 X22.1436 Y28.6660
G01 X22.0631 Y28.6541
G01 X21.9841 Y28.6343
G01 X21.9074 Y28.6068
G01 X21.8337 Y28.5720
G01 X21.7639 Y28.5301
G01 X21.6985 Y28.4816
G01 X21.6381 Y28.4269
G01 X21.5834 Y28.3665
G01 X21.5349 Y28.3011
G01 X21.4930 Y28.2313
G01 X21.4582 Y28.1576
G01 X21.4307 Y28.0809
G01 X21.4109 Y28.0019
G01 X21.3998 Y27.9277
G01 X21.3985 Y27.9150
G01 X21.3950 Y27.8400
G01 X21.3950 Y25.2400
G01 X21.3985 Y25.1650
G01 X21.3998 Y25.1523
G00 Z2.0000
G00 X21.4789 Y25.1641
G01 F60.00
G01 Z-0.0000
G01 F120.00
G01 X21.4894 Y25.0937
G01 X21.5073 Y25.0223
G01 X21.5321 Y24.9530
G01 X21.5625 Y24.8886
G01 X21.6028 Y24.8213
G01 X21.6452 Y24.7642
G01 X21.6947 Y24.7097
G01 X21.7492 Y24.6602
G01 X21.8063 Y24.6178
G01 X21.8736 Y24.5775
G01 X21.9380 Y24.5471
G01 X22.0073 Y24.5223
G01 X22.0787 Y24.5044
G01 X22.1515 Y24.4936
G01 X22.2250 Y24.4900
G01 X22.2985 Y24.4936
G01 X22.3713 Y24.5044
G01 X22.4403 Y24.5216
G01 X22.5143 Y24.5481
G01 X22.5785 Y24.5786
G01 X22.6417 Y24.6164
G01 X22.7008 Y24.6602
G01 X22.7553 Y24.7097
G01 X22.8048 Y24.7642
G01 X22.8472 Y24.8213
G01 X22.8875 Y24.8886
G01 X22.9179 Y24.9530
G01 X22.9430 Y25.0235
G01 X22.9606 Y25.0937
G01 X22.9711 Y25.1641
G01 X22.9750 Y25.2400
G01 X22.9750 Y27.8400
G01 X22.9711 Y27.9159
G01 X22.9606 Y27.9863
G01 X22.9434 Y28.0553
G01 X22.9179 Y28.1270
G01 X22.8864 Y28.1935
G01 X22.8499 Y28.2546
G01 X22.8048 Y28.3158
G01 X22.7536 Y28.3720
G01 X22.7008 Y28.4198
G01 X22.6417 Y28.4636
G01 X22.5785 Y28.5014
G01 X22.5143 Y28.5319
G01 X22.4415 Y28.5580
G01 X22.3713 Y28.5756
G01 X22.2985 Y28.5864
G01 X22.2250 Y28.5900
G01 X22.1515 Y28.5864
G01 X22.0787 Y28.5756
G01 X22.0073 Y28.5577
G01 X21.9380 Y28.5329
G01 X21.8715 Y28.5014
G01 X21.8083 Y28.4636
G01 X21.7492 Y28.4198
G01 X21.6947 Y28.3703
G01 X21.6452 Y28.3158
G01 X21.6014 Y28.2567
G01 X21.5636 Y28.1935
G01 X21.5321 Y28.1270
G01 X21.5070 Y28.0565
G01 X21.4894 Y27.9863
G01 X21.4789 Y27.9159
G01 X21.4750 Y27.8400
G01 X21.4750 Y25.2400
G01 X21.4789 Y25.1641
G00 Z2.0000
G00 X23.9398 Y25.1523
G01 F60.00
G01 Z-0.0000
G01 F120.00
G01 X23.9509 Y25.0781
G01 X23.9690 Y25.0052
G01 X23.9727 Y24.9930
G01 X23.9959 Y24.9283
G01 X24.0008 Y24.9165
G01 X24.0330 Y24.8487
G01 X24.0632 Y24.7980
G01 X24.0633 Y21.4743
G01 X24.0666 Y21.4087
G01 X24.0756 Y21.3469
G01 X24.0781 Y21.3344
G01 X24.0934 Y21.2738
G01 X24.1166 Y21.2089
G01 X24.1432 Y21.1524
G01 X24.1492 Y21.1411
G01 X24.1781 Y21.0930
G01 X24.1833 Y21.0850
G01 X24.2225 Y21.0323
G01 X24.2688 Y20.9813
G01 X33.0905 Y12.1596
G01 X33.1415 Y12.1133
G01 X33.1916 Y12.0760
G01 X33.2022 Y12.0689
G01 X33.2559 Y12.0369
G01 X33.3181 Y12.0074
G01 X33.3769 Y11.9862
G01 X33.3891 Y11.9825
G01 X33.4436 Y11.9689
G01 X33.4529 Y11.9669
G01 X33.5179 Y11.9574
G01 X33.5867 Y11.9540
G01 X83.0726 Y11.9540
G01 X83.1350 Y11.9569
G01 X83.1477 Y11.9582
G01 X83.2032 Y11.9664
G01 X83.2157 Y11.9689
G01 X83.2763 Y11.9842
G01 X83.3412 Y12.0074
G01 X83.4034 Y12.0369
G01 X83.4571 Y12.0689
G01 X83.4677 Y12.0760
G01 X83.5128 Y12.1094
G01 X83.5226 Y12.1175
G01 X83.5688 Y12.1596
G01 X85.1826 Y13.7734
G01 X85.2045 Y13.7705
G01 X85.3121 Y13.7653
G01 X85.4229 Y13.7707
G01 X85.5326 Y13.7870
G01 X85.6401 Y13.8140
G01 X85.7445 Y13.8513
G01 X85.8448 Y13.8987
G01 X85.9399 Y13.9557
G01 X86.0290 Y14.0218
G01 X86.1111 Y14.0963
G01 X86.1856 Y14.1784
G01 X86.2517 Y14.2675
G01 X86.3055 Y14.3571
G01 X86.3115 Y14.3683
G01 X86.3535 Y14.4570
G01 X86.3584 Y14.4688
G01 X86.3934 Y14.5673
G01 X86.4190 Y14.6686
G01 X86.4210 Y14.6780
G01 X86.4367 Y14.7845
G01 X86.4419 Y14.8889
G01 X86.4419 Y14.9017
G01 X86.4371 Y14.9997
G01 X86.4359 Y15.0124
G01 X86.4204 Y15.1158
G01 X86.3951 Y15.2172
G01 X86.3914 Y15.2294
G01 X86.3561 Y15.3277
G01 X86.3087 Y15.4280
G01 X86.2517 Y15.5231
G01 X86.1856 Y15.6122
G01 X86.1111 Y15.6943
G01 X86.0338 Y15.7646
G01 X86.0239 Y15.7727
G01 X85.9451 Y15.8312
G01 X85.9345 Y15.8383
G01 X85.8448 Y15.8919
G01 X85.7504 Y15.9367
G01 X85.7386 Y15.9416
G01 X85.6401 Y15.9766
G01 X85.5326 Y16.0036
G01 X85.4229 Y16.0199
G01 X85.3185 Y16.0251
G01 X85.3089 Y16.0253
G01 X85.2013 Y16.0199
G01 X85.0916 Y16.0036
G01 X84.9841 Y15.9766
G01 X84.8797 Y15.9393
G01 X84.7794 Y15.8919
G01 X84.6843 Y15.8349
G01 X84.5952 Y15.7688
G01 X84.5177 Y15.6987
G01 X84.5108 Y15.6920
G01 X84.4386 Y15.6122
G01 X84.3762 Y15.5283
G01 X84.3691 Y15.5177
G01 X84.3155 Y15.4280
G01 X84.2707 Y15.3336
G01 X84.2658 Y15.3218
G01 X84.2328 Y15.2294
G01 X84.2291 Y15.2172
G01 X84.2038 Y15.1158
G01 X84.1875 Y15.0061
G01 X84.1821 Y14.8953
G01 X84.1873 Y14.7877
G01 X84.1902 Y14.7658
G01 X82.7819 Y13.3576
G01 X33.8774 Y13.3576
G01 X25.4668 Y21.7682
G01 X25.4668 Y24.7980
G01 X25.4970 Y24.8487
G01 X25.5292 Y24.9165
G01 X25.5341 Y24.9283
G01 X25.5593 Y24.9991
G01 X25.5777 Y25.0718
G01 X25.5801 Y25.0844
G01 X25.5910 Y25.1586
G01 X25.5948 Y25.2336
G01 X25.5950 Y27.8400
G01 X25.5913 Y27.9182
G01 X25.5902 Y27.9277
G01 X25.5801 Y27.9956
G01 X25.5777 Y28.0082
G01 X25.5593 Y28.0809
G01 X25.5318 Y28.1576
G01 X25.4970 Y28.2313
G01 X25.4585 Y28.2957
G01 X25.4514 Y28.3063
G01 X25.4066 Y28.3665
G01 X25.3563 Y28.4223
G01 X25.3473 Y28.4313
G01 X25.2915 Y28.4816
G01 X25.2261 Y28.5301
G01 X25.1563 Y28.5720
G01 X25.0885 Y28.6042
G01 X25.0767 Y28.6091
G01 X25.0059 Y28.6343
G01 X24.9269 Y28.6541
G01 X24.8464 Y28.6660
G01 X24.7650 Y28.6700
G01 X24.6836 Y28.6660
G01 X24.6031 Y28.6541
G01 X24.5241 Y28.6343
G01 X24.4474 Y28.6068
G01 X24.3737 Y28.5720
G01 X24.3039 Y28.5301
G01 X24.2385 Y28.4816
G01 X24.1781 Y28.4269
G01 X24.1234 Y28.3665
G01 X24.0749 Y28.3011
G01 X24.0330 Y28.2313
G01 X23.9982 Y28.1576
G01 X23.9707 Y28.0809
G01 X23.9509 Y28.0019
G01 X23.9398 Y27.9277
G01 X23.9385 Y27.9150
G01 X23.9350 Y27.8400
G01 X23.9350 Y25.2400
G01 X23.9385 Y25.1650
G01 X23.9398 Y25.1523
G00 Z2.0000
G00 X24.0189 Y25.1641
G01 F60.00
G01 Z-0.0000
G01 F120.00
G01 X24.0294 Y25.0937
G01 X24.0466 Y25.0247
G01 X24.0712 Y24.9553
G01 X24.1036 Y24.8865
G01 X24.1401 Y24.8254
G01 X24.1432 Y24.8208
G01 X24.1432 Y21.4763
G01 X24.1462 Y21.4166
G01 X24.1547 Y21.3586
G01 X24.1700 Y21.2970
G01 X24.1905 Y21.2396
G01 X24.2155 Y21.1866
G01 X24.2487 Y21.1310
G01 X24.2844 Y21.0830
G01 X24.3253 Y21.0378
G01 X33.1470 Y12.2161
G01 X33.1922 Y12.1752
G01 X33.2392 Y12.1402
G01 X33.2936 Y12.1074
G01 X33.3488 Y12.0813
G01 X33.4039 Y12.0616
G01 X33.4666 Y12.0457
G01 X33.5258 Y12.0370
G01 X33.5867 Y12.0340
G01 X83.0726 Y12.0340
G01 X83.1311 Y12.0368
G01 X83.1963 Y12.0465
G01 X83.2531 Y12.0608
G01 X83.3105 Y12.0813
G01 X83.3657 Y12.1074
G01 X83.4160 Y12.1375
G01 X83.4689 Y12.1768
G01 X83.5123 Y12.2161
G01 X85.1545 Y13.8584
G01 X85.2104 Y13.8503
G01 X85.3109 Y13.8453
G01 X85.4138 Y13.8503
G01 X85.5169 Y13.8655
G01 X85.6157 Y13.8902
G01 X85.7139 Y13.9252
G01 X85.8071 Y13.9693
G01 X85.8954 Y14.0223
G01 X85.9782 Y14.0836
G01 X86.0546 Y14.1528
G01 X86.1238 Y14.2292
G01 X86.1851 Y14.3120
G01 X86.2369 Y14.3982
G01 X86.2831 Y14.4958
G01 X86.3169 Y14.5905
G01 X86.3421 Y14.6917
G01 X86.3570 Y14.7924
G01 X86.3620 Y14.8928
G01 X86.3570 Y14.9982
G01 X86.3414 Y15.1025
G01 X86.3169 Y15.2001
G01 X86.2831 Y15.2948
G01 X86.2381 Y15.3903
G01 X86.1837 Y15.4807
G01 X86.1238 Y15.5614
G01 X86.0563 Y15.6360
G01 X85.9782 Y15.7070
G01 X85.8934 Y15.7697
G01 X85.8071 Y15.8213
G01 X85.7139 Y15.8654
G01 X85.6145 Y15.9007
G01 X85.5169 Y15.9251
G01 X85.4175 Y15.9399
G01 X85.3121 Y15.9453
G01 X85.2067 Y15.9399
G01 X85.1073 Y15.9251
G01 X85.0097 Y15.9007
G01 X84.9103 Y15.8654
G01 X84.8171 Y15.8213
G01 X84.7308 Y15.7697
G01 X84.6441 Y15.7054
G01 X84.5696 Y15.6378
G01 X84.5004 Y15.5614
G01 X84.4391 Y15.4786
G01 X84.3867 Y15.3913
G01 X84.3411 Y15.2948
G01 X84.3073 Y15.2001
G01 X84.2821 Y15.0989
G01 X84.2672 Y14.9982
G01 X84.2621 Y14.8965
G01 X84.2671 Y14.7936
G01 X84.2752 Y14.7377
G01 X82.8150 Y13.2776
G01 X33.8443 Y13.2776
G01 X25.3868 Y21.7351
G01 X25.3868 Y24.8208
G01 X25.3899 Y24.8254
G01 X25.4275 Y24.8886
G01 X25.4579 Y24.9530
G01 X25.4827 Y25.0223
G01 X25.5010 Y25.0961
G01 X25.5114 Y25.1665
G01 X25.5149 Y25.2375
G01 X25.5150 Y27.8400
G01 X25.5116 Y27.9111
G01 X25.5001 Y27.9887
G01 X25.4827 Y28.0577
G01 X25.4579 Y28.1270
G01 X25.4264 Y28.1935
G01 X25.3899 Y28.2546
G01 X25.3448 Y28.3158
G01 X25.2936 Y28.3720
G01 X25.2408 Y28.4198
G01 X25.1817 Y28.4636
G01 X25.1185 Y28.5014
G01 X25.0543 Y28.5319
G01 X24.9815 Y28.5580
G01 X24.9113 Y28.5756
G01 X24.8385 Y28.5864
G01 X24.7650 Y28.5900
G01 X24.6915 Y28.5864
G01 X24.6187 Y28.5756
G01 X24.5473 Y28.5577
G01 X24.4780 Y28.5329
G01 X24.4115 Y28.5014
G01 X24.3483 Y28.4636
G01 X24.2892 Y28.4198
G01 X24.2347 Y28.3703
G01 X24.1852 Y28.3158
G01 X24.1414 Y28.2567
G01 X24.1036 Y28.1935
G01 X24.0721 Y28.1270
G01 X24.0470 Y28.0565
G01 X24.0294 Y27.9863
G01 X24.0189 Y27.9159
G01 X24.0150 Y27.8400
G01 X24.0150 Y25.2400
G01 X24.0189 Y25.1641
G00 Z2.0000
G00 X26.4798 Y25.1523
G01 F60.00
G01 Z-0.0000
G01 F120.00
G01 X26.4909 Y25.0781
G01 X26.5090 Y25.0052
G01 X26.5127 Y24.9930
G01 X26.5359 Y24.9283
G01 X26.5408 Y24.9165
G01 X26.5730 Y24.8487
G01 X26.6032 Y24.7980
G01 X26.6033 Y21.8575
G01 X26.6066 Y21.7919
G01 X26.6156 Y21.7301
G01 X26.6181 Y21.7176
G01 X26.6334 Y21.6570
G01 X26.6566 Y21.5921
G01 X26.6832 Y21.5356
G01 X26.6892 Y21.5243
G01 X26.7181 Y21.4762
G01 X26.7233 Y21.4682
G01 X26.7625 Y21.4155
G01 X26.8088 Y21.3645
G01 X33.9134 Y14.2599
G01 X33.9644 Y14.2136
G01 X34.0145 Y14.1763
G01 X34.0251 Y14.1692
G01 X34.0788 Y14.1372
G01 X34.1410 Y14.1077
G01 X34.1998 Y14.0865
G01 X34.2120 Y14.0828
G01 X34.2727 Y14.0678
G01 X34.3408 Y14.0577
G01 X34.4096 Y14.0543
G01 X81.4194 Y14.0545
G01 X81.4818 Y14.0577
G01 X81.5499 Y14.0678
G01 X81.6167 Y14.0845
G01 X81.6756 Y14.1054
G01 X81.6874 Y14.1103
G01 X81.7438 Y14.1372
G01 X81.7975 Y14.1692
G01 X81.8081 Y14.1763
G01 X81.8532 Y14.2097
G01 X81.8630 Y14.2178
G01 X81.9092 Y14.2599
G01 X84.3424 Y16.6930
G01 X88.1855 Y16.6930
G01 X97.6026 Y7.2760
G01 X97.6488 Y7.2339
G01 X97.6586 Y7.2258
G01 X97.7089 Y7.1887
G01 X97.7624 Y7.1564
G01 X97.7737 Y7.1504
G01 X97.8302 Y7.1238
G01 X97.8951 Y7.1006
G01 X97.9619 Y7.0839
G01 X98.0237 Y7.0746
G01 X98.0364 Y7.0733
G01 X98.0988 Y7.0704
G01 X121.2320 Y7.0705
G01 X121.2976 Y7.0738
G01 X121.3657 Y7.0839
G01 X121.4325 Y7.1006
G01 X121.4974 Y7.1238
G01 X121.5596 Y7.1533
G01 X121.6187 Y7.1887
G01 X121.6740 Y7.2297
G01 X121.7250 Y7.2760
G01 X137.0212 Y22.5722
G01 X137.0633 Y22.6184
G01 X137.0695 Y22.6257
G01 X137.1085 Y22.6785
G01 X137.1408 Y22.7320
G01 X137.1468 Y22.7433
G01 X137.1734 Y22.7998
G01 X137.1946 Y22.8586
G01 X137.1983 Y22.8708
G01 X137.2133 Y22.9315
G01 X137.2231 Y22.9964
G01 X137.2239 Y23.0060
G01 X137.2268 Y23.0684
G01 X137.2268 Y24.7980
G01 X137.2570 Y24.8487
G01 X137.2892 Y24.9165
G01 X137.2941 Y24.9283
G01 X137.3183 Y24.9960
G01 X137.3210 Y25.0052
G01 X137.3391 Y25.0781
G01 X137.3502 Y25.1523
G01 X137.3515 Y25.1650
G01 X137.3550 Y25.2400
G01 X137.3550 Y27.8432
G01 X137.3510 Y27.9214
G01 X137.3391 Y28.0019
G01 X137.3193 Y28.0809
G01 X137.2941 Y28.1517
G01 X137.2892 Y28.1635
G01 X137.2570 Y28.2313
G01 X137.2185 Y28.2957
G01 X137.2114 Y28.3063
G01 X137.1705 Y28.3615
G01 X137.1624 Y28.3714
G01 X137.1119 Y28.4269
G01 X137.0515 Y28.4816
G01 X136.9861 Y28.5301
G01 X136.9163 Y28.5720
G01 X136.8426 Y28.6068
G01 X136.7659 Y28.6343
G01 X136.6869 Y28.6541
G01 X136.6127 Y28.6652
G01 X136.6000 Y28.6665
G01 X136.5250 Y28.6700
G01 X136.4500 Y28.6665
G01 X136.4373 Y28.6652
G01 X136.3694 Y28.6551
G01 X136.3568 Y28.6527
G01 X136.2841 Y28.6343
G01 X136.2074 Y28.6068
G01 X136.1337 Y28.5720
G01 X136.0639 Y28.5301
G01 X135.9985 Y28.4816
G01 X135.9427 Y28.4313
G01 X135.9337 Y28.4223
G01 X135.8876 Y28.3714
G01 X135.8795 Y28.3615
G01 X135.8349 Y28.3011
G01 X135.7930 Y28.2313
G01 X135.7582 Y28.1576
G01 X135.7317 Y28.0840
G01 X135.7290 Y28.0748
G01 X135.7123 Y28.0082
G01 X135.7099 Y27.9956
G01 X135.6990 Y27.9214
G01 X135.6950 Y27.8432
G01 X135.6950 Y25.2368
G01 X135.6990 Y25.1586
G01 X135.7099 Y25.0844
G01 X135.7123 Y25.0718
G01 X135.7307 Y24.9991
G01 X135.7559 Y24.9283
G01 X135.7608 Y24.9165
G01 X135.7930 Y24.8487
G01 X135.8232 Y24.7980
G01 X135.8232 Y23.3591
G01 X120.9381 Y8.4740
G01 X98.3895 Y8.4740
G01 X88.9724 Y17.8910
G01 X88.9214 Y17.9373
G01 X88.8713 Y17.9746
G01 X88.8607 Y17.9817
G01 X88.8070 Y18.0137
G01 X88.7448 Y18.0432
G01 X88.6799 Y18.0664
G01 X88.6193 Y18.0817
G01 X88.6068 Y18.0842
G01 X88.5513 Y18.0924
G01 X88.5386 Y18.0937
G01 X88.4762 Y18.0966
G01 X86.0159 Y18.0966
G01 X86.0197 Y18.1219
G01 X86.0207 Y18.1314
G01 X86.0259 Y18.2358
G01 X86.0257 Y18.2454
G01 X86.0207 Y18.3466
G01 X86.0197 Y18.3561
G01 X86.0042 Y18.4595
G01 X85.9781 Y18.5640
G01 X85.9752 Y18.5731
G01 X85.9399 Y18.6714
G01 X85.8925 Y18.7717
G01 X85.8355 Y18.8668
G01 X85.7714 Y18.9534
G01 X85.7652 Y18.9607
G01 X85.6949 Y19.0380
G01 X85.6128 Y19.1125
G01 X85.5237 Y19.1786
G01 X85.4286 Y19.2356
G01 X85.3283 Y19.2830
G01 X85.2239 Y19.3203
G01 X85.1164 Y19.3473
G01 X85.0130 Y19.3628
G01 X85.0035 Y19.3638
G01 X84.8959 Y19.3690
G01 X84.7915 Y19.3640
G01 X84.7788 Y19.3628
G01 X84.6754 Y19.3473
G01 X84.5740 Y19.3220
G01 X84.5618 Y19.3183
G01 X84.4694 Y19.2853
G01 X84.4576 Y19.2804
G01 X84.3632 Y19.2356
G01 X84.2681 Y19.1786
G01 X84.1790 Y19.1125
G01 X84.0969 Y19.0380
G01 X84.0224 Y18.9559
G01 X83.9600 Y18.8720
G01 X83.9529 Y18.8614
G01 X83.8993 Y18.7717
G01 X83.8545 Y18.6773
G01 X83.8496 Y18.6655
G01 X83.8146 Y18.5670
G01 X83.7876 Y18.4595
G01 X83.7721 Y18.3561
G01 X83.7709 Y18.3434
G01 X83.7661 Y18.2454
G01 X83.7661 Y18.2326
G01 X83.7713 Y18.1282
G01 X83.7838 Y18.0434
G01 X83.7209 Y18.0137
G01 X83.6618 Y17.9783
G01 X83.6065 Y17.9373
G01 X83.5577 Y17.8933
G01 X81.1223 Y15.4579
G01 X34.7003 Y15.4579
G01 X28.0068 Y22.1514
G01 X28.0068 Y24.7980
G01 X28.0370 Y24.8487
G01 X28.0692 Y24.9165
G01 X28.0741 Y24.9283
G01 X28.0993 Y24.9991
G01 X28.1177 Y25.0718
G01 X28.1201 Y25.0844
G01 X28.1310 Y25.1586
G01 X28.1350 Y25.2368
G01 X28.1350 Y27.8400
G01 X28.1313 Y27.9182
G01 X28.1302 Y27.9277
G01 X28.1201 Y27.9956
G01 X28.1177 Y28.0082
G01 X28.0993 Y28.0809
G01 X28.0718 Y28.1576
G01 X28.0370 Y28.2313
G01 X27.9985 Y28.2957
G01 X27.9914 Y28.3063
G01 X27.9466 Y28.3665
G01 X27.8963 Y28.4223
G01 X27.8873 Y28.4313
G01 X27.8315 Y28.4816
G01 X27.7661 Y28.5301
G01 X27.6963 Y28.5720
G01 X27.6285 Y28.6042
G01 X27.6167 Y28.6091
G01 X27.5459 Y28.6343
G01 X27.4669 Y28.6541
G01 X27.3864 Y28.6660
G01 X27.3050 Y28.6700
G01 X27.2236 Y28.6660
G01 X27.1431 Y28.6541
G01 X27.0641 Y28.6343
G01 X26.9874 Y28.6068
G01 X26.9137 Y28.5720
G01 X26.8439 Y28.5301
G01 X26.7785 Y28.4816
G01 X26.7181 Y28.4269
G01 X26.6634 Y28.3665
G01 X26.6149 Y28.3011
G01 X26.5730 Y28.2313
G01 X26.5382 Y28.1576
G01 X26.5107 Y28.0809
G01 X26.4909 Y28.0019
G01 X26.4798 Y27.9277
G01 X26.4785 Y27.9150
G01 X26.4750 Y27.8400
G01 X26.4750 Y25.2400
G01 X26.4785 Y25.1650
G01 X26.4798 Y25.1523
G00 Z2.0000
G00 X26.5589 Y25.1641
G01 F60.00
G01 Z-0.0000
G01 F120.00
G01 X26.5694 Y25.0937
G01 X26.5866 Y25.0247
G01 X26.6112 Y24.9553
G01 X26.6436 Y24.8865
G01 X26.6801 Y24.8254
G01 X26.6832 Y24.8208
G01 X26.6832 Y21.8595
G01 X26.6862 Y21.7998
G01 X26.6947 Y21.7418
G01 X26.7100 Y21.6802
G01 X26.7305 Y21.6228
G01 X26.7555 Y21.5698
G01 X26.7887 Y21.5142
G01 X26.8244 Y21.4662
G01 X26.8653 Y21.4210
G01 X33.9699 Y14.3164
G01 X34.0151 Y14.2755
G01 X34.0621 Y14.2405
G01 X34.1165 Y14.2077
G01 X34.1717 Y14.1816
G01 X34.2268 Y14.1619
G01 X34.2883 Y14.1463
G01 X34.3487 Y14.1373
G01 X34.4096 Y14.1343
G01 X81.4155 Y14.1344
G01 X81.4739 Y14.1373
G01 X81.5343 Y14.1463
G01 X81.5935 Y14.1611
G01 X81.6509 Y14.1816
G01 X81.7061 Y14.2077
G01 X81.7584 Y14.2391
G01 X81.8075 Y14.2755
G01 X81.8509 Y14.3147
G01 X84.3093 Y16.7730
G01 X88.2186 Y16.7730
G01 X97.6591 Y7.3325
G01 X97.7063 Y7.2900
G01 X97.7534 Y7.2552
G01 X97.8036 Y7.2250
G01 X97.8609 Y7.1977
G01 X97.9183 Y7.1772
G01 X97.9775 Y7.1624
G01 X98.0354 Y7.1537
G01 X98.0988 Y7.1504
G01 X121.2300 Y7.1504
G01 X121.2897 Y7.1534
G01 X121.3501 Y7.1624
G01 X121.4093 Y7.1772
G01 X121.4667 Y7.1977
G01 X121.5219 Y7.2238
G01 X121.5742 Y7.2552
G01 X121.6233 Y7.2916
G01 X121.6685 Y7.3325
G01 X136.9647 Y22.6287
G01 X137.0064 Y22.6749
G01 X137.0420 Y22.7230
G01 X137.0722 Y22.7732
G01 X137.0995 Y22.8305
G01 X137.1207 Y22.8903
G01 X137.1348 Y22.9471
G01 X137.1438 Y23.0075
G01 X137.1468 Y23.0684
G01 X137.1468 Y24.8208
G01 X137.1499 Y24.8254
G01 X137.1864 Y24.8865
G01 X137.2188 Y24.9553
G01 X137.2427 Y25.0223
G01 X137.2601 Y25.0913
G01 X137.2716 Y25.1689
G01 X137.2750 Y25.2400
G01 X137.2750 Y27.8412
G01 X137.2714 Y27.9135
G01 X137.2606 Y27.9863
G01 X137.2427 Y28.0577
G01 X137.2188 Y28.1247
G01 X137.1864 Y28.1935
G01 X137.1499 Y28.2546
G01 X137.1032 Y28.3177
G01 X137.0553 Y28.3703
G01 X137.0008 Y28.4198
G01 X136.9417 Y28.4636
G01 X136.8785 Y28.5014
G01 X136.8120 Y28.5329
G01 X136.7427 Y28.5577
G01 X136.6713 Y28.5756
G01 X136.6009 Y28.5861
G01 X136.5250 Y28.5900
G01 X136.4539 Y28.5866
G01 X136.3763 Y28.5751
G01 X136.3073 Y28.5577
G01 X136.2380 Y28.5329
G01 X136.1715 Y28.5014
G01 X136.1083 Y28.4636
G01 X136.0492 Y28.4198
G01 X135.9947 Y28.3703
G01 X135.9452 Y28.3158
G01 X135.9028 Y28.2587
G01 X135.8625 Y28.1914
G01 X135.8321 Y28.1270
G01 X135.8073 Y28.0577
G01 X135.7894 Y27.9863
G01 X135.7789 Y27.9159
G01 X135.7750 Y27.8400
G01 X135.7750 Y25.2388
G01 X135.7786 Y25.1665
G01 X135.7890 Y25.0961
G01 X135.8073 Y25.0223
G01 X135.8321 Y24.9530
G01 X135.8625 Y24.8886
G01 X135.9001 Y24.8254
G01 X135.9032 Y24.8208
G01 X135.9032 Y23.3260
G01 X120.9712 Y8.3940
G01 X98.3564 Y8.3940
G01 X88.9159 Y17.8345
G01 X88.8707 Y17.8754
G01 X88.8216 Y17.9118
G01 X88.7714 Y17.9420
G01 X88.7119 Y17.9701
G01 X88.6567 Y17.9898
G01 X88.5975 Y18.0046
G01 X88.5371 Y18.0136
G01 X88.4787 Y18.0165
G01 X85.9214 Y18.0166
G01 X85.9259 Y18.0354
G01 X85.9408 Y18.1361
G01 X85.9459 Y18.2390
G01 X85.9408 Y18.3419
G01 X85.9257 Y18.4438
G01 X85.9007 Y18.5438
G01 X85.8660 Y18.6408
G01 X85.8219 Y18.7340
G01 X85.7675 Y18.8244
G01 X85.7076 Y18.9051
G01 X85.6366 Y18.9832
G01 X85.5601 Y19.0522
G01 X85.4792 Y19.1120
G01 X85.3930 Y19.1638
G01 X85.2977 Y19.2091
G01 X85.2007 Y19.2438
G01 X85.1007 Y19.2688
G01 X84.9976 Y19.2840
G01 X84.8959 Y19.2890
G01 X84.7905 Y19.2836
G01 X84.6911 Y19.2688
G01 X84.5935 Y19.2444
G01 X84.4964 Y19.2100
G01 X84.4009 Y19.1650
G01 X84.3126 Y19.1120
G01 X84.2298 Y19.0507
G01 X84.1534 Y18.9815
G01 X84.0827 Y18.9032
G01 X84.0229 Y18.8223
G01 X83.9711 Y18.7361
G01 X83.9258 Y18.6408
G01 X83.8908 Y18.5426
G01 X83.8661 Y18.4438
G01 X83.8513 Y18.3444
G01 X83.8459 Y18.2402
G01 X83.8511 Y18.1349
G01 X83.8659 Y18.0354
G01 X83.8768 Y17.9913
G01 X83.8689 Y17.9890
G01 X83.8138 Y17.9693
G01 X83.7565 Y17.9420
G01 X83.7063 Y17.9118
G01 X83.6592 Y17.8770
G01 X83.6129 Y17.8353
G01 X81.1554 Y15.3779
G01 X34.6672 Y15.3779
G01 X27.9268 Y22.1183
G01 X27.9268 Y24.8208
G01 X27.9299 Y24.8254
G01 X27.9675 Y24.8886
G01 X27.9979 Y24.9530
G01 X28.0227 Y25.0223
G01 X28.0410 Y25.0961
G01 X28.0514 Y25.1665
G01 X28.0550 Y25.2388
G01 X28.0550 Y27.8400
G01 X28.0515 Y27.9123
G01 X28.0401 Y27.9887
G01 X28.0227 Y28.0577
G01 X27.9979 Y28.1270
G01 X27.9664 Y28.1935
G01 X27.9299 Y28.2546
G01 X27.8848 Y28.3158
G01 X27.8336 Y28.3720
G01 X27.7808 Y28.4198
G01 X27.7217 Y28.4636
G01 X27.6585 Y28.5014
G01 X27.5943 Y28.5319
G01 X27.5215 Y28.5580
G01 X27.4513 Y28.5756
G01 X27.3785 Y28.5864
G01 X27.3050 Y28.5900
G01 X27.2315 Y28.5864
G01 X27.1587 Y28.5756
G01 X27.0873 Y28.5577
G01 X27.0180 Y28.5329
G01 X26.9515 Y28.5014
G01 X26.8883 Y28.4636
G01 X26.8292 Y28.4198
G01 X26.7747 Y28.3703
G01 X26.7252 Y28.3158
G01 X26.6814 Y28.2567
G01 X26.6436 Y28.1935
G01 X26.6121 Y28.1270
G01 X26.5870 Y28.0565
G01 X26.5694 Y27.9863
G01 X26.5589 Y27.9159
G01 X26.5550 Y27.8400
G01 X26.5550 Y25.2400
G01 X26.5589 Y25.1641
G00 Z2.0000
G00 X29.0198 Y25.1523
G01 F60.00
G01 Z-0.0000
G01 F120.00
G01 X29.0309 Y25.0781
G01 X29.0490 Y25.0052
G01 X29.0527 Y24.9930
G01 X29.0759 Y24.9283
G01 X29.0808 Y24.9165
G01 X29.1130 Y24.8487
G01 X29.1432 Y24.7980
G01 X29.1434 Y22.2138
G01 X29.1466 Y22.1514
G01 X29.1556 Y22.0896
G01 X29.1581 Y22.0771
G01 X29.1734 Y22.0165
G01 X29.1966 Y21.9516
G01 X29.2232 Y21.8951
G01 X29.2292 Y21.8838
G01 X29.2615 Y21.8303
G01 X29.3025 Y21.7750
G01 X29.3488 Y21.7240
G01 X34.7470 Y16.3257
G01 X34.7958 Y16.2817
G01 X34.8459 Y16.2444
G01 X34.8565 Y16.2373
G01 X34.9046 Y16.2084
G01 X34.9159 Y16.2024
G01 X34.9724 Y16.1758
G01 X35.0373 Y16.1526
G01 X35.1041 Y16.1359
G01 X35.1690 Y16.1261
G01 X35.1786 Y16.1253
G01 X35.2410 Y16.1224
G01 X77.5396 Y16.1224
G01 X77.6020 Y16.1253
G01 X77.6147 Y16.1266
G01 X77.6702 Y16.1348
G01 X77.6827 Y16.1373
G01 X77.7433 Y16.1526
G01 X77.8022 Y16.1735
G01 X77.8140 Y16.1784
G01 X77.8704 Y16.2053
G01 X77.9295 Y16.2407
G01 X77.9848 Y16.2817
G01 X78.0336 Y16.3257
G01 X81.7167 Y20.0088
G01 X85.9846 Y20.0088
G01 X86.0406 Y19.9154
G01 X86.1028 Y19.8314
G01 X86.1109 Y19.8215
G01 X86.1812 Y19.7442
G01 X86.2585 Y19.6739
G01 X86.2684 Y19.6658
G01 X86.3524 Y19.6036
G01 X86.4420 Y19.5498
G01 X86.4532 Y19.5438
G01 X86.5478 Y19.4992
G01 X86.6461 Y19.4639
G01 X86.6583 Y19.4602
G01 X86.7597 Y19.4349
G01 X86.8631 Y19.4194
G01 X86.8758 Y19.4182
G01 X86.9802 Y19.4132
G01 X87.0910 Y19.4186
G01 X87.1944 Y19.4338
G01 X87.2069 Y19.4363
G01 X87.3082 Y19.4619
G01 X87.4067 Y19.4969
G01 X87.4185 Y19.5018
G01 X87.5072 Y19.5438
G01 X87.5184 Y19.5498
G01 X87.6080 Y19.6036
G01 X87.6971 Y19.6697
G01 X87.7792 Y19.7442
G01 X87.8516 Y19.8239
G01 X87.8651 Y19.8414
G01 X101.8852 Y19.8414
G01 X107.7870 Y13.9397
G01 X107.8380 Y13.8934
G01 X107.8933 Y13.8524
G01 X107.9524 Y13.8170
G01 X108.0088 Y13.7901
G01 X108.0176 Y13.7863
G01 X108.0795 Y13.7643
G01 X108.1463 Y13.7476
G01 X108.2144 Y13.7375
G01 X108.2832 Y13.7341
G01 X113.9254 Y13.7341
G01 X113.9389 Y13.7166
G01 X114.0113 Y13.6369
G01 X114.0886 Y13.5666
G01 X114.0985 Y13.5585
G01 X114.1825 Y13.4963
G01 X114.2721 Y13.4425
G01 X114.2833 Y13.4365
G01 X114.3779 Y13.3919
G01 X114.4823 Y13.3546
G01 X114.5836 Y13.3290
G01 X114.5961 Y13.3265
G01 X114.6995 Y13.3113
G01 X114.8039 Y13.3061
G01 X114.8167 Y13.3061
G01 X114.9179 Y13.3111
G01 X114.9274 Y13.3121
G01 X115.0308 Y13.3276
G01 X115.1322 Y13.3529
G01 X115.1444 Y13.3566
G01 X115.2368 Y13.3896
G01 X115.2486 Y13.3945
G01 X115.3430 Y13.4393
G01 X115.4381 Y13.4963
G01 X115.5272 Y13.5624
G01 X115.6093 Y13.6369
G01 X115.6838 Y13.7190
G01 X115.7462 Y13.8029
G01 X115.7533 Y13.8135
G01 X115.8037 Y13.8977
G01 X115.8097 Y13.9089
G01 X115.8543 Y14.0035
G01 X115.8916 Y14.1079
G01 X115.9186 Y14.2154
G01 X115.9345 Y14.3220
G01 X115.9353 Y14.3315
G01 X115.9403 Y14.4359
G01 X115.9349 Y14.5467
G01 X115.9186 Y14.6564
G01 X115.8916 Y14.7639
G01 X115.8543 Y14.8683
G01 X115.8069 Y14.9686
G01 X115.7499 Y15.0637
G01 X115.6838 Y15.1528
G01 X115.6093 Y15.2349
G01 X115.5272 Y15.3094
G01 X115.4381 Y15.3755
G01 X115.3430 Y15.4325
G01 X115.2427 Y15.4799
G01 X115.1383 Y15.5172
G01 X115.0308 Y15.5442
G01 X114.9211 Y15.5605
G01 X114.8103 Y15.5659
G01 X114.7059 Y15.5609
G01 X114.6932 Y15.5597
G01 X114.5898 Y15.5442
G01 X114.4884 Y15.5189
G01 X114.4762 Y15.5152
G01 X114.3779 Y15.4799
G01 X114.2833 Y15.4353
G01 X114.2721 Y15.4293
G01 X114.1825 Y15.3755
G01 X114.0985 Y15.3133
G01 X114.0886 Y15.3052
G01 X114.0113 Y15.2349
G01 X113.9389 Y15.1552
G01 X113.9254 Y15.1377
G01 X108.5739 Y15.1377
G01 X102.6699 Y21.0417
G01 X102.6211 Y21.0857
G01 X102.5658 Y21.1267
G01 X102.5067 Y21.1621
G01 X102.4445 Y21.1916
G01 X102.3796 Y21.2148
G01 X102.3128 Y21.2315
G01 X102.2447 Y21.2416
G01 X102.1823 Y21.2448
G01 X87.8651 Y21.2450
G01 X87.8516 Y21.2625
G01 X87.7792 Y21.3422
G01 X87.6971 Y21.4167
G01 X87.6080 Y21.4828
G01 X87.5184 Y21.5366
G01 X87.5072 Y21.5426
G01 X87.4185 Y21.5846
G01 X87.4067 Y21.5895
G01 X87.3082 Y21.6245
G01 X87.2069 Y21.6501
G01 X87.1944 Y21.6526
G01 X87.0910 Y21.6678
G01 X86.9802 Y21.6732
G01 X86.8694 Y21.6678
G01 X86.7597 Y21.6515
G01 X86.6522 Y21.6245
G01 X86.5537 Y21.5895
G01 X86.5419 Y21.5846
G01 X86.4475 Y21.5398
G01 X86.3578 Y21.4862
G01 X86.3472 Y21.4791
G01 X86.2684 Y21.4206
G01 X86.2583 Y21.4124
G01 X81.4260 Y21.4124
G01 X81.3572 Y21.4090
G01 X81.2954 Y21.4000
G01 X81.2829 Y21.3975
G01 X81.2284 Y21.3839
G01 X81.2162 Y21.3802
G01 X81.1574 Y21.3590
G01 X81.0952 Y21.3295
G01 X81.0415 Y21.2975
G01 X81.0309 Y21.2904
G01 X80.9808 Y21.2531
G01 X80.9320 Y21.2091
G01 X77.2489 Y17.5260
G01 X35.5317 Y17.5260
G01 X30.5468 Y22.5109
G01 X30.5468 Y24.7980
G01 X30.5770 Y24.8487
G01 X30.6092 Y24.9165
G01 X30.6141 Y24.9283
G01 X30.6393 Y24.9991
G01 X30.6577 Y25.0718
G01 X30.6601 Y25.0844
G01 X30.6710 Y25.1586
G01 X30.6750 Y25.2368
G01 X30.6750 Y27.8400
G01 X30.6713 Y27.9182
G01 X30.6702 Y27.9277
G01 X30.6601 Y27.9956
G01 X30.6577 Y28.0082
G01 X30.6393 Y28.0809
G01 X30.6118 Y28.1576
G01 X30.5770 Y28.2313
G01 X30.5385 Y28.2957
G01 X30.5314 Y28.3063
G01 X30.4866 Y28.3665
G01 X30.4363 Y28.4223
G01 X30.4273 Y28.4313
G01 X30.3715 Y28.4816
G01 X30.3061 Y28.5301
G01 X30.2363 Y28.5720
G01 X30.1685 Y28.6042
G01 X30.1567 Y28.6091
G01 X30.0859 Y28.6343
G01 X30.0069 Y28.6541
G01 X29.9264 Y28.6660
G01 X29.8450 Y28.6700
G01 X29.7636 Y28.6660
G01 X29.6831 Y28.6541
G01 X29.6041 Y28.6343
G01 X29.5274 Y28.6068
G01 X29.4537 Y28.5720
G01 X29.3839 Y28.5301
G01 X29.3185 Y28.4816
G01 X29.2581 Y28.4269
G01 X29.2034 Y28.3665
G01 X29.1549 Y28.3011
G01 X29.1130 Y28.2313
G01 X29.0782 Y28.1576
G01 X29.0507 Y28.0809
G01 X29.0309 Y28.0019
G01 X29.0198 Y27.9277
G01 X29.0185 Y27.9150
G01 X29.0150 Y27.8400
G01 X29.0150 Y25.2400
G01 X29.0185 Y25.1650
G01 X29.0198 Y25.1523
G00 Z2.0000
G00 X29.0989 Y25.1641
G01 F60.00
G01 Z-0.0000
G01 F120.00
G01 X29.1094 Y25.0937
G01 X29.1266 Y25.0247
G01 X29.1512 Y24.9553
G01 X29.1836 Y24.8865
G01 X29.2201 Y24.8254
G01 X29.2232 Y24.8208
G01 X29.2232 Y22.2190
G01 X29.2262 Y22.1593
G01 X29.2347 Y22.1013
G01 X29.2500 Y22.0397
G01 X29.2705 Y21.9823
G01 X29.2955 Y21.9293
G01 X29.3280 Y21.8748
G01 X29.3644 Y21.8257
G01 X29.4053 Y21.7805
G01 X34.8022 Y16.3837
G01 X34.8465 Y16.3436
G01 X34.8935 Y16.3086
G01 X34.9501 Y16.2747
G01 X35.0031 Y16.2497
G01 X35.0605 Y16.2292
G01 X35.1197 Y16.2144
G01 X35.1788 Y16.2055
G01 X35.2410 Y16.2024
G01 X77.5396 Y16.2024
G01 X77.5981 Y16.2052
G01 X77.6609 Y16.2144
G01 X77.7177 Y16.2285
G01 X77.7798 Y16.2507
G01 X77.8327 Y16.2758
G01 X77.8850 Y16.3072
G01 X77.9341 Y16.3436
G01 X77.9784 Y16.3837
G01 X81.6836 Y20.0888
G01 X86.0349 Y20.0888
G01 X86.0548 Y20.0472
G01 X86.1065 Y19.9609
G01 X86.1693 Y19.8761
G01 X86.2377 Y19.8007
G01 X86.3122 Y19.7331
G01 X86.3979 Y19.6695
G01 X86.4852 Y19.6172
G01 X86.5761 Y19.5741
G01 X86.6754 Y19.5384
G01 X86.7754 Y19.5134
G01 X86.8748 Y19.4986
G01 X86.9802 Y19.4932
G01 X87.0831 Y19.4983
G01 X87.1874 Y19.5139
G01 X87.2850 Y19.5384
G01 X87.3797 Y19.5722
G01 X87.4741 Y19.6166
G01 X87.5635 Y19.6702
G01 X87.6473 Y19.7323
G01 X87.7235 Y19.8016
G01 X87.7911 Y19.8761
G01 X87.8248 Y19.9214
G01 X101.9183 Y19.9214
G01 X107.8435 Y13.9962
G01 X107.8887 Y13.9553
G01 X107.9378 Y13.9189
G01 X107.9901 Y13.8875
G01 X108.0453 Y13.8614
G01 X108.1027 Y13.8409
G01 X108.1619 Y13.8261
G01 X108.2223 Y13.8171
G01 X108.2832 Y13.8141
G01 X113.9657 Y13.8141
G01 X113.9994 Y13.7688
G01 X114.0670 Y13.6943
G01 X114.1451 Y13.6235
G01 X114.2290 Y13.5615
G01 X114.3153 Y13.5099
G01 X114.4074 Y13.4663
G01 X114.5055 Y13.4311
G01 X114.6079 Y13.4057
G01 X114.7098 Y13.3908
G01 X114.8103 Y13.3859
G01 X114.9108 Y13.3908
G01 X115.0151 Y13.4061
G01 X115.1127 Y13.4305
G01 X115.2144 Y13.4668
G01 X115.3053 Y13.5099
G01 X115.3936 Y13.5629
G01 X115.4764 Y13.6242
G01 X115.5528 Y13.6934
G01 X115.6220 Y13.7698
G01 X115.6819 Y13.8505
G01 X115.7374 Y13.9431
G01 X115.7804 Y14.0341
G01 X115.8151 Y14.1311
G01 X115.8401 Y14.2311
G01 X115.8551 Y14.3318
G01 X115.8603 Y14.4359
G01 X115.8552 Y14.5388
G01 X115.8401 Y14.6407
G01 X115.8151 Y14.7407
G01 X115.7804 Y14.8377
G01 X115.7363 Y14.9309
G01 X115.6833 Y15.0192
G01 X115.6220 Y15.1020
G01 X115.5528 Y15.1784
G01 X115.4764 Y15.2476
G01 X115.3936 Y15.3089
G01 X115.3053 Y15.3619
G01 X115.2121 Y15.4060
G01 X115.1151 Y15.4407
G01 X115.0151 Y15.4657
G01 X114.9132 Y15.4808
G01 X114.8078 Y15.4858
G01 X114.7074 Y15.4808
G01 X114.6079 Y15.4661
G01 X114.5055 Y15.4407
G01 X114.4074 Y15.4055
G01 X114.3153 Y15.3619
G01 X114.2290 Y15.3103
G01 X114.1451 Y15.2483
G01 X114.0670 Y15.1775
G01 X113.9994 Y15.1030
G01 X113.9657 Y15.0577
G01 X108.5408 Y15.0577
G01 X102.6147 Y20.9837
G01 X102.5704 Y21.0238
G01 X102.5213 Y21.0602
G01 X102.4690 Y21.0916
G01 X102.4138 Y21.1177
G01 X102.3564 Y21.1382
G01 X102.2972 Y21.1530
G01 X102.2368 Y21.1620
G01 X102.1784 Y21.1649
G01 X87.8248 Y21.1650
G01 X87.7911 Y21.2103
G01 X87.7235 Y21.2848
G01 X87.6473 Y21.3541
G01 X87.5635 Y21.4162
G01 X87.4741 Y21.4698
G01 X87.3797 Y21.5142
G01 X87.2850 Y21.5480
G01 X87.1874 Y21.5725
G01 X87.0831 Y21.5881
G01 X86.9802 Y21.5932
G01 X86.8773 Y21.5881
G01 X86.7754 Y21.5730
G01 X86.6754 Y21.5480
G01 X86.5795 Y21.5137
G01 X86.4852 Y21.4692
G01 X86.3979 Y21.4169
G01 X86.3150 Y21.3556
G01 X86.2892 Y21.3324
G01 X81.4260 Y21.3324
G01 X81.3651 Y21.3294
G01 X81.3071 Y21.3209
G01 X81.2432 Y21.3048
G01 X81.1881 Y21.2851
G01 X81.1329 Y21.2590
G01 X81.0785 Y21.2262
G01 X81.0315 Y21.1912
G01 X80.9872 Y21.1511
G01 X77.2820 Y17.4460
G01 X35.4986 Y17.4460
G01 X30.4668 Y22.4778
G01 X30.4668 Y24.8208
G01 X30.4699 Y24.8254
G01 X30.5075 Y24.8886
G01 X30.5379 Y24.9530
G01 X30.5627 Y25.0223
G01 X30.5810 Y25.0961
G01 X30.5914 Y25.1665
G01 X30.5950 Y25.2388
G01 X30.5950 Y27.8400
G01 X30.5915 Y27.9123
G01 X30.5801 Y27.9887
G01 X30.5627 Y28.0577
G01 X30.5379 Y28.1270
G01 X30.5064 Y28.1935
G01 X30.4699 Y28.2546
G01 X30.4248 Y28.3158
G01 X30.3736 Y28.3720
G01 X30.3208 Y28.4198
G01 X30.2617 Y28.4636
G01 X30.1985 Y28.5014
G01 X30.1343 Y28.5319
G01 X30.0615 Y28.5580
G01 X29.9913 Y28.5756
G01 X29.9185 Y28.5864
G01 X29.8450 Y28.5900
G01 X29.7715 Y28.5864
G01 X29.6987 Y28.5756
G01 X29.6273 Y28.5577
G01 X29.5580 Y28.5329
G01 X29.4915 Y28.5014
G01 X29.4283 Y28.4636
G01 X29.3692 Y28.4198
G01 X29.3147 Y28.3703
G01 X29.2652 Y28.3158
G01 X29.2214 Y28.2567
G01 X29.1836 Y28.1935
G01 X29.1521 Y28.1270
G01 X29.1270 Y28.0565
G01 X29.1094 Y27.9863
G01 X29.0989 Y27.9159
G01 X29.0950 Y27.8400
G01 X29.0950 Y25.2400
G01 X29.0989 Y25.1641
G00 Z2.0000
G00 X31.5598 Y25.1523
G01 F60.00
G01 Z-0.0000
G01 F120.00
G01 X31.5709 Y25.0781
G01 X31.5890 Y25.0052
G01 X31.5927 Y24.9930
G01 X31.6159 Y24.9283
G01 X31.6208 Y24.9165
G01 X31.6530 Y24.8487
G01 X31.6832 Y24.7980
G01 X31.6834 Y22.6442
G01 X31.6866 Y22.5818
G01 X31.6956 Y22.5200
G01 X31.6981 Y22.5075
G01 X31.7134 Y22.4469
G01 X31.7343 Y22.3880
G01 X31.7392 Y22.3762
G01 X31.7661 Y22.3198
G01 X31.7997 Y22.2634
G01 X31.8052 Y22.2555
G01 X31.8425 Y22.2054
G01 X31.8888 Y22.1544
G01 X35.6246 Y18.4185
G01 X35.6734 Y18.3745
G01 X35.7287 Y18.3335
G01 X35.7878 Y18.2981
G01 X35.8442 Y18.2712
G01 X35.8560 Y18.2663
G01 X35.9088 Y18.2474
G01 X35.9210 Y18.2437
G01 X35.9817 Y18.2287
G01 X36.0498 Y18.2186
G01 X36.1186 Y18.2152
G01 X76.7431 Y18.2152
G01 X76.8087 Y18.2183
G01 X76.8182 Y18.2194
G01 X76.8800 Y18.2287
G01 X76.9407 Y18.2437
G01 X76.9529 Y18.2474
G01 X77.0057 Y18.2663
G01 X77.0175 Y18.2712
G01 X77.0739 Y18.2981
G01 X77.1330 Y18.3335
G01 X77.1883 Y18.3745
G01 X77.2371 Y18.4185
G01 X81.1852 Y22.3666
G01 X102.2495 Y22.3666
G01 X107.7272 Y16.8890
G01 X107.7734 Y16.8469
G01 X107.7832 Y16.8388
G01 X107.8335 Y16.8017
G01 X107.8870 Y16.7694
G01 X107.8983 Y16.7634
G01 X107.9548 Y16.7368
G01 X108.0136 Y16.7156
G01 X108.0227 Y16.7127
G01 X108.0865 Y16.6969
G01 X108.1483 Y16.6876
G01 X108.1610 Y16.6863
G01 X108.2234 Y16.6834
G01 X119.5434 Y16.6834
G01 X119.5569 Y16.6659
G01 X119.6293 Y16.5862
G01 X119.7114 Y16.5117
G01 X119.8005 Y16.4456
G01 X119.8901 Y16.3918
G01 X119.9013 Y16.3858
G01 X119.9900 Y16.3438
G01 X120.0018 Y16.3389
G01 X120.1003 Y16.3039
G01 X120.2016 Y16.2783
G01 X120.2141 Y16.2758
G01 X120.3175 Y16.2606
G01 X120.4219 Y16.2554
G01 X120.4347 Y16.2554
G01 X120.5391 Y16.2606
G01 X120.6488 Y16.2769
G01 X120.7563 Y16.3039
G01 X120.8607 Y16.3412
G01 X120.9610 Y16.3886
G01 X121.0561 Y16.4456
G01 X121.1452 Y16.5117
G01 X121.2227 Y16.5818
G01 X121.2317 Y16.5908
G01 X121.3018 Y16.6683
G01 X121.3642 Y16.7522
G01 X121.3713 Y16.7628
G01 X121.4217 Y16.8470
G01 X121.4277 Y16.8582
G01 X121.4723 Y16.9528
G01 X121.5096 Y17.0572
G01 X121.5366 Y17.1647
G01 X121.5529 Y17.2744
G01 X121.5583 Y17.3852
G01 X121.5529 Y17.4960
G01 X121.5366 Y17.6057
G01 X121.5096 Y17.7132
G01 X121.4723 Y17.8176
G01 X121.4249 Y17.9179
G01 X121.3679 Y18.0130
G01 X121.3018 Y18.1021
G01 X121.2273 Y18.1842
G01 X121.1452 Y18.2587
G01 X121.0561 Y18.3248
G01 X120.9610 Y18.3818
G01 X120.8607 Y18.4292
G01 X120.7563 Y18.4665
G01 X120.6488 Y18.4935
G01 X120.5454 Y18.5090
G01 X120.5359 Y18.5100
G01 X120.4347 Y18.5150
G01 X120.4219 Y18.5150
G01 X120.3175 Y18.5098
G01 X120.2141 Y18.4946
G01 X120.2016 Y18.4921
G01 X120.1003 Y18.4665
G01 X119.9959 Y18.4292
G01 X119.9013 Y18.3846
G01 X119.8901 Y18.3786
G01 X119.8005 Y18.3248
G01 X119.7165 Y18.2626
G01 X119.7066 Y18.2545
G01 X119.6293 Y18.1842
G01 X119.5569 Y18.1045
G01 X119.5434 Y18.0870
G01 X108.5141 Y18.0870
G01 X103.0342 Y23.5669
G01 X102.9854 Y23.6109
G01 X102.9353 Y23.6482
G01 X102.9247 Y23.6553
G01 X102.8710 Y23.6873
G01 X102.8146 Y23.7142
G01 X102.8028 Y23.7191
G01 X102.7439 Y23.7400
G01 X102.6771 Y23.7567
G01 X102.6090 Y23.7668
G01 X102.5402 Y23.7702
G01 X87.6968 Y23.7702
G01 X87.6968 Y24.7980
G01 X87.7270 Y24.8487
G01 X87.7592 Y24.9165
G01 X87.7641 Y24.9283
G01 X87.7893 Y24.9991
G01 X87.8077 Y25.0718
G01 X87.8101 Y25.0844
G01 X87.8210 Y25.1586
G01 X87.8250 Y25.2368
G01 X87.8250 Y27.8400
G01 X87.8215 Y27.9150
G01 X87.8207 Y27.9245
G01 X87.8091 Y28.0019
G01 X87.7893 Y28.0809
G01 X87.7618 Y28.1576
G01 X87.7299 Y28.2256
G01 X87.7238 Y28.2368
G01 X87.6885 Y28.2957
G01 X87.6814 Y28.3063
G01 X87.6366 Y28.3665
G01 X87.5819 Y28.4269
G01 X87.5215 Y28.4816
G01 X87.4561 Y28.5301
G01 X87.3863 Y28.5720
G01 X87.3185 Y28.6042
G01 X87.3067 Y28.6091
G01 X87.2420 Y28.6323
G01 X87.2298 Y28.6360
G01 X87.1569 Y28.6541
G01 X87.0764 Y28.6660
G01 X86.9950 Y28.6700
G01 X86.9136 Y28.6660
G01 X86.8331 Y28.6541
G01 X86.7541 Y28.6343
G01 X86.6774 Y28.6068
G01 X86.6037 Y28.5720
G01 X86.5339 Y28.5301
G01 X86.4735 Y28.4855
G01 X86.4636 Y28.4774
G01 X86.4127 Y28.4313
G01 X86.4037 Y28.4223
G01 X86.3534 Y28.3665
G01 X86.3086 Y28.3063
G01 X86.3015 Y28.2957
G01 X86.2630 Y28.2313
G01 X86.2282 Y28.1576
G01 X86.2007 Y28.0809
G01 X86.1823 Y28.0082
G01 X86.1799 Y27.9956
G01 X86.1690 Y27.9214
G01 X86.1650 Y27.8400
G01 X86.1650 Y25.2368
G01 X86.1690 Y25.1586
G01 X86.1799 Y25.0844
G01 X86.1823 Y25.0718
G01 X86.2007 Y24.9991
G01 X86.2259 Y24.9283
G01 X86.2308 Y24.9165
G01 X86.2630 Y24.8487
G01 X86.2932 Y24.7980
G01 X86.2932 Y23.7702
G01 X80.8945 Y23.7702
G01 X80.8257 Y23.7668
G01 X80.7576 Y23.7567
G01 X80.6908 Y23.7400
G01 X80.6259 Y23.7168
G01 X80.5637 Y23.6873
G01 X80.5046 Y23.6519
G01 X80.4493 Y23.6109
G01 X80.3983 Y23.5646
G01 X76.4524 Y19.6188
G01 X36.4093 Y19.6188
G01 X33.0868 Y22.9413
G01 X33.0868 Y24.7980
G01 X33.1170 Y24.8487
G01 X33.1492 Y24.9165
G01 X33.1541 Y24.9283
G01 X33.1793 Y24.9991
G01 X33.1977 Y25.0718
G01 X33.2001 Y25.0844
G01 X33.2110 Y25.1586
G01 X33.2150 Y25.2368
G01 X33.2150 Y27.8400
G01 X33.2113 Y27.9182
G01 X33.2102 Y27.9277
G01 X33.2001 Y27.9956
G01 X33.1977 Y28.0082
G01 X33.1793 Y28.0809
G01 X33.1518 Y28.1576
G01 X33.1170 Y28.2313
G01 X33.0785 Y28.2957
G01 X33.0714 Y28.3063
G01 X33.0266 Y28.3665
G01 X32.9763 Y28.4223
G01 X32.9673 Y28.4313
G01 X32.9115 Y28.4816
G01 X32.8461 Y28.5301
G01 X32.7763 Y28.5720
G01 X32.7085 Y28.6042
G01 X32.6967 Y28.6091
G01 X32.6259 Y28.6343
G01 X32.5469 Y28.6541
G01 X32.4664 Y28.6660
G01 X32.3850 Y28.6700
G01 X32.3036 Y28.6660
G01 X32.2231 Y28.6541
G01 X32.1441 Y28.6343
G01 X32.0674 Y28.6068
G01 X31.9937 Y28.5720
G01 X31.9239 Y28.5301
G01 X31.8585 Y28.4816
G01 X31.7981 Y28.4269
G01 X31.7434 Y28.3665
G01 X31.6949 Y28.3011
G01 X31.6530 Y28.2313
G01 X31.6182 Y28.1576
G01 X31.5907 Y28.0809
G01 X31.5709 Y28.0019
G01 X31.5598 Y27.9277
G01 X31.5585 Y27.9150
G01 X31.5550 Y27.8400
G01 X31.5550 Y25.2400
G01 X31.5585 Y25.1650
G01 X31.5598 Y25.1523
G00 Z2.0000
G00 X31.6389 Y25.1641
G01 F60.00
G01 Z-0.0000
G01 F120.00
G01 X31.6494 Y25.0937
G01 X31.6666 Y25.0247
G01 X31.6912 Y24.9553
G01 X31.7236 Y24.8865
G01 X31.7601 Y24.8254
G01 X31.7632 Y24.8208
G01 X31.7633 Y22.6481
G01 X31.7662 Y22.5897
G01 X31.7747 Y22.5317
G01 X31.7900 Y22.4701
G01 X31.8115 Y22.4104
G01 X31.8366 Y22.3575
G01 X31.8673 Y22.3062
G01 X31.9044 Y22.2561
G01 X31.9453 Y22.2109
G01 X35.6798 Y18.4765
G01 X35.7241 Y18.4364
G01 X35.7732 Y18.4000
G01 X35.8255 Y18.3686
G01 X35.8784 Y18.3435
G01 X35.9405 Y18.3213
G01 X35.9973 Y18.3072
G01 X36.0577 Y18.2982
G01 X36.1186 Y18.2952
G01 X76.7431 Y18.2952
G01 X76.8028 Y18.2981
G01 X76.8644 Y18.3072
G01 X76.9212 Y18.3213
G01 X76.9833 Y18.3435
G01 X77.0362 Y18.3686
G01 X77.0885 Y18.4000
G01 X77.1376 Y18.4364
G01 X77.1819 Y18.4765
G01 X81.1521 Y22.4466
G01 X102.2826 Y22.4466
G01 X107.7837 Y16.9455
G01 X107.8309 Y16.9030
G01 X107.8780 Y16.8682
G01 X107.9282 Y16.8380
G01 X107.9855 Y16.8107
G01 X108.0441 Y16.7898
G01 X108.1021 Y16.7754
G01 X108.1600 Y16.7667
G01 X108.2234 Y16.7634
G01 X119.5837 Y16.7634
G01 X119.6174 Y16.7181
G01 X119.6850 Y16.6436
G01 X119.7612 Y16.5743
G01 X119.8450 Y16.5122
G01 X119.9344 Y16.4586
G01 X120.0288 Y16.4142
G01 X120.1235 Y16.3804
G01 X120.2211 Y16.3559
G01 X120.3254 Y16.3403
G01 X120.4295 Y16.3352
G01 X120.5312 Y16.3403
G01 X120.6331 Y16.3554
G01 X120.7331 Y16.3804
G01 X120.8301 Y16.4151
G01 X120.9233 Y16.4592
G01 X121.0116 Y16.5122
G01 X121.0944 Y16.5735
G01 X121.1690 Y16.6410
G01 X121.2400 Y16.7191
G01 X121.2999 Y16.7998
G01 X121.3554 Y16.8924
G01 X121.3984 Y16.9834
G01 X121.4331 Y17.0804
G01 X121.4581 Y17.1804
G01 X121.4732 Y17.2823
G01 X121.4783 Y17.3852
G01 X121.4732 Y17.4881
G01 X121.4581 Y17.5900
G01 X121.4331 Y17.6900
G01 X121.3984 Y17.7870
G01 X121.3543 Y17.8802
G01 X121.3013 Y17.9685
G01 X121.2400 Y18.0513
G01 X121.1708 Y18.1277
G01 X121.0944 Y18.1969
G01 X121.0116 Y18.2582
G01 X120.9233 Y18.3112
G01 X120.8301 Y18.3553
G01 X120.7331 Y18.3900
G01 X120.6331 Y18.4150
G01 X120.5288 Y18.4303
G01 X120.4283 Y18.4352
G01 X120.3278 Y18.4303
G01 X120.2259 Y18.4154
G01 X120.1235 Y18.3900
G01 X120.0254 Y18.3548
G01 X119.9333 Y18.3112
G01 X119.8470 Y18.2596
G01 X119.7631 Y18.1976
G01 X119.6850 Y18.1268
G01 X119.6174 Y18.0523
G01 X119.5837 Y18.0070
G01 X108.4810 Y18.0070
G01 X102.9790 Y23.5089
G01 X102.9347 Y23.5490
G01 X102.8877 Y23.5840
G01 X102.8333 Y23.6168
G01 X102.7759 Y23.6437
G01 X102.7207 Y23.6634
G01 X102.6615 Y23.6782
G01 X102.6011 Y23.6872
G01 X102.5402 Y23.6902
G01 X87.6168 Y23.6902
G01 X87.6168 Y24.8208
G01 X87.6199 Y24.8254
G01 X87.6575 Y24.8886
G01 X87.6879 Y24.9530
G01 X87.7127 Y25.0223
G01 X87.7310 Y25.0961
G01 X87.7414 Y25.1665
G01 X87.7450 Y25.2388
G01 X87.7450 Y27.8400
G01 X87.7413 Y27.9147
G01 X87.7306 Y27.9863
G01 X87.7127 Y28.0577
G01 X87.6879 Y28.1270
G01 X87.6575 Y28.1914
G01 X87.6172 Y28.2587
G01 X87.5748 Y28.3158
G01 X87.5253 Y28.3703
G01 X87.4708 Y28.4198
G01 X87.4117 Y28.4636
G01 X87.3485 Y28.5014
G01 X87.2843 Y28.5319
G01 X87.2103 Y28.5584
G01 X87.1413 Y28.5756
G01 X87.0685 Y28.5864
G01 X86.9950 Y28.5900
G01 X86.9215 Y28.5864
G01 X86.8487 Y28.5756
G01 X86.7773 Y28.5577
G01 X86.7080 Y28.5329
G01 X86.6415 Y28.5014
G01 X86.5783 Y28.4636
G01 X86.5192 Y28.4198
G01 X86.4647 Y28.3703
G01 X86.4152 Y28.3158
G01 X86.3714 Y28.2567
G01 X86.3336 Y28.1935
G01 X86.3021 Y28.1270
G01 X86.2773 Y28.0577
G01 X86.2594 Y27.9863
G01 X86.2489 Y27.9159
G01 X86.2450 Y27.8400
G01 X86.2450 Y25.2388
G01 X86.2486 Y25.1665
G01 X86.2590 Y25.0961
G01 X86.2773 Y25.0223
G01 X86.3021 Y24.9530
G01 X86.3325 Y24.8886
G01 X86.3701 Y24.8254
G01 X86.3732 Y24.8208
G01 X86.3732 Y23.6902
G01 X80.8945 Y23.6902
G01 X80.8336 Y23.6872
G01 X80.7732 Y23.6782
G01 X80.7140 Y23.6634
G01 X80.6566 Y23.6429
G01 X80.6014 Y23.6168
G01 X80.5491 Y23.5854
G01 X80.5000 Y23.5490
G01 X80.4548 Y23.5081
G01 X76.4855 Y19.5388
G01 X36.3762 Y19.5388
G01 X33.0068 Y22.9082
G01 X33.0068 Y24.8208
G01 X33.0099 Y24.8254
G01 X33.0475 Y24.8886
G01 X33.0779 Y24.9530
G01 X33.1027 Y25.0223
G01 X33.1210 Y25.0961
G01 X33.1314 Y25.1665
G01 X33.1350 Y25.2388
G01 X33.1350 Y27.8400
G01 X33.1315 Y27.9123
G01 X33.1201 Y27.9887
G01 X33.1027 Y28.0577
G01 X33.0779 Y28.1270
G01 X33.0464 Y28.1935
G01 X33.0099 Y28.2546
G01 X32.9648 Y28.3158
G01 X32.9136 Y28.3720
G01 X32.8608 Y28.4198
G01 X32.8017 Y28.4636
G01 X32.7385 Y28.5014
G01 X32.6743 Y28.5319
G01 X32.6015 Y28.5580
G01 X32.5313 Y28.5756
G01 X32.4585 Y28.5864
G01 X32.3850 Y28.5900
G01 X32.3115 Y28.5864
G01 X32.2387 Y28.5756
G01 X32.1673 Y28.5577
G01 X32.0980 Y28.5329
G01 X32.0315 Y28.5014
G01 X31.9683 Y28.4636
G01 X31.9092 Y28.4198
G01 X31.8547 Y28.3703
G01 X31.8052 Y28.3158
G01 X31.7614 Y28.2567
G01 X31.7236 Y28.1935
G01 X31.6921 Y28.1270
G01 X31.6670 Y28.0565
G01 X31.6494 Y27.9863
G01 X31.6389 Y27.9159
G01 X31.6350 Y27.8400
G01 X31.6350 Y25.2400
G01 X31.6389 Y25.1641
G00 Z2.0000
G00 X34.0998 Y25.1523
G01 F60.00
G01 Z-0.0000
G01 F120.00
G01 X34.1109 Y25.0781
G01 X34.1290 Y25.0052
G01 X34.1327 Y24.9930
G01 X34.1559 Y24.9283
G01 X34.1608 Y24.9165
G01 X34.1930 Y24.8487
G01 X34.2232 Y24.7980
G01 X34.2232 Y23.0684
G01 X34.2266 Y22.9996
G01 X34.2367 Y22.9315
G01 X34.2517 Y22.8708
G01 X34.2554 Y22.8586
G01 X34.2766 Y22.7998
G01 X34.3032 Y22.7433
G01 X34.3092 Y22.7320
G01 X34.3415 Y22.6785
G01 X34.3825 Y22.6232
G01 X34.4244 Y22.5768
G01 X34.4334 Y22.5678
G01 X34.4798 Y22.5259
G01 X34.5299 Y22.4886
G01 X34.5405 Y22.4815
G01 X34.5942 Y22.4495
G01 X34.6506 Y22.4226
G01 X34.6594 Y22.4188
G01 X34.7213 Y22.3968
G01 X34.7881 Y22.3801
G01 X34.8562 Y22.3700
G01 X34.9250 Y22.3666
G01 X41.2554 Y22.3666
G01 X41.3242 Y22.3700
G01 X41.3923 Y22.3801
G01 X41.4530 Y22.3951
G01 X41.4652 Y22.3988
G01 X41.5180 Y22.4177
G01 X41.5298 Y22.4226
G01 X41.5862 Y22.4495
G01 X41.6453 Y22.4849
G01 X41.7006 Y22.5259
G01 X41.7494 Y22.5699
G01 X45.1477 Y25.9682
G01 X50.5750 Y25.9682
G01 X50.5750 Y25.9168
G01 X50.5756 Y25.9073
G01 X50.5775 Y25.8946
G01 X50.5816 Y25.8792
G01 X50.5862 Y25.8673
G01 X50.5919 Y25.8559
G01 X50.5987 Y25.8451
G01 X50.6087 Y25.8327
G01 X50.6177 Y25.8237
G01 X50.6301 Y25.8137
G01 X50.6409 Y25.8069
G01 X50.6553 Y25.7999
G01 X50.6703 Y25.7947
G01 X50.6859 Y25.7914
G01 X50.6986 Y25.7902
G01 X54.7050 Y25.7900
G01 X54.7146 Y25.7904
G01 X54.7241 Y25.7914
G01 X54.7335 Y25.7932
G01 X54.7427 Y25.7956
G01 X54.7518 Y25.7987
G01 X54.7634 Y25.8039
G01 X54.7718 Y25.8085
G01 X54.7824 Y25.8156
G01 X54.7923 Y25.8237
G01 X54.7992 Y25.8304
G01 X54.8075 Y25.8400
G01 X54.8131 Y25.8478
G01 X54.8196 Y25.8587
G01 X54.8238 Y25.8673
G01 X54.8274 Y25.8762
G01 X54.8311 Y25.8884
G01 X54.8336 Y25.9009
G01 X54.8346 Y25.9104
G01 X54.8350 Y25.9200
G01 X54.8350 Y27.4200
G01 X54.8344 Y27.4327
G01 X54.8325 Y27.4454
G01 X54.8294 Y27.4577
G01 X54.8251 Y27.4697
G01 X54.8211 Y27.4784
G01 X54.8148 Y27.4895
G01 X54.8094 Y27.4974
G01 X54.8013 Y27.5073
G01 X54.7923 Y27.5163
G01 X54.7824 Y27.5244
G01 X54.7718 Y27.5315
G01 X54.7606 Y27.5375
G01 X54.7518 Y27.5413
G01 X54.7397 Y27.5453
G01 X54.7304 Y27.5475
G01 X54.7177 Y27.5494
G01 X54.7082 Y27.5500
G01 X50.7050 Y27.5500
G01 X50.6891 Y27.5490
G01 X50.6765 Y27.5468
G01 X50.6612 Y27.5424
G01 X50.6466 Y27.5361
G01 X50.6355 Y27.5298
G01 X50.6225 Y27.5205
G01 X50.6108 Y27.5096
G01 X50.6006 Y27.4974
G01 X50.5919 Y27.4841
G01 X50.5862 Y27.4727
G01 X50.5816 Y27.4608
G01 X50.5775 Y27.4454
G01 X50.5756 Y27.4327
G01 X50.5750 Y27.4232
G01 X50.5750 Y27.3718
G01 X44.8570 Y27.3718
G01 X44.7882 Y27.3684
G01 X44.7201 Y27.3583
G01 X44.6533 Y27.3416
G01 X44.5944 Y27.3207
G01 X44.5826 Y27.3158
G01 X44.5262 Y27.2889
G01 X44.4725 Y27.2569
G01 X44.4619 Y27.2498
G01 X44.4118 Y27.2125
G01 X44.3630 Y27.1685
G01 X40.9647 Y23.7702
G01 X35.6268 Y23.7702
G01 X35.6268 Y24.7980
G01 X35.6570 Y24.8487
G01 X35.6892 Y24.9165
G01 X35.6941 Y24.9283
G01 X35.7193 Y24.9991
G01 X35.7377 Y25.0718
G01 X35.7401 Y25.0844
G01 X35.7510 Y25.1586
G01 X35.7550 Y25.2368
G01 X35.7550 Y27.8400
G01 X35.7510 Y27.9214
G01 X35.7401 Y27.9956
G01 X35.7377 Y28.0082
G01 X35.7193 Y28.0809
G01 X35.6918 Y28.1576
G01 X35.6570 Y28.2313
G01 X35.6185 Y28.2957
G01 X35.6114 Y28.3063
G01 X35.5666 Y28.3665
G01 X35.5163 Y28.4223
G01 X35.5073 Y28.4313
G01 X35.4564 Y28.4774
G01 X35.4465 Y28.4855
G01 X35.3861 Y28.5301
G01 X35.3163 Y28.5720
G01 X35.2426 Y28.6068
G01 X35.1659 Y28.6343
G01 X35.0869 Y28.6541
G01 X35.0064 Y28.6660
G01 X34.9250 Y28.6700
G01 X34.8436 Y28.6660
G01 X34.7694 Y28.6551
G01 X34.7568 Y28.6527
G01 X34.6841 Y28.6343
G01 X34.6074 Y28.6068
G01 X34.5337 Y28.5720
G01 X34.4693 Y28.5335
G01 X34.4587 Y28.5264
G01 X34.4035 Y28.4855
G01 X34.3936 Y28.4774
G01 X34.3381 Y28.4269
G01 X34.2834 Y28.3665
G01 X34.2349 Y28.3011
G01 X34.1962 Y28.2368
G01 X34.1901 Y28.2256
G01 X34.1608 Y28.1635
G01 X34.1559 Y28.1517
G01 X34.1307 Y28.0809
G01 X34.1116 Y28.0050
G01 X34.1099 Y27.9956
G01 X34.0990 Y27.9214
G01 X34.0950 Y27.8400
G01 X34.0950 Y25.2400
G01 X34.0985 Y25.1650
G01 X34.0998 Y25.1523
G00 Z2.0000
G00 X34.1789 Y25.1641
G01 F60.00
G01 Z-0.0000
G01 F120.00
G01 X34.1899 Y25.0913
G01 X34.2073 Y25.0223
G01 X34.2312 Y24.9553
G01 X34.2636 Y24.8865
G01 X34.3001 Y24.8254
G01 X34.3032 Y24.8208
G01 X34.3032 Y23.0684
G01 X34.3062 Y23.0075
G01 X34.3152 Y22.9471
G01 X34.3308 Y22.8856
G01 X34.3505 Y22.8305
G01 X34.3755 Y22.7775
G01 X34.4080 Y22.7230
G01 X34.4444 Y22.6739
G01 X34.4871 Y22.6270
G01 X34.5305 Y22.5878
G01 X34.5775 Y22.5528
G01 X34.6319 Y22.5200
G01 X34.6882 Y22.4935
G01 X34.7445 Y22.4734
G01 X34.8037 Y22.4586
G01 X34.8641 Y22.4496
G01 X34.9250 Y22.4466
G01 X41.2554 Y22.4466
G01 X41.3163 Y22.4496
G01 X41.3767 Y22.4586
G01 X41.4335 Y22.4727
G01 X41.4956 Y22.4949
G01 X41.5485 Y22.5200
G01 X41.6008 Y22.5514
G01 X41.6499 Y22.5878
G01 X41.6942 Y22.6279
G01 X45.1146 Y26.0482
G01 X50.6550 Y26.0482
G01 X50.6550 Y25.9188
G01 X50.6555 Y25.9127
G01 X50.6568 Y25.9067
G01 X50.6598 Y25.8986
G01 X50.6634 Y25.8922
G01 X50.6680 Y25.8864
G01 X50.6742 Y25.8806
G01 X50.6804 Y25.8765
G01 X50.6882 Y25.8729
G01 X50.6952 Y25.8710
G01 X50.7025 Y25.8701
G01 X54.7050 Y25.8700
G01 X54.7123 Y25.8705
G01 X54.7207 Y25.8725
G01 X54.7286 Y25.8759
G01 X54.7358 Y25.8806
G01 X54.7420 Y25.8864
G01 X54.7472 Y25.8933
G01 X54.7516 Y25.9020
G01 X54.7540 Y25.9102
G01 X54.7550 Y25.9188
G01 X54.7548 Y27.4249
G01 X54.7528 Y27.4345
G01 X54.7497 Y27.4425
G01 X54.7452 Y27.4498
G01 X54.7386 Y27.4570
G01 X54.7317 Y27.4622
G01 X54.7230 Y27.4666
G01 X54.7148 Y27.4690
G01 X54.7050 Y27.4700
G01 X50.7038 Y27.4700
G01 X50.6965 Y27.4693
G01 X50.6882 Y27.4671
G01 X50.6814 Y27.4641
G01 X50.6742 Y27.4594
G01 X50.6688 Y27.4545
G01 X50.6634 Y27.4478
G01 X50.6598 Y27.4414
G01 X50.6568 Y27.4333
G01 X50.6555 Y27.4273
G01 X50.6550 Y27.4212
G01 X50.6550 Y27.2918
G01 X44.8570 Y27.2918
G01 X44.7961 Y27.2888
G01 X44.7357 Y27.2798
G01 X44.6765 Y27.2650
G01 X44.6213 Y27.2453
G01 X44.5639 Y27.2184
G01 X44.5095 Y27.1856
G01 X44.4625 Y27.1506
G01 X44.4182 Y27.1105
G01 X40.9978 Y23.6902
G01 X35.5468 Y23.6902
G01 X35.5468 Y24.8208
G01 X35.5499 Y24.8254
G01 X35.5875 Y24.8886
G01 X35.6179 Y24.9530
G01 X35.6427 Y25.0223
G01 X35.6610 Y25.0961
G01 X35.6714 Y25.1665
G01 X35.6750 Y25.2388
G01 X35.6750 Y27.8400
G01 X35.6711 Y27.9159
G01 X35.6606 Y27.9863
G01 X35.6427 Y28.0577
G01 X35.6179 Y28.1270
G01 X35.5864 Y28.1935
G01 X35.5486 Y28.2567
G01 X35.5048 Y28.3158
G01 X35.4553 Y28.3703
G01 X35.4008 Y28.4198
G01 X35.3417 Y28.4636
G01 X35.2785 Y28.5014
G01 X35.2120 Y28.5329
G01 X35.1427 Y28.5577
G01 X35.0713 Y28.5756
G01 X34.9985 Y28.5864
G01 X34.9250 Y28.5900
G01 X34.8515 Y28.5864
G01 X34.7787 Y28.5756
G01 X34.7097 Y28.5584
G01 X34.6357 Y28.5319
G01 X34.5715 Y28.5014
G01 X34.5083 Y28.4636
G01 X34.4492 Y28.4198
G01 X34.3964 Y28.3720
G01 X34.3437 Y28.3139
G01 X34.3014 Y28.2567
G01 X34.2636 Y28.1935
G01 X34.2312 Y28.1247
G01 X34.2073 Y28.0577
G01 X34.1894 Y27.9863
G01 X34.1786 Y27.9135
G01 X34.1750 Y27.8400
G01 X34.1750 Y25.2400
G01 X34.1789 Y25.1641
G00 Z2.0000
G00 X36.6398 Y25.1523
G01 F60.00
G01 Z-0.0000
G01 F120.00
G01 X36.6509 Y25.0781
G01 X36.6690 Y25.0052
G01 X36.6727 Y24.9930
G01 X36.6982 Y24.9224
G01 X36.7330 Y24.8487
G01 X36.7715 Y24.7843
G01 X36.7786 Y24.7737
G01 X36.8234 Y24.7135
G01 X36.8737 Y24.6577
G01 X36.8827 Y24.6487
G01 X36.9385 Y24.5984
G01 X37.0039 Y24.5499
G01 X37.0682 Y24.5112
G01 X37.0794 Y24.5051
G01 X37.1474 Y24.4732
G01 X37.2180 Y24.4477
G01 X37.2302 Y24.4440
G01 X37.2968 Y24.4273
G01 X37.3094 Y24.4249
G01 X37.3836 Y24.4140
G01 X37.4586 Y24.4102
G01 X37.4714 Y24.4102
G01 X37.5464 Y24.4140
G01 X37.6206 Y24.4249
G01 X37.6332 Y24.4273
G01 X37.7059 Y24.4457
G01 X37.7767 Y24.4709
G01 X37.7885 Y24.4758
G01 X37.8563 Y24.5080
G01 X37.9261 Y24.5499
G01 X37.9865 Y24.5945
G01 X37.9964 Y24.6026
G01 X38.0473 Y24.6487
G01 X38.0563 Y24.6577
G01 X38.1066 Y24.7135
G01 X38.1551 Y24.7789
G01 X38.1970 Y24.8487
G01 X38.2292 Y24.9165
G01 X38.2341 Y24.9283
G01 X38.2573 Y24.9930
G01 X38.2610 Y25.0052
G01 X38.2791 Y25.0781
G01 X38.2910 Y25.1586
G01 X38.2950 Y25.2400
G01 X38.2950 Y27.3294
G01 X38.3399 Y27.3565
G01 X38.3902 Y27.3936
G01 X38.4000 Y27.4017
G01 X38.4462 Y27.4438
G01 X42.0507 Y31.0482
G01 X50.9255 Y31.0482
G01 X50.9609 Y31.0220
G01 X50.9688 Y31.0166
G01 X51.0374 Y30.9754
G01 X51.0459 Y30.9710
G01 X51.1124 Y30.9396
G01 X51.1212 Y30.9358
G01 X51.1995 Y30.9079
G01 X51.2771 Y30.8883
G01 X51.2896 Y30.8858
G01 X51.3624 Y30.8750
G01 X51.3751 Y30.8738
G01 X51.4550 Y30.8700
G01 X53.9550 Y30.8700
G01 X54.0381 Y30.8740
G01 X54.0476 Y30.8750
G01 X54.1267 Y30.8869
G01 X54.2043 Y30.9062
G01 X54.2165 Y30.9099
G01 X54.2918 Y30.9370
G01 X54.3641 Y30.9710
G01 X54.3754 Y30.9771
G01 X54.4385 Y31.0149
G01 X54.4491 Y31.0220
G01 X54.5133 Y31.0698
G01 X54.5773 Y31.1277
G01 X54.6352 Y31.1917
G01 X54.6830 Y31.2559
G01 X54.6901 Y31.2665
G01 X54.7279 Y31.3296
G01 X54.7340 Y31.3409
G01 X54.7680 Y31.4132
G01 X54.7951 Y31.4885
G01 X54.7988 Y31.5007
G01 X54.8181 Y31.5783
G01 X54.8308 Y31.6637
G01 X54.8350 Y31.7500
G01 X54.8312 Y31.8299
G01 X54.8300 Y31.8426
G01 X54.8181 Y31.9217
G01 X54.7988 Y31.9993
G01 X54.7951 Y32.0115
G01 X54.7692 Y32.0838
G01 X54.7654 Y32.0926
G01 X54.7340 Y32.1591
G01 X54.7279 Y32.1704
G01 X54.6867 Y32.2389
G01 X54.6352 Y32.3083
G01 X54.5817 Y32.3676
G01 X54.5726 Y32.3767
G01 X54.5133 Y32.4302
G01 X54.4439 Y32.4817
G01 X54.3754 Y32.5229
G01 X54.3641 Y32.5290
G01 X54.2918 Y32.5630
G01 X54.2105 Y32.5921
G01 X54.1329 Y32.6117
G01 X54.1204 Y32.6142
G01 X54.0413 Y32.6258
G01 X53.9582 Y32.6300
G01 X51.4550 Y32.6300
G01 X51.3751 Y32.6262
G01 X51.3624 Y32.6250
G01 X51.2896 Y32.6142
G01 X51.2771 Y32.6117
G01 X51.1995 Y32.5921
G01 X51.1212 Y32.5642
G01 X51.1124 Y32.5604
G01 X51.0459 Y32.5290
G01 X51.0374 Y32.5246
G01 X50.9688 Y32.4834
G01 X50.9609 Y32.4780
G01 X50.9255 Y32.4518
G01 X41.7600 Y32.4518
G01 X41.6912 Y32.4484
G01 X41.6231 Y32.4383
G01 X41.5563 Y32.4216
G01 X41.4944 Y32.3996
G01 X41.4856 Y32.3958
G01 X41.4292 Y32.3689
G01 X41.3701 Y32.3335
G01 X41.3148 Y32.2925
G01 X41.2638 Y32.2462
G01 X37.6628 Y28.6452
G01 X37.6332 Y28.6527
G01 X37.6238 Y28.6546
G01 X37.5527 Y28.6652
G01 X37.5432 Y28.6663
G01 X37.4650 Y28.6700
G01 X37.3868 Y28.6663
G01 X37.3773 Y28.6652
G01 X37.3094 Y28.6551
G01 X37.2968 Y28.6527
G01 X37.2241 Y28.6343
G01 X37.1503 Y28.6080
G01 X37.1415 Y28.6042
G01 X37.0794 Y28.5749
G01 X37.0682 Y28.5688
G01 X37.0039 Y28.5301
G01 X36.9385 Y28.4816
G01 X36.8827 Y28.4313
G01 X36.8737 Y28.4223
G01 X36.8234 Y28.3665
G01 X36.7749 Y28.3011
G01 X36.7330 Y28.2313
G01 X36.7008 Y28.1635
G01 X36.6959 Y28.1517
G01 X36.6707 Y28.0809
G01 X36.6523 Y28.0082
G01 X36.6499 Y27.9956
G01 X36.6390 Y27.9214
G01 X36.6352 Y27.8464
G01 X36.6350 Y25.2400
G01 X36.6385 Y25.1650
G01 X36.6398 Y25.1523
G00 Z2.0000
G00 X36.7189 Y25.1641
G01 F60.00
G01 Z-0.0000
G01 F120.00
G01 X36.7294 Y25.0937
G01 X36.7466 Y25.0247
G01 X36.7721 Y24.9530
G01 X36.8036 Y24.8865
G01 X36.8401 Y24.8254
G01 X36.8852 Y24.7642
G01 X36.9364 Y24.7080
G01 X36.9892 Y24.6602
G01 X37.0483 Y24.6164
G01 X37.1115 Y24.5786
G01 X37.1757 Y24.5481
G01 X37.2473 Y24.5223
G01 X37.3187 Y24.5044
G01 X37.3891 Y24.4939
G01 X37.4650 Y24.4900
G01 X37.5409 Y24.4939
G01 X37.6113 Y24.5044
G01 X37.6827 Y24.5223
G01 X37.7543 Y24.5481
G01 X37.8185 Y24.5786
G01 X37.8817 Y24.6164
G01 X37.9427 Y24.6618
G01 X37.9953 Y24.7097
G01 X38.0432 Y24.7623
G01 X38.0899 Y24.8254
G01 X38.1264 Y24.8865
G01 X38.1579 Y24.9530
G01 X38.1827 Y25.0223
G01 X38.2001 Y25.0913
G01 X38.2115 Y25.1677
G01 X38.2150 Y25.2400
G01 X38.2150 Y27.3783
G01 X38.2442 Y27.3922
G01 X38.2965 Y27.4237
G01 X38.3445 Y27.4594
G01 X38.3897 Y27.5003
G01 X42.0176 Y31.1282
G01 X50.9519 Y31.1282
G01 X51.0105 Y31.0848
G01 X51.0757 Y31.0457
G01 X51.1489 Y31.0109
G01 X51.2228 Y30.9844
G01 X51.2965 Y30.9659
G01 X51.3790 Y30.9537
G01 X51.4550 Y30.9500
G01 X53.9550 Y30.9500
G01 X54.0322 Y30.9537
G01 X54.1111 Y30.9654
G01 X54.1896 Y30.9852
G01 X54.2611 Y31.0109
G01 X54.3299 Y31.0434
G01 X54.3974 Y31.0835
G01 X54.4625 Y31.1316
G01 X54.5207 Y31.1843
G01 X54.5734 Y31.2425
G01 X54.6215 Y31.3076
G01 X54.6616 Y31.3751
G01 X54.6941 Y31.4439
G01 X54.7198 Y31.5154
G01 X54.7396 Y31.5939
G01 X54.7511 Y31.6716
G01 X54.7550 Y31.7500
G01 X54.7508 Y31.8308
G01 X54.7396 Y31.9061
G01 X54.7212 Y31.9799
G01 X54.6946 Y32.0550
G01 X54.6593 Y32.1293
G01 X54.6202 Y32.1945
G01 X54.5734 Y32.2575
G01 X54.5189 Y32.3174
G01 X54.4625 Y32.3684
G01 X54.3995 Y32.4152
G01 X54.3299 Y32.4566
G01 X54.2611 Y32.4891
G01 X54.1872 Y32.5156
G01 X54.1087 Y32.5350
G01 X54.0334 Y32.5461
G01 X53.9562 Y32.5500
G01 X51.4550 Y32.5500
G01 X51.3790 Y32.5463
G01 X51.2965 Y32.5341
G01 X51.2228 Y32.5156
G01 X51.1489 Y32.4891
G01 X51.0757 Y32.4543
G01 X51.0105 Y32.4152
G01 X50.9519 Y32.3718
G01 X41.7600 Y32.3718
G01 X41.6991 Y32.3688
G01 X41.6387 Y32.3598
G01 X41.5795 Y32.3450
G01 X41.5232 Y32.3249
G01 X41.4669 Y32.2984
G01 X41.4146 Y32.2670
G01 X41.3655 Y32.2306
G01 X41.3203 Y32.1897
G01 X37.6924 Y28.5618
G01 X37.6667 Y28.5618
G01 X37.6113 Y28.5756
G01 X37.5373 Y28.5865
G01 X37.4650 Y28.5900
G01 X37.3939 Y28.5866
G01 X37.3163 Y28.5751
G01 X37.2473 Y28.5577
G01 X37.1803 Y28.5338
G01 X37.1093 Y28.5002
G01 X37.0483 Y28.4636
G01 X36.9892 Y28.4198
G01 X36.9330 Y28.3686
G01 X36.8852 Y28.3158
G01 X36.8414 Y28.2567
G01 X36.8036 Y28.1935
G01 X36.7731 Y28.1293
G01 X36.7473 Y28.0577
G01 X36.7290 Y27.9839
G01 X36.7186 Y27.9135
G01 X36.7151 Y27.8425
G01 X36.7150 Y25.2400
G01 X36.7189 Y25.1641
G00 Z2.0000
G00 X36.6398 Y30.4923
G01 F60.00
G01 Z-0.0000
G01 F120.00
G01 X36.6509 Y30.4181
G01 X36.6707 Y30.3391
G01 X36.6982 Y30.2624
G01 X36.7301 Y30.1944
G01 X36.7362 Y30.1832
G01 X36.7715 Y30.1243
G01 X36.7786 Y30.1137
G01 X36.8234 Y30.0535
G01 X36.8781 Y29.9931
G01 X36.9385 Y29.9384
G01 X37.0039 Y29.8899
G01 X37.0737 Y29.8480
G01 X37.1415 Y29.8158
G01 X37.1533 Y29.8109
G01 X37.2180 Y29.7877
G01 X37.2302 Y29.7840
G01 X37.3031 Y29.7659
G01 X37.3836 Y29.7540
G01 X37.4650 Y29.7500
G01 X37.5400 Y29.7535
G01 X37.5527 Y29.7548
G01 X37.6206 Y29.7649
G01 X37.6332 Y29.7673
G01 X37.7059 Y29.7857
G01 X37.7826 Y29.8132
G01 X37.8563 Y29.8480
G01 X37.9261 Y29.8899
G01 X37.9915 Y29.9384
G01 X38.0519 Y29.9931
G01 X38.1066 Y30.0535
G01 X38.1514 Y30.1137
G01 X38.1585 Y30.1243
G01 X38.1938 Y30.1832
G01 X38.1999 Y30.1944
G01 X38.2318 Y30.2624
G01 X38.2593 Y30.3391
G01 X38.2791 Y30.4181
G01 X38.2902 Y30.4923
G01 X38.2915 Y30.5050
G01 X38.2950 Y30.5800
G01 X38.2950 Y33.1800
G01 X38.2910 Y33.2614
G01 X38.2801 Y33.3356
G01 X38.2777 Y33.3482
G01 X38.2593 Y33.4209
G01 X38.2341 Y33.4917
G01 X38.2292 Y33.5035
G01 X38.1970 Y33.5713
G01 X38.1585 Y33.6357
G01 X38.1514 Y33.6463
G01 X38.1105 Y33.7015
G01 X38.1024 Y33.7114
G01 X38.0519 Y33.7669
G01 X37.9964 Y33.8174
G01 X37.9865 Y33.8255
G01 X37.9261 Y33.8701
G01 X37.8563 Y33.9120
G01 X37.7885 Y33.9442
G01 X37.7767 Y33.9491
G01 X37.7059 Y33.9743
G01 X37.6269 Y33.9941
G01 X37.5464 Y34.0060
G01 X37.4650 Y34.0100
G01 X37.3836 Y34.0060
G01 X37.3031 Y33.9941
G01 X37.2241 Y33.9743
G01 X37.1474 Y33.9468
G01 X37.0737 Y33.9120
G01 X37.0039 Y33.8701
G01 X36.9385 Y33.8216
G01 X36.8781 Y33.7669
G01 X36.8234 Y33.7065
G01 X36.7749 Y33.6411
G01 X36.7330 Y33.5713
G01 X36.6982 Y33.4976
G01 X36.6707 Y33.4209
G01 X36.6509 Y33.3419
G01 X36.6398 Y33.2677
G01 X36.6385 Y33.2550
G01 X36.6350 Y33.1800
G01 X36.6350 Y30.5800
G01 X36.6385 Y30.5050
G01 X36.6398 Y30.4923
G00 Z2.0000
G00 X36.7189 Y30.5041
G01 F60.00
G01 Z-0.0000
G01 F120.00
G01 X36.7294 Y30.4337
G01 X36.7473 Y30.3623
G01 X36.7721 Y30.2930
G01 X36.8025 Y30.2286
G01 X36.8428 Y30.1613
G01 X36.8852 Y30.1042
G01 X36.9347 Y30.0497
G01 X36.9892 Y30.0002
G01 X37.0483 Y29.9564
G01 X37.1115 Y29.9186
G01 X37.1757 Y29.8881
G01 X37.2497 Y29.8616
G01 X37.3187 Y29.8444
G01 X37.3915 Y29.8336
G01 X37.4650 Y29.8300
G01 X37.5361 Y29.8334
G01 X37.6137 Y29.8449
G01 X37.6827 Y29.8623
G01 X37.7520 Y29.8871
G01 X37.8185 Y29.9186
G01 X37.8817 Y29.9564
G01 X37.9408 Y30.0002
G01 X37.9953 Y30.0497
G01 X38.0448 Y30.1042
G01 X38.0872 Y30.1613
G01 X38.1275 Y30.2286
G01 X38.1579 Y30.2930
G01 X38.1830 Y30.3635
G01 X38.2006 Y30.4337
G01 X38.2111 Y30.5041
G01 X38.2150 Y30.5800
G01 X38.2150 Y33.1800
G01 X38.2111 Y33.2559
G01 X38.2006 Y33.3263
G01 X38.1834 Y33.3953
G01 X38.1579 Y33.4670
G01 X38.1264 Y33.5335
G01 X38.0899 Y33.5946
G01 X38.0448 Y33.6558
G01 X37.9936 Y33.7120
G01 X37.9408 Y33.7598
G01 X37.8817 Y33.8036
G01 X37.8185 Y33.8414
G01 X37.7543 Y33.8719
G01 X37.6815 Y33.8980
G01 X37.6113 Y33.9156
G01 X37.5385 Y33.9264
G01 X37.4650 Y33.9300
G01 X37.3915 Y33.9264
G01 X37.3187 Y33.9156
G01 X37.2473 Y33.8977
G01 X37.1780 Y33.8729
G01 X37.1115 Y33.8414
G01 X37.0483 Y33.8036
G01 X36.9892 Y33.7598
G01 X36.9347 Y33.7103
G01 X36.8852 Y33.6558
G01 X36.8414 Y33.5967
G01 X36.8036 Y33.5335
G01 X36.7721 Y33.4670
G01 X36.7470 Y33.3965
G01 X36.7294 Y33.3263
G01 X36.7189 Y33.2559
G01 X36.7150 Y33.1800
G01 X36.7150 Y30.5800
G01 X36.7189 Y30.5041
G00 Z2.0000
G00 X34.1789 Y30.5041
G01 F60.00
G01 Z-0.0000
G01 F120.00
G01 X34.1894 Y30.4337
G01 X34.2073 Y30.3623
G01 X34.2321 Y30.2930
G01 X34.2625 Y30.2286
G01 X34.3028 Y30.1613
G01 X34.3452 Y30.1042
G01 X34.3947 Y30.0497
G01 X34.4492 Y30.0002
G01 X34.5083 Y29.9564
G01 X34.5715 Y29.9186
G01 X34.6357 Y29.8881
G01 X34.7097 Y29.8616
G01 X34.7787 Y29.8444
G01 X34.8515 Y29.8336
G01 X34.9250 Y29.8300
G01 X34.9985 Y29.8336
G01 X35.0713 Y29.8444
G01 X35.1403 Y29.8616
G01 X35.2143 Y29.8881
G01 X35.2785 Y29.9186
G01 X35.3417 Y29.9564
G01 X35.4008 Y30.0002
G01 X35.4553 Y30.0497
G01 X35.5048 Y30.1042
G01 X35.5472 Y30.1613
G01 X35.5875 Y30.2286
G01 X35.6179 Y30.2930
G01 X35.6430 Y30.3635
G01 X35.6606 Y30.4337
G01 X35.6711 Y30.5041
G01 X35.6750 Y30.5800
G01 X35.6750 Y33.1800
G01 X35.6711 Y33.2559
G01 X35.6606 Y33.3263
G01 X35.6434 Y33.3953
G01 X35.6179 Y33.4670
G01 X35.5864 Y33.5335
G01 X35.5499 Y33.5946
G01 X35.5048 Y33.6558
G01 X35.4536 Y33.7120
G01 X35.4008 Y33.7598
G01 X35.3417 Y33.8036
G01 X35.2785 Y33.8414
G01 X35.2143 Y33.8719
G01 X35.1415 Y33.8980
G01 X35.0713 Y33.9156
G01 X34.9985 Y33.9264
G01 X34.9250 Y33.9300
G01 X34.8515 Y33.9264
G01 X34.7787 Y33.9156
G01 X34.7073 Y33.8977
G01 X34.6380 Y33.8729
G01 X34.5715 Y33.8414
G01 X34.5083 Y33.8036
G01 X34.4492 Y33.7598
G01 X34.3947 Y33.7103
G01 X34.3452 Y33.6558
G01 X34.3014 Y33.5967
G01 X34.2636 Y33.5335
G01 X34.2321 Y33.4670
G01 X34.2070 Y33.3965
G01 X34.1894 Y33.3263
G01 X34.1789 Y33.2559
G01 X34.1750 Y33.1800
G01 X34.1750 Y30.5800
G01 X34.1789 Y30.5041
G00 Z2.0000
G00 X34.0998 Y30.4923
G01 F60.00
G01 Z-0.0000
G01 F120.00
G01 X34.1109 Y30.4181
G01 X34.1307 Y30.3391
G01 X34.1582 Y30.2624
G01 X34.1901 Y30.1944
G01 X34.1962 Y30.1832
G01 X34.2315 Y30.1243
G01 X34.2386 Y30.1137
G01 X34.2834 Y30.0535
G01 X34.3381 Y29.9931
G01 X34.3985 Y29.9384
G01 X34.4639 Y29.8899
G01 X34.5337 Y29.8480
G01 X34.6015 Y29.8158
G01 X34.6133 Y29.8109
G01 X34.6780 Y29.7877
G01 X34.6902 Y29.7840
G01 X34.7631 Y29.7659
G01 X34.8436 Y29.7540
G01 X34.9250 Y29.7500
G01 X35.0064 Y29.7540
G01 X35.0869 Y29.7659
G01 X35.1598 Y29.7840
G01 X35.1720 Y29.7877
G01 X35.2367 Y29.8109
G01 X35.2485 Y29.8158
G01 X35.3163 Y29.8480
G01 X35.3861 Y29.8899
G01 X35.4515 Y29.9384
G01 X35.5119 Y29.9931
G01 X35.5666 Y30.0535
G01 X35.6114 Y30.1137
G01 X35.6185 Y30.1243
G01 X35.6538 Y30.1832
G01 X35.6599 Y30.1944
G01 X35.6918 Y30.2624
G01 X35.7193 Y30.3391
G01 X35.7391 Y30.4181
G01 X35.7502 Y30.4923
G01 X35.7515 Y30.5050
G01 X35.7550 Y30.5800
G01 X35.7550 Y33.1800
G01 X35.7510 Y33.2614
G01 X35.7401 Y33.3356
G01 X35.7377 Y33.3482
G01 X35.7193 Y33.4209
G01 X35.6941 Y33.4917
G01 X35.6892 Y33.5035
G01 X35.6570 Y33.5713
G01 X35.6185 Y33.6357
G01 X35.6114 Y33.6463
G01 X35.5705 Y33.7015
G01 X35.5624 Y33.7114
G01 X35.5119 Y33.7669
G01 X35.4564 Y33.8174
G01 X35.4465 Y33.8255
G01 X35.3861 Y33.8701
G01 X35.3163 Y33.9120
G01 X35.2485 Y33.9442
G01 X35.2367 Y33.9491
G01 X35.1659 Y33.9743
G01 X35.0869 Y33.9941
G01 X35.0064 Y34.0060
G01 X34.9250 Y34.0100
G01 X34.8436 Y34.0060
G01 X34.7631 Y33.9941
G01 X34.6841 Y33.9743
G01 X34.6074 Y33.9468
G01 X34.5337 Y33.9120
G01 X34.4639 Y33.8701
G01 X34.3985 Y33.8216
G01 X34.3381 Y33.7669
G01 X34.2834 Y33.7065
G01 X34.2349 Y33.6411
G01 X34.1930 Y33.5713
G01 X34.1582 Y33.4976
G01 X34.1307 Y33.4209
G01 X34.1109 Y33.3419
G01 X34.0998 Y33.2677
G01 X34.0985 Y33.2550
G01 X34.0950 Y33.1800
G01 X34.0950 Y30.5800
G01 X34.0985 Y30.5050
G01 X34.0998 Y30.4923
G00 Z2.0000
G00 X31.6389 Y30.5041
G01 F60.00
G01 Z-0.0000
G01 F120.00
G01 X31.6494 Y30.4337
G01 X31.6673 Y30.3623
G01 X31.6921 Y30.2930
G01 X31.7225 Y30.2286
G01 X31.7628 Y30.1613
G01 X31.8052 Y30.1042
G01 X31.8547 Y30.0497
G01 X31.9092 Y30.0002
G01 X31.9683 Y29.9564
G01 X32.0315 Y29.9186
G01 X32.0957 Y29.8881
G01 X32.1697 Y29.8616
G01 X32.2387 Y29.8444
G01 X32.3115 Y29.8336
G01 X32.3850 Y29.8300
G01 X32.4585 Y29.8336
G01 X32.5313 Y29.8444
G01 X32.6003 Y29.8616
G01 X32.6743 Y29.8881
G01 X32.7385 Y29.9186
G01 X32.8017 Y29.9564
G01 X32.8608 Y30.0002
G01 X32.9153 Y30.0497
G01 X32.9648 Y30.1042
G01 X33.0072 Y30.1613
G01 X33.0475 Y30.2286
G01 X33.0779 Y30.2930
G01 X33.1030 Y30.3635
G01 X33.1206 Y30.4337
G01 X33.1311 Y30.5041
G01 X33.1350 Y30.5800
G01 X33.1350 Y33.1800
G01 X33.1311 Y33.2559
G01 X33.1206 Y33.3263
G01 X33.1034 Y33.3953
G01 X33.0779 Y33.4670
G01 X33.0464 Y33.5335
G01 X33.0099 Y33.5946
G01 X32.9648 Y33.6558
G01 X32.9136 Y33.7120
G01 X32.8608 Y33.7598
G01 X32.8017 Y33.8036
G01 X32.7385 Y33.8414
G01 X32.6743 Y33.8719
G01 X32.6015 Y33.8980
G01 X32.5313 Y33.9156
G01 X32.4585 Y33.9264
G01 X32.3850 Y33.9300
G01 X32.3115 Y33.9264
G01 X32.2387 Y33.9156
G01 X32.1673 Y33.8977
G01 X32.0980 Y33.8729
G01 X32.0315 Y33.8414
G01 X31.9683 Y33.8036
G01 X31.9092 Y33.7598
G01 X31.8547 Y33.7103
G01 X31.8052 Y33.6558
G01 X31.7614 Y33.5967
G01 X31.7236 Y33.5335
G01 X31.6921 Y33.4670
G01 X31.6670 Y33.3965
G01 X31.6494 Y33.3263
G01 X31.6389 Y33.2559
G01 X31.6350 Y33.1800
G01 X31.6350 Y30.5800
G01 X31.6389 Y30.5041
G00 Z2.0000
G00 X31.5598 Y30.4923
G01 F60.00
G01 Z-0.0000
G01 F120.00
G01 X31.5709 Y30.4181
G01 X31.5907 Y30.3391
G01 X31.6182 Y30.2624
G01 X31.6501 Y30.1944
G01 X31.6562 Y30.1832
G01 X31.6915 Y30.1243
G01 X31.6986 Y30.1137
G01 X31.7434 Y30.0535
G01 X31.7981 Y29.9931
G01 X31.8585 Y29.9384
G01 X31.9239 Y29.8899
G01 X31.9937 Y29.8480
G01 X32.0615 Y29.8158
G01 X32.0733 Y29.8109
G01 X32.1380 Y29.7877
G01 X32.1502 Y29.7840
G01 X32.2231 Y29.7659
G01 X32.3036 Y29.7540
G01 X32.3850 Y29.7500
G01 X32.4664 Y29.7540
G01 X32.5469 Y29.7659
G01 X32.6198 Y29.7840
G01 X32.6320 Y29.7877
G01 X32.6967 Y29.8109
G01 X32.7085 Y29.8158
G01 X32.7763 Y29.8480
G01 X32.8461 Y29.8899
G01 X32.9115 Y29.9384
G01 X32.9719 Y29.9931
G01 X33.0266 Y30.0535
G01 X33.0714 Y30.1137
G01 X33.0785 Y30.1243
G01 X33.1138 Y30.1832
G01 X33.1199 Y30.1944
G01 X33.1518 Y30.2624
G01 X33.1793 Y30.3391
G01 X33.1991 Y30.4181
G01 X33.2102 Y30.4923
G01 X33.2115 Y30.5050
G01 X33.2150 Y30.5800
G01 X33.2150 Y33.1800
G01 X33.2110 Y33.2614
G01 X33.2001 Y33.3356
G01 X33.1977 Y33.3482
G01 X33.1793 Y33.4209
G01 X33.1541 Y33.4917
G01 X33.1492 Y33.5035
G01 X33.1170 Y33.5713
G01 X33.0785 Y33.6357
G01 X33.0714 Y33.6463
G01 X33.0305 Y33.7015
G01 X33.0224 Y33.7114
G01 X32.9719 Y33.7669
G01 X32.9164 Y33.8174
G01 X32.9065 Y33.8255
G01 X32.8461 Y33.8701
G01 X32.7763 Y33.9120
G01 X32.7085 Y33.9442
G01 X32.6967 Y33.9491
G01 X32.6259 Y33.9743
G01 X32.5469 Y33.9941
G01 X32.4664 Y34.0060
G01 X32.3850 Y34.0100
G01 X32.3036 Y34.0060
G01 X32.2231 Y33.9941
G01 X32.1441 Y33.9743
G01 X32.0674 Y33.9468
G01 X31.9937 Y33.9120
G01 X31.9239 Y33.8701
G01 X31.8585 Y33.8216
G01 X31.7981 Y33.7669
G01 X31.7434 Y33.7065
G01 X31.6949 Y33.6411
G01 X31.6530 Y33.5713
G01 X31.6182 Y33.4976
G01 X31.5907 Y33.4209
G01 X31.5709 Y33.3419
G01 X31.5598 Y33.2677
G01 X31.5585 Y33.2550
G01 X31.5550 Y33.1800
G01 X31.5550 Y30.5800
G01 X31.5585 Y30.5050
G01 X31.5598 Y30.4923
G00 Z2.0000
G00 X29.0989 Y30.5041
G01 F60.00
G01 Z-0.0000
G01 F120.00
G01 X29.1094 Y30.4337
G01 X29.1273 Y30.3623
G01 X29.1521 Y30.2930
G01 X29.1825 Y30.2286
G01 X29.2228 Y30.1613
G01 X29.2652 Y30.1042
G01 X29.3147 Y30.0497
G01 X29.3692 Y30.0002
G01 X29.4263 Y29.9578
G01 X29.4936 Y29.9175
G01 X29.5580 Y29.8871
G01 X29.6273 Y29.8623
G01 X29.6987 Y29.8444
G01 X29.7715 Y29.8336
G01 X29.8450 Y29.8300
G01 X29.9185 Y29.8336
G01 X29.9913 Y29.8444
G01 X30.0603 Y29.8616
G01 X30.1343 Y29.8881
G01 X30.1985 Y29.9186
G01 X30.2617 Y29.9564
G01 X30.3208 Y30.0002
G01 X30.3753 Y30.0497
G01 X30.4248 Y30.1042
G01 X30.4672 Y30.1613
G01 X30.5075 Y30.2286
G01 X30.5379 Y30.2930
G01 X30.5630 Y30.3635
G01 X30.5806 Y30.4337
G01 X30.5911 Y30.5041
G01 X30.5950 Y30.5800
G01 X30.5950 Y33.1800
G01 X30.5911 Y33.2559
G01 X30.5806 Y33.3263
G01 X30.5634 Y33.3953
G01 X30.5379 Y33.4670
G01 X30.5064 Y33.5335
G01 X30.4699 Y33.5946
G01 X30.4248 Y33.6558
G01 X30.3736 Y33.7120
G01 X30.3208 Y33.7598
G01 X30.2617 Y33.8036
G01 X30.1985 Y33.8414
G01 X30.1343 Y33.8719
G01 X30.0615 Y33.8980
G01 X29.9913 Y33.9156
G01 X29.9185 Y33.9264
G01 X29.8450 Y33.9300
G01 X29.7715 Y33.9264
G01 X29.6987 Y33.9156
G01 X29.6273 Y33.8977
G01 X29.5580 Y33.8729
G01 X29.4915 Y33.8414
G01 X29.4283 Y33.8036
G01 X29.3692 Y33.7598
G01 X29.3147 Y33.7103
G01 X29.2652 Y33.6558
G01 X29.2214 Y33.5967
G01 X29.1836 Y33.5335
G01 X29.1521 Y33.4670
G01 X29.1270 Y33.3965
G01 X29.1094 Y33.3263
G01 X29.0989 Y33.2559
G01 X29.0950 Y33.1800
G01 X29.0950 Y30.5800
G01 X29.0989 Y30.5041
G00 Z2.0000
G00 X29.0198 Y30.4923
G01 F60.00
G01 Z-0.0000
G01 F120.00
G01 X29.0309 Y30.4181
G01 X29.0507 Y30.3391
G01 X29.0782 Y30.2624
G01 X29.1101 Y30.1944
G01 X29.1162 Y30.1832
G01 X29.1515 Y30.1243
G01 X29.1586 Y30.1137
G01 X29.2034 Y30.0535
G01 X29.2581 Y29.9931
G01 X29.3185 Y29.9384
G01 X29.3787 Y29.8936
G01 X29.3893 Y29.8865
G01 X29.4482 Y29.8512
G01 X29.4594 Y29.8451
G01 X29.5274 Y29.8132
G01 X29.6041 Y29.7857
G01 X29.6831 Y29.7659
G01 X29.7636 Y29.7540
G01 X29.8450 Y29.7500
G01 X29.9264 Y29.7540
G01 X30.0069 Y29.7659
G01 X30.0798 Y29.7840
G01 X30.0920 Y29.7877
G01 X30.1567 Y29.8109
G01 X30.1685 Y29.8158
G01 X30.2363 Y29.8480
G01 X30.3061 Y29.8899
G01 X30.3715 Y29.9384
G01 X30.4319 Y29.9931
G01 X30.4866 Y30.0535
G01 X30.5314 Y30.1137
G01 X30.5385 Y30.1243
G01 X30.5738 Y30.1832
G01 X30.5799 Y30.1944
G01 X30.6118 Y30.2624
G01 X30.6393 Y30.3391
G01 X30.6591 Y30.4181
G01 X30.6702 Y30.4923
G01 X30.6715 Y30.5050
G01 X30.6750 Y30.5800
G01 X30.6750 Y33.1800
G01 X30.6710 Y33.2614
G01 X30.6601 Y33.3356
G01 X30.6577 Y33.3482
G01 X30.6393 Y33.4209
G01 X30.6141 Y33.4917
G01 X30.6092 Y33.5035
G01 X30.5770 Y33.5713
G01 X30.5385 Y33.6357
G01 X30.5314 Y33.6463
G01 X30.4905 Y33.7015
G01 X30.4824 Y33.7114
G01 X30.4319 Y33.7669
G01 X30.3764 Y33.8174
G01 X30.3665 Y33.8255
G01 X30.3061 Y33.8701
G01 X30.2363 Y33.9120
G01 X30.1685 Y33.9442
G01 X30.1567 Y33.9491
G01 X30.0859 Y33.9743
G01 X30.0069 Y33.9941
G01 X29.9264 Y34.0060
G01 X29.8450 Y34.0100
G01 X29.7636 Y34.0060
G01 X29.6831 Y33.9941
G01 X29.6041 Y33.9743
G01 X29.5274 Y33.9468
G01 X29.4537 Y33.9120
G01 X29.3839 Y33.8701
G01 X29.3185 Y33.8216
G01 X29.2581 Y33.7669
G01 X29.2034 Y33.7065
G01 X29.1549 Y33.6411
G01 X29.1130 Y33.5713
G01 X29.0782 Y33.4976
G01 X29.0507 Y33.4209
G01 X29.0309 Y33.3419
G01 X29.0198 Y33.2677
G01 X29.0185 Y33.2550
G01 X29.0150 Y33.1800
G01 X29.0150 Y30.5800
G01 X29.0185 Y30.5050
G01 X29.0198 Y30.4923
G00 Z2.0000
G00 X26.5589 Y30.5041
G01 F60.00
G01 Z-0.0000
G01 F120.00
G01 X26.5694 Y30.4337
G01 X26.5873 Y30.3623
G01 X26.6121 Y30.2930
G01 X26.6425 Y30.2286
G01 X26.6828 Y30.1613
G01 X26.7252 Y30.1042
G01 X26.7747 Y30.0497
G01 X26.8292 Y30.0002
G01 X26.8863 Y29.9578
G01 X26.9536 Y29.9175
G01 X27.0180 Y29.8871
G01 X27.0873 Y29.8623
G01 X27.1587 Y29.8444
G01 X27.2315 Y29.8336
G01 X27.3050 Y29.8300
G01 X27.3785 Y29.8336
G01 X27.4513 Y29.8444
G01 X27.5203 Y29.8616
G01 X27.5943 Y29.8881
G01 X27.6585 Y29.9186
G01 X27.7217 Y29.9564
G01 X27.7808 Y30.0002
G01 X27.8353 Y30.0497
G01 X27.8848 Y30.1042
G01 X27.9272 Y30.1613
G01 X27.9675 Y30.2286
G01 X27.9979 Y30.2930
G01 X28.0230 Y30.3635
G01 X28.0406 Y30.4337
G01 X28.0511 Y30.5041
G01 X28.0550 Y30.5800
G01 X28.0550 Y33.1800
G01 X28.0511 Y33.2559
G01 X28.0406 Y33.3263
G01 X28.0234 Y33.3953
G01 X27.9979 Y33.4670
G01 X27.9664 Y33.5335
G01 X27.9299 Y33.5946
G01 X27.8848 Y33.6558
G01 X27.8336 Y33.7120
G01 X27.7808 Y33.7598
G01 X27.7217 Y33.8036
G01 X27.6585 Y33.8414
G01 X27.5943 Y33.8719
G01 X27.5215 Y33.8980
G01 X27.4513 Y33.9156
G01 X27.3785 Y33.9264
G01 X27.3050 Y33.9300
G01 X27.2315 Y33.9264
G01 X27.1587 Y33.9156
G01 X27.0873 Y33.8977
G01 X27.0180 Y33.8729
G01 X26.9515 Y33.8414
G01 X26.8883 Y33.8036
G01 X26.8292 Y33.7598
G01 X26.7747 Y33.7103
G01 X26.7252 Y33.6558
G01 X26.6814 Y33.5967
G01 X26.6436 Y33.5335
G01 X26.6121 Y33.4670
G01 X26.5870 Y33.3965
G01 X26.5694 Y33.3263
G01 X26.5589 Y33.2559
G01 X26.5550 Y33.1800
G01 X26.5550 Y30.5800
G01 X26.5589 Y30.5041
G00 Z2.0000
G00 X26.4798 Y30.4923
G01 F60.00
G01 Z-0.0000
G01 F120.00
G01 X26.4909 Y30.4181
G01 X26.5107 Y30.3391
G01 X26.5382 Y30.2624
G01 X26.5701 Y30.1944
G01 X26.5762 Y30.1832
G01 X26.6115 Y30.1243
G01 X26.6186 Y30.1137
G01 X26.6634 Y30.0535
G01 X26.7181 Y29.9931
G01 X26.7785 Y29.9384
G01 X26.8387 Y29.8936
G01 X26.8493 Y29.8865
G01 X26.9082 Y29.8512
G01 X26.9194 Y29.8451
G01 X26.9874 Y29.8132
G01 X27.0641 Y29.7857
G01 X27.1431 Y29.7659
G01 X27.2236 Y29.7540
G01 X27.3050 Y29.7500
G01 X27.3864 Y29.7540
G01 X27.4669 Y29.7659
G01 X27.5398 Y29.7840
G01 X27.5520 Y29.7877
G01 X27.6167 Y29.8109
G01 X27.6285 Y29.8158
G01 X27.6963 Y29.8480
G01 X27.7661 Y29.8899
G01 X27.8315 Y29.9384
G01 X27.8919 Y29.9931
G01 X27.9466 Y30.0535
G01 X27.9914 Y30.1137
G01 X27.9985 Y30.1243
G01 X28.0338 Y30.1832
G01 X28.0399 Y30.1944
G01 X28.0718 Y30.2624
G01 X28.0993 Y30.3391
G01 X28.1191 Y30.4181
G01 X28.1302 Y30.4923
G01 X28.1315 Y30.5050
G01 X28.1350 Y30.5800
G01 X28.1350 Y33.1800
G01 X28.1310 Y33.2614
G01 X28.1201 Y33.3356
G01 X28.1177 Y33.3482
G01 X28.0993 Y33.4209
G01 X28.0741 Y33.4917
G01 X28.0692 Y33.5035
G01 X28.0370 Y33.5713
G01 X27.9985 Y33.6357
G01 X27.9914 Y33.6463
G01 X27.9505 Y33.7015
G01 X27.9424 Y33.7114
G01 X27.8919 Y33.7669
G01 X27.8364 Y33.8174
G01 X27.8265 Y33.8255
G01 X27.7661 Y33.8701
G01 X27.6963 Y33.9120
G01 X27.6285 Y33.9442
G01 X27.6167 Y33.9491
G01 X27.5459 Y33.9743
G01 X27.4669 Y33.9941
G01 X27.3864 Y34.0060
G01 X27.3050 Y34.0100
G01 X27.2236 Y34.0060
G01 X27.1431 Y33.9941
G01 X27.0641 Y33.9743
G01 X26.9874 Y33.9468
G01 X26.9137 Y33.9120
G01 X26.8439 Y33.8701
G01 X26.7785 Y33.8216
G01 X26.7181 Y33.7669
G01 X26.6634 Y33.7065
G01 X26.6149 Y33.6411
G01 X26.5730 Y33.5713
G01 X26.5382 Y33.4976
G01 X26.5107 Y33.4209
G01 X26.4909 Y33.3419
G01 X26.4798 Y33.2677
G01 X26.4785 Y33.2550
G01 X26.4750 Y33.1800
G01 X26.4750 Y30.5800
G01 X26.4785 Y30.5050
G01 X26.4798 Y30.4923
G00 Z2.0000
G00 X24.0189 Y30.5041
G01 F60.00
G01 Z-0.0000
G01 F120.00
G01 X24.0294 Y30.4337
G01 X24.0473 Y30.3623
G01 X24.0721 Y30.2930
G01 X24.1025 Y30.2286
G01 X24.1428 Y30.1613
G01 X24.1852 Y30.1042
G01 X24.2347 Y30.0497
G01 X24.2892 Y30.0002
G01 X24.3463 Y29.9578
G01 X24.4136 Y29.9175
G01 X24.4780 Y29.8871
G01 X24.5473 Y29.8623
G01 X24.6187 Y29.8444
G01 X24.6915 Y29.8336
G01 X24.7650 Y29.8300
G01 X24.8385 Y29.8336
G01 X24.9113 Y29.8444
G01 X24.9803 Y29.8616
G01 X25.0543 Y29.8881
G01 X25.1185 Y29.9186
G01 X25.1817 Y29.9564
G01 X25.2408 Y30.0002
G01 X25.2936 Y30.0480
G01 X25.3463 Y30.1061
G01 X25.3886 Y30.1633
G01 X25.4264 Y30.2265
G01 X25.4579 Y30.2930
G01 X25.4823 Y30.3611
G01 X25.5010 Y30.4361
G01 X25.5114 Y30.5065
G01 X25.5150 Y30.5800
G01 X25.5150 Y33.1812
G01 X25.5114 Y33.2535
G01 X25.5010 Y33.3239
G01 X25.4827 Y33.3977
G01 X25.4579 Y33.4670
G01 X25.4275 Y33.5314
G01 X25.3899 Y33.5946
G01 X25.3868 Y33.5992
G01 X25.3868 Y34.7298
G01 X53.2487 Y34.7298
G01 X55.5548 Y32.4237
G01 X55.5548 Y29.8318
G01 X54.4581 Y29.8318
G01 X54.3995 Y29.8752
G01 X54.3321 Y29.9155
G01 X54.2611 Y29.9491
G01 X54.1896 Y29.9748
G01 X54.1087 Y29.9950
G01 X54.0334 Y30.0061
G01 X53.9575 Y30.0099
G01 X51.4550 Y30.0100
G01 X51.3742 Y30.0058
G01 X51.2989 Y29.9946
G01 X51.2228 Y29.9756
G01 X51.1489 Y29.9491
G01 X51.0779 Y29.9155
G01 X51.0105 Y29.8752
G01 X50.9475 Y29.8284
G01 X50.8893 Y29.7757
G01 X50.8366 Y29.7175
G01 X50.7898 Y29.6545
G01 X50.7495 Y29.5871
G01 X50.7159 Y29.5161
G01 X50.6894 Y29.4422
G01 X50.6704 Y29.3661
G01 X50.6589 Y29.2884
G01 X50.6550 Y29.2100
G01 X50.6590 Y29.1304
G01 X50.6704 Y29.0539
G01 X50.6888 Y28.9801
G01 X50.7169 Y28.9016
G01 X50.7495 Y28.8329
G01 X50.7898 Y28.7655
G01 X50.8366 Y28.7025
G01 X50.8876 Y28.6461
G01 X50.9494 Y28.5901
G01 X51.0105 Y28.5448
G01 X51.0779 Y28.5045
G01 X51.1511 Y28.4700
G01 X51.2228 Y28.4444
G01 X51.2977 Y28.4256
G01 X51.3766 Y28.4139
G01 X51.4550 Y28.4100
G01 X53.9550 Y28.4100
G01 X54.0322 Y28.4137
G01 X54.1135 Y28.4259
G01 X54.1872 Y28.4444
G01 X54.2611 Y28.4709
G01 X54.3343 Y28.5057
G01 X54.3995 Y28.5448
G01 X54.4581 Y28.5882
G01 X56.1766 Y28.5882
G01 X56.2375 Y28.5912
G01 X56.2967 Y28.5999
G01 X56.3571 Y28.6150
G01 X56.4145 Y28.6355
G01 X56.4697 Y28.6616
G01 X56.5220 Y28.6930
G01 X56.5711 Y28.7294
G01 X56.6163 Y28.7703
G01 X56.6572 Y28.8155
G01 X56.6943 Y28.8656
G01 X56.7250 Y28.9169
G01 X56.7501 Y28.9698
G01 X56.7716 Y29.0295
G01 X56.7869 Y29.0911
G01 X56.7954 Y29.1491
G01 X56.7984 Y29.2088
G01 X56.7984 Y32.6813
G01 X56.7955 Y32.7410
G01 X56.7864 Y32.8026
G01 X56.7723 Y32.8594
G01 X56.7501 Y32.9215
G01 X56.7250 Y32.9744
G01 X56.6936 Y33.0267
G01 X56.6572 Y33.0758
G01 X56.6163 Y33.1210
G01 X53.9451 Y35.7921
G01 X53.9008 Y35.8322
G01 X53.8517 Y35.8686
G01 X53.7994 Y35.9000
G01 X53.7465 Y35.9251
G01 X53.6844 Y35.9473
G01 X53.6276 Y35.9614
G01 X53.5672 Y35.9704
G01 X53.5063 Y35.9734
G01 X24.7650 Y35.9734
G01 X24.7053 Y35.9705
G01 X24.6437 Y35.9614
G01 X24.5869 Y35.9473
G01 X24.5248 Y35.9251
G01 X24.4719 Y35.9000
G01 X24.4196 Y35.8686
G01 X24.3705 Y35.8322
G01 X24.3253 Y35.7913
G01 X24.2844 Y35.7461
G01 X24.2494 Y35.6991
G01 X24.2155 Y35.6425
G01 X24.1905 Y35.5895
G01 X24.1700 Y35.5321
G01 X24.1552 Y35.4729
G01 X24.1463 Y35.4138
G01 X24.1432 Y35.3516
G01 X24.1432 Y33.5992
G01 X24.1401 Y33.5946
G01 X24.1025 Y33.5314
G01 X24.0721 Y33.4670
G01 X24.0473 Y33.3977
G01 X24.0290 Y33.3239
G01 X24.0186 Y33.2535
G01 X24.0150 Y33.1812
G01 X24.0150 Y30.5800
G01 X24.0189 Y30.5041
G00 Z2.0000
G00 X23.9398 Y30.4923
G01 F60.00
G01 Z-0.0000
G01 F120.00
G01 X23.9509 Y30.4181
G01 X23.9707 Y30.3391
G01 X23.9982 Y30.2624
G01 X24.0301 Y30.1944
G01 X24.0362 Y30.1832
G01 X24.0715 Y30.1243
G01 X24.0786 Y30.1137
G01 X24.1234 Y30.0535
G01 X24.1781 Y29.9931
G01 X24.2385 Y29.9384
G01 X24.2987 Y29.8936
G01 X24.3093 Y29.8865
G01 X24.3682 Y29.8512
G01 X24.3794 Y29.8451
G01 X24.4474 Y29.8132
G01 X24.5241 Y29.7857
G01 X24.6031 Y29.7659
G01 X24.6773 Y29.7548
G01 X24.6900 Y29.7535
G01 X24.7586 Y29.7502
G01 X24.7714 Y29.7502
G01 X24.8464 Y29.7540
G01 X24.9269 Y29.7659
G01 X25.0059 Y29.7857
G01 X25.0767 Y29.8109
G01 X25.0885 Y29.8158
G01 X25.1506 Y29.8451
G01 X25.1618 Y29.8512
G01 X25.2261 Y29.8899
G01 X25.2915 Y29.9384
G01 X25.3519 Y29.9931
G01 X25.4024 Y30.0486
G01 X25.4105 Y30.0585
G01 X25.4514 Y30.1137
G01 X25.4585 Y30.1243
G01 X25.4970 Y30.1887
G01 X25.5292 Y30.2565
G01 X25.5341 Y30.2683
G01 X25.5593 Y30.3391
G01 X25.5791 Y30.4181
G01 X25.5910 Y30.4986
G01 X25.5950 Y30.5768
G01 X25.5950 Y33.1832
G01 X25.5910 Y33.2614
G01 X25.5801 Y33.3356
G01 X25.5777 Y33.3482
G01 X25.5593 Y33.4209
G01 X25.5341 Y33.4917
G01 X25.5292 Y33.5035
G01 X25.4970 Y33.5713
G01 X25.4668 Y33.6220
G01 X25.4668 Y34.6498
G01 X53.2156 Y34.6498
G01 X55.4748 Y32.3906
G01 X55.4748 Y29.9118
G01 X54.4845 Y29.9118
G01 X54.4491 Y29.9380
G01 X54.4412 Y29.9434
G01 X54.3754 Y29.9829
G01 X54.3670 Y29.9876
G01 X54.2918 Y30.0230
G01 X54.2135 Y30.0511
G01 X54.2043 Y30.0538
G01 X54.1329 Y30.0717
G01 X54.1204 Y30.0742
G01 X54.0413 Y30.0858
G01 X53.9614 Y30.0898
G01 X51.4550 Y30.0900
G01 X51.3687 Y30.0858
G01 X51.2865 Y30.0737
G01 X51.2771 Y30.0717
G01 X51.1995 Y30.0521
G01 X51.1182 Y30.0230
G01 X51.0402 Y29.9861
G01 X50.9661 Y29.9417
G01 X50.8967 Y29.8902
G01 X50.8327 Y29.8323
G01 X50.7748 Y29.7683
G01 X50.7270 Y29.7041
G01 X50.7199 Y29.6935
G01 X50.6821 Y29.6304
G01 X50.6760 Y29.6191
G01 X50.6420 Y29.5468
G01 X50.6149 Y29.4715
G01 X50.6112 Y29.4593
G01 X50.5919 Y29.3817
G01 X50.5792 Y29.2963
G01 X50.5750 Y29.2100
G01 X50.5788 Y29.1301
G01 X50.5796 Y29.1206
G01 X50.5919 Y29.0383
G01 X50.6112 Y28.9607
G01 X50.6149 Y28.9485
G01 X50.6397 Y28.8792
G01 X50.6446 Y28.8674
G01 X50.6789 Y28.7952
G01 X50.7233 Y28.7211
G01 X50.7748 Y28.6517
G01 X50.8283 Y28.5924
G01 X50.8374 Y28.5833
G01 X50.8919 Y28.5339
G01 X50.9018 Y28.5258
G01 X50.9661 Y28.4783
G01 X51.0402 Y28.4339
G01 X51.1124 Y28.3996
G01 X51.1242 Y28.3947
G01 X51.1995 Y28.3679
G01 X51.2802 Y28.3476
G01 X51.2896 Y28.3458
G01 X51.3687 Y28.3342
G01 X51.4550 Y28.3300
G01 X53.9550 Y28.3300
G01 X54.0381 Y28.3340
G01 X54.0476 Y28.3350
G01 X54.1204 Y28.3458
G01 X54.1329 Y28.3483
G01 X54.2105 Y28.3679
G01 X54.2888 Y28.3958
G01 X54.2976 Y28.3996
G01 X54.3641 Y28.4310
G01 X54.3726 Y28.4354
G01 X54.4412 Y28.4766
G01 X54.4491 Y28.4820
G01 X54.4845 Y28.5082
G01 X56.1766 Y28.5082
G01 X56.2454 Y28.5116
G01 X56.3104 Y28.5211
G01 X56.3197 Y28.5231
G01 X56.3803 Y28.5384
G01 X56.4452 Y28.5616
G01 X56.5074 Y28.5911
G01 X56.5665 Y28.6265
G01 X56.6218 Y28.6675
G01 X56.6728 Y28.7138
G01 X56.7191 Y28.7648
G01 X56.7564 Y28.8149
G01 X56.7619 Y28.8228
G01 X56.7955 Y28.8792
G01 X56.8224 Y28.9356
G01 X56.8273 Y28.9474
G01 X56.8482 Y29.0063
G01 X56.8635 Y29.0669
G01 X56.8660 Y29.0794
G01 X56.8750 Y29.1412
G01 X56.8783 Y29.2068
G01 X56.8784 Y32.6813
G01 X56.8753 Y32.7469
G01 X56.8742 Y32.7564
G01 X56.8649 Y32.8182
G01 X56.8499 Y32.8789
G01 X56.8462 Y32.8911
G01 X56.8273 Y32.9439
G01 X56.8224 Y32.9557
G01 X56.7955 Y33.0121
G01 X56.7601 Y33.0712
G01 X56.7191 Y33.1265
G01 X56.6728 Y33.1775
G01 X53.9979 Y35.8522
G01 X53.9515 Y35.8941
G01 X53.8962 Y35.9351
G01 X53.8371 Y35.9705
G01 X53.7807 Y35.9974
G01 X53.7689 Y36.0023
G01 X53.7161 Y36.0212
G01 X53.7039 Y36.0249
G01 X53.6432 Y36.0399
G01 X53.5751 Y36.0500
G01 X53.5063 Y36.0534
G01 X24.7650 Y36.0534
G01 X24.6994 Y36.0503
G01 X24.6899 Y36.0492
G01 X24.6281 Y36.0399
G01 X24.5674 Y36.0249
G01 X24.5552 Y36.0212
G01 X24.5024 Y36.0023
G01 X24.4906 Y35.9974
G01 X24.4342 Y35.9705
G01 X24.3751 Y35.9351
G01 X24.3198 Y35.8941
G01 X24.2688 Y35.8478
G01 X24.2225 Y35.7968
G01 X24.1852 Y35.7467
G01 X24.1781 Y35.7361
G01 X24.1492 Y35.6880
G01 X24.1432 Y35.6767
G01 X24.1166 Y35.6202
G01 X24.0934 Y35.5553
G01 X24.0767 Y35.4885
G01 X24.0674 Y35.4267
G01 X24.0661 Y35.4140
G01 X24.0632 Y35.3516
G01 X24.0632 Y33.6220
G01 X24.0330 Y33.5713
G01 X24.0008 Y33.5035
G01 X23.9959 Y33.4917
G01 X23.9707 Y33.4209
G01 X23.9523 Y33.3482
G01 X23.9499 Y33.3356
G01 X23.9390 Y33.2614
G01 X23.9350 Y33.1832
G01 X23.9350 Y30.5800
G01 X23.9385 Y30.5050
G01 X23.9398 Y30.4923
G00 Z2.0000
G00 X21.4789 Y30.5041
G01 F60.00
G01 Z-0.0000
G01 F120.00
G01 X21.4894 Y30.4337
G01 X21.5073 Y30.3623
G01 X21.5321 Y30.2930
G01 X21.5625 Y30.2286
G01 X21.6028 Y30.1613
G01 X21.6452 Y30.1042
G01 X21.6947 Y30.0497
G01 X21.7492 Y30.0002
G01 X21.8063 Y29.9578
G01 X21.8736 Y29.9175
G01 X21.9380 Y29.8871
G01 X22.0073 Y29.8623
G01 X22.0787 Y29.8444
G01 X22.1515 Y29.8336
G01 X22.2250 Y29.8300
G01 X22.2985 Y29.8336
G01 X22.3713 Y29.8444
G01 X22.4403 Y29.8616
G01 X22.5143 Y29.8881
G01 X22.5785 Y29.9186
G01 X22.6417 Y29.9564
G01 X22.7008 Y30.0002
G01 X22.7553 Y30.0497
G01 X22.8048 Y30.1042
G01 X22.8472 Y30.1613
G01 X22.8875 Y30.2286
G01 X22.9179 Y30.2930
G01 X22.9430 Y30.3635
G01 X22.9606 Y30.4337
G01 X22.9711 Y30.5041
G01 X22.9750 Y30.5800
G01 X22.9750 Y33.1800
G01 X22.9711 Y33.2559
G01 X22.9606 Y33.3263
G01 X22.9434 Y33.3953
G01 X22.9179 Y33.4670
G01 X22.8864 Y33.5335
G01 X22.8499 Y33.5946
G01 X22.8048 Y33.6558
G01 X22.7536 Y33.7120
G01 X22.7008 Y33.7598
G01 X22.6417 Y33.8036
G01 X22.5785 Y33.8414
G01 X22.5143 Y33.8719
G01 X22.4415 Y33.8980
G01 X22.3713 Y33.9156
G01 X22.2985 Y33.9264
G01 X22.2250 Y33.9300
G01 X22.1515 Y33.9264
G01 X22.0787 Y33.9156
G01 X22.0073 Y33.8977
G01 X21.9380 Y33.8729
G01 X21.8715 Y33.8414
G01 X21.8083 Y33.8036
G01 X21.7492 Y33.7598
G01 X21.6947 Y33.7103
G01 X21.6452 Y33.6558
G01 X21.6014 Y33.5967
G01 X21.5636 Y33.5335
G01 X21.5321 Y33.4670
G01 X21.5070 Y33.3965
G01 X21.4894 Y33.3263
G01 X21.4789 Y33.2559
G01 X21.4750 Y33.1800
G01 X21.4750 Y30.5800
G01 X21.4789 Y30.5041
G00 Z2.0000
G00 X21.3998 Y30.4923
G01 F60.00
G01 Z-0.0000
G01 F120.00
G01 X21.4109 Y30.4181
G01 X21.4307 Y30.3391
G01 X21.4582 Y30.2624
G01 X21.4901 Y30.1944
G01 X21.4962 Y30.1832
G01 X21.5315 Y30.1243
G01 X21.5386 Y30.1137
G01 X21.5834 Y30.0535
G01 X21.6381 Y29.9931
G01 X21.6985 Y29.9384
G01 X21.7587 Y29.8936
G01 X21.7693 Y29.8865
G01 X21.8282 Y29.8512
G01 X21.8394 Y29.8451
G01 X21.9074 Y29.8132
G01 X21.9841 Y29.7857
G01 X22.0631 Y29.7659
G01 X22.1436 Y29.7540
G01 X22.2250 Y29.7500
G01 X22.3064 Y29.7540
G01 X22.3869 Y29.7659
G01 X22.4598 Y29.7840
G01 X22.4720 Y29.7877
G01 X22.5367 Y29.8109
G01 X22.5485 Y29.8158
G01 X22.6163 Y29.8480
G01 X22.6861 Y29.8899
G01 X22.7515 Y29.9384
G01 X22.8119 Y29.9931
G01 X22.8666 Y30.0535
G01 X22.9114 Y30.1137
G01 X22.9185 Y30.1243
G01 X22.9538 Y30.1832
G01 X22.9599 Y30.1944
G01 X22.9918 Y30.2624
G01 X23.0193 Y30.3391
G01 X23.0391 Y30.4181
G01 X23.0502 Y30.4923
G01 X23.0515 Y30.5050
G01 X23.0550 Y30.5800
G01 X23.0550 Y33.1800
G01 X23.0510 Y33.2614
G01 X23.0401 Y33.3356
G01 X23.0377 Y33.3482
G01 X23.0193 Y33.4209
G01 X22.9941 Y33.4917
G01 X22.9892 Y33.5035
G01 X22.9570 Y33.5713
G01 X22.9185 Y33.6357
G01 X22.9114 Y33.6463
G01 X22.8705 Y33.7015
G01 X22.8624 Y33.7114
G01 X22.8119 Y33.7669
G01 X22.7564 Y33.8174
G01 X22.7465 Y33.8255
G01 X22.6861 Y33.8701
G01 X22.6163 Y33.9120
G01 X22.5485 Y33.9442
G01 X22.5367 Y33.9491
G01 X22.4659 Y33.9743
G01 X22.3869 Y33.9941
G01 X22.3064 Y34.0060
G01 X22.2250 Y34.0100
G01 X22.1436 Y34.0060
G01 X22.0631 Y33.9941
G01 X21.9841 Y33.9743
G01 X21.9074 Y33.9468
G01 X21.8337 Y33.9120
G01 X21.7639 Y33.8701
G01 X21.6985 Y33.8216
G01 X21.6381 Y33.7669
G01 X21.5834 Y33.7065
G01 X21.5349 Y33.6411
G01 X21.4930 Y33.5713
G01 X21.4582 Y33.4976
G01 X21.4307 Y33.4209
G01 X21.4109 Y33.3419
G01 X21.3998 Y33.2677
G01 X21.3985 Y33.2550
G01 X21.3950 Y33.1800
G01 X21.3950 Y30.5800
G01 X21.3985 Y30.5050
G01 X21.3998 Y30.4923
G00 Z2.0000
G00 X18.9389 Y30.5041
G01 F60.00
G01 Z-0.0000
G01 F120.00
G01 X18.9494 Y30.4337
G01 X18.9673 Y30.3623
G01 X18.9921 Y30.2930
G01 X19.0225 Y30.2286
G01 X19.0628 Y30.1613
G01 X19.1052 Y30.1042
G01 X19.1547 Y30.0497
G01 X19.2092 Y30.0002
G01 X19.2663 Y29.9578
G01 X19.3336 Y29.9175
G01 X19.3980 Y29.8871
G01 X19.4673 Y29.8623
G01 X19.5387 Y29.8444
G01 X19.6115 Y29.8336
G01 X19.6850 Y29.8300
G01 X19.7561 Y29.8334
G01 X19.8337 Y29.8449
G01 X19.9027 Y29.8623
G01 X19.9720 Y29.8871
G01 X20.0385 Y29.9186
G01 X20.1017 Y29.9564
G01 X20.1608 Y30.0002
G01 X20.2153 Y30.0497
G01 X20.2648 Y30.1042
G01 X20.3072 Y30.1613
G01 X20.3475 Y30.2286
G01 X20.3779 Y30.2930
G01 X20.4030 Y30.3635
G01 X20.4206 Y30.4337
G01 X20.4311 Y30.5041
G01 X20.4350 Y30.5800
G01 X20.4350 Y33.1800
G01 X20.4311 Y33.2559
G01 X20.4206 Y33.3263
G01 X20.4034 Y33.3953
G01 X20.3779 Y33.4670
G01 X20.3464 Y33.5335
G01 X20.3099 Y33.5946
G01 X20.2648 Y33.6558
G01 X20.2136 Y33.7120
G01 X20.1608 Y33.7598
G01 X20.1017 Y33.8036
G01 X20.0385 Y33.8414
G01 X19.9743 Y33.8719
G01 X19.9015 Y33.8980
G01 X19.8313 Y33.9156
G01 X19.7585 Y33.9264
G01 X19.6850 Y33.9300
G01 X19.6115 Y33.9264
G01 X19.5387 Y33.9156
G01 X19.4673 Y33.8977
G01 X19.3980 Y33.8729
G01 X19.3315 Y33.8414
G01 X19.2683 Y33.8036
G01 X19.2092 Y33.7598
G01 X19.1547 Y33.7103
G01 X19.1052 Y33.6558
G01 X19.0614 Y33.5967
G01 X19.0236 Y33.5335
G01 X18.9921 Y33.4670
G01 X18.9670 Y33.3965
G01 X18.9494 Y33.3263
G01 X18.9389 Y33.2559
G01 X18.9350 Y33.1800
G01 X18.9350 Y30.5800
G01 X18.9389 Y30.5041
G00 Z2.0000
G00 X18.8598 Y30.4923
G01 F60.00
G01 Z-0.0000
G01 F120.00
G01 X18.8709 Y30.4181
G01 X18.8907 Y30.3391
G01 X18.9182 Y30.2624
G01 X18.9501 Y30.1944
G01 X18.9562 Y30.1832
G01 X18.9915 Y30.1243
G01 X18.9986 Y30.1137
G01 X19.0434 Y30.0535
G01 X19.0981 Y29.9931
G01 X19.1585 Y29.9384
G01 X19.2187 Y29.8936
G01 X19.2293 Y29.8865
G01 X19.2882 Y29.8512
G01 X19.2994 Y29.8451
G01 X19.3674 Y29.8132
G01 X19.4441 Y29.7857
G01 X19.5231 Y29.7659
G01 X19.6036 Y29.7540
G01 X19.6850 Y29.7500
G01 X19.7600 Y29.7535
G01 X19.7727 Y29.7548
G01 X19.8406 Y29.7649
G01 X19.8532 Y29.7673
G01 X19.9259 Y29.7857
G01 X20.0026 Y29.8132
G01 X20.0763 Y29.8480
G01 X20.1461 Y29.8899
G01 X20.2115 Y29.9384
G01 X20.2719 Y29.9931
G01 X20.3266 Y30.0535
G01 X20.3714 Y30.1137
G01 X20.3785 Y30.1243
G01 X20.4138 Y30.1832
G01 X20.4199 Y30.1944
G01 X20.4518 Y30.2624
G01 X20.4793 Y30.3391
G01 X20.4991 Y30.4181
G01 X20.5102 Y30.4923
G01 X20.5115 Y30.5050
G01 X20.5150 Y30.5800
G01 X20.5150 Y33.1800
G01 X20.5110 Y33.2614
G01 X20.5001 Y33.3356
G01 X20.4977 Y33.3482
G01 X20.4793 Y33.4209
G01 X20.4541 Y33.4917
G01 X20.4492 Y33.5035
G01 X20.4170 Y33.5713
G01 X20.3785 Y33.6357
G01 X20.3714 Y33.6463
G01 X20.3305 Y33.7015
G01 X20.3224 Y33.7114
G01 X20.2719 Y33.7669
G01 X20.2164 Y33.8174
G01 X20.2065 Y33.8255
G01 X20.1461 Y33.8701
G01 X20.0763 Y33.9120
G01 X20.0085 Y33.9442
G01 X19.9967 Y33.9491
G01 X19.9259 Y33.9743
G01 X19.8469 Y33.9941
G01 X19.7664 Y34.0060
G01 X19.6850 Y34.0100
G01 X19.6036 Y34.0060
G01 X19.5231 Y33.9941
G01 X19.4441 Y33.9743
G01 X19.3674 Y33.9468
G01 X19.2937 Y33.9120
G01 X19.2239 Y33.8701
G01 X19.1585 Y33.8216
G01 X19.0981 Y33.7669
G01 X19.0434 Y33.7065
G01 X18.9949 Y33.6411
G01 X18.9530 Y33.5713
G01 X18.9182 Y33.4976
G01 X18.8907 Y33.4209
G01 X18.8709 Y33.3419
G01 X18.8598 Y33.2677
G01 X18.8585 Y33.2550
G01 X18.8550 Y33.1800
G01 X18.8550 Y30.5800
G01 X18.8585 Y30.5050
G01 X18.8598 Y30.4923
G00 Z2.0000
G00 X16.3989 Y30.5041
G01 F60.00
G01 Z-0.0000
G01 F120.00
G01 X16.4094 Y30.4337
G01 X16.4273 Y30.3623
G01 X16.4521 Y30.2930
G01 X16.4825 Y30.2286
G01 X16.5228 Y30.1613
G01 X16.5652 Y30.1042
G01 X16.6147 Y30.0497
G01 X16.6692 Y30.0002
G01 X16.7263 Y29.9578
G01 X16.7936 Y29.9175
G01 X16.8580 Y29.8871
G01 X16.9273 Y29.8623
G01 X16.9987 Y29.8444
G01 X17.0715 Y29.8336
G01 X17.1450 Y29.8300
G01 X17.2185 Y29.8336
G01 X17.2913 Y29.8444
G01 X17.3603 Y29.8616
G01 X17.4343 Y29.8881
G01 X17.4985 Y29.9186
G01 X17.5617 Y29.9564
G01 X17.6208 Y30.0002
G01 X17.6753 Y30.0497
G01 X17.7248 Y30.1042
G01 X17.7672 Y30.1613
G01 X17.8075 Y30.2286
G01 X17.8379 Y30.2930
