(G-CODE GENERATED BY FLATCAM v8.994 - www.flatcam.org - Version Date: 2020/11/7)

(Name: preamp-board-v3-B_Cu.gbr_iso_combined_cnc)
(Type: G-code from Geometry)
(Units: MM)

(Created on Saturday, 01 May 2021 at 16:24)

(This preprocessor is the default preprocessor used by FlatCAM.)
(It is made to work with MACH3 compatible motion controllers.)

(TOOL DIAMETER: 0.1 mm)
(Feedrate_XY: 120.0 mm/min)
(Feedrate_Z: 60.0 mm/min)
(Feedrate rapids 1500.0 mm/min)

(Z_Cut: -0.0 mm)
(Z_Move: 2.0 mm)
(Z Start: None mm)
(Z End: 15.0 mm)
(X,Y End: None mm)
(Steps per circle: 64)
(Preprocessor Geometry: default)

(X range:   15.2175 ...   67.3294  mm)
(Y range:    5.1396 ...   52.5300  mm)

(Spindle Speed: 0.0 RPM)
G21
G90
G94

G01 F120.00

M5
G00 Z15.0000
G00 X0.0000 Y0.0000
T1
M6    
(MSG, Change to Tool Dia = 0.1000)
M0
G00 Z15.0000
S1000
M03
G01 F120.00
G00 X17.6224 Y23.3771
G01 F60.00
G01 Z-0.0000
G01 F120.00
G01 X17.6171 Y23.4886
G01 X17.6011 Y23.5966
G01 X17.5746 Y23.7025
G01 X17.5378 Y23.8053
G01 X17.4911 Y23.9040
G01 X17.4350 Y23.9977
G01 X17.3700 Y24.0854
G01 X17.2967 Y24.1663
G01 X17.2158 Y24.2396
G01 X17.1281 Y24.3046
G01 X17.0344 Y24.3607
G01 X16.9357 Y24.4074
G01 X16.8329 Y24.4442
G01 X16.7270 Y24.4707
G01 X16.6190 Y24.4867
G01 X16.5100 Y24.4921
G01 X16.4010 Y24.4867
G01 X16.2930 Y24.4707
G01 X16.1871 Y24.4442
G01 X16.0843 Y24.4074
G01 X15.9856 Y24.3607
G01 X15.8919 Y24.3046
G01 X15.8042 Y24.2396
G01 X15.7233 Y24.1663
G01 X15.6500 Y24.0854
G01 X15.5850 Y23.9977
G01 X15.5289 Y23.9040
G01 X15.4822 Y23.8053
G01 X15.4454 Y23.7025
G01 X15.4189 Y23.5966
G01 X15.4029 Y23.4886
G01 X15.3975 Y23.3796
G01 X15.4029 Y23.2706
G01 X15.4189 Y23.1626
G01 X15.4454 Y23.0567
G01 X15.4822 Y22.9539
G01 X15.5289 Y22.8552
G01 X15.5850 Y22.7615
G01 X15.6500 Y22.6738
G01 X15.7233 Y22.5929
G01 X15.8042 Y22.5196
G01 X15.8919 Y22.4546
G01 X15.9856 Y22.3985
G01 X16.0843 Y22.3518
G01 X16.1871 Y22.3150
G01 X16.2930 Y22.2885
G01 X16.4010 Y22.2725
G01 X16.5100 Y22.2671
G01 X16.6190 Y22.2725
G01 X16.7270 Y22.2885
G01 X16.8329 Y22.3150
G01 X16.9357 Y22.3518
G01 X17.0344 Y22.3985
G01 X17.1281 Y22.4546
G01 X17.2158 Y22.5196
G01 X17.2967 Y22.5929
G01 X17.3700 Y22.6738
G01 X17.4350 Y22.7615
G01 X17.4911 Y22.8552
G01 X17.5378 Y22.9539
G01 X17.5746 Y23.0567
G01 X17.6011 Y23.1626
G01 X17.6171 Y23.2706
G01 X17.6224 Y23.3771
G00 Z2.0000
G00 X17.6824 Y23.3742
G01 F60.00
G01 Z-0.0000
G01 F120.00
G01 X17.6824 Y23.3850
G01 X17.6769 Y23.4945
G01 X17.6600 Y23.6083
G01 X17.6320 Y23.7200
G01 X17.5932 Y23.8283
G01 X17.5441 Y23.9323
G01 X17.4849 Y24.0310
G01 X17.4164 Y24.1234
G01 X17.3391 Y24.2087
G01 X17.2538 Y24.2860
G01 X17.1614 Y24.3545
G01 X17.0627 Y24.4137
G01 X16.9587 Y24.4628
G01 X16.8504 Y24.5016
G01 X16.7387 Y24.5296
G01 X16.6249 Y24.5465
G01 X16.5100 Y24.5521
G01 X16.3951 Y24.5465
G01 X16.2813 Y24.5296
G01 X16.1696 Y24.5016
G01 X16.0613 Y24.4628
G01 X15.9573 Y24.4137
G01 X15.8586 Y24.3545
G01 X15.7662 Y24.2860
G01 X15.6809 Y24.2087
G01 X15.6036 Y24.1234
G01 X15.5351 Y24.0310
G01 X15.4759 Y23.9323
G01 X15.4268 Y23.8283
G01 X15.3880 Y23.7200
G01 X15.3600 Y23.6083
G01 X15.3431 Y23.4945
G01 X15.3375 Y23.3796
G01 X15.3431 Y23.2647
G01 X15.3600 Y23.1509
G01 X15.3880 Y23.0392
G01 X15.4268 Y22.9309
G01 X15.4759 Y22.8269
G01 X15.5351 Y22.7282
G01 X15.6036 Y22.6358
G01 X15.6809 Y22.5505
G01 X15.7662 Y22.4732
G01 X15.8586 Y22.4047
G01 X15.9573 Y22.3455
G01 X16.0613 Y22.2964
G01 X16.1696 Y22.2576
G01 X16.2813 Y22.2296
G01 X16.3951 Y22.2127
G01 X16.5100 Y22.2071
G01 X16.6249 Y22.2127
G01 X16.7387 Y22.2296
G01 X16.8504 Y22.2576
G01 X16.9587 Y22.2964
G01 X17.0627 Y22.3455
G01 X17.1614 Y22.4047
G01 X17.2538 Y22.4732
G01 X17.3391 Y22.5505
G01 X17.4164 Y22.6358
G01 X17.4849 Y22.7282
G01 X17.5441 Y22.8269
G01 X17.5932 Y22.9309
G01 X17.6320 Y23.0392
G01 X17.6600 Y23.1509
G01 X17.6769 Y23.2647
G01 X17.6824 Y23.3742
G00 Z2.0000
G00 X17.7423 Y23.3713
G01 F60.00
G01 Z-0.0000
G01 F120.00
G01 X17.7423 Y23.3879
G01 X17.7366 Y23.5004
G01 X17.7188 Y23.6200
G01 X17.6894 Y23.7374
G01 X17.6487 Y23.8513
G01 X17.5970 Y23.9606
G01 X17.5348 Y24.0643
G01 X17.4627 Y24.1615
G01 X17.3815 Y24.2511
G01 X17.2919 Y24.3323
G01 X17.1947 Y24.4044
G01 X17.0910 Y24.4666
G01 X16.9817 Y24.5183
G01 X16.8678 Y24.5590
G01 X16.7504 Y24.5884
G01 X16.6308 Y24.6062
G01 X16.5100 Y24.6121
G01 X16.3892 Y24.6062
G01 X16.2696 Y24.5884
G01 X16.1522 Y24.5590
G01 X16.0383 Y24.5183
G01 X15.9290 Y24.4666
G01 X15.8253 Y24.4044
G01 X15.7281 Y24.3323
G01 X15.6385 Y24.2511
G01 X15.5573 Y24.1615
G01 X15.4852 Y24.0643
G01 X15.4230 Y23.9606
G01 X15.3713 Y23.8513
G01 X15.3306 Y23.7374
G01 X15.3012 Y23.6200
G01 X15.2834 Y23.5004
G01 X15.2775 Y23.3796
G01 X15.2834 Y23.2588
G01 X15.3012 Y23.1392
G01 X15.3306 Y23.0218
G01 X15.3713 Y22.9079
G01 X15.4230 Y22.7986
G01 X15.4852 Y22.6949
G01 X15.5573 Y22.5977
G01 X15.6385 Y22.5081
G01 X15.7281 Y22.4269
G01 X15.8253 Y22.3548
G01 X15.9290 Y22.2926
G01 X16.0383 Y22.2409
G01 X16.1522 Y22.2002
G01 X16.2696 Y22.1708
G01 X16.3892 Y22.1530
G01 X16.5100 Y22.1471
G01 X16.6308 Y22.1530
G01 X16.7504 Y22.1708
G01 X16.8678 Y22.2002
G01 X16.9817 Y22.2409
G01 X17.0910 Y22.2926
G01 X17.1947 Y22.3548
G01 X17.2919 Y22.4269
G01 X17.3815 Y22.5081
G01 X17.4627 Y22.5977
G01 X17.5348 Y22.6949
G01 X17.5970 Y22.7986
G01 X17.6487 Y22.9079
G01 X17.6894 Y23.0218
G01 X17.7188 Y23.1392
G01 X17.7366 Y23.2588
G01 X17.7423 Y23.3713
G00 Z2.0000
G00 X17.3147 Y24.9472
G01 F60.00
G01 Z-0.0000
G01 F120.00
G01 X17.6778 Y24.9472
G01 X18.4476 Y24.1774
G01 X18.4477 Y23.4074
G01 X18.4521 Y23.3202
G01 X18.4655 Y23.2297
G01 X18.4855 Y23.1490
G01 X18.4904 Y23.1330
G01 X18.5186 Y23.0548
G01 X18.5577 Y22.9721
G01 X18.6003 Y22.9006
G01 X18.6096 Y22.8868
G01 X18.6593 Y22.8201
G01 X18.7178 Y22.7553
G01 X29.9807 Y11.4924
G01 X30.0455 Y11.4339
G01 X30.1122 Y11.3842
G01 X30.1260 Y11.3749
G01 X30.1902 Y11.3364
G01 X30.2049 Y11.3286
G01 X30.2802 Y11.2932
G01 X30.3663 Y11.2624
G01 X30.4551 Y11.2401
G01 X30.5373 Y11.2277
G01 X30.5539 Y11.2261
G01 X30.6370 Y11.2222
G01 X48.5840 Y11.2222
G01 X48.6754 Y11.2267
G01 X48.7659 Y11.2401
G01 X48.8547 Y11.2624
G01 X48.9330 Y11.2902
G01 X48.9484 Y11.2966
G01 X49.0235 Y11.3323
G01 X49.0950 Y11.3749
G01 X49.1088 Y11.3842
G01 X49.1755 Y11.4339
G01 X49.2403 Y11.4924
G01 X54.6100 Y16.8620
G01 X56.6457 Y14.8264
G01 X56.7105 Y14.7679
G01 X56.7840 Y14.7134
G01 X56.8625 Y14.6663
G01 X56.9452 Y14.6272
G01 X57.0313 Y14.5964
G01 X57.1201 Y14.5741
G01 X57.2106 Y14.5607
G01 X57.2978 Y14.5563
G01 X60.0540 Y14.5562
G01 X60.1371 Y14.5601
G01 X60.1495 Y14.5612
G01 X60.2359 Y14.5741
G01 X60.3166 Y14.5941
G01 X60.3326 Y14.5990
G01 X60.4108 Y14.6272
G01 X60.4935 Y14.6663
G01 X60.5650 Y14.7089
G01 X60.5788 Y14.7182
G01 X60.6389 Y14.7627
G01 X60.6518 Y14.7733
G01 X60.7133 Y14.8293
G01 X62.7115 Y16.8275
G01 X62.7202 Y16.8230
G01 X62.8533 Y16.7601
G01 X62.8687 Y16.7537
G01 X63.0152 Y16.7015
G01 X63.1742 Y16.6617
G01 X63.3280 Y16.6387
G01 X63.3446 Y16.6370
G01 X63.5000 Y16.6296
G01 X63.6554 Y16.6370
G01 X63.6720 Y16.6387
G01 X63.8258 Y16.6617
G01 X63.9767 Y16.6993
G01 X63.9927 Y16.7041
G01 X64.1391 Y16.7567
G01 X64.2798 Y16.8230
G01 X64.2945 Y16.8309
G01 X64.4208 Y16.9066
G01 X64.4312 Y16.9134
G01 X64.5594 Y17.0087
G01 X64.6809 Y17.1187
G01 X64.7909 Y17.2402
G01 X64.8837 Y17.3650
G01 X64.8930 Y17.3788
G01 X64.9687 Y17.5051
G01 X64.9766 Y17.5198
G01 X65.0429 Y17.6605
G01 X65.0955 Y17.8069
G01 X65.1003 Y17.8229
G01 X65.1379 Y17.9738
G01 X65.1609 Y18.1276
G01 X65.1626 Y18.1442
G01 X65.1700 Y18.2996
G01 X65.1626 Y18.4550
G01 X65.1609 Y18.4716
G01 X65.1379 Y18.6254
G01 X65.1003 Y18.7763
G01 X65.0955 Y18.7923
G01 X65.0429 Y18.9387
G01 X64.9728 Y19.0868
G01 X64.8930 Y19.2204
G01 X64.8837 Y19.2342
G01 X64.7961 Y19.3525
G01 X64.7855 Y19.3654
G01 X64.6809 Y19.4805
G01 X64.5658 Y19.5851
G01 X64.5529 Y19.5957
G01 X64.4278 Y19.6882
G01 X64.2945 Y19.7683
G01 X64.2798 Y19.7762
G01 X64.1391 Y19.8425
G01 X63.9927 Y19.8951
G01 X63.9767 Y19.8999
G01 X63.8339 Y19.9357
G01 X63.8176 Y19.9389
G01 X63.6637 Y19.9616
G01 X63.5000 Y19.9696
G01 X63.3363 Y19.9616
G01 X63.1824 Y19.9389
G01 X63.1742 Y19.9375
G01 X63.1624 Y19.9348
G01 X63.1624 Y27.0501
G01 X63.3095 Y27.0501
G01 X63.3220 Y27.0506
G01 X63.3386 Y27.0526
G01 X63.3508 Y27.0552
G01 X63.3668 Y27.0600
G01 X63.3822 Y27.0664
G01 X63.3933 Y27.0722
G01 X63.4004 Y27.0765
G01 X63.4074 Y27.0811
G01 X63.4173 Y27.0887
G01 X63.4267 Y27.0970
G01 X63.4326 Y27.1029
G01 X63.4409 Y27.1123
G01 X63.4485 Y27.1222
G01 X63.4553 Y27.1327
G01 X63.4594 Y27.1400
G01 X63.4632 Y27.1474
G01 X63.4681 Y27.1589
G01 X63.4722 Y27.1708
G01 X63.4744 Y27.1788
G01 X63.4770 Y27.1910
G01 X63.4787 Y27.2034
G01 X63.4795 Y27.2201
G01 X63.4794 Y29.3833
G01 X63.4790 Y29.3916
G01 X63.4777 Y29.4040
G01 X63.4762 Y29.4123
G01 X63.4733 Y29.4244
G01 X63.4696 Y29.4364
G01 X63.4666 Y29.4442
G01 X63.4594 Y29.4592
G01 X63.4508 Y29.4735
G01 X63.4460 Y29.4804
G01 X63.4382 Y29.4901
G01 X63.4326 Y29.4963
G01 X63.4237 Y29.5051
G01 X63.4141 Y29.5131
G01 X63.4074 Y29.5181
G01 X63.3969 Y29.5249
G01 X63.3859 Y29.5309
G01 X63.3746 Y29.5362
G01 X63.3628 Y29.5405
G01 X63.3508 Y29.5440
G01 X63.3386 Y29.5466
G01 X63.3262 Y29.5483
G01 X63.3137 Y29.5490
G01 X61.1422 Y29.5489
G01 X61.1297 Y29.5478
G01 X61.1133 Y29.5450
G01 X61.1012 Y29.5418
G01 X61.0893 Y29.5377
G01 X61.0778 Y29.5328
G01 X61.0667 Y29.5270
G01 X61.0561 Y29.5204
G01 X61.0427 Y29.5105
G01 X61.0333 Y29.5022
G01 X61.0245 Y29.4933
G01 X61.0165 Y29.4837
G01 X61.0069 Y29.4700
G01 X61.0006 Y29.4592
G01 X60.9951 Y29.4480
G01 X60.9904 Y29.4364
G01 X60.9867 Y29.4244
G01 X60.9846 Y29.4163
G01 X60.9823 Y29.4040
G01 X60.9810 Y29.3916
G01 X60.9805 Y29.3791
G01 X60.9805 Y27.2201
G01 X60.9807 Y27.2118
G01 X60.9818 Y27.1993
G01 X60.9838 Y27.1869
G01 X60.9856 Y27.1788
G01 X60.9878 Y27.1708
G01 X60.9919 Y27.1589
G01 X60.9968 Y27.1474
G01 X61.0026 Y27.1363
G01 X61.0092 Y27.1257
G01 X61.0140 Y27.1188
G01 X61.0191 Y27.1123
G01 X61.0274 Y27.1029
G01 X61.0363 Y27.0941
G01 X61.0427 Y27.0887
G01 X61.0492 Y27.0836
G01 X61.0596 Y27.0765
G01 X61.0667 Y27.0722
G01 X61.0778 Y27.0664
G01 X61.0932 Y27.0600
G01 X61.1052 Y27.0563
G01 X61.1214 Y27.0526
G01 X61.1380 Y27.0506
G01 X61.1505 Y27.0501
G01 X61.2976 Y27.0501
G01 X61.2976 Y18.9346
G01 X61.3015 Y18.8515
G01 X61.3031 Y18.8349
G01 X61.3141 Y18.7609
G01 X61.3174 Y18.7446
G01 X61.3378 Y18.6639
G01 X61.3656 Y18.5856
G01 X61.3702 Y18.5740
G01 X61.4077 Y18.4951
G01 X61.4525 Y18.4201
G01 X61.4596 Y18.4098
G01 X61.5067 Y18.3464
G01 X61.5147 Y18.3368
G01 X61.5475 Y18.3006
G01 X59.6678 Y16.4210
G01 X57.6882 Y16.4210
G01 X55.5424 Y18.5668
G01 X55.5423 Y23.5388
G01 X55.5379 Y23.6260
G01 X55.5259 Y23.7083
G01 X55.5226 Y23.7246
G01 X55.5022 Y23.8053
G01 X55.4744 Y23.8836
G01 X55.4680 Y23.8990
G01 X55.4360 Y23.9667
G01 X55.4282 Y23.9814
G01 X55.3897 Y24.0456
G01 X55.3804 Y24.0594
G01 X55.3307 Y24.1261
G01 X55.2693 Y24.1939
G01 X52.6123 Y26.8509
G01 X52.6109 Y26.8772
G01 X52.6101 Y26.8856
G01 X52.5936 Y26.9969
G01 X52.5910 Y27.0092
G01 X52.5646 Y27.1144
G01 X52.5608 Y27.1263
G01 X52.5227 Y27.2323
G01 X52.4729 Y27.3379
G01 X52.4669 Y27.3489
G01 X52.4088 Y27.4453
G01 X52.3367 Y27.5425
G01 X52.2555 Y27.6321
G01 X52.1722 Y27.7079
G01 X52.1593 Y27.7185
G01 X52.0687 Y27.7854
G01 X51.9723 Y27.8435
G01 X51.9575 Y27.8513
G01 X51.8557 Y27.8993
G01 X51.7497 Y27.9374
G01 X51.7337 Y27.9423
G01 X51.6244 Y27.9694
G01 X51.5131 Y27.9861
G01 X51.4965 Y27.9878
G01 X51.3840 Y27.9931
G01 X51.2674 Y27.9875
G01 X51.2549 Y27.9861
G01 X51.1518 Y27.9708
G01 X51.1395 Y27.9686
G01 X51.0302 Y27.9412
G01 X51.0222 Y27.9388
G01 X50.9951 Y27.9291
G01 X53.8712 Y30.8052
G01 X58.8633 Y30.8054
G01 X58.9464 Y30.8097
G01 X59.0369 Y30.8231
G01 X59.1257 Y30.8454
G01 X59.2040 Y30.8732
G01 X59.2194 Y30.8796
G01 X59.2871 Y30.9116
G01 X59.3018 Y30.9194
G01 X59.3730 Y30.9624
G01 X59.4465 Y31.0169
G01 X59.5143 Y31.0783
G01 X62.8922 Y34.4563
G01 X62.9507 Y34.5211
G01 X63.0052 Y34.5946
G01 X63.0523 Y34.6731
G01 X63.0898 Y34.7520
G01 X63.0944 Y34.7636
G01 X63.1196 Y34.8340
G01 X63.1245 Y34.8500
G01 X63.1445 Y34.9307
G01 X63.1579 Y35.0212
G01 X63.1624 Y35.1126
G01 X63.1624 Y35.4097
G01 X63.1904 Y35.4406
G01 X63.1985 Y35.4502
G01 X63.2666 Y35.5420
G01 X63.2734 Y35.5525
G01 X63.3278 Y35.6433
G01 X63.3339 Y35.6543
G01 X63.3844 Y35.7614
G01 X63.4231 Y35.8690
G01 X63.4279 Y35.8849
G01 X63.4537 Y35.9877
G01 X63.4563 Y35.9999
G01 X63.4735 Y36.1171
G01 X63.4793 Y36.2313
G01 X63.4793 Y36.2479
G01 X63.4735 Y36.3621
G01 X63.4569 Y36.4751
G01 X63.4537 Y36.4915
G01 X63.4269 Y36.5983
G01 X63.4231 Y36.6102
G01 X63.3874 Y36.7100
G01 X63.3810 Y36.7254
G01 X63.3320 Y36.8286
G01 X63.2689 Y36.9338
G01 X63.2010 Y37.0257
G01 X63.1904 Y37.0386
G01 X63.1135 Y37.1231
G01 X63.0227 Y37.2055
G01 X62.9242 Y37.2785
G01 X62.8263 Y37.3374
G01 X62.8116 Y37.3453
G01 X62.7082 Y37.3940
G01 X62.6006 Y37.4327
G01 X62.5847 Y37.4375
G01 X62.4738 Y37.4651
G01 X62.3608 Y37.4821
G01 X62.3442 Y37.4837
G01 X62.2300 Y37.4891
G01 X62.1158 Y37.4837
G01 X62.0992 Y37.4821
G01 X61.9862 Y37.4651
G01 X61.8753 Y37.4375
G01 X61.8594 Y37.4327
G01 X61.7518 Y37.3940
G01 X61.6410 Y37.3416
G01 X61.5429 Y37.2830
G01 X61.5290 Y37.2737
G01 X61.4373 Y37.2055
G01 X61.3525 Y37.1289
G01 X61.3407 Y37.1171
G01 X61.2641 Y37.0323
G01 X61.1911 Y36.9338
G01 X61.1322 Y36.8359
G01 X61.1243 Y36.8212
G01 X61.0790 Y36.7254
G01 X61.0726 Y36.7100
G01 X61.0343 Y36.6023
G01 X61.0045 Y36.4834
G01 X60.9865 Y36.3621
G01 X60.9805 Y36.2396
G01 X60.9865 Y36.1171
G01 X61.0031 Y36.0041
G01 X61.0063 Y35.9877
G01 X61.0321 Y35.8849
G01 X61.0369 Y35.8690
G01 X61.0756 Y35.7614
G01 X61.1280 Y35.6506
G01 X61.1911 Y35.5454
G01 X61.2561 Y35.4573
G01 X58.4688 Y32.6700
G01 X53.4767 Y32.6698
G01 X53.3936 Y32.6655
G01 X53.3031 Y32.6521
G01 X53.2143 Y32.6298
G01 X53.1360 Y32.6020
G01 X53.1206 Y32.5956
G01 X53.0529 Y32.5636
G01 X53.0382 Y32.5558
G01 X52.9670 Y32.5128
G01 X52.8968 Y32.4609
G01 X52.8872 Y32.4529
G01 X52.8257 Y32.3969
G01 X48.6888 Y28.2599
G01 X48.6303 Y28.1951
G01 X48.5806 Y28.1284
G01 X48.5713 Y28.1146
G01 X48.5443 Y28.0696
G01 X48.5307 Y28.0468
G01 X48.5250 Y28.0357
G01 X48.4896 Y27.9604
G01 X48.4588 Y27.8743
G01 X48.4365 Y27.7855
G01 X48.4264 Y27.7186
G01 X42.5885 Y21.8807
G01 X42.5982 Y21.9078
G01 X42.6006 Y21.9158
G01 X42.6280 Y22.0251
G01 X42.6302 Y22.0374
G01 X42.6455 Y22.1405
G01 X42.6469 Y22.1530
G01 X42.6525 Y22.2696
G01 X42.6472 Y22.3821
G01 X42.6455 Y22.3987
G01 X42.6288 Y22.5100
G01 X42.6017 Y22.6193
G01 X42.5968 Y22.6353
G01 X42.5587 Y22.7413
G01 X42.5089 Y22.8469
G01 X42.5029 Y22.8579
G01 X42.4493 Y22.9473
G01 X42.4424 Y22.9578
G01 X42.3753 Y23.0482
G01 X42.3700 Y23.0547
G01 X42.3524 Y23.0743
G01 X42.3524 Y24.6326
G01 X42.3479 Y24.7240
G01 X42.3359 Y24.8063
G01 X42.3326 Y24.8226
G01 X42.3145 Y24.8952
G01 X42.3096 Y24.9112
G01 X42.2814 Y24.9894
G01 X42.2423 Y25.0721
G01 X42.1997 Y25.1436
G01 X42.1904 Y25.1574
G01 X42.1407 Y25.2241
G01 X42.0822 Y25.2889
G01 X36.9823 Y30.3889
G01 X36.9145 Y30.4503
G01 X36.8410 Y30.5048
G01 X36.7698 Y30.5478
G01 X36.7551 Y30.5556
G01 X36.6798 Y30.5910
G01 X36.5976 Y30.6206
G01 X36.5856 Y30.6241
G01 X36.5130 Y30.6422
G01 X36.5008 Y30.6448
G01 X36.4185 Y30.6570
G01 X36.4061 Y30.6581
G01 X36.3668 Y30.6600
G01 X36.3482 Y30.6769
G01 X36.3386 Y30.6849
G01 X36.2482 Y30.7520
G01 X36.2377 Y30.7589
G01 X36.1447 Y30.8146
G01 X36.1335 Y30.8203
G01 X36.0317 Y30.8683
G01 X35.9218 Y30.9078
G01 X35.9097 Y30.9113
G01 X35.8004 Y30.9384
G01 X35.6808 Y30.9562
G01 X35.5600 Y30.9621
G01 X35.4434 Y30.9565
G01 X35.4309 Y30.9551
G01 X35.3196 Y30.9384
G01 X35.2103 Y30.9113
G01 X35.1943 Y30.9064
G01 X35.0883 Y30.8683
G01 X34.9865 Y30.8203
G01 X34.9717 Y30.8125
G01 X34.8753 Y30.7544
G01 X34.7781 Y30.6823
G01 X34.6945 Y30.6069
G01 X34.6827 Y30.5951
G01 X34.6073 Y30.5115
G01 X34.5400 Y30.4212
G01 X34.5307 Y30.4073
G01 X34.4750 Y30.3143
G01 X34.4693 Y30.3031
G01 X34.4247 Y30.2089
G01 X34.4183 Y30.1935
G01 X34.3806 Y30.0874
G01 X34.3512 Y29.9700
G01 X34.3334 Y29.8504
G01 X34.3277 Y29.7379
G01 X34.3277 Y29.7213
G01 X34.3328 Y29.6171
G01 X34.3345 Y29.6005
G01 X34.3512 Y29.4892
G01 X34.3806 Y29.3718
G01 X34.4213 Y29.2579
G01 X34.4693 Y29.1561
G01 X34.4771 Y29.1413
G01 X34.5307 Y29.0519
G01 X34.5400 Y29.0380
G01 X34.6073 Y28.9477
G01 X34.6885 Y28.8581
G01 X34.7718 Y28.7823
G01 X34.7847 Y28.7717
G01 X34.8753 Y28.7048
G01 X34.9790 Y28.6426
G01 X35.0883 Y28.5909
G01 X35.1943 Y28.5528
G01 X35.2103 Y28.5479
G01 X35.3114 Y28.5226
G01 X35.3237 Y28.5200
G01 X35.4392 Y28.5030
G01 X35.5517 Y28.4973
G01 X35.5683 Y28.4973
G01 X35.6725 Y28.5024
G01 X35.6891 Y28.5041
G01 X35.8004 Y28.5208
G01 X35.9178 Y28.5502
G01 X36.0317 Y28.5909
G01 X36.1075 Y28.6265
G01 X40.4876 Y24.2464
G01 X40.4876 Y23.0743
G01 X40.4700 Y23.0547
G01 X40.4647 Y23.0482
G01 X40.4000 Y22.9612
G01 X40.3929 Y22.9508
G01 X40.3330 Y22.8506
G01 X40.2813 Y22.7413
G01 X40.2406 Y22.6274
G01 X40.2130 Y22.5182
G01 X40.2098 Y22.5018
G01 X40.1945 Y22.3987
G01 X40.1931 Y22.3862
G01 X40.1877 Y22.2779
G01 X40.1877 Y22.2613
G01 X40.1934 Y22.1488
G01 X40.2098 Y22.0374
G01 X40.2130 Y22.0210
G01 X40.2406 Y21.9118
G01 X40.2813 Y21.7979
G01 X40.3330 Y21.6886
G01 X40.3952 Y21.5849
G01 X40.4673 Y21.4877
G01 X40.5485 Y21.3981
G01 X40.6381 Y21.3169
G01 X40.7353 Y21.2448
G01 X40.8390 Y21.1826
G01 X40.9445 Y21.1326
G01 X40.9561 Y21.1279
G01 X41.0622 Y21.0902
G01 X41.1796 Y21.0608
G01 X41.2992 Y21.0430
G01 X41.4158 Y21.0372
G01 X41.4283 Y21.0373
G01 X41.5408 Y21.0430
G01 X41.6563 Y21.0600
G01 X41.6686 Y21.0626
G01 X41.7738 Y21.0890
G01 X41.7818 Y21.0914
G01 X41.8089 Y21.1011
G01 X36.2308 Y15.5230
G01 X36.1410 Y15.5766
G01 X36.0317 Y15.6283
G01 X35.9178 Y15.6690
G01 X35.8004 Y15.6984
G01 X35.6808 Y15.7162
G01 X35.5600 Y15.7221
G01 X35.4392 Y15.7162
G01 X35.3278 Y15.6998
G01 X35.3114 Y15.6966
G01 X35.2022 Y15.6690
G01 X35.0961 Y15.6313
G01 X35.0807 Y15.6249
G01 X34.9865 Y15.5803
G01 X34.9717 Y15.5725
G01 X34.8753 Y15.5144
G01 X34.7781 Y15.4423
G01 X34.6885 Y15.3611
G01 X34.6100 Y15.2747
G01 X34.6021 Y15.2649
G01 X34.5352 Y15.1743
G01 X34.4771 Y15.0779
G01 X34.4693 Y15.0631
G01 X34.4213 Y14.9613
G01 X34.3832 Y14.8553
G01 X34.3783 Y14.8393
G01 X34.3530 Y14.7382
G01 X34.3498 Y14.7218
G01 X34.3334 Y14.6104
G01 X34.3275 Y14.4896
G01 X34.3334 Y14.3688
G01 X34.3498 Y14.2574
G01 X34.3530 Y14.2410
G01 X34.3806 Y14.1318
G01 X34.4183 Y14.0257
G01 X34.4247 Y14.0103
G01 X34.4693 Y13.9161
G01 X34.4771 Y13.9013
G01 X34.5352 Y13.8049
G01 X34.6073 Y13.7077
G01 X34.6827 Y13.6241
G01 X34.6945 Y13.6123
G01 X34.7781 Y13.5369
G01 X34.8684 Y13.4696
G01 X34.8823 Y13.4603
G01 X34.9790 Y13.4026
G01 X35.0807 Y13.3543
G01 X35.0922 Y13.3494
G01 X35.2022 Y13.3102
G01 X35.3114 Y13.2826
G01 X35.3278 Y13.2794
G01 X35.4392 Y13.2630
G01 X35.5600 Y13.2571
G01 X35.6725 Y13.2624
G01 X35.6891 Y13.2641
G01 X35.8004 Y13.2808
G01 X35.9097 Y13.3079
G01 X35.9257 Y13.3128
G01 X36.0317 Y13.3509
G01 X36.1373 Y13.4007
G01 X36.1483 Y13.4067
G01 X36.2377 Y13.4603
G01 X36.2482 Y13.4672
G01 X36.3386 Y13.5343
G01 X36.3451 Y13.5396
G01 X36.3647 Y13.5572
G01 X36.5202 Y13.5573
G01 X36.6074 Y13.5617
G01 X36.6979 Y13.5751
G01 X36.7826 Y13.5962
G01 X36.7946 Y13.6000
G01 X36.8728 Y13.6282
G01 X36.9555 Y13.6673
G01 X37.0340 Y13.7144
G01 X37.1009 Y13.7637
G01 X37.1138 Y13.7743
G01 X37.1753 Y13.8303
G01 X50.0103 Y26.6653
G01 X50.0663 Y26.7268
G01 X50.0743 Y26.7364
G01 X50.1262 Y26.8066
G01 X50.1560 Y26.8558
G01 X50.1515 Y26.7606
G01 X50.1568 Y26.6481
G01 X50.1585 Y26.6315
G01 X50.1738 Y26.5284
G01 X50.1770 Y26.5120
G01 X50.2046 Y26.4028
G01 X50.2423 Y26.2967
G01 X50.2487 Y26.2813
G01 X50.2970 Y26.1796
G01 X50.3592 Y26.0759
G01 X50.4313 Y25.9787
G01 X50.5096 Y25.8921
G01 X50.5185 Y25.8833
G01 X50.6021 Y25.8079
G01 X50.6993 Y25.7358
G01 X50.8030 Y25.6736
G01 X50.9047 Y25.6253
G01 X50.9201 Y25.6189
G01 X51.0262 Y25.5812
G01 X51.1354 Y25.5536
G01 X51.1518 Y25.5504
G01 X51.2590 Y25.5345
G01 X51.2674 Y25.5337
G01 X51.2937 Y25.5323
G01 X53.6776 Y23.1484
G01 X53.6776 Y18.5668
G01 X48.1978 Y13.0870
G01 X31.0232 Y13.0870
G01 X20.3124 Y23.7978
G01 X20.3124 Y24.5636
G01 X20.3079 Y24.6550
G01 X20.2945 Y24.7455
G01 X20.2722 Y24.8343
G01 X20.2414 Y24.9204
G01 X20.2060 Y24.9957
G01 X20.1982 Y25.0104
G01 X20.1552 Y25.0816
G01 X20.1059 Y25.1485
G01 X20.0953 Y25.1614
G01 X20.0422 Y25.2199
G01 X18.7233 Y26.5389
G01 X18.6618 Y26.5949
G01 X18.6489 Y26.6055
G01 X18.5820 Y26.6548
G01 X18.5108 Y26.6978
G01 X18.4961 Y26.7056
G01 X18.4208 Y26.7410
G01 X18.3426 Y26.7692
G01 X18.3266 Y26.7741
G01 X18.2540 Y26.7922
G01 X18.2418 Y26.7948
G01 X18.1554 Y26.8075
G01 X18.0682 Y26.8119
G01 X17.3147 Y26.8120
G01 X17.2951 Y26.8296
G01 X17.2886 Y26.8349
G01 X17.2016 Y26.8996
G01 X17.1912 Y26.9067
G01 X17.0910 Y26.9666
G01 X16.9817 Y27.0183
G01 X16.8678 Y27.0590
G01 X16.7586 Y27.0866
G01 X16.7422 Y27.0898
G01 X16.6391 Y27.1051
G01 X16.6266 Y27.1065
G01 X16.5100 Y27.1121
G01 X16.3892 Y27.1062
G01 X16.2696 Y27.0884
G01 X16.1522 Y27.0590
G01 X16.0383 Y27.0183
G01 X15.9290 Y26.9666
G01 X15.8253 Y26.9044
G01 X15.7347 Y26.8375
G01 X15.7249 Y26.8296
G01 X15.6385 Y26.7511
G01 X15.5573 Y26.6615
G01 X15.4852 Y26.5643
G01 X15.4230 Y26.4606
G01 X15.3713 Y26.3513
G01 X15.3306 Y26.2374
G01 X15.3012 Y26.1200
G01 X15.2834 Y26.0004
G01 X15.2775 Y25.8796
G01 X15.2834 Y25.7588
G01 X15.3012 Y25.6392
G01 X15.3306 Y25.5218
G01 X15.3713 Y25.4079
G01 X15.4230 Y25.2986
G01 X15.4852 Y25.1949
G01 X15.5521 Y25.1043
G01 X15.5600 Y25.0945
G01 X15.6385 Y25.0081
G01 X15.7281 Y24.9269
G01 X15.8253 Y24.8548
G01 X15.9290 Y24.7926
G01 X16.0383 Y24.7409
G01 X16.1522 Y24.7002
G01 X16.2696 Y24.6708
G01 X16.3809 Y24.6541
G01 X16.3934 Y24.6527
G01 X16.5100 Y24.6471
G01 X16.6308 Y24.6530
G01 X16.7504 Y24.6708
G01 X16.8597 Y24.6979
G01 X16.8718 Y24.7014
G01 X16.9817 Y24.7409
G01 X17.0835 Y24.7889
G01 X17.0947 Y24.7946
G01 X17.1877 Y24.8503
G01 X17.1982 Y24.8572
G01 X17.2886 Y24.9243
G01 X17.2951 Y24.9296
G01 X17.3147 Y24.9472
G00 Z2.0000
G00 X17.2915 Y25.0072
G01 F60.00
G01 Z-0.0000
G01 F120.00
G01 X17.7026 Y25.0072
G01 X18.5076 Y24.2022
G01 X18.5077 Y23.4089
G01 X18.5118 Y23.3261
G01 X18.5239 Y23.2441
G01 X18.5256 Y23.2361
G01 X18.5437 Y23.1636
G01 X18.5469 Y23.1532
G01 X18.5740 Y23.0778
G01 X18.6106 Y23.0004
G01 X18.6518 Y22.9315
G01 X18.6578 Y22.9225
G01 X18.7056 Y22.8582
G01 X18.7612 Y22.7967
G01 X30.0201 Y11.5377
G01 X30.0836 Y11.4802
G01 X30.1479 Y11.4324
G01 X30.1569 Y11.4264
G01 X30.2211 Y11.3879
G01 X30.2306 Y11.3828
G01 X30.3032 Y11.3486
G01 X30.3838 Y11.3198
G01 X30.4668 Y11.2990
G01 X30.5461 Y11.2871
G01 X30.5569 Y11.2860
G01 X30.6370 Y11.2822
G01 X48.5840 Y11.2822
G01 X48.6695 Y11.2864
G01 X48.7542 Y11.2990
G01 X48.8372 Y11.3198
G01 X48.9128 Y11.3467
G01 X48.9228 Y11.3508
G01 X48.9952 Y11.3852
G01 X49.0641 Y11.4264
G01 X49.0731 Y11.4324
G01 X49.1374 Y11.4802
G01 X49.1989 Y11.5358
G01 X54.6100 Y16.9469
G01 X56.6871 Y14.8698
G01 X56.7486 Y14.8142
G01 X56.8173 Y14.7632
G01 X56.8908 Y14.7192
G01 X56.9682 Y14.6826
G01 X57.0488 Y14.6538
G01 X57.1318 Y14.6330
G01 X57.2165 Y14.6204
G01 X57.2993 Y14.6163
G01 X60.0540 Y14.6162
G01 X60.1341 Y14.6200
G01 X60.1422 Y14.6207
G01 X60.2242 Y14.6330
G01 X60.3020 Y14.6523
G01 X60.3124 Y14.6555
G01 X60.3878 Y14.6826
G01 X60.4652 Y14.7192
G01 X60.5341 Y14.7604
G01 X60.5431 Y14.7664
G01 X60.6032 Y14.8109
G01 X60.6115 Y14.8178
G01 X60.6709 Y14.8717
G01 X62.7021 Y16.9029
G01 X62.7434 Y16.8785
G01 X62.8814 Y16.8132
G01 X62.8889 Y16.8102
G01 X63.0275 Y16.7606
G01 X63.0352 Y16.7582
G01 X63.1859 Y16.7205
G01 X63.3368 Y16.6980
G01 X63.3476 Y16.6970
G01 X63.4946 Y16.6897
G01 X63.5027 Y16.6896
G01 X63.6578 Y16.6974
G01 X63.8088 Y16.7196
G01 X63.8194 Y16.7217
G01 X63.9674 Y16.7589
G01 X64.1161 Y16.8122
G01 X64.2541 Y16.8773
G01 X64.2636 Y16.8824
G01 X64.3899 Y16.9580
G01 X64.3967 Y16.9625
G01 X64.5214 Y17.0551
G01 X64.6384 Y17.1612
G01 X64.7445 Y17.2782
G01 X64.8356 Y17.4007
G01 X64.8416 Y17.4097
G01 X64.9199 Y17.5407
G01 X64.9853 Y17.6785
G01 X64.9894 Y17.6885
G01 X65.0390 Y17.8271
G01 X65.0421 Y17.8374
G01 X65.0791 Y17.9855
G01 X65.1016 Y18.1364
G01 X65.1026 Y18.1472
G01 X65.1100 Y18.2996
G01 X65.1026 Y18.4520
G01 X65.1016 Y18.4628
G01 X65.0791 Y18.6137
G01 X65.0421 Y18.7618
G01 X65.0390 Y18.7721
G01 X64.9874 Y18.9157
G01 X64.9199 Y19.0585
G01 X64.8416 Y19.1895
G01 X64.8356 Y19.1985
G01 X64.7445 Y19.3210
G01 X64.6422 Y19.4341
G01 X64.6345 Y19.4418
G01 X64.5234 Y19.5424
G01 X64.5171 Y19.5475
G01 X64.3945 Y19.6383
G01 X64.2636 Y19.7168
G01 X64.2541 Y19.7219
G01 X64.1161 Y19.7870
G01 X63.9725 Y19.8386
G01 X63.9622 Y19.8417
G01 X63.8167 Y19.8781
G01 X63.8088 Y19.8796
G01 X63.6578 Y19.9018
G01 X63.5054 Y19.9095
G01 X63.4973 Y19.9096
G01 X63.3476 Y19.9022
G01 X63.3395 Y19.9015
G01 X63.1886 Y19.8792
G01 X63.1806 Y19.8775
G01 X63.1024 Y19.8579
G01 X63.1024 Y27.1101
G01 X63.3122 Y27.1101
G01 X63.3256 Y27.1113
G01 X63.3336 Y27.1128
G01 X63.3414 Y27.1148
G01 X63.3491 Y27.1175
G01 X63.3565 Y27.1207
G01 X63.3637 Y27.1244
G01 X63.3706 Y27.1286
G01 X63.3772 Y27.1334
G01 X63.3834 Y27.1386
G01 X63.3892 Y27.1443
G01 X63.3945 Y27.1503
G01 X63.3994 Y27.1568
G01 X63.4039 Y27.1635
G01 X63.4078 Y27.1706
G01 X63.4111 Y27.1780
G01 X63.4155 Y27.1908
G01 X63.4174 Y27.1986
G01 X63.4187 Y27.2066
G01 X63.4195 Y27.2201
G01 X63.4195 Y29.3818
G01 X63.4183 Y29.3952
G01 X63.4155 Y29.4084
G01 X63.4121 Y29.4187
G01 X63.4065 Y29.4310
G01 X63.3994 Y29.4424
G01 X63.3910 Y29.4530
G01 X63.3813 Y29.4624
G01 X63.3706 Y29.4706
G01 X63.3637 Y29.4748
G01 X63.3565 Y29.4785
G01 X63.3491 Y29.4817
G01 X63.3414 Y29.4844
G01 X63.3336 Y29.4864
G01 X63.3256 Y29.4879
G01 X63.3176 Y29.4888
G01 X63.3095 Y29.4891
G01 X61.1478 Y29.4891
G01 X61.1397 Y29.4886
G01 X61.1317 Y29.4875
G01 X61.1212 Y29.4851
G01 X61.1134 Y29.4827
G01 X61.1059 Y29.4797
G01 X61.0963 Y29.4748
G01 X61.0894 Y29.4706
G01 X61.0828 Y29.4658
G01 X61.0766 Y29.4606
G01 X61.0708 Y29.4549
G01 X61.0638 Y29.4468
G01 X61.0590 Y29.4402
G01 X61.0535 Y29.4310
G01 X61.0499 Y29.4237
G01 X61.0469 Y29.4162
G01 X61.0445 Y29.4084
G01 X61.0417 Y29.3952
G01 X61.0408 Y29.3872
G01 X61.0405 Y29.3791
G01 X61.0405 Y27.2201
G01 X61.0408 Y27.2120
G01 X61.0417 Y27.2040
G01 X61.0432 Y27.1960
G01 X61.0452 Y27.1882
G01 X61.0479 Y27.1805
G01 X61.0511 Y27.1731
G01 X61.0576 Y27.1613
G01 X61.0621 Y27.1546
G01 X61.0672 Y27.1483
G01 X61.0727 Y27.1423
G01 X61.0787 Y27.1368
G01 X61.0850 Y27.1317
G01 X61.0917 Y27.1272
G01 X61.1035 Y27.1207
G01 X61.1109 Y27.1175
G01 X61.1186 Y27.1148
G01 X61.1264 Y27.1128
G01 X61.1344 Y27.1113
G01 X61.1478 Y27.1101
G01 X61.3576 Y27.1101
G01 X61.3576 Y18.9346
G01 X61.3614 Y18.8545
G01 X61.3625 Y18.8437
G01 X61.3744 Y18.7644
G01 X61.3952 Y18.6814
G01 X61.4240 Y18.6008
G01 X61.4582 Y18.5282
G01 X61.4633 Y18.5187
G01 X61.5046 Y18.4499
G01 X61.5523 Y18.3854
G01 X61.5592 Y18.3771
G01 X61.6094 Y18.3216
G01 X61.6313 Y18.2996
G01 X59.6926 Y16.3610
G01 X57.6634 Y16.3610
G01 X55.4824 Y18.5420
G01 X55.4823 Y23.5373
G01 X55.4786 Y23.6147
G01 X55.4775 Y23.6255
G01 X55.4656 Y23.7048
G01 X55.4463 Y23.7826
G01 X55.4431 Y23.7930
G01 X55.4160 Y23.8684
G01 X55.3794 Y23.9458
G01 X55.3354 Y24.0193
G01 X55.2877 Y24.0838
G01 X55.2808 Y24.0921
G01 X55.2269 Y24.1515
G01 X52.5535 Y26.8249
G01 X52.5513 Y26.8701
G01 X52.5506 Y26.8782
G01 X52.5345 Y26.9867
G01 X52.5328 Y26.9946
G01 X52.5068 Y27.0984
G01 X52.5043 Y27.1061
G01 X52.4672 Y27.2093
G01 X52.4193 Y27.3109
G01 X52.4154 Y27.3180
G01 X52.3589 Y27.4120
G01 X52.2904 Y27.5044
G01 X52.2131 Y27.5897
G01 X52.1319 Y27.6634
G01 X52.1257 Y27.6686
G01 X52.0354 Y27.7355
G01 X51.9367 Y27.7947
G01 X51.8327 Y27.8438
G01 X51.7295 Y27.8809
G01 X51.7192 Y27.8841
G01 X51.6180 Y27.9094
G01 X51.6074 Y27.9115
G01 X51.4989 Y27.9275
G01 X51.3867 Y27.9331
G01 X51.3786 Y27.9330
G01 X51.2745 Y27.9279
G01 X51.2637 Y27.9268
G01 X51.1553 Y27.9106
G01 X51.0488 Y27.8841
G01 X51.0411 Y27.8818
G01 X50.9353 Y27.8438
G01 X50.8337 Y27.7959
G01 X50.8266 Y27.7920
G01 X50.7326 Y27.7355
G01 X50.6714 Y27.6903
G01 X53.8464 Y30.8652
G01 X58.8577 Y30.8653
G01 X58.9405 Y30.8694
G01 X59.0252 Y30.8820
G01 X59.1082 Y30.9028
G01 X59.1838 Y30.9297
G01 X59.1938 Y30.9338
G01 X59.2614 Y30.9658
G01 X59.2709 Y30.9709
G01 X59.3397 Y31.0122
G01 X59.4084 Y31.0632
G01 X59.4719 Y31.1207
G01 X62.8469 Y34.4957
G01 X62.9044 Y34.5592
G01 X62.9554 Y34.6279
G01 X62.9994 Y34.7014
G01 X63.0338 Y34.7738
G01 X63.0379 Y34.7838
G01 X63.0631 Y34.8542
G01 X63.0663 Y34.8646
G01 X63.0856 Y34.9424
G01 X63.0982 Y35.0271
G01 X63.1024 Y35.1126
G01 X63.1024 Y35.4328
G01 X63.1495 Y35.4850
G01 X63.2175 Y35.5765
G01 X63.2219 Y35.5833
G01 X63.2764 Y35.6742
G01 X63.2803 Y35.6813
G01 X63.3290 Y35.7844
G01 X63.3666 Y35.8892
G01 X63.3697 Y35.8995
G01 X63.3955 Y36.0023
G01 X63.3971 Y36.0102
G01 X63.4138 Y36.1230
G01 X63.4194 Y36.2342
G01 X63.4194 Y36.2450
G01 X63.4138 Y36.3562
G01 X63.3976 Y36.4663
G01 X63.3955 Y36.4769
G01 X63.3697 Y36.5797
G01 X63.3666 Y36.5900
G01 X63.3309 Y36.6898
G01 X63.3268 Y36.6997
G01 X63.2790 Y36.8003
G01 X63.2190 Y36.9005
G01 X63.1528 Y36.9900
G01 X63.1460 Y36.9983
G01 X63.0711 Y37.0807
G01 X62.9846 Y37.1591
G01 X62.8909 Y37.2286
G01 X62.7954 Y37.2860
G01 X62.7859 Y37.2911
G01 X62.6852 Y37.3386
G01 X62.5804 Y37.3762
G01 X62.5701 Y37.3793
G01 X62.4621 Y37.4062
G01 X62.3519 Y37.4227
G01 X62.3412 Y37.4238
G01 X62.2300 Y37.4291
G01 X62.1188 Y37.4238
G01 X62.1081 Y37.4227
G01 X61.9979 Y37.4062
G01 X61.8899 Y37.3793
G01 X61.8796 Y37.3762
G01 X61.7748 Y37.3386
G01 X61.6693 Y37.2886
G01 X61.5737 Y37.2315
G01 X61.5647 Y37.2255
G01 X61.4754 Y37.1591
G01 X61.3928 Y37.0844
G01 X61.3852 Y37.0768
G01 X61.3105 Y36.9942
G01 X61.2410 Y36.9005
G01 X61.1810 Y36.8003
G01 X61.1310 Y36.6948
G01 X61.0934 Y36.5900
G01 X61.0903 Y36.5797
G01 X61.0645 Y36.4769
G01 X61.0624 Y36.4663
G01 X61.0462 Y36.3562
G01 X61.0406 Y36.2450
G01 X61.0405 Y36.2369
G01 X61.0462 Y36.1230
G01 X61.0634 Y36.0075
G01 X61.0917 Y35.8943
G01 X61.1300 Y35.7869
G01 X61.1332 Y35.7795
G01 X61.1810 Y35.6789
G01 X61.2395 Y35.5810
G01 X61.2441 Y35.5743
G01 X61.3088 Y35.4871
G01 X61.3381 Y35.4544
G01 X58.4936 Y32.6100
G01 X53.4823 Y32.6099
G01 X53.3995 Y32.6058
G01 X53.3201 Y32.5941
G01 X53.3095 Y32.5920
G01 X53.2370 Y32.5739
G01 X53.2266 Y32.5707
G01 X53.1512 Y32.5436
G01 X53.0738 Y32.5070
G01 X53.0003 Y32.4630
G01 X52.9337 Y32.4136
G01 X52.9275 Y32.4084
G01 X52.8681 Y32.3545
G01 X48.7322 Y28.2185
G01 X48.6766 Y28.1570
G01 X48.6256 Y28.0883
G01 X48.5816 Y28.0148
G01 X48.5472 Y27.9424
G01 X48.5431 Y27.9324
G01 X48.5179 Y27.8620
G01 X48.5147 Y27.8516
G01 X48.4954 Y27.7738
G01 X48.4829 Y27.6903
G01 X42.3497 Y21.5570
G01 X42.3949 Y21.6182
G01 X42.4514 Y21.7122
G01 X42.4553 Y21.7193
G01 X42.5032 Y21.8209
G01 X42.5403 Y21.9241
G01 X42.5428 Y21.9318
G01 X42.5700 Y22.0409
G01 X42.5869 Y22.1547
G01 X42.5925 Y22.2696
G01 X42.5871 Y22.3818
G01 X42.5862 Y22.3899
G01 X42.5700 Y22.4983
G01 X42.5435 Y22.6048
G01 X42.5403 Y22.6151
G01 X42.5052 Y22.7133
G01 X42.5022 Y22.7208
G01 X42.4541 Y22.8223
G01 X42.3964 Y22.9187
G01 X42.3918 Y22.9254
G01 X42.3280 Y23.0113
G01 X42.3228 Y23.0175
G01 X42.2924 Y23.0511
G01 X42.2924 Y24.6326
G01 X42.2882 Y24.7181
G01 X42.2756 Y24.8028
G01 X42.2563 Y24.8806
G01 X42.2531 Y24.8910
G01 X42.2260 Y24.9664
G01 X42.1894 Y25.0438
G01 X42.1482 Y25.1127
G01 X42.1422 Y25.1217
G01 X42.0977 Y25.1818
G01 X42.0908 Y25.1901
G01 X42.0369 Y25.2495
G01 X36.9399 Y30.3465
G01 X36.8764 Y30.4040
G01 X36.8077 Y30.4550
G01 X36.7389 Y30.4963
G01 X36.7294 Y30.5014
G01 X36.6568 Y30.5356
G01 X36.5762 Y30.5644
G01 X36.4985 Y30.5840
G01 X36.4879 Y30.5861
G01 X36.4085 Y30.5978
G01 X36.3424 Y30.6012
G01 X36.3079 Y30.6324
G01 X36.3017 Y30.6376
G01 X36.2136 Y30.7030
G01 X36.2068 Y30.7074
G01 X36.1151 Y30.7624
G01 X36.1079 Y30.7661
G01 X36.0087 Y30.8128
G01 X35.9029 Y30.8508
G01 X35.8952 Y30.8531
G01 X35.7887 Y30.8796
G01 X35.6749 Y30.8965
G01 X35.5600 Y30.9021
G01 X35.4478 Y30.8967
G01 X35.4397 Y30.8958
G01 X35.3313 Y30.8796
G01 X35.2248 Y30.8531
G01 X35.2145 Y30.8499
G01 X35.1113 Y30.8128
G01 X35.0121 Y30.7661
G01 X35.0026 Y30.7610
G01 X34.9086 Y30.7045
G01 X34.8162 Y30.6360
G01 X34.7348 Y30.5624
G01 X34.7272 Y30.5548
G01 X34.6536 Y30.4734
G01 X34.5882 Y30.3854
G01 X34.5822 Y30.3764
G01 X34.5272 Y30.2847
G01 X34.5235 Y30.2775
G01 X34.4789 Y30.1832
G01 X34.4748 Y30.1733
G01 X34.4380 Y30.0700
G01 X34.4100 Y29.9583
G01 X34.3931 Y29.8445
G01 X34.3876 Y29.7350
G01 X34.3876 Y29.7242
G01 X34.3927 Y29.6201
G01 X34.3938 Y29.6093
G01 X34.4100 Y29.5009
G01 X34.4380 Y29.3892
G01 X34.4768 Y29.2809
G01 X34.5235 Y29.1817
G01 X34.5286 Y29.1722
G01 X34.5822 Y29.0828
G01 X34.5882 Y29.0738
G01 X34.6536 Y28.9858
G01 X34.7309 Y28.9005
G01 X34.8162 Y28.8232
G01 X34.9042 Y28.7578
G01 X34.9132 Y28.7518
G01 X35.0026 Y28.6982
G01 X35.0121 Y28.6931
G01 X35.1113 Y28.6464
G01 X35.2196 Y28.6076
G01 X35.3313 Y28.5796
G01 X35.4397 Y28.5634
G01 X35.4505 Y28.5623
G01 X35.5546 Y28.5572
G01 X35.5654 Y28.5572
G01 X35.6749 Y28.5627
G01 X35.7887 Y28.5796
G01 X35.9004 Y28.6076
G01 X36.0037 Y28.6444
G01 X36.0136 Y28.6485
G01 X36.1079 Y28.6931
G01 X36.1194 Y28.6994
G01 X40.5476 Y24.2712
G01 X40.5476 Y23.0511
G01 X40.5172 Y23.0175
G01 X40.5120 Y23.0113
G01 X40.4482 Y22.9254
G01 X40.4436 Y22.9187
G01 X40.3859 Y22.8223
G01 X40.3389 Y22.7232
G01 X40.3357 Y22.7158
G01 X40.2980 Y22.6100
G01 X40.2700 Y22.4983
G01 X40.2531 Y22.3845
G01 X40.2475 Y22.2696
G01 X40.2531 Y22.1547
G01 X40.2700 Y22.0409
G01 X40.2980 Y21.9292
G01 X40.3348 Y21.8259
G01 X40.3389 Y21.8160
G01 X40.3835 Y21.7217
G01 X40.3886 Y21.7122
G01 X40.4451 Y21.6182
G01 X40.5103 Y21.5300
G01 X40.5154 Y21.5237
G01 X40.5909 Y21.4405
G01 X40.6762 Y21.3632
G01 X40.7686 Y21.2947
G01 X40.8673 Y21.2355
G01 X40.9713 Y21.1864
G01 X41.0796 Y21.1476
G01 X41.1913 Y21.1196
G01 X41.3024 Y21.1030
G01 X41.3105 Y21.1023
G01 X41.4200 Y21.0971
G01 X41.5349 Y21.1027
G01 X41.6487 Y21.1196
G01 X41.7578 Y21.1468
G01 X41.7655 Y21.1493
G01 X41.8687 Y21.1864
G01 X41.9703 Y21.2343
G01 X41.9774 Y21.2382
G01 X42.0714 Y21.2947
G01 X42.1326 Y21.3399
G01 X36.2378 Y15.4451
G01 X36.2091 Y15.4660
G01 X36.1174 Y15.5210
G01 X36.1103 Y15.5249
G01 X36.0087 Y15.5728
G01 X35.9055 Y15.6099
G01 X35.8978 Y15.6124
G01 X35.7887 Y15.6396
G01 X35.6749 Y15.6565
G01 X35.5600 Y15.6621
G01 X35.4505 Y15.6569
G01 X35.4424 Y15.6562
G01 X35.3313 Y15.6396
G01 X35.2196 Y15.6116
G01 X35.1113 Y15.5728
G01 X35.0073 Y15.5237
G01 X34.9086 Y15.4645
G01 X34.8162 Y15.3960
G01 X34.7309 Y15.3187
G01 X34.6554 Y15.2355
G01 X34.6503 Y15.2292
G01 X34.5882 Y15.1454
G01 X34.5822 Y15.1364
G01 X34.5259 Y15.0423
G01 X34.4789 Y14.9432
G01 X34.4748 Y14.9333
G01 X34.4380 Y14.8300
G01 X34.4112 Y14.7236
G01 X34.4091 Y14.7130
G01 X34.3931 Y14.6045
G01 X34.3876 Y14.4950
G01 X34.3876 Y14.4842
G01 X34.3931 Y14.3747
G01 X34.4091 Y14.2662
G01 X34.4112 Y14.2556
G01 X34.4380 Y14.1492
G01 X34.4748 Y14.0459
G01 X34.4789 Y14.0360
G01 X34.5259 Y13.9369
G01 X34.5822 Y13.8428
G01 X34.5882 Y13.8338
G01 X34.6536 Y13.7458
G01 X34.7272 Y13.6644
G01 X34.7348 Y13.6568
G01 X34.8162 Y13.5832
G01 X34.9042 Y13.5178
G01 X34.9132 Y13.5118
G01 X35.0073 Y13.4555
G01 X35.1064 Y13.4085
G01 X35.1163 Y13.4044
G01 X35.2196 Y13.3676
G01 X35.3260 Y13.3408
G01 X35.3339 Y13.3391
G01 X35.4397 Y13.3234
G01 X35.4505 Y13.3223
G01 X35.5600 Y13.3171
G01 X35.6695 Y13.3223
G01 X35.6803 Y13.3234
G01 X35.7887 Y13.3396
G01 X35.9004 Y13.3676
G01 X36.0087 Y13.4064
G01 X36.1079 Y13.4531
G01 X36.1151 Y13.4568
G01 X36.2068 Y13.5118
G01 X36.2136 Y13.5162
G01 X36.3017 Y13.5816
G01 X36.3079 Y13.5868
G01 X36.3415 Y13.6172
G01 X36.5187 Y13.6173
G01 X36.5961 Y13.6210
G01 X36.6042 Y13.6217
G01 X36.6862 Y13.6340
G01 X36.7640 Y13.6533
G01 X36.7744 Y13.6565
G01 X36.8498 Y13.6836
G01 X36.9272 Y13.7202
G01 X37.0007 Y13.7642
G01 X37.0694 Y13.8152
G01 X37.1309 Y13.8708
G01 X49.9679 Y26.7077
G01 X50.0254 Y26.7712
G01 X50.0732 Y26.8355
G01 X50.0792 Y26.8445
G01 X50.1177 Y26.9087
G01 X50.1228 Y26.9182
G01 X50.1570 Y26.9908
G01 X50.1858 Y27.0714
G01 X50.2066 Y27.1544
G01 X50.2191 Y27.2379
G01 X50.4543 Y27.4732
G01 X50.4091 Y27.4120
G01 X50.3526 Y27.3180
G01 X50.3487 Y27.3109
G01 X50.3008 Y27.2093
G01 X50.2628 Y27.1035
G01 X50.2605 Y27.0958
G01 X50.2352 Y26.9946
G01 X50.2331 Y26.9840
G01 X50.2171 Y26.8755
G01 X50.2116 Y26.7660
G01 X50.2115 Y26.7579
G01 X50.2171 Y26.6457
G01 X50.2340 Y26.5319
G01 X50.2620 Y26.4202
G01 X50.2988 Y26.3169
G01 X50.3029 Y26.3070
G01 X50.3475 Y26.2127
G01 X50.3526 Y26.2032
G01 X50.4091 Y26.1092
G01 X50.4760 Y26.0189
G01 X50.4812 Y26.0127
G01 X50.5549 Y25.9315
G01 X50.6402 Y25.8542
G01 X50.7326 Y25.7857
G01 X50.8266 Y25.7292
G01 X50.8337 Y25.7253
G01 X50.9353 Y25.6774
G01 X51.0385 Y25.6403
G01 X51.0462 Y25.6378
G01 X51.1500 Y25.6118
G01 X51.1579 Y25.6101
G01 X51.2664 Y25.5940
G01 X51.2745 Y25.5933
G01 X51.3197 Y25.5911
G01 X53.7376 Y23.1732
G01 X53.7376 Y18.5420
G01 X48.2226 Y13.0270
G01 X30.9984 Y13.0270
G01 X20.2524 Y23.7730
G01 X20.2524 Y24.5636
G01 X20.2482 Y24.6491
G01 X20.2356 Y24.7338
G01 X20.2148 Y24.8168
G01 X20.1860 Y24.8974
G01 X20.1518 Y24.9700
G01 X20.1467 Y24.9795
G01 X20.1054 Y25.0483
G01 X20.0577 Y25.1128
G01 X20.0508 Y25.1211
G01 X19.9988 Y25.1785
G01 X18.6809 Y26.4965
G01 X18.6215 Y26.5504
G01 X18.6132 Y26.5573
G01 X18.5531 Y26.6018
G01 X18.5441 Y26.6078
G01 X18.4752 Y26.6490
G01 X18.4028 Y26.6834
G01 X18.3928 Y26.6875
G01 X18.3172 Y26.7144
G01 X18.2395 Y26.7340
G01 X18.2289 Y26.7361
G01 X18.1495 Y26.7478
G01 X18.0667 Y26.7519
G01 X17.2915 Y26.7520
G01 X17.2579 Y26.7824
G01 X17.2517 Y26.7876
G01 X17.1658 Y26.8514
G01 X17.1591 Y26.8560
G01 X17.0627 Y26.9137
G01 X16.9612 Y26.9618
G01 X16.9537 Y26.9648
G01 X16.8504 Y27.0016
G01 X16.7440 Y27.0284
G01 X16.7334 Y27.0305
G01 X16.6303 Y27.0458
G01 X16.6222 Y27.0467
G01 X16.5100 Y27.0521
G01 X16.3951 Y27.0465
G01 X16.2813 Y27.0296
G01 X16.1696 Y27.0016
G01 X16.0613 Y26.9628
G01 X15.9573 Y26.9137
G01 X15.8586 Y26.8545
G01 X15.7704 Y26.7893
G01 X15.7641 Y26.7842
G01 X15.6809 Y26.7087
G01 X15.6036 Y26.6234
G01 X15.5351 Y26.5310
G01 X15.4759 Y26.4323
G01 X15.4268 Y26.3283
G01 X15.3880 Y26.2200
G01 X15.3600 Y26.1083
G01 X15.3431 Y25.9945
G01 X15.3375 Y25.8796
G01 X15.3431 Y25.7647
G01 X15.3600 Y25.6509
G01 X15.3880 Y25.5392
G01 X15.4268 Y25.4309
G01 X15.4759 Y25.3269
G01 X15.5351 Y25.2282
G01 X15.6003 Y25.1400
G01 X15.6054 Y25.1337
G01 X15.6809 Y25.0505
G01 X15.7662 Y24.9732
G01 X15.8586 Y24.9047
G01 X15.9573 Y24.8455
G01 X16.0613 Y24.7964
G01 X16.1696 Y24.7576
G01 X16.2813 Y24.7296
G01 X16.3897 Y24.7134
G01 X16.3978 Y24.7125
G01 X16.5100 Y24.7071
G01 X16.6249 Y24.7127
G01 X16.7387 Y24.7296
G01 X16.8452 Y24.7561
G01 X16.8529 Y24.7584
G01 X16.9587 Y24.7964
G01 X17.0579 Y24.8431
G01 X17.0651 Y24.8468
G01 X17.1568 Y24.9018
G01 X17.1636 Y24.9062
G01 X17.2517 Y24.9716
G01 X17.2579 Y24.9768
G01 X17.2915 Y25.0072
G00 Z2.0000
G00 X17.2684 Y25.0672
G01 F60.00
G01 Z-0.0000
G01 F120.00
G01 X17.7275 Y25.0672
G01 X18.5676 Y24.2271
G01 X18.5676 Y23.4104
G01 X18.5715 Y23.3320
G01 X18.5830 Y23.2543
G01 X18.6034 Y23.1734
G01 X18.6295 Y23.1007
G01 X18.6635 Y23.0286
G01 X18.7059 Y22.9583
G01 X18.7520 Y22.8962
G01 X18.8047 Y22.8380
G01 X30.0626 Y11.5802
G01 X30.1216 Y11.5266
G01 X30.1837 Y11.4805
G01 X30.2562 Y11.4370
G01 X30.3261 Y11.4041
G01 X30.4012 Y11.3772
G01 X30.4785 Y11.3578
G01 X30.5549 Y11.3464
G01 X30.6370 Y11.3422
G01 X48.5840 Y11.3422
G01 X48.6636 Y11.3461
G01 X48.7425 Y11.3578
G01 X48.8198 Y11.3772
G01 X48.8926 Y11.4032
G01 X48.9670 Y11.4381
G01 X49.0373 Y11.4805
G01 X49.0994 Y11.5266
G01 X49.1576 Y11.5793
G01 X54.6100 Y17.0317
G01 X56.7284 Y14.9133
G01 X56.7866 Y14.8606
G01 X56.8507 Y14.8131
G01 X56.9190 Y14.7721
G01 X56.9911 Y14.7381
G01 X57.0662 Y14.7112
G01 X57.1435 Y14.6918
G01 X57.2224 Y14.6801
G01 X57.3008 Y14.6762
G01 X60.0540 Y14.6762
G01 X60.1336 Y14.6801
G01 X60.2125 Y14.6918
G01 X60.2875 Y14.7105
G01 X60.3649 Y14.7381
G01 X60.4370 Y14.7721
G01 X60.5033 Y14.8118
G01 X60.5712 Y14.8622
G01 X60.6284 Y14.9142
G01 X62.6927 Y16.9785
G01 X62.7704 Y16.9321
G01 X62.9057 Y16.8681
G01 X63.0512 Y16.8160
G01 X63.1976 Y16.7794
G01 X63.3456 Y16.7574
G01 X63.5012 Y16.7496
G01 X63.6519 Y16.7571
G01 X63.8000 Y16.7790
G01 X63.9499 Y16.8163
G01 X64.0932 Y16.8676
G01 X64.2285 Y16.9315
G01 X64.3621 Y17.0115
G01 X64.4833 Y17.1014
G01 X64.5960 Y17.2036
G01 X64.6982 Y17.3163
G01 X64.7901 Y17.4405
G01 X64.8670 Y17.5689
G01 X64.9329 Y17.7087
G01 X64.9839 Y17.8520
G01 X65.0202 Y17.9972
G01 X65.0422 Y18.1452
G01 X65.0500 Y18.2996
G01 X65.0422 Y18.4540
G01 X65.0202 Y18.6020
G01 X64.9839 Y18.7472
G01 X64.9320 Y18.8928
G01 X64.8670 Y19.0303
G01 X64.7874 Y19.1627
G01 X64.6982 Y19.2829
G01 X64.5977 Y19.3938
G01 X64.4833 Y19.4978
G01 X64.3611 Y19.5884
G01 X64.2285 Y19.6677
G01 X64.0932 Y19.7316
G01 X63.9523 Y19.7821
G01 X63.8024 Y19.8198
G01 X63.6495 Y19.8423
G01 X63.5000 Y19.8496
G01 X63.3505 Y19.8423
G01 X63.1976 Y19.8198
G01 X63.0524 Y19.7835
G01 X63.0424 Y19.7802
G01 X63.0424 Y27.1701
G01 X63.3095 Y27.1701
G01 X63.3168 Y27.1706
G01 X63.3240 Y27.1723
G01 X63.3320 Y27.1754
G01 X63.3393 Y27.1799
G01 X63.3457 Y27.1856
G01 X63.3511 Y27.1923
G01 X63.3547 Y27.1987
G01 X63.3573 Y27.2056
G01 X63.3591 Y27.2140
G01 X63.3595 Y27.2201
G01 X63.3595 Y29.3803
G01 X63.3583 Y29.3901
G01 X63.3557 Y29.3982
G01 X63.3517 Y29.4058
G01 X63.3465 Y29.4127
G01 X63.3403 Y29.4185
G01 X63.3331 Y29.4232
G01 X63.3252 Y29.4266
G01 X63.3168 Y29.4286
G01 X63.3095 Y29.4291
G01 X61.1493 Y29.4291
G01 X61.1407 Y29.4281
G01 X61.1337 Y29.4262
G01 X61.1269 Y29.4232
G01 X61.1197 Y29.4185
G01 X61.1143 Y29.4136
G01 X61.1089 Y29.4069
G01 X61.1048 Y29.3994
G01 X61.1023 Y29.3924
G01 X61.1010 Y29.3864
G01 X61.1005 Y29.3791
G01 X61.1005 Y27.2201
G01 X61.1010 Y27.2128
G01 X61.1030 Y27.2044
G01 X61.1064 Y27.1965
G01 X61.1111 Y27.1893
G01 X61.1160 Y27.1839
G01 X61.1217 Y27.1792
G01 X61.1291 Y27.1749
G01 X61.1372 Y27.1719
G01 X61.1444 Y27.1705
G01 X61.1505 Y27.1701
G01 X61.4176 Y27.1701
G01 X61.4176 Y18.9346
G01 X61.4214 Y18.8574
G01 X61.4332 Y18.7761
G01 X61.4526 Y18.6988
G01 X61.4795 Y18.6237
G01 X61.5135 Y18.5516
G01 X61.5545 Y18.4833
G01 X61.6020 Y18.4192
G01 X61.6547 Y18.3610
G01 X61.7161 Y18.2996
G01 X59.7175 Y16.3010
G01 X57.6385 Y16.3010
G01 X55.4224 Y18.5171
G01 X55.4224 Y23.5358
G01 X55.4182 Y23.6167
G01 X55.4068 Y23.6931
G01 X55.3881 Y23.7681
G01 X55.3605 Y23.8455
G01 X55.3265 Y23.9176
G01 X55.2855 Y23.9859
G01 X55.2395 Y24.0480
G01 X55.1844 Y24.1090
G01 X52.4947 Y26.7988
G01 X52.4911 Y26.8696
G01 X52.4753 Y26.9764
G01 X52.4489 Y27.0824
G01 X52.4118 Y27.1863
G01 X52.3657 Y27.2839
G01 X52.3090 Y27.3787
G01 X52.2440 Y27.4664
G01 X52.1707 Y27.5473
G01 X52.0888 Y27.6213
G01 X52.0021 Y27.6856
G01 X51.9084 Y27.7417
G01 X51.8097 Y27.7884
G01 X51.7069 Y27.8252
G01 X51.6010 Y27.8517
G01 X51.4930 Y27.8677
G01 X51.3840 Y27.8731
G01 X51.2774 Y27.8679
G01 X51.1646 Y27.8512
G01 X51.0611 Y27.8252
G01 X50.9560 Y27.7874
G01 X50.8596 Y27.7417
G01 X50.7659 Y27.6856
G01 X50.6782 Y27.6206
G01 X50.5957 Y27.5455
G01 X50.5240 Y27.4664
G01 X50.4590 Y27.3787
G01 X50.4029 Y27.2850
G01 X50.3572 Y27.1886
G01 X50.3187 Y27.0812
G01 X50.2929 Y26.9776
G01 X50.2769 Y26.8696
G01 X50.2715 Y26.7606
G01 X50.2769 Y26.6516
G01 X50.2929 Y26.5436
G01 X50.3187 Y26.4400
G01 X50.3572 Y26.3326
G01 X50.4029 Y26.2362
G01 X50.4604 Y26.1405
G01 X50.5240 Y26.0548
G01 X50.5957 Y25.9757
G01 X50.6764 Y25.9022
G01 X50.7659 Y25.8356
G01 X50.8585 Y25.7801
G01 X50.9583 Y25.7328
G01 X51.0622 Y25.6957
G01 X51.1682 Y25.6693
G01 X51.2750 Y25.6535
G01 X51.3458 Y25.6499
G01 X53.7976 Y23.1981
G01 X53.7976 Y18.5171
G01 X48.2475 Y12.9670
G01 X30.9735 Y12.9670
G01 X20.1924 Y23.7481
G01 X20.1924 Y24.5636
G01 X20.1886 Y24.6420
G01 X20.1768 Y24.7221
G01 X20.1574 Y24.7994
G01 X20.1305 Y24.8745
G01 X20.0952 Y24.9487
G01 X20.0555 Y25.0149
G01 X20.0095 Y25.0770
G01 X19.9553 Y25.1372
G01 X18.6384 Y26.4540
G01 X18.5812 Y26.5060
G01 X18.5133 Y26.5564
G01 X18.4470 Y26.5961
G01 X18.3749 Y26.6301
G01 X18.2975 Y26.6577
G01 X18.2225 Y26.6764
G01 X18.1461 Y26.6878
G01 X18.0640 Y26.6920
G01 X17.2684 Y26.6920
G01 X17.2158 Y26.7396
G01 X17.1270 Y26.8053
G01 X17.0344 Y26.8607
G01 X16.9369 Y26.9069
G01 X16.8329 Y26.9442
G01 X16.7294 Y26.9702
G01 X16.6166 Y26.9869
G01 X16.5100 Y26.9921
G01 X16.4034 Y26.9869
G01 X16.2954 Y26.9711
G01 X16.1871 Y26.9442
G01 X16.0866 Y26.9083
G01 X15.9856 Y26.8607
G01 X15.8919 Y26.8046
G01 X15.8042 Y26.7396
G01 X15.7242 Y26.6671
G01 X15.6500 Y26.5854
G01 X15.5850 Y26.4977
G01 X15.5289 Y26.4040
G01 X15.4822 Y26.3053
G01 X15.4454 Y26.2025
G01 X15.4189 Y26.0966
G01 X15.4029 Y25.9886
G01 X15.3975 Y25.8796
G01 X15.4029 Y25.7706
G01 X15.4189 Y25.6626
G01 X15.4454 Y25.5567
G01 X15.4822 Y25.4539
G01 X15.5289 Y25.3552
G01 X15.5850 Y25.2615
G01 X15.6500 Y25.1738
G01 X15.7225 Y25.0938
G01 X15.8042 Y25.0196
G01 X15.8919 Y24.9546
G01 X15.9856 Y24.8985
G01 X16.0843 Y24.8518
G01 X16.1871 Y24.8150
G01 X16.2930 Y24.7885
G01 X16.4010 Y24.7725
G01 X16.5088 Y24.7671
G01 X16.6190 Y24.7725
G01 X16.7270 Y24.7885
G01 X16.8329 Y24.8150
G01 X16.9346 Y24.8513
G01 X17.0344 Y24.8985
G01 X17.1270 Y24.9539
G01 X17.2158 Y25.0196
G01 X17.2684 Y25.0672
G00 Z2.0000
G00 X21.9276 Y26.6843
G01 F60.00
G01 Z-0.0000
G01 F120.00
G01 X21.9100 Y26.6647
G01 X21.9047 Y26.6582
G01 X21.8376 Y26.5678
G01 X21.8307 Y26.5573
G01 X21.7750 Y26.4643
G01 X21.7693 Y26.4531
G01 X21.7213 Y26.3513
G01 X21.6818 Y26.2414
G01 X21.6783 Y26.2293
G01 X21.6512 Y26.1200
G01 X21.6334 Y26.0004
G01 X21.6275 Y25.8796
G01 X21.6331 Y25.7630
G01 X21.6345 Y25.7505
G01 X21.6512 Y25.6392
G01 X21.6806 Y25.5218
G01 X21.7213 Y25.4079
G01 X21.7730 Y25.2986
G01 X21.8352 Y25.1949
G01 X21.9073 Y25.0977
G01 X21.9885 Y25.0081
G01 X22.0749 Y24.9296
G01 X22.0847 Y24.9217
G01 X22.1753 Y24.8548
G01 X22.2790 Y24.7926
G01 X22.3883 Y24.7409
G01 X22.5022 Y24.7002
G01 X22.6196 Y24.6708
G01 X22.7392 Y24.6530
G01 X22.8600 Y24.6471
G01 X22.9808 Y24.6530
G01 X23.1004 Y24.6708
G01 X23.2178 Y24.7002
G01 X23.3317 Y24.7409
G01 X23.4410 Y24.7926
G01 X23.5447 Y24.8548
G01 X23.6419 Y24.9269
G01 X23.7315 Y25.0081
G01 X23.8100 Y25.0945
G01 X23.8179 Y25.1043
G01 X23.8848 Y25.1949
G01 X23.9429 Y25.2913
G01 X23.9507 Y25.3061
G01 X23.9953 Y25.4003
G01 X24.0017 Y25.4157
G01 X24.0394 Y25.5218
G01 X24.0688 Y25.6392
G01 X24.0866 Y25.7588
G01 X24.0925 Y25.8796
G01 X24.0866 Y26.0004
G01 X24.0688 Y26.1200
G01 X24.0394 Y26.2374
G01 X24.0002 Y26.3474
G01 X23.9953 Y26.3589
G01 X23.9470 Y26.4606
G01 X23.8871 Y26.5608
G01 X23.8800 Y26.5712
G01 X23.8153 Y26.6582
G01 X23.8100 Y26.6647
G01 X23.7924 Y26.6843
G01 X23.7924 Y30.4554
G01 X32.0892 Y38.7522
G01 X38.5726 Y38.7522
G01 X38.5726 Y37.0113
G01 X38.5550 Y36.9917
G01 X38.5497 Y36.9852
G01 X38.4850 Y36.8982
G01 X38.4779 Y36.8878
G01 X38.4180 Y36.7876
G01 X38.3663 Y36.6783
G01 X38.3256 Y36.5644
G01 X38.2980 Y36.4552
G01 X38.2948 Y36.4388
G01 X38.2795 Y36.3357
G01 X38.2778 Y36.3191
G01 X38.2725 Y36.2066
G01 X38.2778 Y36.0941
G01 X38.2795 Y36.0775
G01 X38.2962 Y35.9662
G01 X38.3233 Y35.8569
G01 X38.3268 Y35.8448
G01 X38.3663 Y35.7349
G01 X38.4001 Y35.6631
G01 X38.3789 Y35.6726
G01 X38.3006 Y35.7006
G01 X38.2886 Y35.7041
G01 X38.2120 Y35.7232
G01 X38.1997 Y35.7255
G01 X38.1174 Y35.7375
G01 X38.0343 Y35.7418
G01 X36.3647 Y35.7420
G01 X36.3451 Y35.7596
G01 X36.3386 Y35.7649
G01 X36.2516 Y35.8296
G01 X36.2412 Y35.8367
G01 X36.1410 Y35.8966
G01 X36.0355 Y35.9466
G01 X36.0239 Y35.9513
G01 X35.9257 Y35.9864
G01 X35.9097 Y35.9913
G01 X35.8004 Y36.0184
G01 X35.6808 Y36.0362
G01 X35.5600 Y36.0421
G01 X35.4475 Y36.0368
G01 X35.4309 Y36.0351
G01 X35.3196 Y36.0184
G01 X35.2103 Y35.9913
G01 X35.1943 Y35.9864
G01 X35.0922 Y35.9498
G01 X35.0807 Y35.9449
G01 X34.9790 Y35.8966
G01 X34.8753 Y35.8344
G01 X34.7781 Y35.7623
G01 X34.6945 Y35.6869
G01 X34.6827 Y35.6751
G01 X34.6073 Y35.5915
G01 X34.5400 Y35.5012
G01 X34.5307 Y35.4873
G01 X34.4771 Y35.3979
G01 X34.4693 Y35.3831
G01 X34.4213 Y35.2813
G01 X34.3806 Y35.1674
G01 X34.3512 Y35.0500
G01 X34.3334 Y34.9304
G01 X34.3275 Y34.8096
G01 X34.3328 Y34.6971
G01 X34.3345 Y34.6805
G01 X34.3498 Y34.5774
G01 X34.3530 Y34.5610
G01 X34.3806 Y34.4518
G01 X34.4183 Y34.3457
G01 X34.4247 Y34.3303
G01 X34.4730 Y34.2286
G01 X34.5329 Y34.1284
G01 X34.5400 Y34.1180
G01 X34.6073 Y34.0277
G01 X34.6827 Y33.9441
G01 X34.6945 Y33.9323
G01 X34.7718 Y33.8623
G01 X34.7847 Y33.8517
G01 X34.8753 Y33.7848
G01 X34.9717 Y33.7267
G01 X34.9865 Y33.7189
G01 X35.0883 Y33.6709
G01 X35.2022 Y33.6302
G01 X35.3196 Y33.6008
G01 X35.4309 Y33.5841
G01 X35.4434 Y33.5827
G01 X35.5600 Y33.5771
G01 X35.6808 Y33.5830
G01 X35.8004 Y33.6008
G01 X35.9097 Y33.6279
G01 X35.9218 Y33.6314
G01 X36.0317 Y33.6709
G01 X36.1335 Y33.7189
G01 X36.1447 Y33.7246
G01 X36.2377 Y33.7803
G01 X36.2482 Y33.7872
G01 X36.3386 Y33.8543
G01 X36.3451 Y33.8596
G01 X36.3647 Y33.8772
G01 X37.6398 Y33.8772
G01 X38.0057 Y33.5114
G01 X38.0705 Y33.4529
G01 X38.1440 Y33.3984
G01 X38.2152 Y33.3554
G01 X38.2299 Y33.3476
G01 X38.3052 Y33.3122
G01 X38.3834 Y33.2840
G01 X38.3994 Y33.2791
G01 X38.4801 Y33.2591
G01 X38.5706 Y33.2457
G01 X38.6620 Y33.2412
G01 X41.2740 Y33.2412
G01 X41.3612 Y33.2454
G01 X41.3737 Y33.2467
G01 X41.4477 Y33.2577
G01 X41.4640 Y33.2610
G01 X41.5447 Y33.2814
G01 X41.6308 Y33.3122
G01 X41.7061 Y33.3476
G01 X41.7208 Y33.3554
G01 X41.7920 Y33.3984
G01 X41.8655 Y33.4529
G01 X41.9333 Y33.5143
G01 X50.4797 Y42.0607
G01 X50.6363 Y42.0376
G01 X50.7917 Y42.0298
G01 X50.8083 Y42.0298
G01 X50.9554 Y42.0370
G01 X50.9720 Y42.0387
G01 X51.1258 Y42.0617
G01 X51.2848 Y42.1015
G01 X51.4391 Y42.1567
G01 X51.5798 Y42.2230
G01 X51.5945 Y42.2309
G01 X51.7208 Y42.3066
G01 X51.7346 Y42.3159
G01 X51.8594 Y42.4087
G01 X51.9809 Y42.5187
G01 X52.0909 Y42.6402
G01 X52.1837 Y42.7650
G01 X52.1930 Y42.7788
G01 X52.2728 Y42.9124
G01 X52.3429 Y43.0605
G01 X52.3955 Y43.2069
G01 X52.4003 Y43.2229
G01 X52.4361 Y43.3657
G01 X52.4393 Y43.3820
G01 X52.4620 Y43.5359
G01 X52.4700 Y43.6996
G01 X52.4620 Y43.8633
G01 X52.4393 Y44.0172
G01 X52.4361 Y44.0335
G01 X52.4003 Y44.1763
G01 X52.3955 Y44.1923
G01 X52.3429 Y44.3387
G01 X52.2728 Y44.4868
G01 X52.1886 Y44.6274
G01 X52.0961 Y44.7525
G01 X52.0855 Y44.7654
G01 X51.9866 Y44.8744
G01 X51.9748 Y44.8862
G01 X51.8594 Y44.9905
G01 X51.7278 Y45.0882
G01 X51.5872 Y45.1724
G01 X51.4467 Y45.2391
G01 X51.4313 Y45.2455
G01 X51.2927 Y45.2951
G01 X51.2767 Y45.2999
G01 X51.1258 Y45.3375
G01 X50.9637 Y45.3616
G01 X50.8000 Y45.3696
G01 X50.6446 Y45.3622
G01 X50.6280 Y45.3605
G01 X50.4824 Y45.3389
G01 X50.4661 Y45.3357
G01 X50.3152 Y45.2977
G01 X50.1609 Y45.2425
G01 X50.0128 Y45.1724
G01 X49.8757 Y45.0904
G01 X49.8654 Y45.0833
G01 X49.7471 Y44.9957
G01 X49.7342 Y44.9851
G01 X49.6191 Y44.8805
G01 X49.5091 Y44.7590
G01 X49.4114 Y44.6274
G01 X49.3313 Y44.4941
G01 X49.3234 Y44.4794
G01 X49.2571 Y44.3387
G01 X49.2019 Y44.1844
G01 X49.1639 Y44.0335
G01 X49.1607 Y44.0172
G01 X49.1380 Y43.8633
G01 X49.1302 Y43.7079
G01 X49.1302 Y43.6913
G01 X49.1380 Y43.5359
G01 X49.1611 Y43.3793
G01 X40.8878 Y35.1060
G01 X40.0576 Y35.1060
G01 X40.0823 Y35.1177
G01 X40.0897 Y35.1216
G01 X40.1862 Y35.1795
G01 X40.1966 Y35.1866
G01 X40.2803 Y35.2487
G01 X40.2901 Y35.2566
G01 X40.3765 Y35.3351
G01 X40.4523 Y35.4184
G01 X40.4629 Y35.4313
G01 X40.5298 Y35.5219
G01 X40.5879 Y35.6183
G01 X40.5957 Y35.6331
G01 X40.6437 Y35.7349
G01 X40.6818 Y35.8409
G01 X40.6867 Y35.8569
G01 X40.7138 Y35.9662
G01 X40.7305 Y36.0775
G01 X40.7319 Y36.0900
G01 X40.7375 Y36.2066
G01 X40.7316 Y36.3274
G01 X40.7138 Y36.4470
G01 X40.6867 Y36.5563
G01 X40.6832 Y36.5684
G01 X40.6437 Y36.6783
G01 X40.5957 Y36.7801
G01 X40.5900 Y36.7913
G01 X40.5343 Y36.8843
G01 X40.5274 Y36.8948
G01 X40.4603 Y36.9852
G01 X40.4550 Y36.9917
G01 X40.4374 Y37.0113
G01 X40.4374 Y40.0574
G01 X50.9852 Y50.6052
G01 X64.4448 Y50.6052
G01 X65.4046 Y49.6454
G01 X65.4046 Y46.9228
G01 X63.8203 Y45.3385
G01 X63.6720 Y45.3605
G01 X63.6554 Y45.3622
G01 X63.5000 Y45.3696
G01 X63.3446 Y45.3622
G01 X63.3280 Y45.3605
G01 X63.1742 Y45.3375
G01 X63.0152 Y45.2977
G01 X62.8687 Y45.2455
G01 X62.8533 Y45.2391
G01 X62.7128 Y45.1724
G01 X62.5792 Y45.0926
G01 X62.5654 Y45.0833
G01 X62.4406 Y44.9905
G01 X62.3191 Y44.8805
G01 X62.2145 Y44.7654
G01 X62.2039 Y44.7525
G01 X62.1114 Y44.6274
G01 X62.0313 Y44.4941
G01 X62.0234 Y44.4794
G01 X61.9571 Y44.3387
G01 X61.9019 Y44.1844
G01 X61.8621 Y44.0254
G01 X61.8391 Y43.8716
G01 X61.8374 Y43.8550
G01 X61.8300 Y43.6996
G01 X61.8374 Y43.5442
G01 X61.8391 Y43.5276
G01 X61.8611 Y43.3793
G01 X59.0278 Y40.5459
G01 X58.9693 Y40.4811
G01 X58.9196 Y40.4144
G01 X58.9103 Y40.4006
G01 X58.8718 Y40.3364
G01 X58.8640 Y40.3217
G01 X58.8286 Y40.2464
G01 X58.8004 Y40.1682
G01 X58.7955 Y40.1522
G01 X58.7774 Y40.0796
G01 X58.7741 Y40.0633
G01 X58.7621 Y39.9810
G01 X58.7577 Y39.8938
G01 X58.7576 Y37.0695
G01 X58.7296 Y37.0386
G01 X58.7215 Y37.0290
G01 X58.6534 Y36.9372
G01 X58.6466 Y36.9267
G01 X58.5922 Y36.8359
G01 X58.5861 Y36.8249
G01 X58.5356 Y36.7178
G01 X58.4969 Y36.6102
G01 X58.4921 Y36.5943
G01 X58.4654 Y36.4874
G01 X58.4631 Y36.4751
G01 X58.4465 Y36.3621
G01 X58.4407 Y36.2479
G01 X58.4407 Y36.2313
G01 X58.4465 Y36.1171
G01 X58.4631 Y36.0041
G01 X58.4663 Y35.9877
G01 X58.4943 Y35.8769
G01 X58.5356 Y35.7614
G01 X58.5843 Y35.6580
G01 X58.5922 Y35.6433
G01 X58.6466 Y35.5525
G01 X58.6559 Y35.5386
G01 X58.7241 Y35.4469
G01 X58.8007 Y35.3621
G01 X58.8125 Y35.3503
G01 X58.8973 Y35.2737
G01 X58.9958 Y35.2007
G01 X59.1010 Y35.1376
G01 X59.2118 Y35.0852
G01 X59.3273 Y35.0439
G01 X59.4381 Y35.0159
G01 X59.4545 Y35.0127
G01 X59.5592 Y34.9971
G01 X59.5758 Y34.9955
G01 X59.6900 Y34.9901
G01 X59.8042 Y34.9955
G01 X59.8208 Y34.9971
G01 X59.9338 Y35.0141
G01 X60.0527 Y35.0439
G01 X60.1682 Y35.0852
G01 X60.2790 Y35.1376
G01 X60.3842 Y35.2007
G01 X60.4761 Y35.2686
G01 X60.4890 Y35.2792
G01 X60.5735 Y35.3561
G01 X60.6504 Y35.4406
G01 X60.6610 Y35.4535
G01 X60.7289 Y35.5454
G01 X60.7878 Y35.6433
G01 X60.7957 Y35.6580
G01 X60.8444 Y35.7614
G01 X60.8831 Y35.8690
G01 X60.8879 Y35.8849
G01 X60.9155 Y35.9958
G01 X60.9325 Y36.1088
G01 X60.9338 Y36.1213
G01 X60.9395 Y36.2396
G01 X60.9335 Y36.3621
G01 X60.9155 Y36.4834
G01 X60.8879 Y36.5943
G01 X60.8844 Y36.6063
G01 X60.8444 Y36.7178
G01 X60.7957 Y36.8212
G01 X60.7899 Y36.8323
G01 X60.7334 Y36.9267
G01 X60.7266 Y36.9372
G01 X60.6585 Y37.0290
G01 X60.6504 Y37.0386
G01 X60.6233 Y37.0685
G01 X60.6224 Y39.5034
G01 X63.1797 Y42.0607
G01 X63.3280 Y42.0387
G01 X63.3446 Y42.0370
G01 X63.5000 Y42.0296
G01 X63.6554 Y42.0370
G01 X63.6720 Y42.0387
G01 X63.8258 Y42.0617
G01 X63.9848 Y42.1015
G01 X64.1391 Y42.1567
G01 X64.2798 Y42.2230
G01 X64.2945 Y42.2309
G01 X64.4278 Y42.3110
G01 X64.5529 Y42.4035
G01 X64.5658 Y42.4141
G01 X64.6809 Y42.5187
G01 X64.7855 Y42.6338
G01 X64.7961 Y42.6467
G01 X64.8886 Y42.7718
G01 X64.9687 Y42.9051
G01 X64.9766 Y42.9198
G01 X65.0429 Y43.0605
G01 X65.0981 Y43.2148
G01 X65.1379 Y43.3738
G01 X65.1609 Y43.5276
G01 X65.1626 Y43.5442
G01 X65.1700 Y43.6996
G01 X65.1626 Y43.8550
G01 X65.1609 Y43.8716
G01 X65.1389 Y44.0199
G01 X66.9992 Y45.8803
G01 X67.0577 Y45.9451
G01 X67.1122 Y46.0186
G01 X67.1593 Y46.0971
G01 X67.1968 Y46.1760
G01 X67.2014 Y46.1876
G01 X67.2292 Y46.2659
G01 X67.2515 Y46.3547
G01 X67.2649 Y46.4452
G01 X67.2693 Y46.5324
G01 X67.2694 Y50.0316
G01 X67.2649 Y50.1230
G01 X67.2529 Y50.2053
G01 X67.2496 Y50.2216
G01 X67.2292 Y50.3023
G01 X67.2014 Y50.3806
G01 X67.1950 Y50.3960
G01 X67.1593 Y50.4711
G01 X67.1167 Y50.5426
G01 X67.1074 Y50.5564
G01 X67.0577 Y50.6231
G01 X66.9992 Y50.6879
G01 X65.4903 Y52.1969
G01 X65.4288 Y52.2529
G01 X65.4159 Y52.2635
G01 X65.3558 Y52.3080
G01 X65.3420 Y52.3173
G01 X65.2705 Y52.3599
G01 X65.1878 Y52.3990
G01 X65.1096 Y52.4272
G01 X65.0936 Y52.4321
G01 X65.0129 Y52.4521
G01 X64.9265 Y52.4650
G01 X64.9141 Y52.4661
G01 X64.8310 Y52.4700
G01 X50.5990 Y52.4700
G01 X50.5076 Y52.4655
G01 X50.4253 Y52.4535
G01 X50.4090 Y52.4502
G01 X50.3283 Y52.4298
G01 X50.2500 Y52.4020
G01 X50.2346 Y52.3956
G01 X50.1595 Y52.3599
G01 X50.0810 Y52.3128
G01 X50.0141 Y52.2635
G01 X50.0012 Y52.2529
G01 X49.9397 Y52.1969
G01 X38.8457 Y41.1029
G01 X38.7897 Y41.0414
G01 X38.7791 Y41.0285
G01 X38.7298 Y40.9616
G01 X38.6827 Y40.8831
G01 X38.6436 Y40.8004
G01 X38.6154 Y40.7222
G01 X38.6105 Y40.7062
G01 X38.5924 Y40.6336
G01 X38.5891 Y40.6170
G01 X31.6988 Y40.6169
G01 X31.6116 Y40.6125
G01 X31.5211 Y40.5991
G01 X31.4323 Y40.5768
G01 X31.3462 Y40.5460
G01 X31.2635 Y40.5069
G01 X31.1850 Y40.4598
G01 X31.1115 Y40.4053
G01 X31.0498 Y40.3496
G01 X22.2007 Y31.5009
G01 X22.1393 Y31.4331
G01 X22.0848 Y31.3596
G01 X22.0397 Y31.2848
G01 X22.0340 Y31.2737
G01 X22.0171 Y31.2380
G01 X22.0020 Y31.2060
G01 X21.9970 Y31.1945
G01 X21.9678 Y31.1123
G01 X21.9474 Y31.0316
G01 X21.9441 Y31.0153
G01 X21.9321 Y30.9330
G01 X21.9277 Y30.8458
G01 X21.9276 Y26.6843
G00 Z2.0000
G00 X21.9876 Y26.6611
G01 F60.00
G01 Z-0.0000
G01 F120.00
G01 X21.9572 Y26.6275
G01 X21.9520 Y26.6213
G01 X21.8866 Y26.5332
G01 X21.8822 Y26.5264
G01 X21.8272 Y26.4347
G01 X21.8235 Y26.4275
G01 X21.7768 Y26.3283
G01 X21.7388 Y26.2225
G01 X21.7365 Y26.2148
G01 X21.7100 Y26.1083
G01 X21.6931 Y25.9945
G01 X21.6875 Y25.8796
G01 X21.6929 Y25.7674
G01 X21.6938 Y25.7593
G01 X21.7100 Y25.6509
G01 X21.7380 Y25.5392
G01 X21.7768 Y25.4309
G01 X21.8259 Y25.3269
G01 X21.8851 Y25.2282
G01 X21.9536 Y25.1358
G01 X22.0309 Y25.0505
G01 X22.1141 Y24.9750
G01 X22.1204 Y24.9699
G01 X22.2086 Y24.9047
G01 X22.3073 Y24.8455
G01 X22.4113 Y24.7964
G01 X22.5196 Y24.7576
G01 X22.6313 Y24.7296
G01 X22.7451 Y24.7127
G01 X22.8600 Y24.7071
G01 X22.9749 Y24.7127
G01 X23.0887 Y24.7296
G01 X23.2004 Y24.7576
G01 X23.3087 Y24.7964
G01 X23.4127 Y24.8455
G01 X23.5114 Y24.9047
G01 X23.6038 Y24.9732
G01 X23.6891 Y25.0505
G01 X23.7646 Y25.1337
G01 X23.7697 Y25.1400
G01 X23.8349 Y25.2282
G01 X23.8914 Y25.3222
G01 X23.8965 Y25.3317
G01 X23.9411 Y25.4260
G01 X23.9452 Y25.4359
G01 X23.9820 Y25.5392
G01 X24.0100 Y25.6509
G01 X24.0269 Y25.7647
G01 X24.0325 Y25.8796
G01 X24.0269 Y25.9945
G01 X24.0100 Y26.1083
G01 X23.9820 Y26.2200
G01 X23.9443 Y26.3258
G01 X23.9411 Y26.3332
G01 X23.8941 Y26.4323
G01 X23.8364 Y26.5287
G01 X23.8318 Y26.5354
G01 X23.7680 Y26.6213
G01 X23.7628 Y26.6275
G01 X23.7324 Y26.6611
G01 X23.7324 Y30.4802
G01 X32.0644 Y38.8122
G01 X38.6326 Y38.8122
G01 X38.6326 Y36.9881
G01 X38.6022 Y36.9545
G01 X38.5970 Y36.9483
G01 X38.5332 Y36.8624
G01 X38.5286 Y36.8557
G01 X38.4709 Y36.7593
G01 X38.4239 Y36.6602
G01 X38.4207 Y36.6528
G01 X38.3830 Y36.5470
G01 X38.3550 Y36.4353
G01 X38.3381 Y36.3215
G01 X38.3325 Y36.2093
G01 X38.3326 Y36.2012
G01 X38.3381 Y36.0917
G01 X38.3541 Y35.9832
G01 X38.3562 Y35.9726
G01 X38.3815 Y35.8714
G01 X38.3847 Y35.8611
G01 X38.4218 Y35.7579
G01 X38.4709 Y35.6539
G01 X38.5301 Y35.5552
G01 X38.5892 Y35.4753
G01 X38.5815 Y35.4822
G01 X38.5752 Y35.4873
G01 X38.5151 Y35.5318
G01 X38.5061 Y35.5378
G01 X38.4372 Y35.5790
G01 X38.3598 Y35.6156
G01 X38.2844 Y35.6427
G01 X38.2740 Y35.6459
G01 X38.1962 Y35.6652
G01 X38.1142 Y35.6775
G01 X38.1061 Y35.6782
G01 X38.0260 Y35.6820
G01 X36.3415 Y35.6820
G01 X36.3079 Y35.7124
G01 X36.3017 Y35.7176
G01 X36.2136 Y35.7830
G01 X36.2068 Y35.7874
G01 X36.1174 Y35.8410
G01 X36.1103 Y35.8449
G01 X36.0136 Y35.8907
G01 X36.0037 Y35.8948
G01 X35.9004 Y35.9316
G01 X35.7914 Y35.9590
G01 X35.7834 Y35.9605
G01 X35.6803 Y35.9758
G01 X35.6695 Y35.9769
G01 X35.5600 Y35.9821
G01 X35.4505 Y35.9769
G01 X35.4397 Y35.9758
G01 X35.3313 Y35.9596
G01 X35.2248 Y35.9331
G01 X35.2171 Y35.9308
G01 X35.1113 Y35.8928
G01 X35.0121 Y35.8461
G01 X35.0026 Y35.8410
G01 X34.9086 Y35.7845
G01 X34.8204 Y35.7193
G01 X34.8121 Y35.7124
G01 X34.7348 Y35.6424
G01 X34.7272 Y35.6348
G01 X34.6536 Y35.5534
G01 X34.5851 Y35.4610
G01 X34.5259 Y35.3623
G01 X34.4789 Y35.2632
G01 X34.4748 Y35.2533
G01 X34.4380 Y35.1500
G01 X34.4112 Y35.0436
G01 X34.4091 Y35.0330
G01 X34.3938 Y34.9299
G01 X34.3927 Y34.9191
G01 X34.3875 Y34.8096
G01 X34.3931 Y34.6947
G01 X34.4100 Y34.5809
G01 X34.4365 Y34.4744
G01 X34.4397 Y34.4641
G01 X34.4748 Y34.3659
G01 X34.4789 Y34.3560
G01 X34.5259 Y34.2569
G01 X34.5822 Y34.1628
G01 X34.5882 Y34.1538
G01 X34.6536 Y34.0658
G01 X34.7309 Y33.9805
G01 X34.8162 Y33.9032
G01 X34.9042 Y33.8378
G01 X34.9132 Y33.8318
G01 X35.0073 Y33.7755
G01 X35.1064 Y33.7285
G01 X35.1163 Y33.7244
G01 X35.2145 Y33.6893
G01 X35.2248 Y33.6861
G01 X35.3313 Y33.6596
G01 X35.4397 Y33.6434
G01 X35.4478 Y33.6425
G01 X35.5600 Y33.6371
G01 X35.6749 Y33.6427
G01 X35.7887 Y33.6596
G01 X35.8952 Y33.6861
G01 X35.9029 Y33.6884
G01 X36.0087 Y33.7264
G01 X36.1079 Y33.7731
G01 X36.1151 Y33.7768
G01 X36.2068 Y33.8318
G01 X36.2136 Y33.8362
G01 X36.3017 Y33.9016
G01 X36.3079 Y33.9068
G01 X36.3415 Y33.9372
G01 X37.6646 Y33.9372
G01 X38.0471 Y33.5548
G01 X38.1086 Y33.4992
G01 X38.1751 Y33.4498
G01 X38.1819 Y33.4454
G01 X38.2508 Y33.4042
G01 X38.3232 Y33.3698
G01 X38.3332 Y33.3657
G01 X38.4088 Y33.3388
G01 X38.4865 Y33.3192
G01 X38.4971 Y33.3171
G01 X38.5765 Y33.3054
G01 X38.6620 Y33.3012
G01 X41.2740 Y33.3012
G01 X41.3541 Y33.3050
G01 X41.3649 Y33.3061
G01 X41.4389 Y33.3171
G01 X41.4495 Y33.3192
G01 X41.5272 Y33.3388
G01 X41.6078 Y33.3676
G01 X41.6804 Y33.4018
G01 X41.6899 Y33.4069
G01 X41.7587 Y33.4482
G01 X41.8274 Y33.4992
G01 X41.8909 Y33.5567
G01 X50.4608 Y42.1267
G01 X50.4833 Y42.1211
G01 X50.4912 Y42.1196
G01 X50.6368 Y42.0980
G01 X50.6476 Y42.0970
G01 X50.8000 Y42.0896
G01 X50.9578 Y42.0974
G01 X51.1141 Y42.1205
G01 X51.2622 Y42.1575
G01 X51.2725 Y42.1606
G01 X51.4111 Y42.2102
G01 X51.4211 Y42.2143
G01 X51.5589 Y42.2797
G01 X51.6945 Y42.3609
G01 X51.8214 Y42.4551
G01 X51.9345 Y42.5574
G01 X51.9422 Y42.5651
G01 X52.0410 Y42.6741
G01 X52.0479 Y42.6825
G01 X52.1387 Y42.8051
G01 X52.2199 Y42.9407
G01 X52.2874 Y43.0835
G01 X52.3390 Y43.2271
G01 X52.3421 Y43.2374
G01 X52.3779 Y43.3802
G01 X52.3800 Y43.3908
G01 X52.4022 Y43.5418
G01 X52.4100 Y43.6996
G01 X52.4022 Y43.8574
G01 X52.3800 Y44.0084
G01 X52.3779 Y44.0190
G01 X52.3421 Y44.1618
G01 X52.3390 Y44.1721
G01 X52.2874 Y44.3157
G01 X52.2199 Y44.4585
G01 X52.1387 Y44.5941
G01 X52.0479 Y44.7167
G01 X52.0410 Y44.7251
G01 X51.9422 Y44.8341
G01 X51.9345 Y44.8418
G01 X51.8214 Y44.9441
G01 X51.6945 Y45.0383
G01 X51.5589 Y45.1195
G01 X51.4211 Y45.1849
G01 X51.4111 Y45.1890
G01 X51.2725 Y45.2386
G01 X51.2622 Y45.2417
G01 X51.1141 Y45.2787
G01 X50.9578 Y45.3018
G01 X50.8000 Y45.3096
G01 X50.6476 Y45.3022
G01 X50.6368 Y45.3012
G01 X50.4912 Y45.2796
G01 X50.4806 Y45.2775
G01 X50.3326 Y45.2403
G01 X50.1839 Y45.1870
G01 X50.0411 Y45.1195
G01 X49.9078 Y45.0397
G01 X49.9011 Y45.0352
G01 X49.7829 Y44.9475
G01 X49.7745 Y44.9406
G01 X49.6616 Y44.8380
G01 X49.5555 Y44.7210
G01 X49.4613 Y44.5941
G01 X49.3828 Y44.4632
G01 X49.3777 Y44.4537
G01 X49.3126 Y44.3157
G01 X49.2593 Y44.1670
G01 X49.2221 Y44.0190
G01 X49.2200 Y44.0084
G01 X49.1978 Y43.8574
G01 X49.1900 Y43.6996
G01 X49.1974 Y43.5472
G01 X49.1984 Y43.5364
G01 X49.2200 Y43.3908
G01 X49.2215 Y43.3829
G01 X49.2271 Y43.3604
G01 X40.9126 Y35.0460
G01 X39.6629 Y35.0460
G01 X39.7284 Y35.0557
G01 X39.7364 Y35.0572
G01 X39.8402 Y35.0831
G01 X39.8479 Y35.0854
G01 X39.9537 Y35.1234
G01 X40.0553 Y35.1713
G01 X40.0624 Y35.1752
G01 X40.1564 Y35.2317
G01 X40.2446 Y35.2969
G01 X40.2529 Y35.3038
G01 X40.3302 Y35.3738
G01 X40.3360 Y35.3794
G01 X40.4114 Y35.4628
G01 X40.4768 Y35.5508
G01 X40.4828 Y35.5598
G01 X40.5364 Y35.6492
G01 X40.5415 Y35.6587
G01 X40.5882 Y35.7579
G01 X40.6270 Y35.8662
G01 X40.6550 Y35.9779
G01 X40.6712 Y36.0863
G01 X40.6723 Y36.0971
G01 X40.6775 Y36.2066
G01 X40.6719 Y36.3215
G01 X40.6550 Y36.4353
G01 X40.6285 Y36.5418
G01 X40.6262 Y36.5495
G01 X40.5882 Y36.6553
G01 X40.5415 Y36.7545
G01 X40.5378 Y36.7617
G01 X40.4828 Y36.8534
G01 X40.4784 Y36.8602
G01 X40.4130 Y36.9483
G01 X40.4078 Y36.9545
G01 X40.3774 Y36.9881
G01 X40.3774 Y40.0822
G01 X50.9604 Y50.6652
G01 X64.4696 Y50.6652
G01 X65.4646 Y49.6702
G01 X65.4646 Y46.8980
G01 X63.8392 Y45.2725
G01 X63.8114 Y45.2792
G01 X63.6578 Y45.3018
G01 X63.5054 Y45.3095
G01 X63.4946 Y45.3095
G01 X63.3422 Y45.3018
G01 X63.1912 Y45.2796
G01 X63.1806 Y45.2775
G01 X63.0326 Y45.2403
G01 X62.8889 Y45.1890
G01 X62.8789 Y45.1849
G01 X62.7411 Y45.1195
G01 X62.6101 Y45.0412
G01 X62.6011 Y45.0352
G01 X62.4786 Y44.9441
G01 X62.3616 Y44.8380
G01 X62.2590 Y44.7251
G01 X62.2521 Y44.7167
G01 X62.1613 Y44.5941
G01 X62.0828 Y44.4632
G01 X62.0777 Y44.4537
G01 X62.0126 Y44.3157
G01 X61.9593 Y44.1670
G01 X61.9221 Y44.0190
G01 X61.9200 Y44.0084
G01 X61.8978 Y43.8574
G01 X61.8901 Y43.7050
G01 X61.8901 Y43.6942
G01 X61.8978 Y43.5418
G01 X61.9204 Y43.3882
G01 X61.9271 Y43.3604
G01 X59.0712 Y40.5045
G01 X59.0156 Y40.4430
G01 X58.9646 Y40.3743
G01 X58.9206 Y40.3008
G01 X58.8862 Y40.2284
G01 X58.8821 Y40.2184
G01 X58.8552 Y40.1428
G01 X58.8344 Y40.0598
G01 X58.8218 Y39.9751
G01 X58.8177 Y39.8923
G01 X58.8176 Y37.0464
G01 X58.7705 Y36.9942
G01 X58.7025 Y36.9027
G01 X58.6981 Y36.8959
G01 X58.6436 Y36.8050
G01 X58.6397 Y36.7979
G01 X58.5910 Y36.6948
G01 X58.5534 Y36.5900
G01 X58.5503 Y36.5797
G01 X58.5239 Y36.4743
G01 X58.5224 Y36.4663
G01 X58.5062 Y36.3562
G01 X58.5006 Y36.2450
G01 X58.5006 Y36.2342
G01 X58.5062 Y36.1230
G01 X58.5224 Y36.0129
G01 X58.5245 Y36.0023
G01 X58.5510 Y35.8969
G01 X58.5534 Y35.8892
G01 X58.5910 Y35.7844
G01 X58.6410 Y35.6789
G01 X58.7010 Y35.5787
G01 X58.7672 Y35.4892
G01 X58.7740 Y35.4809
G01 X58.8452 Y35.4024
G01 X58.8528 Y35.3948
G01 X58.9354 Y35.3201
G01 X59.0247 Y35.2537
G01 X59.0337 Y35.2477
G01 X59.1293 Y35.1906
G01 X59.2348 Y35.1406
G01 X59.3447 Y35.1013
G01 X59.4527 Y35.0741
G01 X59.4633 Y35.0720
G01 X59.5681 Y35.0565
G01 X59.5788 Y35.0554
G01 X59.6900 Y35.0501
G01 X59.8012 Y35.0554
G01 X59.8119 Y35.0565
G01 X59.9221 Y35.0730
G01 X60.0353 Y35.1013
G01 X60.1452 Y35.1406
G01 X60.2507 Y35.1906
G01 X60.3509 Y35.2506
G01 X60.4404 Y35.3168
G01 X60.4487 Y35.3236
G01 X60.5311 Y35.3985
G01 X60.6060 Y35.4809
G01 X60.6128 Y35.4892
G01 X60.6790 Y35.5787
G01 X60.7364 Y35.6742
G01 X60.7415 Y35.6837
G01 X60.7890 Y35.7844
G01 X60.8266 Y35.8892
G01 X60.8297 Y35.8995
G01 X60.8566 Y36.0075
G01 X60.8731 Y36.1177
G01 X60.8740 Y36.1257
G01 X60.8795 Y36.2396
G01 X60.8738 Y36.3562
G01 X60.8566 Y36.4717
G01 X60.8297 Y36.5797
G01 X60.8275 Y36.5875
G01 X60.7890 Y36.6948
G01 X60.7415 Y36.7955
G01 X60.7377 Y36.8027
G01 X60.6819 Y36.8959
G01 X60.6775 Y36.9027
G01 X60.6095 Y36.9942
G01 X60.5624 Y37.0464
G01 X60.5624 Y39.5282
G01 X63.1608 Y42.1267
G01 X63.1886 Y42.1200
G01 X63.3422 Y42.0974
G01 X63.4946 Y42.0897
G01 X63.5054 Y42.0897
G01 X63.6578 Y42.0974
G01 X63.8088 Y42.1196
G01 X63.8194 Y42.1217
G01 X63.9674 Y42.1589
G01 X64.1161 Y42.2122
G01 X64.2541 Y42.2773
G01 X64.2636 Y42.2824
G01 X64.3945 Y42.3609
G01 X64.5171 Y42.4517
G01 X64.5255 Y42.4586
G01 X64.6384 Y42.5612
G01 X64.7410 Y42.6741
G01 X64.7479 Y42.6825
G01 X64.8387 Y42.8051
G01 X64.9172 Y42.9360
G01 X64.9223 Y42.9455
G01 X64.9874 Y43.0835
G01 X65.0407 Y43.2322
G01 X65.0779 Y43.3802
G01 X65.0800 Y43.3908
G01 X65.1022 Y43.5418
G01 X65.1099 Y43.6942
G01 X65.1099 Y43.7050
G01 X65.1022 Y43.8574
G01 X65.0796 Y44.0110
G01 X65.0729 Y44.0388
G01 X66.9558 Y45.9217
G01 X67.0114 Y45.9832
G01 X67.0624 Y46.0519
G01 X67.1064 Y46.1254
G01 X67.1419 Y46.2003
G01 X67.1449 Y46.2078
G01 X67.1718 Y46.2834
G01 X67.1926 Y46.3664
G01 X67.2052 Y46.4511
G01 X67.2093 Y46.5339
G01 X67.2094 Y50.0316
G01 X67.2052 Y50.1171
G01 X67.1935 Y50.1965
G01 X67.1914 Y50.2071
G01 X67.1718 Y50.2848
G01 X67.1449 Y50.3604
G01 X67.1408 Y50.3704
G01 X67.1064 Y50.4428
G01 X67.0652 Y50.5117
G01 X67.0592 Y50.5207
G01 X67.0114 Y50.5850
G01 X66.9558 Y50.6465
G01 X65.4479 Y52.1545
G01 X65.3885 Y52.2084
G01 X65.3802 Y52.2153
G01 X65.3201 Y52.2598
G01 X65.3111 Y52.2658
G01 X65.2422 Y52.3070
G01 X65.1648 Y52.3436
G01 X65.0894 Y52.3707
G01 X65.0790 Y52.3739
G01 X65.0012 Y52.3932
G01 X64.9165 Y52.4058
G01 X64.8310 Y52.4100
G01 X50.5990 Y52.4100
G01 X50.5135 Y52.4058
G01 X50.4341 Y52.3941
G01 X50.4235 Y52.3920
G01 X50.3458 Y52.3724
G01 X50.2702 Y52.3455
G01 X50.2602 Y52.3414
G01 X50.1878 Y52.3070
G01 X50.1143 Y52.2630
G01 X50.0498 Y52.2153
G01 X50.0415 Y52.2084
G01 X49.9821 Y52.1545
G01 X38.8881 Y41.0605
G01 X38.8306 Y40.9970
G01 X38.7828 Y40.9327
G01 X38.7768 Y40.9237
G01 X38.7383 Y40.8595
G01 X38.7344 Y40.8524
G01 X38.6990 Y40.7774
G01 X38.6702 Y40.6968
G01 X38.6494 Y40.6138
G01 X38.6408 Y40.5570
G01 X31.7003 Y40.5569
G01 X31.6175 Y40.5528
G01 X31.5328 Y40.5402
G01 X31.4498 Y40.5194
G01 X31.3692 Y40.4906
G01 X31.2918 Y40.4540
G01 X31.2183 Y40.4100
G01 X31.1496 Y40.3590
G01 X31.0900 Y40.3052
G01 X22.2431 Y31.4585
G01 X22.1856 Y31.3950
G01 X22.1346 Y31.3263
G01 X22.0919 Y31.2552
G01 X22.0713 Y31.2124
G01 X22.0530 Y31.1729
G01 X22.0252 Y31.0948
G01 X22.0056 Y31.0171
G01 X22.0035 Y31.0065
G01 X21.9918 Y30.9271
G01 X21.9877 Y30.8443
G01 X21.9876 Y26.6611
G00 Z2.0000
G00 X22.0476 Y26.6380
G01 F60.00
G01 Z-0.0000
G01 F120.00
G01 X22.0000 Y26.5854
G01 X21.9343 Y26.4966
G01 X21.8789 Y26.4040
G01 X21.8317 Y26.3042
G01 X21.7954 Y26.2025
G01 X21.7689 Y26.0966
G01 X21.7529 Y25.9886
G01 X21.7475 Y25.8784
G01 X21.7529 Y25.7706
G01 X21.7689 Y25.6626
G01 X21.7954 Y25.5567
G01 X21.8322 Y25.4539
G01 X21.8789 Y25.3552
G01 X21.9350 Y25.2615
G01 X22.0000 Y25.1738
G01 X22.0742 Y25.0921
G01 X22.1542 Y25.0196
G01 X22.2419 Y24.9546
G01 X22.3356 Y24.8985
G01 X22.4343 Y24.8518
G01 X22.5371 Y24.8150
G01 X22.6430 Y24.7885
G01 X22.7510 Y24.7725
G01 X22.8600 Y24.7671
G01 X22.9690 Y24.7725
G01 X23.0770 Y24.7885
G01 X23.1829 Y24.8150
G01 X23.2857 Y24.8518
G01 X23.3844 Y24.8985
G01 X23.4781 Y24.9546
G01 X23.5658 Y25.0196
G01 X23.6475 Y25.0938
G01 X23.7200 Y25.1738
G01 X23.7850 Y25.2615
G01 X23.8411 Y25.3552
G01 X23.8878 Y25.4539
G01 X23.9246 Y25.5567
G01 X23.9511 Y25.6626
G01 X23.9671 Y25.7706
G01 X23.9725 Y25.8796
G01 X23.9671 Y25.9886
G01 X23.9511 Y26.0966
G01 X23.9246 Y26.2025
G01 X23.8883 Y26.3042
G01 X23.8411 Y26.4040
G01 X23.7857 Y26.4966
G01 X23.7200 Y26.5854
G01 X23.6724 Y26.6380
G01 X23.6724 Y30.5051
G01 X32.0395 Y38.8722
G01 X38.6926 Y38.8722
G01 X38.6926 Y36.9650
G01 X38.6450 Y36.9124
G01 X38.5807 Y36.8257
G01 X38.5233 Y36.7299
G01 X38.4772 Y36.6323
G01 X38.4412 Y36.5319
G01 X38.4137 Y36.4224
G01 X38.3979 Y36.3156
G01 X38.3926 Y36.2091
G01 X38.3979 Y36.0976
G01 X38.4139 Y35.9896
G01 X38.4397 Y35.8860
G01 X38.4777 Y35.7797
G01 X38.5251 Y35.6800
G01 X38.5800 Y35.5885
G01 X38.6435 Y35.5028
G01 X38.7183 Y35.4199
G01 X38.7992 Y35.3466
G01 X38.8869 Y35.2816
G01 X38.9828 Y35.2244
G01 X39.0816 Y35.1779
G01 X39.1821 Y35.1420
G01 X39.2856 Y35.1160
G01 X39.3960 Y35.0995
G01 X39.5050 Y35.0941
G01 X39.6140 Y35.0995
G01 X39.7244 Y35.1160
G01 X39.8303 Y35.1428
G01 X39.9307 Y35.1788
G01 X40.0272 Y35.2244
G01 X40.1231 Y35.2816
G01 X40.2108 Y35.3466
G01 X40.2917 Y35.4199
G01 X40.3650 Y35.5008
G01 X40.4300 Y35.5885
G01 X40.4872 Y35.6844
G01 X40.5328 Y35.7809
G01 X40.5688 Y35.8813
G01 X40.5956 Y35.9872
G01 X40.6121 Y36.0976
G01 X40.6175 Y36.2054
G01 X40.6121 Y36.3156
G01 X40.5961 Y36.4236
G01 X40.5696 Y36.5295
G01 X40.5333 Y36.6312
G01 X40.4861 Y36.7310
G01 X40.4307 Y36.8236
G01 X40.3650 Y36.9124
G01 X40.3174 Y36.9650
G01 X40.3174 Y40.1071
G01 X50.9355 Y50.7252
G01 X64.4945 Y50.7252
G01 X65.5246 Y49.6951
G01 X65.5246 Y46.8731
G01 X63.8576 Y45.2061
G01 X63.8012 Y45.2200
G01 X63.6531 Y45.2420
G01 X63.4988 Y45.2496
G01 X63.3456 Y45.2418
G01 X63.1976 Y45.2198
G01 X63.0512 Y45.1832
G01 X62.9068 Y45.1316
G01 X62.7672 Y45.0654
G01 X62.6389 Y44.9884
G01 X62.5186 Y44.8993
G01 X62.4040 Y44.7956
G01 X62.3003 Y44.6810
G01 X62.2112 Y44.5607
G01 X62.1342 Y44.4324
G01 X62.0680 Y44.2928
G01 X62.0164 Y44.1484
G01 X61.9798 Y44.0020
G01 X61.9578 Y43.8540
G01 X61.9500 Y43.7008
G01 X61.9576 Y43.5465
G01 X61.9796 Y43.3984
G01 X61.9935 Y43.3420
G01 X59.1147 Y40.4632
G01 X59.0620 Y40.4050
G01 X59.0145 Y40.3409
G01 X58.9735 Y40.2726
G01 X58.9386 Y40.1982
G01 X58.9126 Y40.1254
G01 X58.8932 Y40.0481
G01 X58.8815 Y39.9692
G01 X58.8776 Y39.8908
G01 X58.8776 Y37.0232
G01 X58.8169 Y36.9561
G01 X58.7523 Y36.8691
G01 X58.6939 Y36.7720
G01 X58.6456 Y36.6696
G01 X58.6091 Y36.5675
G01 X58.5827 Y36.4623
G01 X58.5659 Y36.3503
G01 X58.5606 Y36.2371
G01 X58.5662 Y36.1265
G01 X58.5822 Y36.0192
G01 X58.6085 Y35.9141
G01 X58.6465 Y35.8074
G01 X58.6939 Y35.7072
G01 X58.7509 Y35.6121
G01 X58.8185 Y35.5212
G01 X58.8931 Y35.4392
G01 X58.9735 Y35.3665
G01 X59.0605 Y35.3019
G01 X59.1576 Y35.2435
G01 X59.2578 Y35.1961
G01 X59.3621 Y35.1587
G01 X59.4721 Y35.1314
G01 X59.5817 Y35.1154
G01 X59.6900 Y35.1101
G01 X59.7983 Y35.1154
G01 X59.9104 Y35.1318
G01 X60.0179 Y35.1587
G01 X60.1222 Y35.1961
G01 X60.2224 Y35.2435
G01 X60.3175 Y35.3005
G01 X60.4084 Y35.3681
G01 X60.4887 Y35.4409
G01 X60.5615 Y35.5212
G01 X60.6291 Y35.6121
G01 X60.6872 Y35.7093
G01 X60.7335 Y35.8074
G01 X60.7701 Y35.9094
G01 X60.7978 Y36.0192
G01 X60.8142 Y36.1301
G01 X60.8195 Y36.2396
G01 X60.8141 Y36.3503
G01 X60.7978 Y36.4600
G01 X60.7701 Y36.5698
G01 X60.7335 Y36.6718
G01 X60.6849 Y36.7742
G01 X60.6277 Y36.8691
G01 X60.5631 Y36.9561
G01 X60.5024 Y37.0232
G01 X60.5024 Y39.5531
G01 X63.1424 Y42.1931
G01 X63.1988 Y42.1792
G01 X63.3469 Y42.1572
G01 X63.5012 Y42.1496
G01 X63.6544 Y42.1574
G01 X63.8024 Y42.1794
G01 X63.9488 Y42.2160
G01 X64.0932 Y42.2676
G01 X64.2328 Y42.3338
G01 X64.3611 Y42.4108
G01 X64.4814 Y42.4999
G01 X64.5960 Y42.6036
G01 X64.6997 Y42.7182
G01 X64.7888 Y42.8385
G01 X64.8658 Y42.9668
G01 X64.9320 Y43.1064
G01 X64.9836 Y43.2508
G01 X65.0202 Y43.3972
G01 X65.0422 Y43.5452
G01 X65.0500 Y43.6984
G01 X65.0424 Y43.8527
G01 X65.0204 Y44.0008
G01 X65.0065 Y44.0572
G01 X66.9123 Y45.9630
G01 X66.9650 Y46.0212
G01 X67.0125 Y46.0853
G01 X67.0535 Y46.1536
G01 X67.0871 Y46.2246
G01 X67.1144 Y46.3008
G01 X67.1338 Y46.3781
G01 X67.1455 Y46.4570
G01 X67.1494 Y46.5354
G01 X67.1494 Y50.0316
G01 X67.1455 Y50.1112
G01 X67.1332 Y50.1925
G01 X67.1144 Y50.2674
G01 X67.0884 Y50.3402
G01 X67.0535 Y50.4146
G01 X67.0111 Y50.4849
G01 X66.9650 Y50.5470
G01 X66.9123 Y50.6052
G01 X65.4054 Y52.1120
G01 X65.3482 Y52.1640
G01 X65.2803 Y52.2144
G01 X65.2140 Y52.2541
G01 X65.1419 Y52.2881
G01 X65.0645 Y52.3157
G01 X64.9895 Y52.3344
G01 X64.9106 Y52.3461
G01 X64.8310 Y52.3500
G01 X50.5990 Y52.3500
G01 X50.5194 Y52.3461
G01 X50.4381 Y52.3338
G01 X50.3632 Y52.3150
G01 X50.2904 Y52.2890
G01 X50.2160 Y52.2541
G01 X50.1477 Y52.2131
G01 X50.0856 Y52.1671
G01 X50.0246 Y52.1120
G01 X38.9306 Y41.0180
G01 X38.8770 Y40.9590
G01 X38.8295 Y40.8949
G01 X38.7885 Y40.8266
G01 X38.7549 Y40.7556
G01 X38.7276 Y40.6794
G01 X38.7085 Y40.6033
G01 X38.6967 Y40.5244
G01 X38.6952 Y40.4970
G01 X31.7018 Y40.4970
G01 X31.6234 Y40.4931
G01 X31.5445 Y40.4814
G01 X31.4672 Y40.4620
G01 X31.3921 Y40.4351
G01 X31.3200 Y40.4011
G01 X31.2517 Y40.3601
G01 X31.1876 Y40.3126
G01 X31.1303 Y40.2607
G01 X22.2856 Y31.4160
G01 X22.2320 Y31.3570
G01 X22.1845 Y31.2929
G01 X22.1441 Y31.2256
G01 X22.1256 Y31.1867
G01 X22.1090 Y31.1513
G01 X22.0826 Y31.0774
G01 X22.0628 Y30.9977
G01 X22.0515 Y30.9212
G01 X22.0476 Y30.8428
G01 X22.0476 Y26.6380
G00 Z2.0000
G00 X23.9724 Y23.3771
G01 F60.00
G01 Z-0.0000
G01 F120.00
G01 X23.9671 Y23.4886
G01 X23.9511 Y23.5966
G01 X23.9246 Y23.7025
G01 X23.8878 Y23.8053
G01 X23.8411 Y23.9040
G01 X23.7850 Y23.9977
G01 X23.7200 Y24.0854
G01 X23.6467 Y24.1663
G01 X23.5658 Y24.2396
G01 X23.4781 Y24.3046
G01 X23.3844 Y24.3607
G01 X23.2857 Y24.4074
G01 X23.1829 Y24.4442
G01 X23.0770 Y24.4707
G01 X22.9690 Y24.4867
G01 X22.8600 Y24.4921
G01 X22.7510 Y24.4867
G01 X22.6430 Y24.4707
G01 X22.5371 Y24.4442
G01 X22.4343 Y24.4074
G01 X22.3356 Y24.3607
G01 X22.2419 Y24.3046
G01 X22.1542 Y24.2396
G01 X22.0733 Y24.1663
G01 X22.0000 Y24.0854
G01 X21.9350 Y23.9977
G01 X21.8789 Y23.9040
G01 X21.8322 Y23.8053
G01 X21.7954 Y23.7025
G01 X21.7689 Y23.5966
G01 X21.7529 Y23.4886
G01 X21.7475 Y23.3796
G01 X21.7529 Y23.2706
G01 X21.7689 Y23.1626
G01 X21.7954 Y23.0567
G01 X21.8322 Y22.9539
G01 X21.8789 Y22.8552
G01 X21.9350 Y22.7615
G01 X22.0000 Y22.6738
G01 X22.0733 Y22.5929
G01 X22.1542 Y22.5196
G01 X22.2419 Y22.4546
G01 X22.3356 Y22.3985
G01 X22.4343 Y22.3518
G01 X22.5371 Y22.3150
G01 X22.6430 Y22.2885
G01 X22.7510 Y22.2725
G01 X22.8600 Y22.2671
G01 X22.9690 Y22.2725
G01 X23.0770 Y22.2885
G01 X23.1829 Y22.3150
G01 X23.2857 Y22.3518
G01 X23.3844 Y22.3985
G01 X23.4781 Y22.4546
G01 X23.5658 Y22.5196
G01 X23.6467 Y22.5929
G01 X23.7200 Y22.6738
G01 X23.7850 Y22.7615
G01 X23.8411 Y22.8552
G01 X23.8878 Y22.9539
G01 X23.9246 Y23.0567
G01 X23.9511 Y23.1626
G01 X23.9671 Y23.2706
G01 X23.9724 Y23.3771
G00 Z2.0000
G00 X24.0324 Y23.3742
G01 F60.00
G01 Z-0.0000
G01 F120.00
G01 X24.0324 Y23.3850
G01 X24.0269 Y23.4945
G01 X24.0100 Y23.6083
G01 X23.9820 Y23.7200
G01 X23.9432 Y23.8283
G01 X23.8941 Y23.9323
G01 X23.8349 Y24.0310
G01 X23.7664 Y24.1234
G01 X23.6891 Y24.2087
G01 X23.6038 Y24.2860
G01 X23.5114 Y24.3545
G01 X23.4127 Y24.4137
G01 X23.3087 Y24.4628
G01 X23.2004 Y24.5016
G01 X23.0887 Y24.5296
G01 X22.9749 Y24.5465
G01 X22.8600 Y24.5521
G01 X22.7451 Y24.5465
G01 X22.6313 Y24.5296
G01 X22.5196 Y24.5016
G01 X22.4113 Y24.4628
G01 X22.3073 Y24.4137
G01 X22.2086 Y24.3545
G01 X22.1162 Y24.2860
G01 X22.0309 Y24.2087
G01 X21.9536 Y24.1234
G01 X21.8851 Y24.0310
G01 X21.8259 Y23.9323
G01 X21.7768 Y23.8283
G01 X21.7380 Y23.7200
G01 X21.7100 Y23.6083
G01 X21.6931 Y23.4945
G01 X21.6875 Y23.3796
G01 X21.6931 Y23.2647
G01 X21.7100 Y23.1509
G01 X21.7380 Y23.0392
G01 X21.7768 Y22.9309
G01 X21.8259 Y22.8269
G01 X21.8851 Y22.7282
G01 X21.9536 Y22.6358
G01 X22.0309 Y22.5505
G01 X22.1162 Y22.4732
G01 X22.2086 Y22.4047
G01 X22.3073 Y22.3455
G01 X22.4113 Y22.2964
G01 X22.5196 Y22.2576
G01 X22.6313 Y22.2296
G01 X22.7451 Y22.2127
G01 X22.8600 Y22.2071
G01 X22.9749 Y22.2127
G01 X23.0887 Y22.2296
G01 X23.2004 Y22.2576
G01 X23.3087 Y22.2964
G01 X23.4127 Y22.3455
G01 X23.5114 Y22.4047
G01 X23.6038 Y22.4732
G01 X23.6891 Y22.5505
G01 X23.7664 Y22.6358
G01 X23.8349 Y22.7282
G01 X23.8941 Y22.8269
G01 X23.9432 Y22.9309
G01 X23.9820 Y23.0392
G01 X24.0100 Y23.1509
G01 X24.0269 Y23.2647
G01 X24.0324 Y23.3742
G00 Z2.0000
G00 X24.0923 Y23.3713
G01 F60.00
G01 Z-0.0000
G01 F120.00
G01 X24.0923 Y23.3879
G01 X24.0866 Y23.5004
G01 X24.0688 Y23.6200
G01 X24.0394 Y23.7374
G01 X23.9987 Y23.8513
G01 X23.9470 Y23.9606
G01 X23.8848 Y24.0643
G01 X23.8127 Y24.1615
G01 X23.7315 Y24.2511
G01 X23.6419 Y24.3323
G01 X23.5447 Y24.4044
G01 X23.4410 Y24.4666
G01 X23.3317 Y24.5183
G01 X23.2178 Y24.5590
G01 X23.1004 Y24.5884
G01 X22.9808 Y24.6062
G01 X22.8600 Y24.6121
G01 X22.7392 Y24.6062
G01 X22.6196 Y24.5884
G01 X22.5022 Y24.5590
G01 X22.3883 Y24.5183
G01 X22.2790 Y24.4666
G01 X22.1753 Y24.4044
G01 X22.0781 Y24.3323
G01 X21.9885 Y24.2511
G01 X21.9073 Y24.1615
G01 X21.8352 Y24.0643
G01 X21.7730 Y23.9606
G01 X21.7213 Y23.8513
G01 X21.6806 Y23.7374
G01 X21.6512 Y23.6200
G01 X21.6334 Y23.5004
G01 X21.6275 Y23.3796
G01 X21.6334 Y23.2588
G01 X21.6512 Y23.1392
G01 X21.6806 Y23.0218
G01 X21.7213 Y22.9079
G01 X21.7730 Y22.7986
G01 X21.8352 Y22.6949
G01 X21.9073 Y22.5977
G01 X21.9885 Y22.5081
G01 X22.0781 Y22.4269
G01 X22.1753 Y22.3548
G01 X22.2790 Y22.2926
G01 X22.3883 Y22.2409
G01 X22.5022 Y22.2002
G01 X22.6196 Y22.1708
G01 X22.7392 Y22.1530
G01 X22.8600 Y22.1471
G01 X22.9808 Y22.1530
G01 X23.1004 Y22.1708
G01 X23.2178 Y22.2002
G01 X23.3317 Y22.2409
G01 X23.4410 Y22.2926
G01 X23.5447 Y22.3548
G01 X23.6419 Y22.4269
G01 X23.7315 Y22.5081
G01 X23.8127 Y22.5977
G01 X23.8848 Y22.6949
G01 X23.9470 Y22.7986
G01 X23.9987 Y22.9079
G01 X24.0394 Y23.0218
G01 X24.0688 Y23.1392
G01 X24.0866 Y23.2588
G01 X24.0923 Y23.3713
G00 Z2.0000
G00 X29.3896 Y23.8426
G01 F60.00
G01 Z-0.0000
G01 F120.00
G01 X29.3941 Y23.7512
G01 X29.4075 Y23.6607
G01 X29.4298 Y23.5719
G01 X29.4576 Y23.4936
G01 X29.4640 Y23.4782
G01 X29.4960 Y23.4105
G01 X29.5038 Y23.3958
G01 X29.5468 Y23.3246
G01 X29.5961 Y23.2577
G01 X29.6039 Y23.2479
G01 X29.6627 Y23.1833
G01 X31.3987 Y21.4474
G01 X31.4635 Y21.3889
G01 X31.5302 Y21.3392
G01 X31.5440 Y21.3299
G01 X31.6082 Y21.2914
G01 X31.6192 Y21.2854
G01 X31.6982 Y21.2482
G01 X31.7764 Y21.2200
G01 X31.7924 Y21.2151
G01 X31.8650 Y21.1970
G01 X31.8772 Y21.1944
G01 X31.9553 Y21.1827
G01 X31.9719 Y21.1811
G01 X32.0508 Y21.1773
G01 X32.2153 Y21.1772
G01 X32.2349 Y21.1596
G01 X32.2414 Y21.1543
G01 X32.3318 Y21.0872
G01 X32.3423 Y21.0803
G01 X32.4353 Y21.0246
G01 X32.4465 Y21.0189
G01 X32.5483 Y20.9709
G01 X32.6543 Y20.9328
G01 X32.6662 Y20.9290
G01 X32.7796 Y20.9008
G01 X32.8992 Y20.8830
G01 X33.0200 Y20.8771
G01 X33.1408 Y20.8830
G01 X33.2522 Y20.8994
G01 X33.2686 Y20.9026
G01 X33.3778 Y20.9302
G01 X33.4839 Y20.9679
G01 X33.4993 Y20.9743
G01 X33.6010 Y21.0226
G01 X33.7047 Y21.0848
G01 X33.7953 Y21.1517
G01 X33.8082 Y21.1623
G01 X33.8915 Y21.2381
G01 X33.9673 Y21.3214
G01 X33.9779 Y21.3343
G01 X34.0448 Y21.4249
G01 X34.1029 Y21.5213
G01 X34.1089 Y21.5323
G01 X34.1587 Y21.6379
G01 X34.1968 Y21.7439
G01 X34.2017 Y21.7599
G01 X34.2270 Y21.8610
G01 X34.2302 Y21.8774
G01 X34.2466 Y21.9888
G01 X34.2525 Y22.1096
G01 X34.2466 Y22.2304
G01 X34.2302 Y22.3418
G01 X34.2270 Y22.3582
G01 X34.2017 Y22.4593
G01 X34.1968 Y22.4753
G01 X34.1587 Y22.5813
G01 X34.1070 Y22.6906
G01 X34.0448 Y22.7943
G01 X33.9779 Y22.8849
G01 X33.9673 Y22.8978
G01 X33.8973 Y22.9751
G01 X33.8885 Y22.9840
G01 X33.8019 Y23.0623
G01 X33.7047 Y23.1344
G01 X33.6010 Y23.1966
G01 X33.4993 Y23.2449
G01 X33.4839 Y23.2513
G01 X33.3857 Y23.2864
G01 X33.3697 Y23.2913
G01 X33.2604 Y23.3184
G01 X33.1408 Y23.3362
G01 X33.0200 Y23.3421
G01 X32.9075 Y23.3368
G01 X32.8909 Y23.3351
G01 X32.7878 Y23.3198
G01 X32.7714 Y23.3166
G01 X32.6622 Y23.2890
G01 X32.5483 Y23.2483
G01 X32.4390 Y23.1966
G01 X32.3436 Y23.1396
G01 X31.2544 Y24.2288
G01 X31.2544 Y30.3514
G01 X32.2284 Y31.3254
G01 X32.2381 Y31.3169
G01 X32.2447 Y31.3117
G01 X32.3353 Y31.2448
G01 X32.4390 Y31.1826
G01 X32.5483 Y31.1309
G01 X32.6622 Y31.0902
G01 X32.7796 Y31.0608
G01 X32.8992 Y31.0430
G01 X33.0200 Y31.0371
G01 X33.1325 Y31.0424
G01 X33.1491 Y31.0441
G01 X33.2604 Y31.0608
G01 X33.3697 Y31.0879
G01 X33.3857 Y31.0928
G01 X33.4917 Y31.1309
G01 X33.5935 Y31.1789
G01 X33.6083 Y31.1867
G01 X33.6977 Y31.2403
G01 X33.7116 Y31.2496
G01 X33.8019 Y31.3169
G01 X33.8915 Y31.3981
G01 X33.9727 Y31.4877
G01 X34.0400 Y31.5780
G01 X34.0493 Y31.5919
G01 X34.1070 Y31.6886
G01 X34.1587 Y31.7979
G01 X34.1994 Y31.9118
G01 X34.2270 Y32.0210
G01 X34.2302 Y32.0374
G01 X34.2466 Y32.1488
G01 X34.2523 Y32.2613
G01 X34.2523 Y32.2779
G01 X34.2472 Y32.3821
G01 X34.2455 Y32.3987
G01 X34.2288 Y32.5100
G01 X34.1994 Y32.6274
G01 X34.1587 Y32.7413
G01 X34.1070 Y32.8506
G01 X34.0448 Y32.9543
G01 X33.9779 Y33.0449
G01 X33.9673 Y33.0578
G01 X33.8915 Y33.1411
G01 X33.8082 Y33.2169
G01 X33.7953 Y33.2275
G01 X33.7116 Y33.2896
G01 X33.6977 Y33.2989
G01 X33.6010 Y33.3566
G01 X33.4955 Y33.4066
G01 X33.4839 Y33.4113
G01 X33.3857 Y33.4464
G01 X33.3697 Y33.4513
G01 X33.2604 Y33.4784
G01 X33.1408 Y33.4962
G01 X33.0283 Y33.5019
G01 X33.0117 Y33.5019
G01 X32.8992 Y33.4962
G01 X32.7878 Y33.4798
G01 X32.7714 Y33.4766
G01 X32.6703 Y33.4513
G01 X32.6543 Y33.4464
G01 X32.5483 Y33.4083
G01 X32.4465 Y33.3603
G01 X32.4317 Y33.3525
G01 X32.3353 Y33.2944
G01 X32.2414 Y33.2249
G01 X32.2349 Y33.2196
G01 X32.2153 Y33.2020
G01 X31.8540 Y33.2020
G01 X31.7709 Y33.1981
G01 X31.7543 Y33.1965
G01 X31.6721 Y33.1841
G01 X31.5833 Y33.1618
G01 X31.4972 Y33.1310
G01 X31.4219 Y33.0956
G01 X31.4108 Y33.0899
G01 X31.3360 Y33.0448
G01 X31.2691 Y32.9955
G01 X31.2562 Y32.9849
G01 X31.1977 Y32.9318
G01 X29.6627 Y31.3969
G01 X29.6013 Y31.3291
G01 X29.5468 Y31.2556
G01 X29.4997 Y31.1771
G01 X29.4622 Y31.0982
G01 X29.4576 Y31.0866
G01 X29.4298 Y31.0083
G01 X29.4075 Y30.9195
G01 X29.3941 Y30.8290
G01 X29.3896 Y30.7376
G01 X29.3896 Y23.8426
G00 Z2.0000
G00 X29.4496 Y23.8426
G01 F60.00
G01 Z-0.0000
G01 F120.00
G01 X29.4538 Y23.7571
G01 X29.4664 Y23.6724
G01 X29.4872 Y23.5894
G01 X29.5141 Y23.5138
G01 X29.5182 Y23.5038
G01 X29.5502 Y23.4362
G01 X29.5553 Y23.4267
G01 X29.5966 Y23.3579
G01 X29.6443 Y23.2934
G01 X29.6494 Y23.2871
G01 X29.7051 Y23.2257
G01 X31.4401 Y21.4908
G01 X31.5016 Y21.4352
G01 X31.5659 Y21.3874
G01 X31.5749 Y21.3814
G01 X31.6391 Y21.3429
G01 X31.6462 Y21.3390
G01 X31.7212 Y21.3036
G01 X31.7966 Y21.2765
G01 X31.8070 Y21.2733
G01 X31.8795 Y21.2552
G01 X31.8875 Y21.2535
G01 X31.9695 Y21.2414
G01 X32.0496 Y21.2374
G01 X32.2385 Y21.2372
G01 X32.2721 Y21.2068
G01 X32.2783 Y21.2016
G01 X32.3664 Y21.1362
G01 X32.3732 Y21.1318
G01 X32.4649 Y21.0768
G01 X32.4721 Y21.0731
G01 X32.5713 Y21.0264
G01 X32.6745 Y20.9893
G01 X32.6822 Y20.9868
G01 X32.7913 Y20.9596
G01 X32.9051 Y20.9427
G01 X33.0200 Y20.9371
G01 X33.1349 Y20.9427
G01 X33.2434 Y20.9587
G01 X33.2540 Y20.9608
G01 X33.3604 Y20.9876
G01 X33.4637 Y21.0244
G01 X33.4736 Y21.0285
G01 X33.5727 Y21.0755
G01 X33.6714 Y21.1347
G01 X33.7596 Y21.1999
G01 X33.7679 Y21.2068
G01 X33.8491 Y21.2805
G01 X33.9228 Y21.3617
G01 X33.9297 Y21.3700
G01 X33.9949 Y21.4582
G01 X34.0514 Y21.5522
G01 X34.0553 Y21.5593
G01 X34.1032 Y21.6609
G01 X34.1403 Y21.7641
G01 X34.1435 Y21.7744
G01 X34.1688 Y21.8756
G01 X34.1709 Y21.8862
G01 X34.1869 Y21.9947
G01 X34.1925 Y22.1096
G01 X34.1869 Y22.2245
G01 X34.1709 Y22.3330
G01 X34.1688 Y22.3436
G01 X34.1435 Y22.4448
G01 X34.1403 Y22.4551
G01 X34.1032 Y22.5583
G01 X34.0541 Y22.6623
G01 X33.9949 Y22.7610
G01 X33.9297 Y22.8492
G01 X33.9228 Y22.8575
G01 X33.8528 Y22.9348
G01 X33.8452 Y22.9424
G01 X33.7638 Y23.0160
G01 X33.6714 Y23.0845
G01 X33.5727 Y23.1437
G01 X33.4736 Y23.1907
G01 X33.4637 Y23.1948
G01 X33.3655 Y23.2299
G01 X33.3552 Y23.2331
G01 X33.2487 Y23.2596
G01 X33.1403 Y23.2758
G01 X33.1322 Y23.2767
G01 X33.0200 Y23.2821
G01 X32.9051 Y23.2765
G01 X32.7913 Y23.2596
G01 X32.6822 Y23.2324
G01 X32.6745 Y23.2299
G01 X32.5713 Y23.1928
G01 X32.4697 Y23.1449
G01 X32.4626 Y23.1410
G01 X32.3709 Y23.0860
G01 X32.3371 Y23.0613
G01 X31.1944 Y24.2040
G01 X31.1944 Y30.3762
G01 X32.2154 Y31.3972
G01 X32.2385 Y31.3972
G01 X32.2721 Y31.3668
G01 X32.2783 Y31.3616
G01 X32.3664 Y31.2962
G01 X32.3732 Y31.2918
G01 X32.4673 Y31.2355
G01 X32.5713 Y31.1864
G01 X32.6771 Y31.1484
G01 X32.6848 Y31.1461
G01 X32.7913 Y31.1196
G01 X32.9051 Y31.1027
G01 X33.0200 Y31.0971
G01 X33.1322 Y31.1025
G01 X33.1403 Y31.1034
G01 X33.2487 Y31.1196
G01 X33.3604 Y31.1476
G01 X33.4687 Y31.1864
G01 X33.5727 Y31.2355
G01 X33.6714 Y31.2947
G01 X33.7638 Y31.3632
G01 X33.8491 Y31.4405
G01 X33.9228 Y31.5217
G01 X33.9280 Y31.5279
G01 X33.9918 Y31.6138
G01 X33.9978 Y31.6228
G01 X34.0541 Y31.7169
G01 X34.1011 Y31.8160
G01 X34.1052 Y31.8259
G01 X34.1420 Y31.9292
G01 X34.1700 Y32.0409
G01 X34.1869 Y32.1547
G01 X34.1924 Y32.2642
G01 X34.1924 Y32.2750
G01 X34.1869 Y32.3845
G01 X34.1709 Y32.4930
G01 X34.1688 Y32.5036
G01 X34.1435 Y32.6048
G01 X34.1403 Y32.6151
G01 X34.1032 Y32.7183
G01 X34.0541 Y32.8223
G01 X33.9949 Y32.9210
G01 X33.9297 Y33.0092
G01 X33.9228 Y33.0175
G01 X33.8491 Y33.0987
G01 X33.7679 Y33.1724
G01 X33.7596 Y33.1793
G01 X33.6758 Y33.2414
G01 X33.6668 Y33.2474
G01 X33.5727 Y33.3037
G01 X33.4687 Y33.3528
G01 X33.3655 Y33.3899
G01 X33.3552 Y33.3931
G01 X33.2487 Y33.4196
G01 X33.1349 Y33.4365
G01 X33.0254 Y33.4420
G01 X33.0146 Y33.4420
G01 X32.9051 Y33.4365
G01 X32.7966 Y33.4205
G01 X32.7860 Y33.4184
G01 X32.6848 Y33.3931
G01 X32.6745 Y33.3899
G01 X32.5713 Y33.3528
G01 X32.4697 Y33.3049
G01 X32.4626 Y33.3010
G01 X32.3732 Y33.2474
G01 X32.3664 Y33.2430
G01 X32.2783 Y33.1776
G01 X32.2721 Y33.1724
G01 X32.2385 Y33.1420
G01 X31.8540 Y33.1420
G01 X31.7739 Y33.1382
G01 X31.7658 Y33.1375
G01 X31.6838 Y33.1252
G01 X31.6008 Y33.1044
G01 X31.5202 Y33.0756
G01 X31.4476 Y33.0414
G01 X31.4404 Y33.0377
G01 X31.3693 Y32.9950
G01 X31.3048 Y32.9473
G01 X31.2965 Y32.9404
G01 X31.2391 Y32.8884
G01 X29.7051 Y31.3545
G01 X29.6476 Y31.2910
G01 X29.5966 Y31.2223
G01 X29.5526 Y31.1488
G01 X29.5160 Y31.0714
G01 X29.4872 Y30.9908
G01 X29.4664 Y30.9078
G01 X29.4538 Y30.8231
G01 X29.4496 Y30.7376
G01 X29.4496 Y23.8426
G00 Z2.0000
G00 X29.5096 Y23.8426
G01 F60.00
G01 Z-0.0000
G01 F120.00
G01 X29.5135 Y23.7630
G01 X29.5252 Y23.6841
G01 X29.5446 Y23.6068
G01 X29.5706 Y23.5340
G01 X29.6068 Y23.4575
G01 X29.6465 Y23.3913
G01 X29.6948 Y23.3263
G01 X29.7476 Y23.2682
G01 X31.4806 Y21.5352
G01 X31.5396 Y21.4816
G01 X31.6017 Y21.4355
G01 X31.6731 Y21.3926
G01 X31.7441 Y21.3591
G01 X31.8168 Y21.3330
G01 X31.8977 Y21.3126
G01 X31.9754 Y21.3011
G01 X32.0525 Y21.2973
G01 X32.2616 Y21.2972
G01 X32.3142 Y21.2496
G01 X32.4009 Y21.1853
G01 X32.4945 Y21.1291
G01 X32.5943 Y21.0818
G01 X32.6982 Y21.0447
G01 X32.8030 Y21.0185
G01 X32.9110 Y21.0025
G01 X33.0200 Y20.9971
G01 X33.1278 Y21.0024
G01 X33.2370 Y21.0185
G01 X33.3453 Y21.0458
G01 X33.4457 Y21.0818
G01 X33.5422 Y21.1274
G01 X33.6381 Y21.1846
G01 X33.7276 Y21.2512
G01 X33.8067 Y21.3229
G01 X33.8784 Y21.4020
G01 X33.9450 Y21.4915
G01 X34.0017 Y21.5863
G01 X34.0478 Y21.6839
G01 X34.0846 Y21.7867
G01 X34.1111 Y21.8926
G01 X34.1268 Y21.9981
G01 X34.1324 Y22.1121
G01 X34.1271 Y22.2186
G01 X34.1111 Y22.3266
G01 X34.0846 Y22.4325
G01 X34.0487 Y22.5330
G01 X33.9999 Y22.6362
G01 X33.9450 Y22.7277
G01 X33.8800 Y22.8154
G01 X33.8067 Y22.8963
G01 X33.7276 Y22.9680
G01 X33.6381 Y23.0346
G01 X33.5466 Y23.0895
G01 X33.4434 Y23.1383
G01 X33.3429 Y23.1742
G01 X33.2370 Y23.2007
G01 X33.1290 Y23.2167
G01 X33.0200 Y23.2221
G01 X32.9110 Y23.2167
G01 X32.8054 Y23.2011
G01 X32.6947 Y23.1734
G01 X32.5943 Y23.1374
G01 X32.4956 Y23.0907
G01 X32.4019 Y23.0346
G01 X32.3312 Y22.9823
G01 X31.1344 Y24.1791
G01 X31.1344 Y30.4011
G01 X32.1905 Y31.4572
G01 X32.2616 Y31.4572
G01 X32.3142 Y31.4096
G01 X32.4009 Y31.3453
G01 X32.4945 Y31.2891
G01 X32.5943 Y31.2418
G01 X32.6971 Y31.2050
G01 X32.8030 Y31.1785
G01 X32.9110 Y31.1625
G01 X33.0200 Y31.1571
G01 X33.1278 Y31.1624
G01 X33.2370 Y31.1785
G01 X33.3429 Y31.2050
G01 X33.4457 Y31.2418
G01 X33.5444 Y31.2885
G01 X33.6381 Y31.3446
G01 X33.7258 Y31.4096
G01 X33.8067 Y31.4829
G01 X33.8807 Y31.5648
G01 X33.9463 Y31.6536
G01 X34.0011 Y31.7452
G01 X34.0468 Y31.8416
G01 X34.0846 Y31.9467
G01 X34.1111 Y32.0526
G01 X34.1271 Y32.1606
G01 X34.1324 Y32.2721
G01 X34.1271 Y32.3786
G01 X34.1115 Y32.4842
G01 X34.0853 Y32.5902
G01 X34.0478 Y32.6953
G01 X34.0011 Y32.7940
G01 X33.9450 Y32.8877
G01 X33.8784 Y32.9772
G01 X33.8067 Y33.0563
G01 X33.7276 Y33.1280
G01 X33.6401 Y33.1932
G01 X33.5444 Y33.2507
G01 X33.4457 Y33.2974
G01 X33.3406 Y33.3349
G01 X33.2370 Y33.3607
G01 X33.1290 Y33.3767
G01 X33.0175 Y33.3820
G01 X32.9110 Y33.3767
G01 X32.8054 Y33.3611
G01 X32.6947 Y33.3334
G01 X32.5943 Y33.2974
G01 X32.4967 Y33.2513
G01 X32.4009 Y33.1939
G01 X32.3142 Y33.1296
G01 X32.2616 Y33.0820
G01 X31.8540 Y33.0820
G01 X31.7732 Y33.0779
G01 X31.6955 Y33.0664
G01 X31.6182 Y33.0470
G01 X31.5431 Y33.0201
G01 X31.4700 Y32.9855
G01 X31.4027 Y32.9451
G01 X31.3406 Y32.8991
G01 X31.2804 Y32.8449
G01 X29.7476 Y31.3120
G01 X29.6940 Y31.2530
G01 X29.6465 Y31.1889
G01 X29.6055 Y31.1206
G01 X29.5715 Y31.0485
G01 X29.5446 Y30.9734
G01 X29.5252 Y30.8961
G01 X29.5135 Y30.8172
G01 X29.5096 Y30.7376
G01 X29.5096 Y23.8426
G00 Z2.0000
G00 X32.7817 Y23.3796
G01 F60.00
G01 Z-0.0000
G01 F120.00
G01 X32.7678 Y23.3819
G01 X32.7568 Y23.3844
G01 X32.6557 Y23.4097
G01 X32.6448 Y23.4128
G01 X32.6341 Y23.4163
G01 X32.5254 Y23.4555
G01 X32.4208 Y23.5046
G01 X32.4107 Y23.5097
G01 X32.3115 Y23.5689
G01 X32.3019 Y23.5749
G01 X32.2089 Y23.6435
G01 X32.2000 Y23.6505
G01 X32.1915 Y23.6579
G01 X32.1142 Y23.7279
G01 X32.1061 Y23.7357
G01 X32.0983 Y23.7438
G01 X32.0209 Y23.8296
G01 X32.0139 Y23.8385
G01 X31.9453 Y23.9315
G01 X31.8857 Y24.0305
G01 X31.8801 Y24.0403
G01 X31.8305 Y24.1447
G01 X31.8259 Y24.1550
G01 X31.8218 Y24.1655
G01 X31.7867 Y24.2637
G01 X31.7832 Y24.2744
G01 X31.7801 Y24.2853
G01 X31.7523 Y24.3974
G01 X31.7351 Y24.5117
G01 X31.7332 Y24.5285
G01 X31.7278 Y24.6383
G01 X31.7275 Y24.6496
G01 X31.7329 Y24.7650
G01 X31.7337 Y24.7763
G01 X31.7351 Y24.7875
G01 X31.7523 Y24.9018
G01 X31.7548 Y24.9128
G01 X31.7832 Y25.0248
G01 X31.8218 Y25.1337
G01 X31.8259 Y25.1442
G01 X31.8305 Y25.1545
G01 X31.8801 Y25.2589
G01 X31.9393 Y25.3581
G01 X31.9453 Y25.3677
G01 X32.0139 Y25.4607
G01 X32.0209 Y25.4696
G01 X32.0283 Y25.4781
G01 X32.1061 Y25.5635
G01 X32.1915 Y25.6413
G01 X32.2000 Y25.6487
G01 X32.2927 Y25.7178
G01 X32.3019 Y25.7243
G01 X32.4009 Y25.7839
G01 X32.4107 Y25.7895
G01 X32.4208 Y25.7946
G01 X32.5254 Y25.8437
G01 X32.6341 Y25.8829
G01 X32.6448 Y25.8864
G01 X32.6557 Y25.8895
G01 X32.7568 Y25.9148
G01 X32.7678 Y25.9173
G01 X32.7817 Y25.9196
G01 X32.7678 Y25.9219
G01 X32.7568 Y25.9244
G01 X32.6557 Y25.9497
G01 X32.6448 Y25.9528
G01 X32.6341 Y25.9563
G01 X32.5254 Y25.9955
G01 X32.4208 Y26.0446
G01 X32.4107 Y26.0497
G01 X32.4009 Y26.0553
G01 X32.3019 Y26.1149
G01 X32.2089 Y26.1835
G01 X32.2000 Y26.1905
G01 X32.1915 Y26.1979
G01 X32.1142 Y26.2679
G01 X32.1061 Y26.2757
G01 X32.0983 Y26.2838
G01 X32.0209 Y26.3696
G01 X32.0139 Y26.3785
G01 X31.9453 Y26.4715
G01 X31.8857 Y26.5705
G01 X31.8801 Y26.5803
G01 X31.8305 Y26.6847
G01 X31.8259 Y26.6950
G01 X31.8218 Y26.7055
G01 X31.7867 Y26.8037
G01 X31.7832 Y26.8144
G01 X31.7801 Y26.8253
G01 X31.7523 Y26.9374
G01 X31.7504 Y26.9486
G01 X31.7337 Y27.0629
G01 X31.7329 Y27.0742
G01 X31.7275 Y27.1896
G01 X31.7329 Y27.3050
G01 X31.7337 Y27.3163
G01 X31.7504 Y27.4306
G01 X31.7523 Y27.4418
G01 X31.7548 Y27.4528
G01 X31.7832 Y27.5648
G01 X31.7867 Y27.5755
G01 X31.8259 Y27.6842
G01 X31.8750 Y27.7888
G01 X31.8801 Y27.7989
G01 X31.9393 Y27.8981
G01 X31.9453 Y27.9077
G01 X32.0139 Y28.0007
G01 X32.0209 Y28.0096
G01 X32.0276 Y28.0174
G01 X32.0276 Y28.9018
G01 X32.0209 Y28.9096
G01 X32.0139 Y28.9185
G01 X31.9518 Y29.0023
G01 X31.9453 Y29.0115
G01 X31.9393 Y29.0211
G01 X31.8801 Y29.1203
G01 X31.8750 Y29.1304
G01 X31.8259 Y29.2350
G01 X31.7867 Y29.3437
G01 X31.7832 Y29.3544
G01 X31.7801 Y29.3653
G01 X31.7523 Y29.4774
G01 X31.7504 Y29.4886
G01 X31.7343 Y29.5973
G01 X31.7329 Y29.6142
G01 X31.7275 Y29.7296
G01 X31.7329 Y29.8450
G01 X31.7337 Y29.8563
G01 X31.7504 Y29.9706
G01 X31.7523 Y29.9818
G01 X31.7548 Y29.9928
G01 X31.7816 Y30.0994
G01 X31.7867 Y30.1155
G01 X31.8218 Y30.2137
G01 X31.8259 Y30.2242
G01 X31.8305 Y30.2345
G01 X31.8801 Y30.3389
G01 X31.9393 Y30.4381
G01 X31.9453 Y30.4477
G01 X32.0139 Y30.5407
G01 X32.0209 Y30.5496
G01 X32.0283 Y30.5581
G01 X32.1061 Y30.6435
G01 X32.1915 Y30.7213
G01 X32.2000 Y30.7287
G01 X32.2089 Y30.7357
G01 X32.2927 Y30.7978
G01 X32.3019 Y30.8043
G01 X32.3115 Y30.8103
G01 X32.4107 Y30.8695
G01 X32.5151 Y30.9191
G01 X32.5254 Y30.9237
G01 X32.5359 Y30.9278
G01 X32.6448 Y30.9664
G01 X32.7568 Y30.9948
G01 X32.7678 Y30.9973
G01 X32.7817 Y30.9996
G01 X32.7678 Y31.0019
G01 X32.7568 Y31.0044
G01 X32.6448 Y31.0328
G01 X32.5359 Y31.0714
G01 X32.5202 Y31.0777
G01 X32.4208 Y31.1246
G01 X32.4107 Y31.1297
G01 X32.4009 Y31.1353
G01 X32.3019 Y31.1949
G01 X32.2333 Y31.2455
G01 X31.3144 Y30.3265
G01 X31.3144 Y24.2537
G01 X32.3529 Y23.2151
G01 X32.4009 Y23.2439
G01 X32.4157 Y23.2521
G01 X32.5151 Y23.2991
G01 X32.5306 Y23.3058
G01 X32.6341 Y23.3429
G01 X32.6448 Y23.3464
G01 X32.7568 Y23.3748
G01 X32.7678 Y23.3773
G01 X32.7817 Y23.3796
G00 Z2.0000
G00 X34.2900 Y22.3479
G01 F60.00
G01 Z-0.0000
G01 F120.00
G01 X34.2923 Y22.3618
G01 X34.2948 Y22.3728
G01 X34.3201 Y22.4739
G01 X34.3232 Y22.4848
G01 X34.3267 Y22.4955
G01 X34.3659 Y22.6042
G01 X34.4150 Y22.7088
G01 X34.4201 Y22.7189
G01 X34.4793 Y22.8181
G01 X34.4853 Y22.8277
G01 X34.4918 Y22.8369
G01 X34.5609 Y22.9296
G01 X34.5683 Y22.9381
G01 X34.6461 Y23.0235
G01 X34.7315 Y23.1013
G01 X34.7400 Y23.1087
G01 X34.7489 Y23.1157
G01 X34.8419 Y23.1843
G01 X34.8515 Y23.1903
G01 X34.9507 Y23.2495
G01 X35.0551 Y23.2991
G01 X35.0654 Y23.3037
G01 X35.1741 Y23.3429
G01 X35.1848 Y23.3464
G01 X35.1957 Y23.3495
G01 X35.2968 Y23.3748
G01 X35.3078 Y23.3773
G01 X35.3217 Y23.3796
G01 X35.3078 Y23.3819
G01 X35.2968 Y23.3844
G01 X35.1957 Y23.4097
G01 X35.1848 Y23.4128
G01 X35.1741 Y23.4163
G01 X35.0654 Y23.4555
G01 X34.9608 Y23.5046
G01 X34.9507 Y23.5097
G01 X34.8515 Y23.5689
G01 X34.8419 Y23.5749
G01 X34.8327 Y23.5814
G01 X34.7400 Y23.6505
G01 X34.6542 Y23.7279
G01 X34.6461 Y23.7357
G01 X34.5683 Y23.8211
G01 X34.5609 Y23.8296
G01 X34.5539 Y23.8385
G01 X34.4853 Y23.9315
G01 X34.4257 Y24.0305
G01 X34.4201 Y24.0403
G01 X34.4150 Y24.0504
G01 X34.3659 Y24.1550
G01 X34.3267 Y24.2637
G01 X34.3232 Y24.2744
G01 X34.3201 Y24.2853
G01 X34.2948 Y24.3864
G01 X34.2923 Y24.3974
G01 X34.2900 Y24.4113
G01 X34.2877 Y24.3974
G01 X34.2852 Y24.3864
G01 X34.2599 Y24.2853
G01 X34.2568 Y24.2744
G01 X34.2533 Y24.2637
G01 X34.2141 Y24.1550
G01 X34.1650 Y24.0504
G01 X34.1599 Y24.0403
G01 X34.1007 Y23.9411
G01 X34.0947 Y23.9315
G01 X34.0882 Y23.9223
G01 X34.0191 Y23.8296
G01 X34.0117 Y23.8211
G01 X33.9339 Y23.7357
G01 X33.8485 Y23.6579
G01 X33.8400 Y23.6505
G01 X33.8311 Y23.6435
G01 X33.7381 Y23.5749
G01 X33.7285 Y23.5689
G01 X33.6293 Y23.5097
G01 X33.5249 Y23.4601
G01 X33.5146 Y23.4555
G01 X33.4059 Y23.4163
G01 X33.3952 Y23.4128
G01 X33.3843 Y23.4097
G01 X33.2832 Y23.3844
G01 X33.2722 Y23.3819
G01 X33.2583 Y23.3796
G01 X33.2722 Y23.3773
