(G-CODE GENERATED BY FLATCAM v8.994 - www.flatcam.org - Version Date: 2020/11/7)

(Name: preamp-board-v3-F_Cu.gbr_iso_combined_cnc)
(Type: G-code from Geometry)
(Units: MM)

(Created on Friday, 30 April 2021 at 18:24)

(This preprocessor is the default preprocessor used by FlatCAM.)
(It is made to work with MACH3 compatible motion controllers.)

(TOOL DIAMETER: 0.1 mm)
(Feedrate_XY: 120.0 mm/min)
(Feedrate_Z: 60.0 mm/min)
(Feedrate rapids 1500.0 mm/min)

(Z_Cut: -0.0 mm)
(Z_Move: 2.0 mm)
(Z Start: None mm)
(Z End: 15.0 mm)
(X,Y End: None mm)
(Steps per circle: 64)
(Preprocessor Geometry: default)

(X range:   15.1275 ...   66.1494  mm)
(Y range:    7.1500 ...   52.6200  mm)

(Spindle Speed: 0.0 RPM)
G21
G90
G94

G01 F120.00

M5
G00 Z15.0000
G00 X0.0000 Y0.0000
T1
M6    
(MSG, Change to Tool Dia = 0.1000)
M0
G00 Z15.0000

M03
G01 F120.00
G00 X17.6224 Y31.7925
G01 F60.00
G01 Z-0.0000
G01 F120.00
G01 X17.6171 Y31.8990
G01 X17.6011 Y32.0070
G01 X17.5746 Y32.1129
G01 X17.5378 Y32.2157
G01 X17.4911 Y32.3144
G01 X17.4350 Y32.4081
G01 X17.3700 Y32.4958
G01 X17.2967 Y32.5767
G01 X17.2158 Y32.6500
G01 X17.1281 Y32.7150
G01 X17.0344 Y32.7711
G01 X16.9357 Y32.8178
G01 X16.8329 Y32.8546
G01 X16.7270 Y32.8811
G01 X16.6190 Y32.8971
G01 X16.5100 Y32.9025
G01 X16.4010 Y32.8971
G01 X16.2930 Y32.8811
G01 X16.1871 Y32.8546
G01 X16.0843 Y32.8178
G01 X15.9856 Y32.7711
G01 X15.8919 Y32.7150
G01 X15.8042 Y32.6500
G01 X15.7233 Y32.5767
G01 X15.6500 Y32.4958
G01 X15.5850 Y32.4081
G01 X15.5289 Y32.3144
G01 X15.4822 Y32.2157
G01 X15.4454 Y32.1129
G01 X15.4189 Y32.0070
G01 X15.4029 Y31.8990
G01 X15.3975 Y31.7900
G01 X15.4029 Y31.6810
G01 X15.4189 Y31.5730
G01 X15.4454 Y31.4671
G01 X15.4822 Y31.3643
G01 X15.5289 Y31.2656
G01 X15.5850 Y31.1719
G01 X15.6500 Y31.0842
G01 X15.7233 Y31.0033
G01 X15.8042 Y30.9300
G01 X15.8919 Y30.8650
G01 X15.9856 Y30.8089
G01 X16.0843 Y30.7622
G01 X16.1871 Y30.7254
G01 X16.2930 Y30.6989
G01 X16.4010 Y30.6829
G01 X16.5100 Y30.6775
G01 X16.6190 Y30.6829
G01 X16.7270 Y30.6989
G01 X16.8329 Y30.7254
G01 X16.9357 Y30.7622
G01 X17.0344 Y30.8089
G01 X17.1281 Y30.8650
G01 X17.2158 Y30.9300
G01 X17.2967 Y31.0033
G01 X17.3700 Y31.0842
G01 X17.4350 Y31.1719
G01 X17.4911 Y31.2656
G01 X17.5378 Y31.3643
G01 X17.5746 Y31.4671
G01 X17.6011 Y31.5730
G01 X17.6171 Y31.6810
G01 X17.6224 Y31.7925
G00 Z2.0000
G00 X17.7123 Y31.7969
G01 F60.00
G01 Z-0.0000
G01 F120.00
G01 X17.7067 Y31.9079
G01 X17.6894 Y32.0246
G01 X17.6607 Y32.1391
G01 X17.6210 Y32.2502
G01 X17.5705 Y32.3569
G01 X17.5098 Y32.4581
G01 X17.4395 Y32.5529
G01 X17.3603 Y32.6403
G01 X17.2729 Y32.7195
G01 X17.1781 Y32.7898
G01 X17.0769 Y32.8505
G01 X16.9702 Y32.9010
G01 X16.8591 Y32.9407
G01 X16.7446 Y32.9694
G01 X16.6279 Y32.9867
G01 X16.5100 Y32.9925
G01 X16.3921 Y32.9867
G01 X16.2754 Y32.9694
G01 X16.1609 Y32.9407
G01 X16.0498 Y32.9010
G01 X15.9431 Y32.8505
G01 X15.8419 Y32.7898
G01 X15.7471 Y32.7195
G01 X15.6597 Y32.6403
G01 X15.5805 Y32.5529
G01 X15.5102 Y32.4581
G01 X15.4495 Y32.3569
G01 X15.3990 Y32.2502
G01 X15.3593 Y32.1391
G01 X15.3306 Y32.0246
G01 X15.3133 Y31.9079
G01 X15.3075 Y31.7900
G01 X15.3133 Y31.6721
G01 X15.3306 Y31.5554
G01 X15.3593 Y31.4409
G01 X15.3990 Y31.3298
G01 X15.4495 Y31.2231
G01 X15.5102 Y31.1219
G01 X15.5805 Y31.0271
G01 X15.6597 Y30.9397
G01 X15.7471 Y30.8605
G01 X15.8419 Y30.7902
G01 X15.9431 Y30.7295
G01 X16.0498 Y30.6790
G01 X16.1609 Y30.6393
G01 X16.2754 Y30.6106
G01 X16.3921 Y30.5933
G01 X16.5100 Y30.5875
G01 X16.6279 Y30.5933
G01 X16.7446 Y30.6106
G01 X16.8591 Y30.6393
G01 X16.9702 Y30.6790
G01 X17.0769 Y30.7295
G01 X17.1781 Y30.7902
G01 X17.2729 Y30.8605
G01 X17.3603 Y30.9397
G01 X17.4395 Y31.0271
G01 X17.5098 Y31.1219
G01 X17.5705 Y31.2231
G01 X17.6210 Y31.3298
G01 X17.6607 Y31.4409
G01 X17.6894 Y31.5554
G01 X17.7067 Y31.6721
G01 X17.7123 Y31.7831
G01 X17.7123 Y31.7969
G00 Z2.0000
G00 X16.4718 Y35.4007
G01 F60.00
G01 Z-0.0000
G01 F120.00
G01 X16.4010 Y35.3971
G01 X16.2918 Y35.3809
G01 X16.1871 Y35.3546
G01 X16.0831 Y35.3173
G01 X15.9856 Y35.2711
G01 X15.8919 Y35.2150
G01 X15.8042 Y35.1500
G01 X15.7225 Y35.0758
G01 X15.6500 Y34.9958
G01 X15.5850 Y34.9081
G01 X15.5289 Y34.8144
G01 X15.4822 Y34.7157
G01 X15.4454 Y34.6129
G01 X15.4189 Y34.5070
G01 X15.4029 Y34.3990
G01 X15.3975 Y34.2888
G01 X15.4029 Y34.1810
G01 X15.4189 Y34.0730
G01 X15.4454 Y33.9671
G01 X15.4822 Y33.8643
G01 X15.5289 Y33.7656
G01 X15.5850 Y33.6719
G01 X15.6500 Y33.5842
G01 X15.7233 Y33.5033
G01 X15.8042 Y33.4300
G01 X15.8919 Y33.3650
G01 X15.9856 Y33.3089
G01 X16.0843 Y33.2622
G01 X16.1871 Y33.2254
G01 X16.2930 Y33.1989
G01 X16.4010 Y33.1829
G01 X16.5112 Y33.1775
G01 X16.6190 Y33.1829
G01 X16.7270 Y33.1989
G01 X16.8329 Y33.2254
G01 X16.9357 Y33.2622
G01 X17.0344 Y33.3089
G01 X17.1281 Y33.3650
G01 X17.2158 Y33.4300
G01 X17.2967 Y33.5033
G01 X17.3700 Y33.5842
G01 X17.4350 Y33.6719
G01 X17.4911 Y33.7656
G01 X17.5373 Y33.8631
G01 X17.5746 Y33.9671
G01 X17.6009 Y34.0718
G01 X17.6171 Y34.1810
G01 X17.6207 Y34.2518
G01 X25.7365 Y42.3676
G01 X31.9132 Y42.3676
G01 X31.9147 Y42.3580
G01 X31.9235 Y42.3235
G01 X31.9351 Y42.2912
G01 X31.9497 Y42.2601
G01 X31.9700 Y42.2265
G01 X31.9898 Y42.2000
G01 X32.0136 Y42.1736
G01 X32.0419 Y42.1482
G01 X32.0686 Y42.1286
G01 X32.0991 Y42.1103
G01 X32.1312 Y42.0951
G01 X32.1624 Y42.0839
G01 X32.2016 Y42.0740
G01 X32.2344 Y42.0692
G01 X32.2699 Y42.0675
G01 X33.7701 Y42.0675
G01 X33.8056 Y42.0692
G01 X33.8408 Y42.0745
G01 X33.8753 Y42.0831
G01 X33.9065 Y42.0942
G01 X33.9409 Y42.1103
G01 X33.9714 Y42.1286
G01 X33.9981 Y42.1482
G01 X34.0281 Y42.1754
G01 X34.0502 Y42.2000
G01 X34.0714 Y42.2286
G01 X34.0897 Y42.2591
G01 X34.1039 Y42.2890
G01 X34.1176 Y42.3270
G01 X34.1255 Y42.3592
G01 X34.1306 Y42.3931
G01 X34.1325 Y42.4299
G01 X34.1325 Y43.9314
G01 X34.1308 Y43.9656
G01 X34.1250 Y44.0032
G01 X34.1169 Y44.0353
G01 X34.1058 Y44.0665
G01 X34.0903 Y44.0999
G01 X34.0714 Y44.1314
G01 X34.0486 Y44.1619
G01 X34.0264 Y44.1864
G01 X34.0019 Y44.2086
G01 X33.9714 Y44.2314
G01 X33.9409 Y44.2497
G01 X33.9065 Y44.2658
G01 X33.8753 Y44.2769
G01 X33.8432 Y44.2850
G01 X33.8056 Y44.2908
G01 X33.7701 Y44.2925
G01 X32.2686 Y44.2925
G01 X32.2344 Y44.2908
G01 X32.1992 Y44.2855
G01 X32.1647 Y44.2769
G01 X32.1335 Y44.2658
G01 X32.0969 Y44.2485
G01 X32.0686 Y44.2314
G01 X32.0390 Y44.2095
G01 X32.0136 Y44.1864
G01 X31.9898 Y44.1600
G01 X31.9686 Y44.1314
G01 X31.9509 Y44.1020
G01 X31.9351 Y44.0688
G01 X31.9239 Y44.0376
G01 X31.9147 Y44.0020
G01 X31.9132 Y43.9924
G01 X25.3988 Y43.9924
G01 X25.3204 Y43.9885
G01 X25.2391 Y43.9762
G01 X25.1642 Y43.9574
G01 X25.0914 Y43.9314
G01 X25.0181 Y43.8970
G01 X24.9467 Y43.8541
G01 X24.8846 Y43.8080
G01 X24.8256 Y43.7544
G01 X16.4718 Y35.4007
G00 Z2.0000
G00 X16.4327 Y35.4889
G01 F60.00
G01 Z-0.0000
G01 F120.00
G01 X16.3990 Y35.4872
G01 X16.3887 Y35.4863
G01 X16.2788 Y35.4700
G01 X16.2687 Y35.4679
G01 X16.1642 Y35.4417
G01 X16.1544 Y35.4386
G01 X16.0498 Y35.4010
G01 X15.9462 Y35.3521
G01 X15.9372 Y35.3471
G01 X15.8419 Y35.2898
G01 X15.7471 Y35.2195
G01 X15.6597 Y35.1403
G01 X15.5827 Y35.0555
G01 X15.5762 Y35.0474
G01 X15.5102 Y34.9581
G01 X15.4495 Y34.8569
G01 X15.3990 Y34.7502
G01 X15.3593 Y34.6391
G01 X15.3306 Y34.5246
G01 X15.3133 Y34.4079
G01 X15.3075 Y34.2900
G01 X15.3130 Y34.1756
G01 X15.3141 Y34.1653
G01 X15.3306 Y34.0554
G01 X15.3593 Y33.9409
G01 X15.3990 Y33.8298
G01 X15.4495 Y33.7231
G01 X15.5102 Y33.6219
G01 X15.5805 Y33.5271
G01 X15.6597 Y33.4397
G01 X15.7471 Y33.3605
G01 X15.8419 Y33.2902
G01 X15.9431 Y33.2295
G01 X16.0498 Y33.1790
G01 X16.1609 Y33.1393
G01 X16.2754 Y33.1106
G01 X16.3921 Y33.0933
G01 X16.5100 Y33.0875
G01 X16.6244 Y33.0930
G01 X16.6347 Y33.0941
G01 X16.7446 Y33.1106
G01 X16.8524 Y33.1374
G01 X16.8656 Y33.1414
G01 X16.9638 Y33.1766
G01 X16.9765 Y33.1818
G01 X17.0769 Y33.2295
G01 X17.1781 Y33.2902
G01 X17.2729 Y33.3605
G01 X17.3603 Y33.4397
G01 X17.4395 Y33.5271
G01 X17.5098 Y33.6219
G01 X17.5705 Y33.7231
G01 X17.6196 Y33.8267
G01 X17.6234 Y33.8362
G01 X17.6607 Y33.9409
G01 X17.6887 Y34.0520
G01 X17.6906 Y34.0622
G01 X17.7063 Y34.1687
G01 X17.7072 Y34.1790
G01 X17.7089 Y34.2127
G01 X25.7738 Y42.2776
G01 X31.8443 Y42.2776
G01 X31.8533 Y42.2536
G01 X31.8693 Y42.2197
G01 X31.8743 Y42.2106
G01 X31.8901 Y42.1844
G01 X31.8957 Y42.1757
G01 X31.9202 Y42.1429
G01 X31.9453 Y42.1150
G01 X31.9550 Y42.1053
G01 X31.9777 Y42.0847
G01 X31.9856 Y42.0780
G01 X32.0185 Y42.0537
G01 X32.0506 Y42.0343
G01 X32.0628 Y42.0278
G01 X32.0968 Y42.0119
G01 X32.1320 Y41.9991
G01 X32.1452 Y41.9951
G01 X32.1816 Y41.9862
G01 X32.2187 Y41.9805
G01 X32.2324 Y41.9792
G01 X32.2699 Y41.9775
G01 X33.7701 Y41.9775
G01 X33.8145 Y41.9797
G01 X33.8516 Y41.9850
G01 X33.8617 Y41.9869
G01 X33.9014 Y41.9970
G01 X33.9368 Y42.0095
G01 X33.9495 Y42.0147
G01 X33.9834 Y42.0309
G01 X34.0215 Y42.0537
G01 X34.0517 Y42.0760
G01 X34.0597 Y42.0824
G01 X34.0850 Y42.1053
G01 X34.0947 Y42.1150
G01 X34.1198 Y42.1429
G01 X34.1443 Y42.1757
G01 X34.1499 Y42.1844
G01 X34.1657 Y42.2106
G01 X34.1722 Y42.2228
G01 X34.1881 Y42.2568
G01 X34.2030 Y42.2986
G01 X34.2138 Y42.3416
G01 X34.2195 Y42.3787
G01 X34.2208 Y42.3924
G01 X34.2225 Y42.4299
G01 X34.2225 Y43.9336
G01 X34.2208 Y43.9676
G01 X34.2199 Y43.9779
G01 X34.2144 Y44.0150
G01 X34.2123 Y44.0251
G01 X34.2040 Y44.0581
G01 X34.2009 Y44.0680
G01 X34.1881 Y44.1032
G01 X34.1722 Y44.1372
G01 X34.1657 Y44.1494
G01 X34.1463 Y44.1815
G01 X34.1240 Y44.2117
G01 X34.1153 Y44.2223
G01 X34.0900 Y44.2500
G01 X34.0623 Y44.2753
G01 X34.0517 Y44.2840
G01 X34.0215 Y44.3063
G01 X33.9834 Y44.3291
G01 X33.9495 Y44.3453
G01 X33.9368 Y44.3505
G01 X33.9014 Y44.3630
G01 X33.8651 Y44.3723
G01 X33.8550 Y44.3744
G01 X33.8179 Y44.3799
G01 X33.8076 Y44.3808
G01 X33.7701 Y44.3825
G01 X32.2664 Y44.3825
G01 X32.2255 Y44.3803
G01 X32.1884 Y44.3750
G01 X32.1749 Y44.3723
G01 X32.1386 Y44.3630
G01 X32.0968 Y44.3481
G01 X32.0628 Y44.3322
G01 X32.0506 Y44.3257
G01 X32.0244 Y44.3099
G01 X32.0157 Y44.3043
G01 X31.9829 Y44.2798
G01 X31.9550 Y44.2547
G01 X31.9453 Y44.2450
G01 X31.9247 Y44.2223
G01 X31.9180 Y44.2144
G01 X31.8937 Y44.1815
G01 X31.8726 Y44.1464
G01 X31.8678 Y44.1372
G01 X31.8533 Y44.1064
G01 X31.8443 Y44.0824
G01 X25.3966 Y44.0823
G01 X25.3116 Y44.0780
G01 X25.2307 Y44.0662
G01 X25.2172 Y44.0635
G01 X25.1447 Y44.0454
G01 X25.1315 Y44.0414
G01 X25.0547 Y44.0137
G01 X24.9808 Y43.9789
G01 X24.9686 Y43.9724
G01 X24.9045 Y43.9340
G01 X24.8930 Y43.9263
G01 X24.8275 Y43.8776
G01 X24.7619 Y43.8181
G01 X16.4327 Y35.4889
G00 Z2.0000
G00 X23.6184 Y33.4776
G01 F60.00
G01 Z-0.0000
G01 F120.00
G01 X26.6855 Y33.4776
G01 X27.7176 Y32.4456
G01 X27.7757 Y32.3928
G01 X27.8407 Y32.3445
G01 X27.9112 Y32.3024
G01 X27.9834 Y32.2686
G01 X28.0562 Y32.2426
G01 X28.1311 Y32.2238
G01 X28.2124 Y32.2115
G01 X28.2920 Y32.2076
G01 X32.2616 Y32.2076
G01 X32.3142 Y32.1600
G01 X32.4030 Y32.0943
G01 X32.4956 Y32.0389
G01 X32.5954 Y31.9917
G01 X32.6971 Y31.9554
G01 X32.8030 Y31.9289
G01 X32.9110 Y31.9129
G01 X33.0175 Y31.9076
G01 X33.1290 Y31.9129
G01 X33.2370 Y31.9289
G01 X33.3429 Y31.9554
G01 X33.4457 Y31.9922
G01 X33.5444 Y32.0389
G01 X33.6381 Y32.0950
G01 X33.7258 Y32.1600
G01 X33.8067 Y32.2333
G01 X33.8800 Y32.3142
G01 X33.9450 Y32.4019
G01 X34.0011 Y32.4956
G01 X34.0478 Y32.5943
G01 X34.0846 Y32.6971
G01 X34.1111 Y32.8030
G01 X34.1271 Y32.9110
G01 X34.1324 Y33.0175
G01 X34.1268 Y33.1315
G01 X34.1111 Y33.2370
G01 X34.0838 Y33.3453
G01 X34.0478 Y33.4457
G01 X34.0011 Y33.5444
G01 X33.9450 Y33.6381
G01 X33.8800 Y33.7258
G01 X33.8067 Y33.8067
G01 X33.7258 Y33.8800
G01 X33.6381 Y33.9450
G01 X33.5466 Y33.9999
G01 X33.4434 Y34.0487
G01 X33.3429 Y34.0846
G01 X33.2358 Y34.1113
G01 X33.1266 Y34.1273
G01 X33.0200 Y34.1325
G01 X32.9134 Y34.1273
G01 X32.8030 Y34.1111
G01 X32.6982 Y34.0849
G01 X32.5943 Y34.0478
G01 X32.4945 Y34.0005
G01 X32.4009 Y33.9443
G01 X32.3142 Y33.8800
G01 X32.2616 Y33.8324
G01 X28.6285 Y33.8324
G01 X27.5964 Y34.8644
G01 X27.5383 Y34.9172
G01 X27.4733 Y34.9655
G01 X27.4028 Y35.0076
G01 X27.3329 Y35.0405
G01 X27.2602 Y35.0666
G01 X27.1805 Y35.0868
G01 X27.1016 Y35.0985
G01 X27.0220 Y35.1024
G01 X23.6184 Y35.1024
G01 X23.5658 Y35.1500
G01 X23.4770 Y35.2157
G01 X23.3844 Y35.2711
G01 X23.2846 Y35.3183
G01 X23.1829 Y35.3546
G01 X23.0770 Y35.3811
G01 X22.9690 Y35.3971
G01 X22.8600 Y35.4025
G01 X22.7510 Y35.3971
G01 X22.6430 Y35.3811
G01 X22.5371 Y35.3546
G01 X22.4343 Y35.3178
G01 X22.3356 Y35.2711
G01 X22.2419 Y35.2150
G01 X22.1542 Y35.1500
G01 X22.0742 Y35.0775
G01 X22.0000 Y34.9958
G01 X21.9350 Y34.9081
G01 X21.8789 Y34.8144
G01 X21.8322 Y34.7157
G01 X21.7954 Y34.6129
G01 X21.7689 Y34.5070
G01 X21.7529 Y34.3990
G01 X21.7475 Y34.2900
G01 X21.7529 Y34.1810
G01 X21.7689 Y34.0730
G01 X21.7954 Y33.9671
G01 X21.8322 Y33.8643
G01 X21.8789 Y33.7656
G01 X21.9350 Y33.6719
G01 X22.0000 Y33.5842
G01 X22.0725 Y33.5042
G01 X22.1542 Y33.4300
G01 X22.2419 Y33.3650
G01 X22.3356 Y33.3089
G01 X22.4343 Y33.2622
G01 X22.5371 Y33.2254
G01 X22.6430 Y33.1989
G01 X22.7510 Y33.1829
G01 X22.8588 Y33.1775
G01 X22.9690 Y33.1829
G01 X23.0770 Y33.1989
G01 X23.1829 Y33.2254
G01 X23.2846 Y33.2617
G01 X23.3844 Y33.3089
G01 X23.4770 Y33.3643
G01 X23.5658 Y33.4300
G01 X23.6184 Y33.4776
G00 Z2.0000
G00 X23.6531 Y33.3876
G01 F60.00
G01 Z-0.0000
G01 F120.00
G01 X26.6482 Y33.3876
G01 X27.6539 Y32.3819
G01 X27.7169 Y32.3247
G01 X27.7250 Y32.3182
G01 X27.7907 Y32.2697
G01 X27.8606 Y32.2276
G01 X27.8728 Y32.2211
G01 X27.9467 Y32.1863
G01 X28.0235 Y32.1586
G01 X28.0367 Y32.1546
G01 X28.1092 Y32.1365
G01 X28.1193 Y32.1343
G01 X28.2036 Y32.1220
G01 X28.2920 Y32.1176
G01 X32.2269 Y32.1176
G01 X32.2519 Y32.0949
G01 X32.2598 Y32.0883
G01 X32.3463 Y32.0241
G01 X32.3548 Y32.0183
G01 X32.4531 Y31.9595
G01 X32.5535 Y31.9118
G01 X32.5630 Y31.9078
G01 X32.6709 Y31.8693
G01 X32.7854 Y31.8406
G01 X32.9021 Y31.8233
G01 X33.0166 Y31.8175
G01 X33.0269 Y31.8177
G01 X33.1379 Y31.8233
G01 X33.2546 Y31.8406
G01 X33.3691 Y31.8693
G01 X33.4802 Y31.9090
G01 X33.5869 Y31.9595
G01 X33.6881 Y32.0202
G01 X33.7829 Y32.0905
G01 X33.8703 Y32.1697
G01 X33.9495 Y32.2571
G01 X34.0198 Y32.3519
G01 X34.0805 Y32.4531
G01 X34.1310 Y32.5598
G01 X34.1707 Y32.6709
G01 X34.1994 Y32.7854
G01 X34.2167 Y32.9021
G01 X34.2225 Y33.0166
G01 X34.2223 Y33.0269
G01 X34.2167 Y33.1379
G01 X34.2006 Y33.2478
G01 X34.1979 Y33.2613
G01 X34.1726 Y33.3624
G01 X34.1686 Y33.3756
G01 X34.1310 Y33.4802
G01 X34.0805 Y33.5869
G01 X34.0198 Y33.6881
G01 X33.9495 Y33.7829
G01 X33.8703 Y33.8703
G01 X33.7829 Y33.9495
G01 X33.6881 Y34.0198
G01 X33.5928 Y34.0771
G01 X33.5807 Y34.0836
G01 X33.4865 Y34.1282
G01 X33.4738 Y34.1334
G01 X33.3691 Y34.1707
G01 X33.2613 Y34.1979
G01 X33.2512 Y34.2000
G01 X33.1447 Y34.2159
G01 X33.1310 Y34.2172
G01 X33.0200 Y34.2225
G01 X32.9090 Y34.2172
G01 X32.8953 Y34.2159
G01 X32.7854 Y34.1994
G01 X32.6742 Y34.1717
G01 X32.6644 Y34.1686
G01 X32.5598 Y34.1310
G01 X32.4593 Y34.0836
G01 X32.4501 Y34.0789
G01 X32.3577 Y34.0235
G01 X32.3491 Y34.0179
G01 X32.2598 Y33.9517
G01 X32.2519 Y33.9451
G01 X32.2269 Y33.9224
G01 X28.6658 Y33.9224
G01 X27.6601 Y34.9281
G01 X27.5971 Y34.9853
G01 X27.5890 Y34.9918
G01 X27.5233 Y35.0403
G01 X27.4534 Y35.0824
G01 X27.4412 Y35.0889
G01 X27.3673 Y35.1237
G01 X27.2905 Y35.1514
G01 X27.2773 Y35.1554
G01 X27.1980 Y35.1750
G01 X27.1104 Y35.1880
G01 X27.0220 Y35.1924
G01 X23.6531 Y35.1924
G01 X23.6281 Y35.2151
G01 X23.6202 Y35.2217
G01 X23.5337 Y35.2859
G01 X23.5252 Y35.2917
G01 X23.4269 Y35.3505
G01 X23.3265 Y35.3982
G01 X23.3170 Y35.4022
G01 X23.2091 Y35.4407
G01 X23.0946 Y35.4694
G01 X22.9779 Y35.4867
G01 X22.8600 Y35.4925
G01 X22.7421 Y35.4867
G01 X22.6254 Y35.4694
G01 X22.5109 Y35.4407
G01 X22.4062 Y35.4034
G01 X22.3935 Y35.3982
G01 X22.2993 Y35.3536
G01 X22.2872 Y35.3471
G01 X22.1919 Y35.2898
G01 X22.1026 Y35.2238
G01 X22.0945 Y35.2173
G01 X22.0097 Y35.1403
G01 X21.9305 Y35.0529
G01 X21.8602 Y34.9581
G01 X21.7995 Y34.8569
G01 X21.7490 Y34.7502
G01 X21.7093 Y34.6391
G01 X21.6806 Y34.5246
G01 X21.6633 Y34.4079
G01 X21.6575 Y34.2900
G01 X21.6633 Y34.1721
G01 X21.6806 Y34.0554
G01 X21.7093 Y33.9409
G01 X21.7490 Y33.8298
G01 X21.7995 Y33.7231
G01 X21.8602 Y33.6219
G01 X21.9262 Y33.5326
G01 X21.9327 Y33.5245
G01 X22.0097 Y33.4397
G01 X22.0971 Y33.3605
G01 X22.1919 Y33.2902
G01 X22.2931 Y33.2295
G01 X22.3998 Y33.1790
G01 X22.5109 Y33.1393
G01 X22.6254 Y33.1106
G01 X22.7353 Y33.0941
G01 X22.7456 Y33.0930
G01 X22.8600 Y33.0875
G01 X22.9779 Y33.0933
G01 X23.0946 Y33.1106
G01 X23.2024 Y33.1374
G01 X23.2123 Y33.1403
G01 X23.3202 Y33.1790
G01 X23.4207 Y33.2264
G01 X23.4299 Y33.2311
G01 X23.5223 Y33.2865
G01 X23.5309 Y33.2921
G01 X23.6202 Y33.3583
G01 X23.6281 Y33.3649
G01 X23.6531 Y33.3876
G00 Z2.0000
G00 X23.9724 Y31.7925
G01 F60.00
G01 Z-0.0000
G01 F120.00
G01 X23.9671 Y31.8990
G01 X23.9511 Y32.0070
G01 X23.9246 Y32.1129
G01 X23.8878 Y32.2157
G01 X23.8411 Y32.3144
G01 X23.7850 Y32.4081
G01 X23.7200 Y32.4958
G01 X23.6467 Y32.5767
G01 X23.5658 Y32.6500
G01 X23.4781 Y32.7150
G01 X23.3844 Y32.7711
G01 X23.2857 Y32.8178
G01 X23.1829 Y32.8546
G01 X23.0770 Y32.8811
G01 X22.9690 Y32.8971
G01 X22.8600 Y32.9025
G01 X22.7510 Y32.8971
G01 X22.6430 Y32.8811
G01 X22.5371 Y32.8546
G01 X22.4343 Y32.8178
G01 X22.3356 Y32.7711
G01 X22.2419 Y32.7150
G01 X22.1542 Y32.6500
G01 X22.0733 Y32.5767
G01 X22.0000 Y32.4958
G01 X21.9350 Y32.4081
G01 X21.8789 Y32.3144
G01 X21.8322 Y32.2157
G01 X21.7954 Y32.1129
G01 X21.7689 Y32.0070
G01 X21.7529 Y31.8990
G01 X21.7475 Y31.7900
G01 X21.7529 Y31.6810
G01 X21.7689 Y31.5730
G01 X21.7954 Y31.4671
G01 X21.8322 Y31.3643
G01 X21.8789 Y31.2656
G01 X21.9350 Y31.1719
G01 X22.0000 Y31.0842
G01 X22.0733 Y31.0033
G01 X22.1542 Y30.9300
G01 X22.2419 Y30.8650
G01 X22.3356 Y30.8089
G01 X22.4343 Y30.7622
G01 X22.5371 Y30.7254
G01 X22.6430 Y30.6989
G01 X22.7510 Y30.6829
G01 X22.8600 Y30.6775
G01 X22.9690 Y30.6829
G01 X23.0770 Y30.6989
G01 X23.1829 Y30.7254
G01 X23.2857 Y30.7622
G01 X23.3844 Y30.8089
G01 X23.4781 Y30.8650
G01 X23.5658 Y30.9300
G01 X23.6467 Y31.0033
G01 X23.7200 Y31.0842
G01 X23.7850 Y31.1719
G01 X23.8411 Y31.2656
G01 X23.8878 Y31.3643
G01 X23.9246 Y31.4671
G01 X23.9511 Y31.5730
G01 X23.9671 Y31.6810
G01 X23.9724 Y31.7925
G00 Z2.0000
G00 X24.0623 Y31.7969
G01 F60.00
G01 Z-0.0000
G01 F120.00
G01 X24.0567 Y31.9079
G01 X24.0394 Y32.0246
G01 X24.0107 Y32.1391
G01 X23.9710 Y32.2502
G01 X23.9205 Y32.3569
G01 X23.8598 Y32.4581
G01 X23.7895 Y32.5529
G01 X23.7103 Y32.6403
G01 X23.6229 Y32.7195
G01 X23.5281 Y32.7898
G01 X23.4269 Y32.8505
G01 X23.3202 Y32.9010
G01 X23.2091 Y32.9407
G01 X23.0946 Y32.9694
G01 X22.9779 Y32.9867
G01 X22.8600 Y32.9925
G01 X22.7421 Y32.9867
G01 X22.6254 Y32.9694
G01 X22.5109 Y32.9407
G01 X22.3998 Y32.9010
G01 X22.2931 Y32.8505
G01 X22.1919 Y32.7898
G01 X22.0971 Y32.7195
G01 X22.0097 Y32.6403
G01 X21.9305 Y32.5529
G01 X21.8602 Y32.4581
G01 X21.7995 Y32.3569
G01 X21.7490 Y32.2502
G01 X21.7093 Y32.1391
G01 X21.6806 Y32.0246
G01 X21.6633 Y31.9079
G01 X21.6575 Y31.7900
G01 X21.6633 Y31.6721
G01 X21.6806 Y31.5554
G01 X21.7093 Y31.4409
G01 X21.7490 Y31.3298
G01 X21.7995 Y31.2231
G01 X21.8602 Y31.1219
G01 X21.9305 Y31.0271
G01 X22.0097 Y30.9397
G01 X22.0971 Y30.8605
G01 X22.1919 Y30.7902
G01 X22.2931 Y30.7295
G01 X22.3998 Y30.6790
G01 X22.5109 Y30.6393
G01 X22.6254 Y30.6106
G01 X22.7421 Y30.5933
G01 X22.8600 Y30.5875
G01 X22.9779 Y30.5933
G01 X23.0946 Y30.6106
G01 X23.2091 Y30.6393
G01 X23.3202 Y30.6790
G01 X23.4269 Y30.7295
G01 X23.5281 Y30.7902
G01 X23.6229 Y30.8605
G01 X23.7103 Y30.9397
G01 X23.7895 Y31.0271
G01 X23.8598 Y31.1219
G01 X23.9205 Y31.2231
G01 X23.9710 Y31.3298
G01 X24.0107 Y31.4409
G01 X24.0394 Y31.5554
G01 X24.0567 Y31.6721
G01 X24.0623 Y31.7831
G01 X24.0623 Y31.7969
G00 Z2.0000
G00 X33.2583 Y29.2100
G01 F60.00
G01 Z-0.0000
G01 F120.00
G01 X33.2722 Y29.2077
G01 X33.2832 Y29.2052
G01 X33.3843 Y29.1799
G01 X33.3952 Y29.1768
G01 X33.4059 Y29.1733
G01 X33.5146 Y29.1341
G01 X33.5249 Y29.1295
G01 X33.6293 Y29.0799
G01 X33.7285 Y29.0207
G01 X33.7381 Y29.0147
G01 X33.7473 Y29.0082
G01 X33.8400 Y28.9391
G01 X33.8485 Y28.9317
G01 X33.9339 Y28.8539
G01 X34.0117 Y28.7685
G01 X34.0191 Y28.7600
G01 X34.0882 Y28.6673
G01 X34.0947 Y28.6581
G01 X34.1007 Y28.6485
G01 X34.1599 Y28.5493
G01 X34.1650 Y28.5392
G01 X34.2141 Y28.4346
G01 X34.2533 Y28.3259
G01 X34.2568 Y28.3152
G01 X34.2599 Y28.3043
G01 X34.2852 Y28.2032
G01 X34.2877 Y28.1922
G01 X34.2900 Y28.1783
G01 X34.2923 Y28.1922
G01 X34.2948 Y28.2032
G01 X34.3201 Y28.3043
G01 X34.3232 Y28.3152
G01 X34.3267 Y28.3259
G01 X34.3659 Y28.4346
G01 X34.3705 Y28.4449
G01 X34.4201 Y28.5493
G01 X34.4793 Y28.6485
G01 X34.4853 Y28.6581
G01 X34.4918 Y28.6673
G01 X34.5609 Y28.7600
G01 X34.5683 Y28.7685
G01 X34.6461 Y28.8539
G01 X34.7315 Y28.9317
G01 X34.7400 Y28.9391
G01 X34.7489 Y28.9461
G01 X34.8419 Y29.0147
G01 X34.9409 Y29.0743
G01 X34.9507 Y29.0799
G01 X35.0551 Y29.1295
G01 X35.0654 Y29.1341
G01 X35.1741 Y29.1733
G01 X35.1848 Y29.1768
G01 X35.1957 Y29.1799
G01 X35.2968 Y29.2052
G01 X35.3078 Y29.2077
G01 X35.3217 Y29.2100
G01 X35.3078 Y29.2123
G01 X35.2968 Y29.2148
G01 X35.1957 Y29.2401
G01 X35.1848 Y29.2432
G01 X35.1741 Y29.2467
G01 X35.0654 Y29.2859
G01 X35.0551 Y29.2905
G01 X34.9507 Y29.3401
G01 X34.8515 Y29.3993
G01 X34.8419 Y29.4053
G01 X34.7489 Y29.4739
G01 X34.7400 Y29.4809
G01 X34.7315 Y29.4883
G01 X34.6461 Y29.5661
G01 X34.6383 Y29.5742
G01 X34.5609 Y29.6600
G01 X34.4918 Y29.7527
G01 X34.4853 Y29.7619
G01 X34.4793 Y29.7715
G01 X34.4201 Y29.8707
G01 X34.4150 Y29.8808
G01 X34.3659 Y29.9854
G01 X34.3267 Y30.0941
G01 X34.3232 Y30.1048
G01 X34.3201 Y30.1157
G01 X34.2948 Y30.2168
G01 X34.2923 Y30.2278
G01 X34.2900 Y30.2417
G01 X34.2877 Y30.2278
G01 X34.2852 Y30.2168
G01 X34.2599 Y30.1157
G01 X34.2568 Y30.1048
G01 X34.2533 Y30.0941
G01 X34.2141 Y29.9854
G01 X34.1650 Y29.8808
G01 X34.1599 Y29.8707
G01 X34.1007 Y29.7715
G01 X34.0947 Y29.7619
G01 X34.0882 Y29.7527
G01 X34.0191 Y29.6600
G01 X34.0117 Y29.6515
G01 X33.9339 Y29.5661
G01 X33.8485 Y29.4883
G01 X33.8400 Y29.4809
G01 X33.8311 Y29.4739
G01 X33.7381 Y29.4053
G01 X33.7285 Y29.3993
G01 X33.6293 Y29.3401
G01 X33.5249 Y29.2905
G01 X33.5146 Y29.2859
G01 X33.4059 Y29.2467
G01 X33.3952 Y29.2432
G01 X33.3843 Y29.2401
G01 X33.2832 Y29.2148
G01 X33.2722 Y29.2123
G01 X33.2583 Y29.2100
G00 Z2.0000
G00 X33.5653 Y29.2100
G01 F60.00
G01 Z-0.0000
G01 F120.00
G01 X33.6577 Y29.1663
G01 X33.6717 Y29.1593
G01 X33.6854 Y29.1515
G01 X33.7748 Y29.0979
G01 X33.7881 Y29.0895
G01 X33.8009 Y29.0805
G01 X33.8847 Y29.0183
G01 X33.8970 Y29.0087
G01 X33.9089 Y28.9984
G01 X33.9862 Y28.9284
G01 X33.9976 Y28.9176
G01 X34.0084 Y28.9062
G01 X34.0784 Y28.8289
G01 X34.0887 Y28.8170
G01 X34.0983 Y28.8047
G01 X34.1605 Y28.7209
G01 X34.1695 Y28.7081
G01 X34.1779 Y28.6948
G01 X34.2315 Y28.6054
G01 X34.2393 Y28.5917
G01 X34.2463 Y28.5777
G01 X34.2900 Y28.4853
G01 X34.3337 Y28.5777
G01 X34.3407 Y28.5917
G01 X34.3485 Y28.6054
G01 X34.4021 Y28.6948
G01 X34.4105 Y28.7081
G01 X34.4195 Y28.7209
G01 X34.4817 Y28.8047
G01 X34.4913 Y28.8170
G01 X34.5016 Y28.8289
G01 X34.5716 Y28.9062
G01 X34.5824 Y28.9176
G01 X34.5938 Y28.9284
G01 X34.6711 Y28.9984
G01 X34.6830 Y29.0087
G01 X34.6953 Y29.0183
G01 X34.7791 Y29.0805
G01 X34.7919 Y29.0895
G01 X34.8052 Y29.0979
G01 X34.8946 Y29.1515
G01 X34.9083 Y29.1593
G01 X34.9223 Y29.1663
G01 X35.0147 Y29.2100
G01 X34.9223 Y29.2537
G01 X34.9083 Y29.2607
G01 X34.8946 Y29.2685
G01 X34.8052 Y29.3221
G01 X34.7919 Y29.3305
G01 X34.7791 Y29.3395
G01 X34.6953 Y29.4017
G01 X34.6830 Y29.4113
G01 X34.6711 Y29.4216
G01 X34.5938 Y29.4916
G01 X34.5824 Y29.5024
G01 X34.5716 Y29.5138
G01 X34.5016 Y29.5911
G01 X34.4913 Y29.6030
G01 X34.4817 Y29.6153
G01 X34.4195 Y29.6991
G01 X34.4105 Y29.7119
G01 X34.4021 Y29.7252
G01 X34.3485 Y29.8146
G01 X34.3407 Y29.8283
G01 X34.3337 Y29.8423
G01 X34.2900 Y29.9347
G01 X34.2463 Y29.8423
G01 X34.2393 Y29.8283
G01 X34.2315 Y29.8146
G01 X34.1779 Y29.7252
G01 X34.1695 Y29.7119
G01 X34.1605 Y29.6991
G01 X34.0983 Y29.6153
G01 X34.0887 Y29.6030
G01 X34.0784 Y29.5911
G01 X34.0084 Y29.5138
G01 X33.9976 Y29.5024
G01 X33.9862 Y29.4916
G01 X33.9089 Y29.4216
G01 X33.8970 Y29.4113
G01 X33.8847 Y29.4017
G01 X33.8009 Y29.3395
G01 X33.7881 Y29.3305
G01 X33.7748 Y29.3221
G01 X33.6854 Y29.2685
G01 X33.6717 Y29.2607
G01 X33.6577 Y29.2537
G01 X33.5653 Y29.2100
G00 Z2.0000
G00 X34.1324 Y27.9425
G01 F60.00
G01 Z-0.0000
G01 F120.00
G01 X34.1271 Y28.0490
G01 X34.1111 Y28.1570
G01 X34.0846 Y28.2629
G01 X34.0478 Y28.3657
G01 X34.0011 Y28.4644
G01 X33.9450 Y28.5581
G01 X33.8800 Y28.6458
G01 X33.8067 Y28.7267
G01 X33.7258 Y28.8000
G01 X33.6381 Y28.8650
G01 X33.5444 Y28.9211
G01 X33.4457 Y28.9678
G01 X33.3429 Y29.0046
G01 X33.2370 Y29.0311
G01 X33.1290 Y29.0471
G01 X33.0200 Y29.0525
G01 X32.9110 Y29.0471
G01 X32.8030 Y29.0311
G01 X32.6971 Y29.0046
G01 X32.5943 Y28.9678
G01 X32.4956 Y28.9211
G01 X32.4019 Y28.8650
G01 X32.3142 Y28.8000
G01 X32.2333 Y28.7267
G01 X32.1600 Y28.6458
G01 X32.0950 Y28.5581
G01 X32.0389 Y28.4644
G01 X31.9922 Y28.3657
G01 X31.9554 Y28.2629
G01 X31.9289 Y28.1570
G01 X31.9129 Y28.0490
G01 X31.9075 Y27.9400
G01 X31.9129 Y27.8310
G01 X31.9289 Y27.7230
G01 X31.9554 Y27.6171
G01 X31.9922 Y27.5143
G01 X32.0389 Y27.4156
G01 X32.0950 Y27.3219
G01 X32.1600 Y27.2342
G01 X32.2333 Y27.1533
G01 X32.3142 Y27.0800
G01 X32.4019 Y27.0150
G01 X32.4956 Y26.9589
G01 X32.5943 Y26.9122
G01 X32.6971 Y26.8754
G01 X32.8030 Y26.8489
G01 X32.9110 Y26.8329
G01 X33.0200 Y26.8275
G01 X33.1290 Y26.8329
G01 X33.2370 Y26.8489
G01 X33.3429 Y26.8754
G01 X33.4457 Y26.9122
G01 X33.5444 Y26.9589
G01 X33.6381 Y27.0150
G01 X33.7258 Y27.0800
G01 X33.8067 Y27.1533
G01 X33.8800 Y27.2342
G01 X33.9450 Y27.3219
G01 X34.0011 Y27.4156
G01 X34.0478 Y27.5143
G01 X34.0846 Y27.6171
G01 X34.1111 Y27.7230
G01 X34.1271 Y27.8310
G01 X34.1324 Y27.9425
G00 Z2.0000
G00 X34.2223 Y27.9469
G01 F60.00
G01 Z-0.0000
G01 F120.00
G01 X34.2167 Y28.0579
G01 X34.1994 Y28.1746
G01 X34.1707 Y28.2891
G01 X34.1310 Y28.4002
G01 X34.0805 Y28.5069
G01 X34.0198 Y28.6081
G01 X33.9495 Y28.7029
G01 X33.8703 Y28.7903
G01 X33.7829 Y28.8695
G01 X33.6881 Y28.9398
G01 X33.5869 Y29.0005
G01 X33.4802 Y29.0510
G01 X33.3691 Y29.0907
G01 X33.2546 Y29.1194
G01 X33.1379 Y29.1367
G01 X33.0200 Y29.1425
G01 X32.9021 Y29.1367
G01 X32.7854 Y29.1194
G01 X32.6709 Y29.0907
G01 X32.5598 Y29.0510
G01 X32.4531 Y29.0005
G01 X32.3519 Y28.9398
G01 X32.2571 Y28.8695
G01 X32.1697 Y28.7903
G01 X32.0905 Y28.7029
G01 X32.0202 Y28.6081
G01 X31.9595 Y28.5069
G01 X31.9090 Y28.4002
G01 X31.8693 Y28.2891
G01 X31.8406 Y28.1746
G01 X31.8233 Y28.0579
G01 X31.8175 Y27.9400
G01 X31.8233 Y27.8221
G01 X31.8406 Y27.7054
G01 X31.8693 Y27.5909
G01 X31.9090 Y27.4798
G01 X31.9595 Y27.3731
G01 X32.0202 Y27.2719
G01 X32.0905 Y27.1771
G01 X32.1697 Y27.0897
G01 X32.2571 Y27.0105
G01 X32.3519 Y26.9402
G01 X32.4531 Y26.8795
G01 X32.5598 Y26.8290
G01 X32.6709 Y26.7893
G01 X32.7854 Y26.7606
G01 X32.9021 Y26.7433
G01 X33.0200 Y26.7375
G01 X33.1379 Y26.7433
G01 X33.2546 Y26.7606
G01 X33.3691 Y26.7893
G01 X33.4802 Y26.8290
G01 X33.5869 Y26.8795
G01 X33.6881 Y26.9402
G01 X33.7829 Y27.0105
G01 X33.8703 Y27.0897
G01 X33.9495 Y27.1771
G01 X34.0198 Y27.2719
G01 X34.0805 Y27.3731
G01 X34.1310 Y27.4798
G01 X34.1707 Y27.5909
G01 X34.1994 Y27.7054
G01 X34.2167 Y27.8221
G01 X34.2223 Y27.9331
G01 X34.2223 Y27.9469
G00 Z2.0000
G00 X34.2900 Y25.9453
G01 F60.00
G01 Z-0.0000
G01 F120.00
G01 X34.3337 Y26.0377
G01 X34.3407 Y26.0517
G01 X34.3485 Y26.0654
G01 X34.4021 Y26.1548
G01 X34.4105 Y26.1681
G01 X34.4195 Y26.1809
G01 X34.4817 Y26.2647
G01 X34.4913 Y26.2770
G01 X34.5016 Y26.2889
G01 X34.5716 Y26.3662
G01 X34.5824 Y26.3776
G01 X34.5938 Y26.3884
G01 X34.6711 Y26.4584
G01 X34.6830 Y26.4687
G01 X34.6953 Y26.4783
G01 X34.7791 Y26.5405
G01 X34.7919 Y26.5495
G01 X34.8052 Y26.5579
G01 X34.8946 Y26.6115
G01 X34.9083 Y26.6193
G01 X34.9223 Y26.6263
G01 X35.0147 Y26.6700
G01 X34.9223 Y26.7137
G01 X34.9083 Y26.7207
G01 X34.8946 Y26.7285
G01 X34.8052 Y26.7821
G01 X34.7919 Y26.7905
G01 X34.7791 Y26.7995
G01 X34.6953 Y26.8617
G01 X34.6830 Y26.8713
G01 X34.6711 Y26.8816
G01 X34.5938 Y26.9516
G01 X34.5824 Y26.9624
G01 X34.5716 Y26.9738
G01 X34.5016 Y27.0511
G01 X34.4913 Y27.0630
G01 X34.4817 Y27.0753
G01 X34.4195 Y27.1591
G01 X34.4105 Y27.1719
G01 X34.4021 Y27.1852
G01 X34.3485 Y27.2746
G01 X34.3407 Y27.2883
G01 X34.3337 Y27.3023
G01 X34.2900 Y27.3947
G01 X34.2463 Y27.3023
G01 X34.2393 Y27.2883
G01 X34.2315 Y27.2746
G01 X34.1779 Y27.1852
G01 X34.1695 Y27.1719
G01 X34.1605 Y27.1591
G01 X34.0983 Y27.0753
G01 X34.0887 Y27.0630
G01 X34.0784 Y27.0511
G01 X34.0084 Y26.9738
G01 X33.9976 Y26.9624
G01 X33.9862 Y26.9516
G01 X33.9089 Y26.8816
G01 X33.8970 Y26.8713
G01 X33.8847 Y26.8617
G01 X33.8009 Y26.7995
G01 X33.7881 Y26.7905
G01 X33.7748 Y26.7821
G01 X33.6854 Y26.7285
G01 X33.6717 Y26.7207
G01 X33.6577 Y26.7137
G01 X33.5653 Y26.6700
G01 X33.6577 Y26.6263
G01 X33.6717 Y26.6193
G01 X33.6854 Y26.6115
G01 X33.7748 Y26.5579
G01 X33.7881 Y26.5495
G01 X33.8009 Y26.5405
G01 X33.8847 Y26.4783
G01 X33.8970 Y26.4687
G01 X33.9089 Y26.4584
G01 X33.9862 Y26.3884
G01 X33.9976 Y26.3776
G01 X34.0084 Y26.3662
G01 X34.0784 Y26.2889
G01 X34.0887 Y26.2770
G01 X34.0983 Y26.2647
G01 X34.1605 Y26.1809
G01 X34.1695 Y26.1681
G01 X34.1779 Y26.1548
G01 X34.2315 Y26.0654
G01 X34.2393 Y26.0517
G01 X34.2463 Y26.0377
G01 X34.2900 Y25.9453
G00 Z2.0000
G00 X34.2900 Y25.6383
G01 F60.00
G01 Z-0.0000
G01 F120.00
G01 X34.2923 Y25.6522
G01 X34.2948 Y25.6632
G01 X34.3201 Y25.7643
G01 X34.3232 Y25.7752
G01 X34.3267 Y25.7859
G01 X34.3659 Y25.8946
G01 X34.3705 Y25.9049
G01 X34.4201 Y26.0093
G01 X34.4793 Y26.1085
G01 X34.4853 Y26.1181
G01 X34.4918 Y26.1273
G01 X34.5609 Y26.2200
G01 X34.5683 Y26.2285
G01 X34.6461 Y26.3139
G01 X34.7315 Y26.3917
G01 X34.7400 Y26.3991
G01 X34.7489 Y26.4061
G01 X34.8419 Y26.4747
G01 X34.9409 Y26.5343
G01 X34.9507 Y26.5399
G01 X35.0551 Y26.5895
G01 X35.0654 Y26.5941
G01 X35.1741 Y26.6333
G01 X35.1848 Y26.6368
G01 X35.1957 Y26.6399
G01 X35.2968 Y26.6652
G01 X35.3078 Y26.6677
G01 X35.3217 Y26.6700
G01 X35.3078 Y26.6723
G01 X35.2968 Y26.6748
G01 X35.1957 Y26.7001
G01 X35.1848 Y26.7032
G01 X35.1741 Y26.7067
G01 X35.0654 Y26.7459
G01 X35.0551 Y26.7505
G01 X34.9507 Y26.8001
G01 X34.8515 Y26.8593
G01 X34.8419 Y26.8653
G01 X34.7489 Y26.9339
G01 X34.7400 Y26.9409
G01 X34.7315 Y26.9483
G01 X34.6461 Y27.0261
G01 X34.6383 Y27.0342
G01 X34.5609 Y27.1200
G01 X34.4918 Y27.2127
G01 X34.4853 Y27.2219
G01 X34.4793 Y27.2315
G01 X34.4201 Y27.3307
G01 X34.4150 Y27.3408
G01 X34.3659 Y27.4454
G01 X34.3267 Y27.5541
G01 X34.3232 Y27.5648
G01 X34.3201 Y27.5757
G01 X34.2948 Y27.6768
G01 X34.2923 Y27.6878
G01 X34.2900 Y27.7017
G01 X34.2877 Y27.6878
G01 X34.2852 Y27.6768
G01 X34.2599 Y27.5757
G01 X34.2568 Y27.5648
G01 X34.2533 Y27.5541
G01 X34.2141 Y27.4454
G01 X34.1650 Y27.3408
G01 X34.1599 Y27.3307
G01 X34.1007 Y27.2315
G01 X34.0947 Y27.2219
G01 X34.0882 Y27.2127
G01 X34.0191 Y27.1200
G01 X34.0117 Y27.1115
G01 X33.9339 Y27.0261
G01 X33.8485 Y26.9483
G01 X33.8400 Y26.9409
G01 X33.8311 Y26.9339
G01 X33.7381 Y26.8653
G01 X33.7285 Y26.8593
G01 X33.6293 Y26.8001
G01 X33.5249 Y26.7505
G01 X33.5146 Y26.7459
G01 X33.4059 Y26.7067
G01 X33.3952 Y26.7032
G01 X33.3843 Y26.7001
G01 X33.2832 Y26.6748
G01 X33.2722 Y26.6723
G01 X33.2583 Y26.6700
G01 X33.2722 Y26.6677
G01 X33.2832 Y26.6652
G01 X33.3843 Y26.6399
G01 X33.3952 Y26.6368
G01 X33.4059 Y26.6333
G01 X33.5146 Y26.5941
G01 X33.5249 Y26.5895
G01 X33.6293 Y26.5399
G01 X33.7285 Y26.4807
G01 X33.7381 Y26.4747
G01 X33.7473 Y26.4682
G01 X33.8400 Y26.3991
G01 X33.8485 Y26.3917
G01 X33.9339 Y26.3139
G01 X34.0117 Y26.2285
G01 X34.0191 Y26.2200
G01 X34.0882 Y26.1273
G01 X34.0947 Y26.1181
G01 X34.1007 Y26.1085
G01 X34.1599 Y26.0093
G01 X34.1650 Y25.9992
G01 X34.2141 Y25.8946
G01 X34.2533 Y25.7859
G01 X34.2568 Y25.7752
G01 X34.2599 Y25.7643
G01 X34.2852 Y25.6632
G01 X34.2877 Y25.6522
G01 X34.2900 Y25.6383
G00 Z2.0000
G00 X33.5653 Y24.1300
G01 F60.00
G01 Z-0.0000
G01 F120.00
G01 X33.6577 Y24.0863
G01 X33.6717 Y24.0793
G01 X33.6854 Y24.0715
G01 X33.7748 Y24.0179
G01 X33.7881 Y24.0095
G01 X33.8009 Y24.0005
G01 X33.8847 Y23.9383
G01 X33.8970 Y23.9287
G01 X33.9089 Y23.9184
G01 X33.9862 Y23.8484
G01 X33.9976 Y23.8376
G01 X34.0084 Y23.8262
G01 X34.0784 Y23.7489
G01 X34.0887 Y23.7370
G01 X34.0983 Y23.7247
G01 X34.1605 Y23.6409
G01 X34.1695 Y23.6281
G01 X34.1779 Y23.6148
G01 X34.2315 Y23.5254
G01 X34.2393 Y23.5117
G01 X34.2463 Y23.4977
G01 X34.2900 Y23.4053
G01 X34.3337 Y23.4977
G01 X34.3407 Y23.5117
G01 X34.3485 Y23.5254
G01 X34.4021 Y23.6148
G01 X34.4105 Y23.6281
G01 X34.4195 Y23.6409
G01 X34.4817 Y23.7247
G01 X34.4913 Y23.7370
G01 X34.5016 Y23.7489
G01 X34.5716 Y23.8262
G01 X34.5824 Y23.8376
G01 X34.5938 Y23.8484
G01 X34.6711 Y23.9184
G01 X34.6830 Y23.9287
G01 X34.6953 Y23.9383
G01 X34.7791 Y24.0005
G01 X34.7919 Y24.0095
G01 X34.8052 Y24.0179
G01 X34.8946 Y24.0715
G01 X34.9083 Y24.0793
G01 X34.9223 Y24.0863
G01 X35.0147 Y24.1300
G01 X34.9223 Y24.1737
G01 X34.9083 Y24.1807
G01 X34.8946 Y24.1885
G01 X34.8052 Y24.2421
G01 X34.7919 Y24.2505
G01 X34.7791 Y24.2595
G01 X34.6953 Y24.3217
G01 X34.6830 Y24.3313
G01 X34.6711 Y24.3416
G01 X34.5938 Y24.4116
G01 X34.5824 Y24.4224
G01 X34.5716 Y24.4338
G01 X34.5016 Y24.5111
G01 X34.4913 Y24.5230
G01 X34.4817 Y24.5353
G01 X34.4195 Y24.6191
G01 X34.4105 Y24.6319
G01 X34.4021 Y24.6452
G01 X34.3485 Y24.7346
G01 X34.3407 Y24.7483
G01 X34.3337 Y24.7623
G01 X34.2900 Y24.8547
G01 X34.2463 Y24.7623
G01 X34.2393 Y24.7483
G01 X34.2315 Y24.7346
G01 X34.1779 Y24.6452
G01 X34.1695 Y24.6319
G01 X34.1605 Y24.6191
G01 X34.0983 Y24.5353
G01 X34.0887 Y24.5230
G01 X34.0784 Y24.5111
G01 X34.0084 Y24.4338
G01 X33.9976 Y24.4224
G01 X33.9862 Y24.4116
G01 X33.9089 Y24.3416
G01 X33.8970 Y24.3313
G01 X33.8847 Y24.3217
G01 X33.8009 Y24.2595
G01 X33.7881 Y24.2505
G01 X33.7748 Y24.2421
G01 X33.6854 Y24.1885
G01 X33.6717 Y24.1807
G01 X33.6577 Y24.1737
G01 X33.5653 Y24.1300
G00 Z2.0000
G00 X33.2583 Y24.1300
G01 F60.00
G01 Z-0.0000
G01 F120.00
G01 X33.2722 Y24.1277
G01 X33.2832 Y24.1252
G01 X33.3843 Y24.0999
G01 X33.3952 Y24.0968
G01 X33.4059 Y24.0933
G01 X33.5146 Y24.0541
G01 X33.5249 Y24.0495
G01 X33.6293 Y23.9999
G01 X33.7285 Y23.9407
G01 X33.7381 Y23.9347
G01 X33.7473 Y23.9282
G01 X33.8400 Y23.8591
G01 X33.8485 Y23.8517
G01 X33.9339 Y23.7739
G01 X34.0117 Y23.6885
G01 X34.0191 Y23.6800
G01 X34.0882 Y23.5873
G01 X34.0947 Y23.5781
G01 X34.1007 Y23.5685
G01 X34.1599 Y23.4693
G01 X34.1650 Y23.4592
G01 X34.2141 Y23.3546
G01 X34.2533 Y23.2459
G01 X34.2568 Y23.2352
G01 X34.2599 Y23.2243
G01 X34.2852 Y23.1232
G01 X34.2877 Y23.1122
G01 X34.2900 Y23.0983
G01 X34.2923 Y23.1122
G01 X34.2948 Y23.1232
G01 X34.3201 Y23.2243
G01 X34.3232 Y23.2352
G01 X34.3267 Y23.2459
G01 X34.3659 Y23.3546
G01 X34.3705 Y23.3649
G01 X34.4201 Y23.4693
G01 X34.4793 Y23.5685
G01 X34.4853 Y23.5781
G01 X34.4918 Y23.5873
G01 X34.5609 Y23.6800
G01 X34.5683 Y23.6885
G01 X34.6461 Y23.7739
G01 X34.7315 Y23.8517
G01 X34.7400 Y23.8591
G01 X34.7489 Y23.8661
G01 X34.8419 Y23.9347
G01 X34.9409 Y23.9943
G01 X34.9507 Y23.9999
G01 X35.0551 Y24.0495
G01 X35.0654 Y24.0541
G01 X35.1741 Y24.0933
G01 X35.1848 Y24.0968
G01 X35.1957 Y24.0999
G01 X35.2968 Y24.1252
G01 X35.3078 Y24.1277
G01 X35.3217 Y24.1300
G01 X35.3078 Y24.1323
G01 X35.2968 Y24.1348
G01 X35.1957 Y24.1601
G01 X35.1848 Y24.1632
G01 X35.1741 Y24.1667
G01 X35.0654 Y24.2059
G01 X35.0551 Y24.2105
G01 X34.9507 Y24.2601
G01 X34.8515 Y24.3193
G01 X34.8419 Y24.3253
G01 X34.7489 Y24.3939
G01 X34.7400 Y24.4009
G01 X34.7315 Y24.4083
G01 X34.6461 Y24.4861
G01 X34.6383 Y24.4942
G01 X34.5609 Y24.5800
G01 X34.4918 Y24.6727
G01 X34.4853 Y24.6819
G01 X34.4793 Y24.6915
G01 X34.4201 Y24.7907
G01 X34.4150 Y24.8008
G01 X34.3659 Y24.9054
G01 X34.3267 Y25.0141
G01 X34.3232 Y25.0248
G01 X34.3201 Y25.0357
G01 X34.2948 Y25.1368
G01 X34.2923 Y25.1478
G01 X34.2900 Y25.1617
G01 X34.2877 Y25.1478
G01 X34.2852 Y25.1368
G01 X34.2599 Y25.0357
G01 X34.2568 Y25.0248
G01 X34.2533 Y25.0141
G01 X34.2141 Y24.9054
G01 X34.1650 Y24.8008
G01 X34.1599 Y24.7907
G01 X34.1007 Y24.6915
G01 X34.0947 Y24.6819
G01 X34.0882 Y24.6727
G01 X34.0191 Y24.5800
G01 X34.0117 Y24.5715
G01 X33.9339 Y24.4861
G01 X33.8485 Y24.4083
G01 X33.8400 Y24.4009
G01 X33.8311 Y24.3939
G01 X33.7381 Y24.3253
G01 X33.7285 Y24.3193
G01 X33.6293 Y24.2601
G01 X33.5249 Y24.2105
G01 X33.5146 Y24.2059
G01 X33.4059 Y24.1667
G01 X33.3952 Y24.1632
G01 X33.3843 Y24.1601
G01 X33.2832 Y24.1348
G01 X33.2722 Y24.1323
G01 X33.2583 Y24.1300
G00 Z2.0000
G00 X34.1324 Y22.8625
G01 F60.00
G01 Z-0.0000
G01 F120.00
G01 X34.1271 Y22.9690
G01 X34.1111 Y23.0770
G01 X34.0846 Y23.1829
G01 X34.0478 Y23.2857
G01 X34.0011 Y23.3844
G01 X33.9450 Y23.4781
G01 X33.8800 Y23.5658
G01 X33.8067 Y23.6467
G01 X33.7258 Y23.7200
G01 X33.6381 Y23.7850
G01 X33.5444 Y23.8411
G01 X33.4457 Y23.8878
G01 X33.3429 Y23.9246
G01 X33.2370 Y23.9511
G01 X33.1290 Y23.9671
G01 X33.0200 Y23.9725
G01 X32.9110 Y23.9671
G01 X32.8030 Y23.9511
G01 X32.6971 Y23.9246
G01 X32.5943 Y23.8878
G01 X32.4956 Y23.8411
G01 X32.4019 Y23.7850
G01 X32.3142 Y23.7200
G01 X32.2333 Y23.6467
G01 X32.1600 Y23.5658
G01 X32.0950 Y23.4781
G01 X32.0389 Y23.3844
G01 X31.9922 Y23.2857
G01 X31.9554 Y23.1829
G01 X31.9289 Y23.0770
G01 X31.9129 Y22.9690
G01 X31.9075 Y22.8600
G01 X31.9129 Y22.7510
G01 X31.9289 Y22.6430
G01 X31.9554 Y22.5371
G01 X31.9922 Y22.4343
G01 X32.0389 Y22.3356
G01 X32.0950 Y22.2419
G01 X32.1600 Y22.1542
G01 X32.2333 Y22.0733
G01 X32.3142 Y22.0000
G01 X32.4019 Y21.9350
G01 X32.4956 Y21.8789
G01 X32.5943 Y21.8322
G01 X32.6971 Y21.7954
G01 X32.8030 Y21.7689
G01 X32.9110 Y21.7529
G01 X33.0200 Y21.7475
G01 X33.1290 Y21.7529
G01 X33.2370 Y21.7689
G01 X33.3429 Y21.7954
G01 X33.4457 Y21.8322
G01 X33.5444 Y21.8789
G01 X33.6381 Y21.9350
G01 X33.7258 Y22.0000
G01 X33.8067 Y22.0733
G01 X33.8800 Y22.1542
G01 X33.9450 Y22.2419
G01 X34.0011 Y22.3356
G01 X34.0478 Y22.4343
G01 X34.0846 Y22.5371
G01 X34.1111 Y22.6430
G01 X34.1271 Y22.7510
G01 X34.1324 Y22.8625
G00 Z2.0000
G00 X34.2223 Y22.8669
G01 F60.00
G01 Z-0.0000
G01 F120.00
G01 X34.2167 Y22.9779
G01 X34.1994 Y23.0946
G01 X34.1707 Y23.2091
G01 X34.1310 Y23.3202
G01 X34.0805 Y23.4269
G01 X34.0198 Y23.5281
G01 X33.9495 Y23.6229
G01 X33.8703 Y23.7103
G01 X33.7829 Y23.7895
G01 X33.6881 Y23.8598
G01 X33.5869 Y23.9205
G01 X33.4802 Y23.9710
G01 X33.3691 Y24.0107
G01 X33.2546 Y24.0394
G01 X33.1379 Y24.0567
G01 X33.0200 Y24.0625
G01 X32.9021 Y24.0567
G01 X32.7854 Y24.0394
G01 X32.6709 Y24.0107
G01 X32.5598 Y23.9710
G01 X32.4531 Y23.9205
G01 X32.3519 Y23.8598
G01 X32.2571 Y23.7895
G01 X32.1697 Y23.7103
G01 X32.0905 Y23.6229
G01 X32.0202 Y23.5281
G01 X31.9595 Y23.4269
G01 X31.9090 Y23.3202
G01 X31.8693 Y23.2091
G01 X31.8406 Y23.0946
G01 X31.8233 Y22.9779
G01 X31.8175 Y22.8600
G01 X31.8233 Y22.7421
G01 X31.8406 Y22.6254
G01 X31.8693 Y22.5109
G01 X31.9090 Y22.3998
G01 X31.9595 Y22.2931
G01 X32.0202 Y22.1919
G01 X32.0905 Y22.0971
G01 X32.1697 Y22.0097
G01 X32.2571 Y21.9305
G01 X32.3519 Y21.8602
G01 X32.4531 Y21.7995
G01 X32.5598 Y21.7490
G01 X32.6709 Y21.7093
G01 X32.7854 Y21.6806
G01 X32.9021 Y21.6633
G01 X33.0200 Y21.6575
G01 X33.1379 Y21.6633
G01 X33.2546 Y21.6806
G01 X33.3691 Y21.7093
G01 X33.4802 Y21.7490
G01 X33.5869 Y21.7995
G01 X33.6881 Y21.8602
G01 X33.7829 Y21.9305
G01 X33.8703 Y22.0097
G01 X33.9495 Y22.0971
G01 X34.0198 Y22.1919
G01 X34.0805 Y22.2931
G01 X34.1310 Y22.3998
G01 X34.1707 Y22.5109
G01 X34.1994 Y22.6254
G01 X34.2167 Y22.7421
G01 X34.2223 Y22.8531
G01 X34.2223 Y22.8669
G00 Z2.0000
G00 X33.5653 Y21.5900
G01 F60.00
G01 Z-0.0000
G01 F120.00
G01 X33.6577 Y21.5463
G01 X33.6717 Y21.5393
G01 X33.6854 Y21.5315
G01 X33.7748 Y21.4779
G01 X33.7881 Y21.4695
G01 X33.8009 Y21.4605
G01 X33.8847 Y21.3983
G01 X33.8970 Y21.3887
G01 X33.9089 Y21.3784
G01 X33.9862 Y21.3084
G01 X33.9976 Y21.2976
G01 X34.0084 Y21.2862
G01 X34.0784 Y21.2089
G01 X34.0887 Y21.1970
G01 X34.0983 Y21.1847
G01 X34.1605 Y21.1009
G01 X34.1695 Y21.0881
G01 X34.1779 Y21.0748
G01 X34.2315 Y20.9854
G01 X34.2393 Y20.9717
G01 X34.2463 Y20.9577
G01 X34.2900 Y20.8653
G01 X34.3337 Y20.9577
G01 X34.3407 Y20.9717
G01 X34.3485 Y20.9854
G01 X34.4021 Y21.0748
G01 X34.4105 Y21.0881
G01 X34.4195 Y21.1009
G01 X34.4817 Y21.1847
G01 X34.4913 Y21.1970
G01 X34.5016 Y21.2089
G01 X34.5716 Y21.2862
G01 X34.5824 Y21.2976
G01 X34.5938 Y21.3084
G01 X34.6711 Y21.3784
G01 X34.6830 Y21.3887
G01 X34.6953 Y21.3983
G01 X34.7791 Y21.4605
G01 X34.7919 Y21.4695
G01 X34.8052 Y21.4779
G01 X34.8946 Y21.5315
G01 X34.9083 Y21.5393
G01 X34.9223 Y21.5463
G01 X35.0147 Y21.5900
G01 X34.9223 Y21.6337
G01 X34.9083 Y21.6407
G01 X34.8946 Y21.6485
G01 X34.8052 Y21.7021
G01 X34.7919 Y21.7105
G01 X34.7791 Y21.7195
G01 X34.6953 Y21.7817
G01 X34.6830 Y21.7913
G01 X34.6711 Y21.8016
G01 X34.5938 Y21.8716
G01 X34.5824 Y21.8824
G01 X34.5716 Y21.8938
G01 X34.5016 Y21.9711
G01 X34.4913 Y21.9830
G01 X34.4817 Y21.9953
G01 X34.4195 Y22.0791
G01 X34.4105 Y22.0919
G01 X34.4021 Y22.1052
G01 X34.3485 Y22.1946
G01 X34.3407 Y22.2083
G01 X34.3337 Y22.2223
G01 X34.2900 Y22.3147
G01 X34.2463 Y22.2223
G01 X34.2393 Y22.2083
G01 X34.2315 Y22.1946
G01 X34.1779 Y22.1052
G01 X34.1695 Y22.0919
G01 X34.1605 Y22.0791
G01 X34.0983 Y21.9953
G01 X34.0887 Y21.9830
G01 X34.0784 Y21.9711
G01 X34.0084 Y21.8938
G01 X33.9976 Y21.8824
G01 X33.9862 Y21.8716
G01 X33.9089 Y21.8016
G01 X33.8970 Y21.7913
G01 X33.8847 Y21.7817
G01 X33.8009 Y21.7195
G01 X33.7881 Y21.7105
G01 X33.7748 Y21.7021
G01 X33.6854 Y21.6485
G01 X33.6717 Y21.6407
G01 X33.6577 Y21.6337
G01 X33.5653 Y21.5900
G00 Z2.0000
G00 X33.2583 Y21.5900
G01 F60.00
G01 Z-0.0000
G01 F120.00
G01 X33.2722 Y21.5877
G01 X33.2832 Y21.5852
G01 X33.3843 Y21.5599
G01 X33.3952 Y21.5568
G01 X33.4059 Y21.5533
G01 X33.5146 Y21.5141
G01 X33.5249 Y21.5095
G01 X33.6293 Y21.4599
G01 X33.7285 Y21.4007
G01 X33.7381 Y21.3947
G01 X33.7473 Y21.3882
G01 X33.8400 Y21.3191
G01 X33.8485 Y21.3117
G01 X33.9339 Y21.2339
G01 X34.0117 Y21.1485
G01 X34.0191 Y21.1400
G01 X34.0882 Y21.0473
G01 X34.0947 Y21.0381
G01 X34.1007 Y21.0285
G01 X34.1599 Y20.9293
G01 X34.1650 Y20.9192
G01 X34.2141 Y20.8146
G01 X34.2533 Y20.7059
G01 X34.2568 Y20.6952
G01 X34.2599 Y20.6843
G01 X34.2852 Y20.5832
G01 X34.2877 Y20.5722
G01 X34.2900 Y20.5583
G01 X34.2923 Y20.5722
G01 X34.2948 Y20.5832
G01 X34.3201 Y20.6843
G01 X34.3232 Y20.6952
G01 X34.3267 Y20.7059
G01 X34.3659 Y20.8146
G01 X34.3705 Y20.8249
G01 X34.4201 Y20.9293
G01 X34.4793 Y21.0285
G01 X34.4853 Y21.0381
G01 X34.4918 Y21.0473
G01 X34.5609 Y21.1400
G01 X34.5683 Y21.1485
G01 X34.6461 Y21.2339
G01 X34.7315 Y21.3117
G01 X34.7400 Y21.3191
G01 X34.7489 Y21.3261
G01 X34.8419 Y21.3947
G01 X34.9409 Y21.4543
G01 X34.9507 Y21.4599
G01 X35.0551 Y21.5095
G01 X35.0654 Y21.5141
G01 X35.1741 Y21.5533
G01 X35.1848 Y21.5568
G01 X35.1957 Y21.5599
G01 X35.2968 Y21.5852
G01 X35.3078 Y21.5877
G01 X35.3217 Y21.5900
G01 X35.3078 Y21.5923
G01 X35.2968 Y21.5948
G01 X35.1957 Y21.6201
G01 X35.1848 Y21.6232
G01 X35.1741 Y21.6267
G01 X35.0654 Y21.6659
G01 X35.0551 Y21.6705
G01 X34.9507 Y21.7201
G01 X34.8515 Y21.7793
G01 X34.8419 Y21.7853
G01 X34.7489 Y21.8539
G01 X34.7400 Y21.8609
G01 X34.7315 Y21.8683
G01 X34.6461 Y21.9461
G01 X34.6383 Y21.9542
G01 X34.5609 Y22.0400
G01 X34.4918 Y22.1327
G01 X34.4853 Y22.1419
G01 X34.4793 Y22.1515
G01 X34.4201 Y22.2507
G01 X34.4150 Y22.2608
G01 X34.3659 Y22.3654
G01 X34.3267 Y22.4741
G01 X34.3232 Y22.4848
G01 X34.3201 Y22.4957
G01 X34.2948 Y22.5968
G01 X34.2923 Y22.6078
G01 X34.2900 Y22.6217
G01 X34.2877 Y22.6078
G01 X34.2852 Y22.5968
G01 X34.2599 Y22.4957
G01 X34.2568 Y22.4848
G01 X34.2533 Y22.4741
G01 X34.2141 Y22.3654
G01 X34.1650 Y22.2608
G01 X34.1599 Y22.2507
G01 X34.1007 Y22.1515
G01 X34.0947 Y22.1419
G01 X34.0882 Y22.1327
G01 X34.0191 Y22.0400
G01 X34.0117 Y22.0315
G01 X33.9339 Y21.9461
G01 X33.8485 Y21.8683
G01 X33.8400 Y21.8609
G01 X33.8311 Y21.8539
G01 X33.7381 Y21.7853
G01 X33.7285 Y21.7793
G01 X33.6293 Y21.7201
G01 X33.5249 Y21.6705
G01 X33.5146 Y21.6659
G01 X33.4059 Y21.6267
G01 X33.3952 Y21.6232
G01 X33.3843 Y21.6201
G01 X33.2832 Y21.5948
G01 X33.2722 Y21.5923
G01 X33.2583 Y21.5900
G00 Z2.0000
G00 X34.1324 Y20.3225
G01 F60.00
G01 Z-0.0000
G01 F120.00
G01 X34.1271 Y20.4290
G01 X34.1111 Y20.5370
G01 X34.0846 Y20.6429
G01 X34.0478 Y20.7457
G01 X34.0011 Y20.8444
G01 X33.9450 Y20.9381
G01 X33.8800 Y21.0258
G01 X33.8067 Y21.1067
G01 X33.7258 Y21.1800
G01 X33.6381 Y21.2450
G01 X33.5444 Y21.3011
G01 X33.4457 Y21.3478
G01 X33.3429 Y21.3846
G01 X33.2370 Y21.4111
G01 X33.1290 Y21.4271
G01 X33.0200 Y21.4325
G01 X32.9110 Y21.4271
G01 X32.8030 Y21.4111
G01 X32.6971 Y21.3846
G01 X32.5943 Y21.3478
G01 X32.4956 Y21.3011
G01 X32.4019 Y21.2450
G01 X32.3142 Y21.1800
G01 X32.2333 Y21.1067
G01 X32.1600 Y21.0258
G01 X32.0950 Y20.9381
G01 X32.0389 Y20.8444
G01 X31.9922 Y20.7457
G01 X31.9554 Y20.6429
G01 X31.9289 Y20.5370
G01 X31.9129 Y20.4290
G01 X31.9075 Y20.3200
G01 X31.9129 Y20.2110
G01 X31.9289 Y20.1030
G01 X31.9554 Y19.9971
G01 X31.9922 Y19.8943
G01 X32.0389 Y19.7956
G01 X32.0950 Y19.7019
G01 X32.1600 Y19.6142
G01 X32.2333 Y19.5333
G01 X32.3142 Y19.4600
G01 X32.4019 Y19.3950
G01 X32.4956 Y19.3389
G01 X32.5943 Y19.2922
G01 X32.6971 Y19.2554
G01 X32.8030 Y19.2289
G01 X32.9110 Y19.2129
G01 X33.0200 Y19.2075
G01 X33.1290 Y19.2129
G01 X33.2370 Y19.2289
G01 X33.3429 Y19.2554
G01 X33.4457 Y19.2922
G01 X33.5444 Y19.3389
G01 X33.6381 Y19.3950
G01 X33.7258 Y19.4600
G01 X33.8067 Y19.5333
G01 X33.8800 Y19.6142
G01 X33.9450 Y19.7019
G01 X34.0011 Y19.7956
G01 X34.0478 Y19.8943
G01 X34.0846 Y19.9971
G01 X34.1111 Y20.1030
G01 X34.1271 Y20.2110
G01 X34.1324 Y20.3225
G00 Z2.0000
G00 X34.2223 Y20.3269
G01 F60.00
G01 Z-0.0000
G01 F120.00
G01 X34.2167 Y20.4379
G01 X34.1994 Y20.5546
G01 X34.1707 Y20.6691
G01 X34.1310 Y20.7802
G01 X34.0805 Y20.8869
G01 X34.0198 Y20.9881
G01 X33.9495 Y21.0829
G01 X33.8703 Y21.1703
G01 X33.7829 Y21.2495
G01 X33.6881 Y21.3198
G01 X33.5869 Y21.3805
G01 X33.4802 Y21.4310
G01 X33.3691 Y21.4707
G01 X33.2546 Y21.4994
G01 X33.1379 Y21.5167
G01 X33.0200 Y21.5225
G01 X32.9021 Y21.5167
G01 X32.7854 Y21.4994
G01 X32.6709 Y21.4707
G01 X32.5598 Y21.4310
G01 X32.4531 Y21.3805
G01 X32.3519 Y21.3198
G01 X32.2571 Y21.2495
G01 X32.1697 Y21.1703
G01 X32.0905 Y21.0829
G01 X32.0202 Y20.9881
G01 X31.9595 Y20.8869
G01 X31.9090 Y20.7802
G01 X31.8693 Y20.6691
G01 X31.8406 Y20.5546
G01 X31.8233 Y20.4379
G01 X31.8175 Y20.3200
G01 X31.8233 Y20.2021
G01 X31.8406 Y20.0854
G01 X31.8693 Y19.9709
G01 X31.9090 Y19.8598
G01 X31.9595 Y19.7531
G01 X32.0202 Y19.6519
G01 X32.0905 Y19.5571
G01 X32.1697 Y19.4697
G01 X32.2571 Y19.3905
G01 X32.3519 Y19.3202
G01 X32.4531 Y19.2595
G01 X32.5598 Y19.2090
G01 X32.6709 Y19.1693
G01 X32.7854 Y19.1406
G01 X32.9021 Y19.1233
G01 X33.0200 Y19.1175
G01 X33.1379 Y19.1233
G01 X33.2546 Y19.1406
G01 X33.3691 Y19.1693
G01 X33.4802 Y19.2090
G01 X33.5869 Y19.2595
G01 X33.6881 Y19.3202
G01 X33.7829 Y19.3905
G01 X33.8703 Y19.4697
G01 X33.9495 Y19.5571
G01 X34.0198 Y19.6519
G01 X34.0805 Y19.7531
G01 X34.1310 Y19.8598
G01 X34.1707 Y19.9709
G01 X34.1994 Y20.0854
G01 X34.2167 Y20.2021
G01 X34.2223 Y20.3131
G01 X34.2223 Y20.3269
G00 Z2.0000
G00 X34.2900 Y20.0817
G01 F60.00
G01 Z-0.0000
G01 F120.00
G01 X34.2877 Y20.0678
G01 X34.2852 Y20.0568
G01 X34.2599 Y19.9557
G01 X34.2568 Y19.9448
G01 X34.2533 Y19.9341
G01 X34.2141 Y19.8254
G01 X34.1650 Y19.7208
G01 X34.1599 Y19.7107
G01 X34.1007 Y19.6115
G01 X34.0947 Y19.6019
G01 X34.0882 Y19.5927
G01 X34.0191 Y19.5000
G01 X34.0117 Y19.4915
G01 X33.9339 Y19.4061
G01 X33.8485 Y19.3283
G01 X33.8400 Y19.3209
G01 X33.8311 Y19.3139
G01 X33.7381 Y19.2453
G01 X33.7285 Y19.2393
G01 X33.6293 Y19.1801
G01 X33.5249 Y19.1305
G01 X33.5146 Y19.1259
G01 X33.4059 Y19.0867
G01 X33.3952 Y19.0832
G01 X33.3843 Y19.0801
G01 X33.2832 Y19.0548
G01 X33.2722 Y19.0523
G01 X33.2610 Y19.0504
G01 X33.1467 Y19.0337
G01 X33.0313 Y19.0278
G01 X33.0200 Y19.0275
G01 X33.0087 Y19.0278
G01 X32.9046 Y19.0329
G01 X32.8933 Y19.0337
G01 X32.8821 Y19.0351
G01 X32.7678 Y19.0523
G01 X32.7568 Y19.0548
G01 X32.6448 Y19.0832
G01 X32.5359 Y19.1218
G01 X32.5254 Y19.1259
G01 X32.4208 Y19.1750
G01 X32.4107 Y19.1801
G01 X32.4009 Y19.1857
G01 X32.3115 Y19.2393
G01 X32.3019 Y19.2453
G01 X32.2927 Y19.2518
G01 X32.2000 Y19.3209
G01 X32.1915 Y19.3283
G01 X32.1061 Y19.4061
G01 X32.0983 Y19.4142
G01 X32.0209 Y19.5000
G01 X31.9518 Y19.5927
G01 X31.9453 Y19.6019
G01 X31.9393 Y19.6115
G01 X31.8857 Y19.7009
G01 X31.8801 Y19.7107
G01 X31.8750 Y19.7208
G01 X31.8259 Y19.8254
G01 X31.7867 Y19.9341
G01 X31.7832 Y19.9448
G01 X31.7801 Y19.9557
G01 X31.7548 Y20.0568
G01 X31.7523 Y20.0678
G01 X31.7504 Y20.0790
G01 X31.7337 Y20.1933
G01 X31.7329 Y20.2046
G01 X31.7275 Y20.3200
G01 X31.7329 Y20.4354
G01 X31.7337 Y20.4467
G01 X31.7504 Y20.5610
G01 X31.7523 Y20.5722
G01 X31.7548 Y20.5832
G01 X31.7832 Y20.6952
G01 X31.8218 Y20.8041
G01 X31.8259 Y20.8146
G01 X31.8305 Y20.8249
G01 X31.8750 Y20.9192
G01 X31.8801 Y20.9293
G01 X31.8857 Y20.9391
G01 X31.9453 Y21.0381
G01 X32.0139 Y21.1311
G01 X32.0209 Y21.1400
G01 X32.0283 Y21.1485
G01 X32.1061 Y21.2339
G01 X32.1915 Y21.3117
G01 X32.2000 Y21.3191
G01 X32.2089 Y21.3261
G01 X32.2927 Y21.3882
G01 X32.3019 Y21.3947
G01 X32.3115 Y21.4007
G01 X32.4107 Y21.4599
G01 X32.5151 Y21.5095
G01 X32.5254 Y21.5141
G01 X32.6341 Y21.5533
G01 X32.6448 Y21.5568
G01 X32.7568 Y21.5852
G01 X32.7678 Y21.5877
G01 X32.7817 Y21.5900
G01 X32.7678 Y21.5923
G01 X32.7568 Y21.5948
G01 X32.6557 Y21.6201
G01 X32.6448 Y21.6232
G01 X32.6341 Y21.6267
G01 X32.5254 Y21.6659
G01 X32.5151 Y21.6705
G01 X32.4107 Y21.7201
G01 X32.3115 Y21.7793
G01 X32.3019 Y21.7853
G01 X32.2089 Y21.8539
G01 X32.2000 Y21.8609
G01 X32.1915 Y21.8683
G01 X32.1061 Y21.9461
G01 X32.0983 Y21.9542
G01 X32.0209 Y22.0400
G01 X31.9518 Y22.1327
G01 X31.9453 Y22.1419
G01 X31.9393 Y22.1515
G01 X31.8801 Y22.2507
G01 X31.8750 Y22.2608
G01 X31.8259 Y22.3654
G01 X31.7867 Y22.4741
G01 X31.7832 Y22.4848
G01 X31.7801 Y22.4957
G01 X31.7523 Y22.6078
G01 X31.7351 Y22.7221
G01 X31.7337 Y22.7333
G01 X31.7329 Y22.7446
G01 X31.7275 Y22.8600
G01 X31.7329 Y22.9754
G01 X31.7337 Y22.9867
G01 X31.7351 Y22.9979
G01 X31.7523 Y23.1122
G01 X31.7801 Y23.2243
G01 X31.7832 Y23.2352
G01 X31.8218 Y23.3441
G01 X31.8259 Y23.3546
G01 X31.8750 Y23.4592
G01 X31.8801 Y23.4693
G01 X31.9393 Y23.5685
G01 X31.9453 Y23.5781
G01 X32.0139 Y23.6711
G01 X32.0209 Y23.6800
G01 X32.0283 Y23.6885
G01 X32.1061 Y23.7739
G01 X32.1915 Y23.8517
G01 X32.2000 Y23.8591
G01 X32.2089 Y23.8661
G01 X32.3019 Y23.9347
G01 X32.4009 Y23.9943
G01 X32.4107 Y23.9999
G01 X32.5151 Y24.0495
G01 X32.5254 Y24.0541
G01 X32.6341 Y24.0933
G01 X32.6448 Y24.0968
G01 X32.7568 Y24.1252
G01 X32.7678 Y24.1277
G01 X32.7817 Y24.1300
G01 X32.7678 Y24.1323
G01 X32.7568 Y24.1348
G01 X32.6448 Y24.1632
G01 X32.5359 Y24.2018
G01 X32.5202 Y24.2081
G01 X32.4208 Y24.2550
G01 X32.4107 Y24.2601
G01 X32.4009 Y24.2657
G01 X32.3019 Y24.3253
G01 X32.2327 Y24.3763
G01 X30.8884 Y23.0319
G01 X30.8884 Y19.9421
G01 X33.0891 Y17.7414
G01 X49.5179 Y17.7414
G01 X53.3051 Y21.5285
G01 X53.3063 Y21.5527
G01 X53.3074 Y21.5640
G01 X53.3237 Y21.6743
G01 X53.3268 Y21.6910
G01 X53.3539 Y21.7992
G01 X53.3569 Y21.8101
G01 X53.3604 Y21.8208
G01 X53.3961 Y21.9206
G01 X53.4002 Y21.9311
G01 X53.4048 Y21.9414
G01 X53.4500 Y22.0372
G01 X53.4551 Y22.0473
G01 X53.4607 Y22.0571
G01 X53.5181 Y22.1528
G01 X53.5277 Y22.1667
G01 X53.5942 Y22.2563
G01 X53.6014 Y22.2651
G01 X53.6167 Y22.2821
G01 X53.6177 Y24.9087
G01 X53.6216 Y24.9890
G01 X53.6224 Y25.0003
G01 X53.6348 Y25.0855
G01 X53.6367 Y25.0966
G01 X53.6573 Y25.1802
G01 X53.6604 Y25.1911
G01 X53.6639 Y25.2018
G01 X53.6932 Y25.2828
G01 X53.7053 Y25.3091
G01 X53.7348 Y25.3708
G01 X53.7788 Y25.4448
G01 X53.7849 Y25.4543
G01 X53.7914 Y25.4636
G01 X53.8429 Y25.5326
G01 X53.8503 Y25.5411
G01 X53.9043 Y25.6007
G01 X56.1576 Y27.8541
G01 X56.1576 Y28.5169
G01 X56.1414 Y28.5349
G01 X56.1342 Y28.5437
G01 X56.0677 Y28.6333
G01 X56.0612 Y28.6425
G01 X56.0552 Y28.6520
G01 X56.0007 Y28.7429
G01 X55.9925 Y28.7577
G01 X55.9448 Y28.8586
G01 X55.9381 Y28.8741
G01 X55.8986 Y28.9845
G01 X55.8939 Y29.0008
G01 X55.8800 Y29.0561
G01 X55.8661 Y29.0008
G01 X55.8614 Y28.9845
G01 X55.8239 Y28.8794
G01 X55.8176 Y28.8637
G01 X55.7700 Y28.7628
G01 X55.7649 Y28.7527
G01 X55.7593 Y28.7429
G01 X55.7019 Y28.6472
G01 X55.6923 Y28.6333
G01 X55.6292 Y28.5482
G01 X55.6223 Y28.5393
G01 X55.6149 Y28.5307
G01 X55.5437 Y28.4522
G01 X55.5360 Y28.4440
G01 X55.5278 Y28.4363
G01 X55.4451 Y28.3614
G01 X55.4318 Y28.3508
G01 X55.3467 Y28.2877
G01 X55.3375 Y28.2812
G01 X55.3280 Y28.2752
G01 X55.2371 Y28.2207
G01 X55.2273 Y28.2151
G01 X55.2172 Y28.2100
G01 X55.1214 Y28.1648
G01 X55.1111 Y28.1602
G01 X55.1006 Y28.1561
G01 X55.0008 Y28.1204
G01 X54.9901 Y28.1169
G01 X54.9792 Y28.1139
G01 X54.8710 Y28.0868
G01 X54.8543 Y28.0837
G01 X54.7440 Y28.0674
G01 X54.7327 Y28.0663
G01 X54.7099 Y28.0651
G01 X45.3717 Y18.7283
G01 X45.3081 Y18.6703
G01 X45.2996 Y18.6629
G01 X45.2306 Y18.6114
G01 X45.2213 Y18.6049
G01 X45.1476 Y18.5604
G01 X45.1378 Y18.5548
G01 X45.0601 Y18.5177
G01 X45.0445 Y18.5111
G01 X44.9688 Y18.4839
G01 X44.9581 Y18.4804
G01 X44.9472 Y18.4773
G01 X44.8636 Y18.4567
G01 X44.7785 Y18.4438
G01 X44.7673 Y18.4424
G01 X44.6813 Y18.4379
G01 X44.6700 Y18.4376
G01 X36.4500 Y18.4376
G01 X36.3640 Y18.4416
G01 X36.3527 Y18.4424
G01 X36.3415 Y18.4438
G01 X36.2675 Y18.4548
G01 X36.2564 Y18.4567
G01 X36.2454 Y18.4592
G01 X36.1619 Y18.4804
G01 X36.0808 Y18.5091
G01 X36.0702 Y18.5132
G01 X36.0599 Y18.5177
G01 X35.9822 Y18.5548
G01 X35.9724 Y18.5604
G01 X35.8987 Y18.6049
G01 X35.8894 Y18.6114
G01 X35.8204 Y18.6629
G01 X35.8119 Y18.6703
G01 X35.7523 Y18.7243
G01 X35.4436 Y19.0330
G01 X35.4333 Y19.0337
G01 X35.4221 Y19.0351
G01 X35.3190 Y19.0504
G01 X35.3078 Y19.0523
G01 X35.2968 Y19.0548
G01 X35.1848 Y19.0832
G01 X35.0759 Y19.1218
G01 X35.0654 Y19.1259
G01 X34.9608 Y19.1750
G01 X34.9507 Y19.1801
G01 X34.9409 Y19.1857
G01 X34.8419 Y19.2453
G01 X34.8327 Y19.2518
G01 X34.7445 Y19.3174
G01 X34.7315 Y19.3283
G01 X34.6461 Y19.4061
G01 X34.6383 Y19.4142
G01 X34.5609 Y19.5000
G01 X34.4918 Y19.5927
G01 X34.4853 Y19.6019
G01 X34.4257 Y19.7009
G01 X34.4201 Y19.7107
G01 X34.4150 Y19.7208
G01 X34.3659 Y19.8254
G01 X34.3267 Y19.9341
G01 X34.3232 Y19.9448
G01 X34.3201 Y19.9557
G01 X34.2948 Y20.0568
G01 X34.2923 Y20.0678
G01 X34.2900 Y20.0817
G00 Z2.0000
G00 X34.2900 Y19.7747
G01 F60.00
G01 Z-0.0000
G01 F120.00
G01 X34.2463 Y19.6823
G01 X34.2393 Y19.6683
G01 X34.2315 Y19.6546
G01 X34.1779 Y19.5652
G01 X34.1695 Y19.5519
G01 X34.1605 Y19.5391
G01 X34.0983 Y19.4553
G01 X34.0887 Y19.4430
G01 X34.0784 Y19.4311
G01 X34.0084 Y19.3538
G01 X33.9976 Y19.3424
G01 X33.9862 Y19.3316
G01 X33.9089 Y19.2616
G01 X33.8970 Y19.2513
G01 X33.8847 Y19.2417
G01 X33.8009 Y19.1795
G01 X33.7881 Y19.1705
G01 X33.7748 Y19.1621
G01 X33.6854 Y19.1085
G01 X33.6717 Y19.1007
G01 X33.6577 Y19.0937
G01 X33.5634 Y19.0491
G01 X33.5491 Y19.0427
G01 X33.5344 Y19.0371
G01 X33.4362 Y19.0020
G01 X33.4213 Y18.9970
G01 X33.4062 Y18.9928
G01 X33.3050 Y18.9675
G01 X33.2897 Y18.9641
G01 X33.2742 Y18.9614
G01 X33.1711 Y18.9461
G01 X33.1555 Y18.9442
G01 X33.1398 Y18.9430
G01 X33.0357 Y18.9379
G01 X33.0200 Y18.9375
G01 X33.0043 Y18.9379
G01 X32.9002 Y18.9430
G01 X32.8845 Y18.9442
G01 X32.8689 Y18.9461
G01 X32.7658 Y18.9614
G01 X32.7503 Y18.9641
G01 X32.7350 Y18.9675
G01 X32.6338 Y18.9928
G01 X32.6187 Y18.9970
G01 X32.6038 Y19.0020
G01 X32.5056 Y19.0371
G01 X32.4909 Y19.0427
G01 X32.4766 Y19.0491
G01 X32.3823 Y19.0937
G01 X32.3683 Y19.1007
G01 X32.3546 Y19.1085
G01 X32.2652 Y19.1621
G01 X32.2519 Y19.1705
G01 X32.2391 Y19.1795
G01 X32.1553 Y19.2417
G01 X32.1430 Y19.2513
G01 X32.1311 Y19.2616
G01 X32.0538 Y19.3316
G01 X32.0424 Y19.3424
G01 X32.0316 Y19.3538
G01 X31.9616 Y19.4311
G01 X31.9513 Y19.4430
G01 X31.9417 Y19.4553
G01 X31.8795 Y19.5391
G01 X31.8705 Y19.5519
G01 X31.8621 Y19.5652
G01 X31.8085 Y19.6546
G01 X31.8007 Y19.6683
G01 X31.7937 Y19.6823
G01 X31.7458 Y19.7837
G01 X31.7371 Y19.8056
G01 X31.7020 Y19.9038
G01 X31.6970 Y19.9187
G01 X31.6928 Y19.9338
G01 X31.6675 Y20.0350
G01 X31.6641 Y20.0503
G01 X31.6614 Y20.0658
G01 X31.6461 Y20.1689
G01 X31.6442 Y20.1845
G01 X31.6430 Y20.2002
G01 X31.6379 Y20.3043
G01 X31.6375 Y20.3200
G01 X31.6379 Y20.3357
G01 X31.6430 Y20.4398
G01 X31.6442 Y20.4555
G01 X31.6461 Y20.4711
G01 X31.6614 Y20.5742
G01 X31.6641 Y20.5897
G01 X31.6675 Y20.6050
G01 X31.6928 Y20.7062
G01 X31.6970 Y20.7213
G01 X31.7020 Y20.7362
G01 X31.7371 Y20.8344
G01 X31.7427 Y20.8491
G01 X31.7491 Y20.8634
G01 X31.7937 Y20.9577
G01 X31.8007 Y20.9717
G01 X31.8085 Y20.9854
G01 X31.8621 Y21.0748
G01 X31.8705 Y21.0881
G01 X31.8795 Y21.1009
G01 X31.9417 Y21.1847
G01 X31.9513 Y21.1970
G01 X31.9616 Y21.2089
G01 X32.0316 Y21.2862
G01 X32.0424 Y21.2976
G01 X32.0538 Y21.3084
G01 X32.1311 Y21.3784
G01 X32.1430 Y21.3887
G01 X32.1553 Y21.3983
G01 X32.2391 Y21.4605
G01 X32.2519 Y21.4695
G01 X32.2652 Y21.4779
G01 X32.3546 Y21.5315
G01 X32.3683 Y21.5393
G01 X32.3823 Y21.5463
G01 X32.4747 Y21.5900
G01 X32.3823 Y21.6337
G01 X32.3683 Y21.6407
G01 X32.3546 Y21.6485
G01 X32.2652 Y21.7021
G01 X32.2519 Y21.7105
G01 X32.2391 Y21.7195
G01 X32.1553 Y21.7817
G01 X32.1430 Y21.7913
G01 X32.1311 Y21.8016
G01 X32.0538 Y21.8716
G01 X32.0424 Y21.8824
G01 X32.0316 Y21.8938
G01 X31.9616 Y21.9711
G01 X31.9513 Y21.9830
G01 X31.9417 Y21.9953
G01 X31.8795 Y22.0791
G01 X31.8705 Y22.0919
G01 X31.8621 Y22.1052
G01 X31.8085 Y22.1946
G01 X31.8007 Y22.2083
G01 X31.7937 Y22.2223
G01 X31.7491 Y22.3166
G01 X31.7427 Y22.3309
G01 X31.7371 Y22.3456
G01 X31.7020 Y22.4438
G01 X31.6970 Y22.4587
G01 X31.6928 Y22.4738
G01 X31.6675 Y22.5750
G01 X31.6641 Y22.5903
G01 X31.6614 Y22.6058
G01 X31.6461 Y22.7089
G01 X31.6442 Y22.7245
G01 X31.6430 Y22.7402
G01 X31.6379 Y22.8443
G01 X31.6375 Y22.8600
G01 X31.6379 Y22.8757
G01 X31.6430 Y22.9798
G01 X31.6442 Y22.9955
G01 X31.6461 Y23.0111
G01 X31.6614 Y23.1142
G01 X31.6641 Y23.1297
G01 X31.6675 Y23.1450
G01 X31.6928 Y23.2462
G01 X31.6970 Y23.2613
G01 X31.7020 Y23.2762
G01 X31.7371 Y23.3744
G01 X31.7427 Y23.3891
G01 X31.7491 Y23.4034
G01 X31.7937 Y23.4977
G01 X31.8007 Y23.5117
G01 X31.8085 Y23.5254
G01 X31.8621 Y23.6148
G01 X31.8705 Y23.6281
G01 X31.8795 Y23.6409
G01 X31.9417 Y23.7247
G01 X31.9513 Y23.7370
G01 X31.9616 Y23.7489
G01 X32.0316 Y23.8262
G01 X32.0424 Y23.8376
G01 X32.0538 Y23.8484
G01 X32.1311 Y23.9184
G01 X32.1430 Y23.9287
G01 X32.1553 Y23.9383
G01 X32.2391 Y24.0005
G01 X32.2519 Y24.0095
G01 X32.2652 Y24.0179
G01 X32.3546 Y24.0715
G01 X32.3683 Y24.0793
G01 X32.3823 Y24.0863
G01 X32.4747 Y24.1300
G01 X32.3823 Y24.1737
G01 X32.3683 Y24.1807
G01 X32.3546 Y24.1885
G01 X32.2652 Y24.2421
G01 X32.2519 Y24.2505
G01 X32.2415 Y24.2578
G01 X30.9784 Y22.9947
G01 X30.9784 Y19.9793
G01 X33.1263 Y17.8314
G01 X49.4807 Y17.8314
G01 X53.2173 Y21.5681
G01 X53.2192 Y21.5828
G01 X53.2347 Y21.6876
G01 X53.2374 Y21.7030
G01 X53.2408 Y21.7184
G01 X53.2666 Y21.8211
G01 X53.2708 Y21.8363
G01 X53.2757 Y21.8512
G01 X53.3114 Y21.9509
G01 X53.3170 Y21.9656
G01 X53.3234 Y21.9799
G01 X53.3687 Y22.0757
G01 X53.3758 Y22.0897
G01 X53.3835 Y22.1034
G01 X53.4380 Y22.1943
G01 X53.4464 Y22.2075
G01 X53.4554 Y22.2204
G01 X53.5185 Y22.3055
G01 X53.5267 Y22.3160
G01 X53.5277 Y24.9109
G01 X53.5317 Y24.9934
G01 X53.5328 Y25.0091
G01 X53.5348 Y25.0247
G01 X53.5457 Y25.0987
G01 X53.5484 Y25.1142
G01 X53.5519 Y25.1295
G01 X53.5700 Y25.2021
G01 X53.5742 Y25.2172
G01 X53.5792 Y25.2321
G01 X53.6044 Y25.3026
G01 X53.6100 Y25.3172
G01 X53.6239 Y25.3476
G01 X53.6484 Y25.3992
G01 X53.6554 Y25.4132
G01 X53.6632 Y25.4269
G01 X53.7016 Y25.4911
G01 X53.7100 Y25.5043
G01 X53.7191 Y25.5172
G01 X53.7636 Y25.5773
G01 X53.7733 Y25.5897
G01 X53.7836 Y25.6015
G01 X53.8392 Y25.6627
G01 X56.0676 Y27.8913
G01 X56.0676 Y28.4829
G01 X56.0585 Y28.4945
G01 X55.9954 Y28.5796
G01 X55.9821 Y28.5991
G01 X55.9235 Y28.6966
G01 X55.9158 Y28.7103
G01 X55.9087 Y28.7243
G01 X55.8800 Y28.7850
G01 X55.8513 Y28.7243
G01 X55.8442 Y28.7103
G01 X55.8365 Y28.6966
G01 X55.7779 Y28.5991
G01 X55.7646 Y28.5796
G01 X55.7015 Y28.4945
G01 X55.6868 Y28.4762
G01 X55.6104 Y28.3918
G01 X55.5996 Y28.3804
G01 X55.5882 Y28.3696
G01 X55.5097 Y28.2984
G01 X55.4978 Y28.2882
G01 X55.4855 Y28.2785
G01 X55.3940 Y28.2108
G01 X55.3743 Y28.1980
G01 X55.2834 Y28.1435
G01 X55.2697 Y28.1358
G01 X55.2557 Y28.1287
G01 X55.1599 Y28.0834
G01 X55.1456 Y28.0770
G01 X55.1309 Y28.0714
G01 X55.0312 Y28.0357
G01 X55.0163 Y28.0308
G01 X55.0011 Y28.0266
G01 X54.8984 Y28.0008
G01 X54.8830 Y27.9974
G01 X54.8676 Y27.9947
G01 X54.7628 Y27.9792
G01 X54.7495 Y27.9775
G01 X45.4353 Y18.6646
G01 X45.4240 Y18.6538
G01 X45.3685 Y18.6036
G01 X45.3567 Y18.5933
G01 X45.3443 Y18.5836
G01 X45.2842 Y18.5391
G01 X45.2713 Y18.5300
G01 X45.2581 Y18.5216
G01 X45.1939 Y18.4832
G01 X45.1802 Y18.4754
G01 X45.1662 Y18.4684
G01 X45.0986 Y18.4364
G01 X45.0769 Y18.4271
G01 X44.9991 Y18.3992
G01 X44.9842 Y18.3942
G01 X44.9691 Y18.3900
G01 X44.8965 Y18.3719
G01 X44.8812 Y18.3684
G01 X44.8657 Y18.3657
G01 X44.7917 Y18.3548
G01 X44.7761 Y18.3528
G01 X44.7604 Y18.3517
G01 X44.6857 Y18.3480
G01 X44.6700 Y18.3476
G01 X36.4500 Y18.3476
G01 X36.4343 Y18.3480
G01 X36.3596 Y18.3517
G01 X36.3361 Y18.3537
G01 X36.2466 Y18.3670
G01 X36.2235 Y18.3719
G01 X36.1509 Y18.3900
G01 X36.1358 Y18.3942
G01 X36.1209 Y18.3992
G01 X36.0504 Y18.4244
G01 X36.0358 Y18.4300
G01 X36.0214 Y18.4364
G01 X35.9538 Y18.4684
G01 X35.9398 Y18.4754
G01 X35.9261 Y18.4832
G01 X35.8552 Y18.5258
G01 X35.8358 Y18.5391
G01 X35.7757 Y18.5836
G01 X35.7633 Y18.5933
G01 X35.7515 Y18.6036
G01 X35.6903 Y18.6592
G01 X35.4022 Y18.9471
G01 X35.3058 Y18.9614
G01 X35.2903 Y18.9641
G01 X35.2750 Y18.9675
G01 X35.1738 Y18.9928
G01 X35.1587 Y18.9970
G01 X35.1438 Y19.0020
G01 X35.0456 Y19.0371
G01 X35.0309 Y19.0427
G01 X35.0166 Y19.0491
G01 X34.9223 Y19.0937
G01 X34.9083 Y19.1007
G01 X34.8946 Y19.1085
G01 X34.8052 Y19.1621
G01 X34.7854 Y19.1749
G01 X34.6953 Y19.2417
G01 X34.6830 Y19.2513
G01 X34.6711 Y19.2616
G01 X34.5938 Y19.3316
G01 X34.5824 Y19.3424
G01 X34.5716 Y19.3538
G01 X34.5016 Y19.4311
G01 X34.4913 Y19.4430
G01 X34.4817 Y19.4553
G01 X34.4195 Y19.5391
G01 X34.4105 Y19.5519
G01 X34.4021 Y19.5652
G01 X34.3485 Y19.6546
G01 X34.3407 Y19.6683
G01 X34.3337 Y19.6823
G01 X34.2900 Y19.7747
G00 Z2.0000
G00 X35.5218 Y19.2093
G01 F60.00
G01 Z-0.0000
G01 F120.00
G01 X35.8764 Y18.8547
G01 X35.9346 Y18.8020
G01 X35.9977 Y18.7552
G01 X36.0692 Y18.7124
G01 X36.1391 Y18.6795
G01 X36.2118 Y18.6534
G01 X36.2915 Y18.6332
G01 X36.3728 Y18.6214
G01 X36.4500 Y18.6176
G01 X44.6700 Y18.6176
G01 X44.7496 Y18.6215
G01 X44.8309 Y18.6338
G01 X44.9058 Y18.6526
G01 X44.9786 Y18.6786
G01 X45.0530 Y18.7135
G01 X45.1213 Y18.7545
G01 X45.1834 Y18.8005
G01 X45.2444 Y18.8556
G01 X54.6303 Y28.2414
G01 X54.7207 Y28.2459
G01 X54.8304 Y28.2622
G01 X54.9379 Y28.2891
G01 X55.0422 Y28.3265
G01 X55.1424 Y28.3739
G01 X55.2375 Y28.4309
G01 X55.3265 Y28.4969
G01 X55.4095 Y28.5722
G01 X55.4831 Y28.6535
G01 X55.5477 Y28.7405
G01 X55.6072 Y28.8397
G01 X55.6535 Y28.9378
G01 X55.6909 Y29.0421
G01 X55.7178 Y29.1496
G01 X55.7338 Y29.2569
G01 X55.7394 Y29.3725
G01 X55.7341 Y29.4807
G01 X55.7178 Y29.5904
G01 X55.6901 Y29.7002
G01 X55.6535 Y29.8022
G01 X55.6061 Y29.9024
G01 X55.5491 Y29.9975
G01 X55.4831 Y30.0865
G01 X55.4087 Y30.1687
G01 X55.3246 Y30.2446
G01 X55.2354 Y30.3105
G01 X55.1424 Y30.3661
G01 X55.0445 Y30.4125
G01 X54.9379 Y30.4509
G01 X54.8304 Y30.4778
G01 X54.7207 Y30.4941
G01 X54.6075 Y30.4994
G01 X54.4969 Y30.4938
G01 X54.3896 Y30.4778
G01 X54.2845 Y30.4515
G01 X54.1778 Y30.4135
G01 X54.0776 Y30.3661
G01 X53.9825 Y30.3091
G01 X53.8925 Y30.2423
G01 X53.8113 Y30.1687
G01 X53.7369 Y30.0865
G01 X53.6709 Y29.9975
G01 X53.6128 Y29.9003
G01 X53.5665 Y29.8022
G01 X53.5285 Y29.6955
G01 X53.5018 Y29.5879
G01 X53.4859 Y29.4807
G01 X53.4814 Y29.3903
G01 X44.3335 Y20.2424
G01 X36.7865 Y20.2424
G01 X36.6707 Y20.3582
G01 X36.6671 Y20.4290
G01 X36.6513 Y20.5358
G01 X36.6249 Y20.6418
G01 X36.5878 Y20.7457
G01 X36.5405 Y20.8455
G01 X36.4850 Y20.9381
G01 X36.4200 Y21.0258
G01 X36.3467 Y21.1067
G01 X36.2676 Y21.1784
G01 X36.1781 Y21.2450
G01 X36.0844 Y21.3011
G01 X35.9857 Y21.3478
G01 X35.8829 Y21.3846
G01 X35.7770 Y21.4111
G01 X35.6690 Y21.4271
G01 X35.5600 Y21.4325
G01 X35.4497 Y21.4270
G01 X35.3430 Y21.4111
G01 X35.2371 Y21.3846
G01 X35.1343 Y21.3478
G01 X35.0356 Y21.3011
G01 X34.9419 Y21.2450
G01 X34.8542 Y21.1800
G01 X34.7733 Y21.1067
G01 X34.7016 Y21.0276
G01 X34.6350 Y20.9381
G01 X34.5801 Y20.8466
G01 X34.5313 Y20.7434
G01 X34.4954 Y20.6429
G01 X34.4689 Y20.5370
G01 X34.4529 Y20.4290
G01 X34.4475 Y20.3188
G01 X34.4529 Y20.2110
G01 X34.4689 Y20.1030
G01 X34.4954 Y19.9971
G01 X34.5322 Y19.8943
G01 X34.5789 Y19.7956
G01 X34.6350 Y19.7019
G01 X34.7000 Y19.6142
G01 X34.7725 Y19.5342
G01 X34.8542 Y19.4600
G01 X34.9419 Y19.3950
G01 X35.0356 Y19.3389
G01 X35.1331 Y19.2927
G01 X35.2371 Y19.2554
G01 X35.3418 Y19.2291
G01 X35.4510 Y19.2129
G01 X35.5218 Y19.2093
G00 Z2.0000
G00 X36.6724 Y22.8625
G01 F60.00
G01 Z-0.0000
G01 F120.00
G01 X36.6671 Y22.9690
G01 X36.6511 Y23.0770
G01 X36.6246 Y23.1829
G01 X36.5878 Y23.2857
G01 X36.5411 Y23.3844
G01 X36.4850 Y23.4781
G01 X36.4200 Y23.5658
G01 X36.3467 Y23.6467
G01 X36.2658 Y23.7200
G01 X36.1781 Y23.7850
G01 X36.0844 Y23.8411
G01 X35.9857 Y23.8878
G01 X35.8829 Y23.9246
G01 X35.7770 Y23.9511
G01 X35.6690 Y23.9671
G01 X35.5600 Y23.9725
G01 X35.4510 Y23.9671
G01 X35.3430 Y23.9511
G01 X35.2371 Y23.9246
G01 X35.1343 Y23.8878
G01 X35.0356 Y23.8411
G01 X34.9419 Y23.7850
G01 X34.8542 Y23.7200
G01 X34.7733 Y23.6467
G01 X34.7000 Y23.5658
G01 X34.6350 Y23.4781
G01 X34.5789 Y23.3844
G01 X34.5322 Y23.2857
G01 X34.4954 Y23.1829
G01 X34.4689 Y23.0770
G01 X34.4529 Y22.9690
G01 X34.4475 Y22.8600
G01 X34.4529 Y22.7510
G01 X34.4689 Y22.6430
G01 X34.4954 Y22.5371
G01 X34.5322 Y22.4343
G01 X34.5789 Y22.3356
G01 X34.6350 Y22.2419
G01 X34.7000 Y22.1542
G01 X34.7733 Y22.0733
G01 X34.8542 Y22.0000
G01 X34.9419 Y21.9350
G01 X35.0356 Y21.8789
G01 X35.1343 Y21.8322
G01 X35.2371 Y21.7954
G01 X35.3430 Y21.7689
G01 X35.4510 Y21.7529
G01 X35.5600 Y21.7475
G01 X35.6690 Y21.7529
G01 X35.7770 Y21.7689
G01 X35.8829 Y21.7954
G01 X35.9857 Y21.8322
G01 X36.0844 Y21.8789
G01 X36.1781 Y21.9350
G01 X36.2658 Y22.0000
G01 X36.3467 Y22.0733
G01 X36.4200 Y22.1542
G01 X36.4850 Y22.2419
G01 X36.5411 Y22.3356
G01 X36.5878 Y22.4343
G01 X36.6246 Y22.5371
G01 X36.6511 Y22.6430
G01 X36.6671 Y22.7510
G01 X36.6724 Y22.8625
G00 Z2.0000
G00 X36.7623 Y22.8669
G01 F60.00
G01 Z-0.0000
G01 F120.00
G01 X36.7567 Y22.9779
G01 X36.7394 Y23.0946
G01 X36.7107 Y23.2091
G01 X36.6710 Y23.3202
G01 X36.6205 Y23.4269
G01 X36.5598 Y23.5281
G01 X36.4895 Y23.6229
G01 X36.4103 Y23.7103
G01 X36.3229 Y23.7895
G01 X36.2281 Y23.8598
G01 X36.1269 Y23.9205
G01 X36.0202 Y23.9710
G01 X35.9091 Y24.0107
G01 X35.7946 Y24.0394
G01 X35.6779 Y24.0567
G01 X35.5600 Y24.0625
G01 X35.4421 Y24.0567
G01 X35.3254 Y24.0394
G01 X35.2109 Y24.0107
G01 X35.0998 Y23.9710
G01 X34.9931 Y23.9205
G01 X34.8919 Y23.8598
G01 X34.7971 Y23.7895
G01 X34.7097 Y23.7103
G01 X34.6305 Y23.6229
G01 X34.5602 Y23.5281
G01 X34.4995 Y23.4269
G01 X34.4490 Y23.3202
G01 X34.4093 Y23.2091
G01 X34.3806 Y23.0946
G01 X34.3633 Y22.9779
G01 X34.3575 Y22.8600
G01 X34.3633 Y22.7421
G01 X34.3806 Y22.6254
G01 X34.4093 Y22.5109
G01 X34.4490 Y22.3998
G01 X34.4995 Y22.2931
G01 X34.5602 Y22.1919
G01 X34.6305 Y22.0971
G01 X34.7097 Y22.0097
G01 X34.7971 Y21.9305
G01 X34.8919 Y21.8602
G01 X34.9931 Y21.7995
G01 X35.0998 Y21.7490
G01 X35.2109 Y21.7093
G01 X35.3254 Y21.6806
G01 X35.4421 Y21.6633
G01 X35.5600 Y21.6575
G01 X35.6779 Y21.6633
G01 X35.7946 Y21.6806
G01 X35.9091 Y21.7093
G01 X36.0202 Y21.7490
G01 X36.1269 Y21.7995
G01 X36.2281 Y21.8602
G01 X36.3229 Y21.9305
G01 X36.4103 Y22.0097
G01 X36.4895 Y22.0971
G01 X36.5598 Y22.1919
G01 X36.6205 Y22.2931
G01 X36.6710 Y22.3998
G01 X36.7107 Y22.5109
G01 X36.7394 Y22.6254
G01 X36.7567 Y22.7421
G01 X36.7623 Y22.8531
G01 X36.7623 Y22.8669
G00 Z2.0000
G00 X36.8522 Y22.8713
G01 F60.00
G01 Z-0.0000
G01 F120.00
G01 X36.8525 Y22.8600
G01 X36.8522 Y22.8487
G01 X36.8463 Y22.7333
G01 X36.8296 Y22.6190
G01 X36.8277 Y22.6078
G01 X36.8252 Y22.5968
G01 X36.7999 Y22.4957
G01 X36.7968 Y22.4848
G01 X36.7933 Y22.4741
G01 X36.7541 Y22.3654
G01 X36.7050 Y22.2608
G01 X36.6999 Y22.2507
G01 X36.6943 Y22.2409
G01 X36.6347 Y22.1419
G01 X36.5661 Y22.0489
G01 X36.5591 Y22.0400
G01 X36.5517 Y22.0315
G01 X36.4739 Y21.9461
G01 X36.3885 Y21.8683
G01 X36.3800 Y21.8609
G01 X36.3711 Y21.8539
G01 X36.2781 Y21.7853
G01 X36.1791 Y21.7257
G01 X36.1693 Y21.7201
G01 X36.1592 Y21.7150
G01 X36.0546 Y21.6659
G01 X35.9459 Y21.6267
G01 X35.9352 Y21.6232
G01 X35.9243 Y21.6201
G01 X35.8232 Y21.5948
G01 X35.8122 Y21.5923
G01 X35.7983 Y21.5900
G01 X35.8122 Y21.5877
G01 X35.8232 Y21.5852
G01 X35.9243 Y21.5599
G01 X35.9352 Y21.5568
G01 X35.9459 Y21.5533
G01 X36.0546 Y21.5141
G01 X36.0649 Y21.5095
G01 X36.1693 Y21.4599
G01 X36.2685 Y21.4007
G01 X36.2781 Y21.3947
G01 X36.3711 Y21.3261
G01 X36.3800 Y21.3191
G01 X36.3885 Y21.3117
G01 X36.4658 Y21.2417
G01 X36.4739 Y21.2339
G01 X36.4817 Y21.2258
G01 X36.5591 Y21.1400
G01 X36.5661 Y21.1311
G01 X36.6347 Y21.0381
G01 X36.6943 Y20.9391
G01 X36.6999 Y20.9293
G01 X36.7495 Y20.8249
G01 X36.7541 Y20.8146
G01 X36.7582 Y20.8041
G01 X36.7933 Y20.7059
G01 X36.7984 Y20.6898
G01 X36.8252 Y20.5832
G01 X36.8277 Y20.5722
G01 X36.8449 Y20.4579
G01 X36.8463 Y20.4467
G01 X36.8470 Y20.4364
G01 X36.8611 Y20.4224
G01 X38.7405 Y20.4224
G01 X38.6939 Y20.4569
G01 X38.6807 Y20.4675
G01 X38.5992 Y20.5413
G01 X38.5871 Y20.5531
G01 X38.5133 Y20.6345
G01 X38.5059 Y20.6430
G01 X38.4368 Y20.7357
G01 X38.4272 Y20.7497
G01 X38.3707 Y20.8439
G01 X38.3651 Y20.8537
G01 X38.3600 Y20.8638
G01 X38.3109 Y20.9684
G01 X38.3068 Y20.9789
G01 X38.2682 Y21.0878
G01 X38.2398 Y21.1998
G01 X38.2373 Y21.2108
G01 X38.2354 Y21.2220
G01 X38.2187 Y21.3363
G01 X38.2179 Y21.3476
G01 X38.2125 Y21.4630
G01 X38.2179 Y21.5784
G01 X38.2187 Y21.5897
G01 X38.2201 Y21.6009
G01 X38.2363 Y21.7096
G01 X38.2398 Y21.7262
G01 X38.2682 Y21.8382
G01 X38.2717 Y21.8489
G01 X38.3088 Y21.9524
G01 X38.3155 Y21.9679
G01 X38.3625 Y22.0673
G01 X38.3678 Y22.0772
G01 X38.3867 Y22.1089
G01 X36.2126 Y24.2858
G01 X36.1791 Y24.2657
G01 X36.1643 Y24.2575
G01 X36.0649 Y24.2105
G01 X36.0494 Y24.2038
G01 X35.9459 Y24.1667
G01 X35.9352 Y24.1632
G01 X35.8232 Y24.1348
G01 X35.8122 Y24.1323
G01 X35.7983 Y24.1300
G01 X35.8122 Y24.1277
G01 X35.8232 Y24.1252
G01 X35.9243 Y24.0999
G01 X35.9352 Y24.0968
G01 X35.9459 Y24.0933
G01 X36.0546 Y24.0541
G01 X36.1592 Y24.0050
G01 X36.1693 Y23.9999
G01 X36.1791 Y23.9943
G01 X36.2781 Y23.9347
G01 X36.3711 Y23.8661
G01 X36.3800 Y23.8591
G01 X36.3885 Y23.8517
G01 X36.4739 Y23.7739
G01 X36.5517 Y23.6885
G01 X36.5591 Y23.6800
G01 X36.5661 Y23.6711
G01 X36.6347 Y23.5781
G01 X36.6943 Y23.4791
G01 X36.6999 Y23.4693
G01 X36.7050 Y23.4592
G01 X36.7495 Y23.3649
G01 X36.7541 Y23.3546
G01 X36.7582 Y23.3441
G01 X36.7968 Y23.2352
G01 X36.8252 Y23.1232
G01 X36.8277 Y23.1122
G01 X36.8449 Y22.9979
G01 X36.8463 Y22.9867
G01 X36.8522 Y22.8713
G00 Z2.0000
G00 X36.9421 Y22.8757
G01 F60.00
G01 Z-0.0000
G01 F120.00
G01 X36.9425 Y22.8600
G01 X36.9421 Y22.8443
G01 X36.9370 Y22.7402
G01 X36.9358 Y22.7245
G01 X36.9339 Y22.7089
G01 X36.9186 Y22.6058
G01 X36.9159 Y22.5903
G01 X36.9125 Y22.5750
G01 X36.8872 Y22.4738
G01 X36.8830 Y22.4587
G01 X36.8780 Y22.4438
G01 X36.8429 Y22.3456
G01 X36.8373 Y22.3309
G01 X36.8309 Y22.3166
G01 X36.7863 Y22.2223
G01 X36.7793 Y22.2083
G01 X36.7715 Y22.1946
G01 X36.7179 Y22.1052
G01 X36.7095 Y22.0919
G01 X36.7005 Y22.0791
G01 X36.6383 Y21.9953
G01 X36.6287 Y21.9830
G01 X36.6184 Y21.9711
G01 X36.5484 Y21.8938
G01 X36.5376 Y21.8824
G01 X36.5262 Y21.8716
G01 X36.4489 Y21.8016
G01 X36.4370 Y21.7913
G01 X36.4247 Y21.7817
G01 X36.3409 Y21.7195
G01 X36.3281 Y21.7105
G01 X36.3148 Y21.7021
G01 X36.2254 Y21.6485
G01 X36.2117 Y21.6407
G01 X36.1977 Y21.6337
G01 X36.1053 Y21.5900
G01 X36.1977 Y21.5463
G01 X36.2117 Y21.5393
G01 X36.2254 Y21.5315
G01 X36.3148 Y21.4779
G01 X36.3281 Y21.4695
G01 X36.3409 Y21.4605
G01 X36.4247 Y21.3983
G01 X36.4370 Y21.3887
G01 X36.4489 Y21.3784
G01 X36.5262 Y21.3084
G01 X36.5376 Y21.2976
G01 X36.5484 Y21.2862
G01 X36.6184 Y21.2089
G01 X36.6336 Y21.1909
G01 X36.7005 Y21.1009
G01 X36.7095 Y21.0881
G01 X36.7179 Y21.0748
G01 X36.7715 Y20.9854
G01 X36.7793 Y20.9717
G01 X36.7863 Y20.9577
G01 X36.8342 Y20.8563
G01 X36.8429 Y20.8344
G01 X36.8780 Y20.7362
G01 X36.8852 Y20.7138
G01 X36.9143 Y20.5974
G01 X36.9186 Y20.5742
G01 X36.9278 Y20.5124
G01 X38.5025 Y20.5124
G01 X38.4466 Y20.5741
G01 X38.4363 Y20.5860
G01 X38.4267 Y20.5983
G01 X38.3645 Y20.6821
G01 X38.3555 Y20.6949
G01 X38.3471 Y20.7082
G01 X38.2935 Y20.7976
G01 X38.2857 Y20.8113
G01 X38.2787 Y20.8253
G01 X38.2341 Y20.9196
G01 X38.2277 Y20.9339
G01 X38.2221 Y20.9486
G01 X38.1870 Y21.0468
G01 X38.1820 Y21.0617
G01 X38.1778 Y21.0768
G01 X38.1525 Y21.1780
G01 X38.1491 Y21.1933
G01 X38.1464 Y21.2088
G01 X38.1311 Y21.3119
G01 X38.1292 Y21.3275
G01 X38.1280 Y21.3432
G01 X38.1229 Y21.4473
G01 X38.1225 Y21.4630
G01 X38.1229 Y21.4787
G01 X38.1280 Y21.5828
G01 X38.1292 Y21.5985
G01 X38.1311 Y21.6141
G01 X38.1476 Y21.7250
G01 X38.1525 Y21.7480
G01 X38.1778 Y21.8492
G01 X38.1820 Y21.8643
G01 X38.1870 Y21.8792
G01 X38.2221 Y21.9774
G01 X38.2277 Y21.9921
G01 X38.2341 Y22.0064
G01 X38.2752 Y22.0932
G01 X36.5876 Y23.7829
G01 X36.6236 Y23.7431
G01 X36.6336 Y23.7309
G01 X36.7005 Y23.6409
G01 X36.7138 Y23.6215
G01 X36.7715 Y23.5254
G01 X36.7793 Y23.5117
G01 X36.7863 Y23.4977
G01 X36.8309 Y23.4034
G01 X36.8402 Y23.3818
G01 X36.8780 Y23.2762
G01 X36.8830 Y23.2613
G01 X36.8872 Y23.2462
G01 X36.9125 Y23.1450
G01 X36.9159 Y23.1297
G01 X36.9186 Y23.1142
G01 X36.9339 Y23.0111
G01 X36.9358 Y22.9955
G01 X36.9370 Y22.9798
G01 X36.9421 Y22.8757
G00 Z2.0000
G00 X36.1053 Y24.1300
G01 F60.00
G01 Z-0.0000
G01 F120.00
G01 X36.1977 Y24.0863
G01 X36.2117 Y24.0793
G01 X36.2254 Y24.0715
G01 X36.3215 Y24.0138
G01 X36.3409 Y24.0005
G01 X36.4309 Y23.9336
G01 X36.4489 Y23.9184
G01 X36.4843 Y23.8864
G01 X36.1975 Y24.1736
G01 X36.1053 Y24.1300
G00 Z2.0000
G00 X36.2266 Y24.3992
G01 F60.00
G01 Z-0.0000
G01 F120.00
G01 X38.5011 Y22.1247
G01 X38.4445 Y22.0299
G01 X38.3968 Y21.9295
G01 X38.3916 Y21.9168
G01 X38.3564 Y21.8186
G01 X38.3524 Y21.8054
G01 X38.3256 Y21.6976
G01 X38.3091 Y21.5877
G01 X38.3078 Y21.5740
G01 X38.3025 Y21.4630
G01 X38.3083 Y21.3451
G01 X38.3256 Y21.2284
G01 X38.3524 Y21.1206
G01 X38.3553 Y21.1107
G01 X38.3916 Y21.0092
G01 X38.3968 Y20.9965
G01 X38.4445 Y20.8961
G01 X38.5015 Y20.8007
G01 X38.5091 Y20.7893
G01 X38.5755 Y20.7001
G01 X38.6523 Y20.6152
G01 X38.6597 Y20.6080
G01 X38.7421 Y20.5335
G01 X38.8313 Y20.4671
G01 X38.8398 Y20.4613
G01 X38.9322 Y20.4059
G01 X38.9412 Y20.4009
G01 X39.0417 Y20.3534
G01 X39.0512 Y20.3496
G01 X39.0993 Y20.3324
G01 X36.8238 Y20.3324
G01 X36.7589 Y20.3973
G01 X36.7572 Y20.4310
G01 X36.7563 Y20.4413
G01 X36.7400 Y20.5512
G01 X36.7379 Y20.5613
G01 X36.7117 Y20.6658
G01 X36.7086 Y20.6756
G01 X36.6710 Y20.7802
G01 X36.6205 Y20.8869
G01 X36.5598 Y20.9881
G01 X36.4895 Y21.0829
G01 X36.4103 Y21.1703
G01 X36.3281 Y21.2451
G01 X36.3202 Y21.2517
G01 X36.2281 Y21.3198
G01 X36.1328 Y21.3771
G01 X36.1207 Y21.3836
G01 X36.0202 Y21.4310
G01 X35.9156 Y21.4686
G01 X35.9024 Y21.4726
G01 X35.8013 Y21.4979
G01 X35.7878 Y21.5006
G01 X35.6779 Y21.5167
G01 X35.5600 Y21.5225
G01 X35.4421 Y21.5167
G01 X35.3322 Y21.5006
G01 X35.3187 Y21.4979
G01 X35.2109 Y21.4707
G01 X35.1062 Y21.4334
G01 X35.0935 Y21.4282
G01 X34.9931 Y21.3805
G01 X34.8919 Y21.3198
G01 X34.8026 Y21.2538
G01 X34.7919 Y21.2451
G01 X34.7097 Y21.1703
G01 X34.6349 Y21.0881
G01 X34.6262 Y21.0774
G01 X34.5602 Y20.9881
G01 X34.4995 Y20.8869
G01 X34.4518 Y20.7865
G01 X34.4466 Y20.7738
G01 X34.4093 Y20.6691
G01 X34.3806 Y20.5546
G01 X34.3641 Y20.4447
G01 X34.3628 Y20.4310
G01 X34.3575 Y20.3200
G01 X34.3633 Y20.2021
G01 X34.3794 Y20.0922
G01 X34.3821 Y20.0787
G01 X34.4093 Y19.9709
G01 X34.4490 Y19.8598
G01 X34.4995 Y19.7531
G01 X34.5565 Y19.6577
G01 X34.5641 Y19.6463
G01 X34.6305 Y19.5571
G01 X34.7097 Y19.4697
G01 X34.7919 Y19.3949
G01 X34.8026 Y19.3862
G01 X34.8919 Y19.3202
G01 X34.9872 Y19.2629
G01 X34.9993 Y19.2564
G01 X35.0998 Y19.2090
G01 X35.2077 Y19.1703
G01 X35.2176 Y19.1674
G01 X35.3187 Y19.1421
G01 X35.3288 Y19.1400
G01 X35.4387 Y19.1237
G01 X35.4490 Y19.1228
G01 X35.4827 Y19.1211
G01 X35.8144 Y18.7895
G01 X35.8775 Y18.7324
G01 X35.9487 Y18.6797
G01 X36.0186 Y18.6376
G01 X36.0308 Y18.6311
G01 X36.1047 Y18.5963
G01 X36.1815 Y18.5686
G01 X36.1947 Y18.5646
G01 X36.2740 Y18.5450
G01 X36.3547 Y18.5328
G01 X36.3650 Y18.5317
G01 X36.4500 Y18.5276
G01 X44.6700 Y18.5276
G01 X44.7516 Y18.5315
G01 X44.7653 Y18.5328
G01 X44.8460 Y18.5450
G01 X44.9286 Y18.5655
G01 X44.9385 Y18.5686
G01 X45.0153 Y18.5963
G01 X45.0892 Y18.6311
G01 X45.1014 Y18.6376
G01 X45.1713 Y18.6797
G01 X45.2370 Y18.7282
G01 X45.2477 Y18.7369
G01 X45.3081 Y18.7919
G01 X54.6708 Y28.1533
G01 X54.7227 Y28.1559
G01 X54.7329 Y28.1568
G01 X54.8411 Y28.1728
G01 X54.8513 Y28.1746
G01 X54.9640 Y28.2030
G01 X55.0703 Y28.2409
G01 X55.0798 Y28.2447
G01 X55.1849 Y28.2945
G01 X55.2875 Y28.3560
G01 X55.3836 Y28.4273
G01 X55.4673 Y28.5029
G01 X55.4747 Y28.5101
G01 X55.5527 Y28.5964
G01 X55.6200 Y28.6869
G01 X55.6277 Y28.6983
G01 X55.6855 Y28.7951
G01 X55.7339 Y28.8970
G01 X55.7391 Y28.9097
G01 X55.7770 Y29.0160
G01 X55.8046 Y29.1254
G01 X55.8072 Y29.1389
G01 X55.8236 Y29.2505
G01 X55.8293 Y29.3631
G01 X55.8293 Y29.3769
G01 X55.8236 Y29.4895
G01 X55.8072 Y29.6011
G01 X55.8046 Y29.6146
G01 X55.7779 Y29.7207
G01 X55.7748 Y29.7305
G01 X55.7367 Y29.8367
G01 X55.6886 Y29.9387
G01 X55.6821 Y29.9508
G01 X55.6240 Y30.0475
G01 X55.5569 Y30.1382
G01 X55.5482 Y30.1488
G01 X55.4723 Y30.2323
G01 X55.3836 Y30.3127
G01 X55.2931 Y30.3800
G01 X55.2817 Y30.3877
G01 X55.1849 Y30.4455
G01 X55.0830 Y30.4939
G01 X55.0703 Y30.4991
G01 X54.9640 Y30.5370
G01 X54.8479 Y30.5661
G01 X54.7364 Y30.5828
G01 X54.7227 Y30.5841
G01 X54.6100 Y30.5895
G01 X54.4973 Y30.5841
G01 X54.4836 Y30.5828
G01 X54.3721 Y30.5661
G01 X54.2560 Y30.5370
G01 X54.1497 Y30.4991
G01 X54.1370 Y30.4939
G01 X54.0351 Y30.4455
G01 X53.9383 Y30.3877
G01 X53.9269 Y30.3800
G01 X53.8364 Y30.3127
G01 X53.7477 Y30.2323
G01 X53.6673 Y30.1436
G01 X53.5960 Y30.0475
G01 X53.5379 Y29.9508
G01 X53.5329 Y29.9418
G01 X53.4833 Y29.8367
G01 X53.4452 Y29.7305
G01 X53.4421 Y29.7207
G01 X53.4154 Y29.6146
G01 X53.4133 Y29.6045
G01 X53.3968 Y29.4929
G01 X53.3959 Y29.4827
G01 X53.3932 Y29.4294
G01 X44.2962 Y20.3324
G01 X39.9107 Y20.3324
G01 X39.9588 Y20.3496
G01 X39.9683 Y20.3534
G01 X40.0688 Y20.4009
G01 X40.0778 Y20.4059
G01 X40.1673 Y20.4595
G01 X40.1759 Y20.4651
G01 X40.2679 Y20.5335
G01 X40.3503 Y20.6080
G01 X40.3600 Y20.6177
G01 X40.4301 Y20.6949
G01 X40.4367 Y20.7028
G01 X40.5048 Y20.7949
G01 X40.5621 Y20.8902
G01 X40.5686 Y20.9023
G01 X40.6160 Y21.0028
G01 X40.6536 Y21.1074
G01 X40.6576 Y21.1206
G01 X40.6844 Y21.2284
G01 X40.7017 Y21.3451
G01 X40.7075 Y21.4630
G01 X40.7017 Y21.5809
G01 X40.6844 Y21.6976
G01 X40.6557 Y21.8121
G01 X40.6160 Y21.9232
G01 X40.5686 Y22.0237
G01 X40.5639 Y22.0329
G01 X40.5085 Y22.1253
G01 X40.5029 Y22.1339
G01 X40.4367 Y22.2232
G01 X40.4301 Y22.2311
G01 X40.4074 Y22.2561
G01 X40.4073 Y22.4004
G01 X40.4030 Y22.4854
G01 X40.3900 Y22.5730
G01 X40.3695 Y22.6556
G01 X40.3664 Y22.6655
G01 X40.3387 Y22.7423
G01 X40.3008 Y22.8224
G01 X40.2553 Y22.8983
G01 X40.2026 Y22.9695
G01 X40.1431 Y23.0351
G01 X37.1401 Y26.0381
G01 X37.0745 Y26.0976
G01 X37.0090 Y26.1463
G01 X37.0005 Y26.1522
G01 X36.9274 Y26.1958
G01 X36.8473 Y26.2337
G01 X36.7639 Y26.2635
G01 X36.6814 Y26.2843
G01 X36.6713 Y26.2862
G01 X36.5973 Y26.2972
G01 X36.5836 Y26.2985
G01 X36.5054 Y26.3023
G01 X36.3531 Y26.3024
G01 X36.3281 Y26.3251
G01 X36.3202 Y26.3317
G01 X36.2337 Y26.3959
G01 X36.2252 Y26.4017
G01 X36.1269 Y26.4605
G01 X36.0233 Y26.5096
G01 X36.0138 Y26.5134
G01 X35.9156 Y26.5486
G01 X35.9024 Y26.5526
G01 X35.7946 Y26.5794
G01 X35.6813 Y26.5963
G01 X35.6710 Y26.5972
G01 X35.5600 Y26.6025
G01 X35.4490 Y26.5972
G01 X35.4353 Y26.5959
G01 X35.3322 Y26.5806
G01 X35.3187 Y26.5779
G01 X35.2109 Y26.5507
G01 X35.0998 Y26.5110
G01 X34.9931 Y26.4605
G01 X34.8919 Y26.3998
G01 X34.7971 Y26.3295
G01 X34.7097 Y26.2503
G01 X34.6305 Y26.1629
G01 X34.5602 Y26.0681
G01 X34.4995 Y25.9669
G01 X34.4490 Y25.8602
G01 X34.4093 Y25.7491
G01 X34.3806 Y25.6346
G01 X34.3633 Y25.5179
G01 X34.3575 Y25.4000
G01 X34.3633 Y25.2821
G01 X34.3806 Y25.1654
G01 X34.4093 Y25.0509
G01 X34.4490 Y24.9398
G01 X34.4995 Y24.8331
G01 X34.5602 Y24.7319
G01 X34.6305 Y24.6371
G01 X34.7097 Y24.5497
G01 X34.7971 Y24.4705
G01 X34.8919 Y24.4002
G01 X34.9931 Y24.3395
G01 X35.0998 Y24.2890
G01 X35.2109 Y24.2493
G01 X35.3254 Y24.2206
G01 X35.4421 Y24.2033
G01 X35.5600 Y24.1975
G01 X35.6779 Y24.2033
G01 X35.7946 Y24.2206
G01 X35.9091 Y24.2493
G01 X36.0202 Y24.2890
G01 X36.1269 Y24.3395
G01 X36.2266 Y24.3992
G00 Z2.0000
G00 X36.2356 Y24.5176
G01 F60.00
G01 Z-0.0000
G01 F120.00
G01 X38.6191 Y22.1340
G01 X38.5793 Y22.0800
G01 X38.5233 Y21.9863
G01 X38.4772 Y21.8887
G01 X38.4401 Y21.7848
G01 X38.4139 Y21.6800
G01 X38.3979 Y21.5720
G01 X38.3925 Y21.4630
G01 X38.3978 Y21.3552
G01 X38.4139 Y21.2460
G01 X38.4404 Y21.1401
G01 X38.4772 Y21.0373
G01 X38.5228 Y20.9408
G01 X38.5814 Y20.8429
G01 X38.6450 Y20.7572
G01 X38.7192 Y20.6755
G01 X38.7992 Y20.6030
G01 X38.8869 Y20.5380
G01 X38.9806 Y20.4819
G01 X39.0793 Y20.4352
G01 X39.1821 Y20.3984
G01 X39.2880 Y20.3719
G01 X39.3960 Y20.3559
G01 X39.5050 Y20.3505
G01 X39.6140 Y20.3559
G01 X39.7220 Y20.3719
G01 X39.8279 Y20.3984
G01 X39.9307 Y20.4352
G01 X40.0294 Y20.4819
G01 X40.1231 Y20.5380
G01 X40.2108 Y20.6030
G01 X40.2925 Y20.6772
G01 X40.3650 Y20.7572
G01 X40.4313 Y20.8470
G01 X40.4861 Y20.9386
G01 X40.5318 Y21.0350
G01 X40.5688 Y21.1377
G01 X40.5961 Y21.2460
G01 X40.6121 Y21.3540
G01 X40.6175 Y21.4630
G01 X40.6121 Y21.5720
G01 X40.5961 Y21.6800
G01 X40.5703 Y21.7836
G01 X40.5323 Y21.8899
G01 X40.4861 Y21.9874
G01 X40.4307 Y22.0800
G01 X40.3650 Y22.1688
G01 X40.3174 Y22.2214
G01 X40.3174 Y22.3982
G01 X40.3133 Y22.4778
G01 X40.3012 Y22.5579
G01 X40.2824 Y22.6328
G01 X40.2560 Y22.7067
G01 X40.2215 Y22.7800
G01 X40.1805 Y22.8483
G01 X40.1330 Y22.9124
G01 X40.0803 Y22.9706
G01 X37.0764 Y25.9744
G01 X37.0174 Y26.0280
G01 X36.9523 Y26.0761
G01 X36.8850 Y26.1165
G01 X36.8129 Y26.1505
G01 X36.7378 Y26.1774
G01 X36.6617 Y26.1965
G01 X36.5816 Y26.2085
G01 X36.5045 Y26.2123
G01 X36.3184 Y26.2124
G01 X36.2658 Y26.2600
G01 X36.1770 Y26.3257
G01 X36.0844 Y26.3811
G01 X35.9869 Y26.4273
G01 X35.8806 Y26.4653
G01 X35.7770 Y26.4911
G01 X35.6690 Y26.5071
G01 X35.5600 Y26.5125
G01 X35.4510 Y26.5071
G01 X35.3430 Y26.4911
G01 X35.2371 Y26.4646
G01 X35.1343 Y26.4278
G01 X35.0356 Y26.3811
G01 X34.9419 Y26.3250
G01 X34.8552 Y26.2607
G01 X34.7733 Y26.1867
G01 X34.7000 Y26.1058
G01 X34.6350 Y26.0181
G01 X34.5789 Y25.9244
G01 X34.5322 Y25.8257
G01 X34.4954 Y25.7229
G01 X34.4689 Y25.6170
G01 X34.4529 Y25.5090
G01 X34.4475 Y25.4000
G01 X34.4529 Y25.2910
G01 X34.4689 Y25.1830
G01 X34.4954 Y25.0771
G01 X34.5322 Y24.9743
G01 X34.5789 Y24.8756
G01 X34.6350 Y24.7819
G01 X34.6993 Y24.6952
G01 X34.7733 Y24.6133
G01 X34.8542 Y24.5400
G01 X34.9419 Y24.4750
G01 X35.0356 Y24.4189
G01 X35.1343 Y24.3722
G01 X35.2371 Y24.3354
G01 X35.3430 Y24.3089
G01 X35.4497 Y24.2930
G01 X35.5600 Y24.2875
G01 X35.6690 Y24.2929
G01 X35.7770 Y24.3089
G01 X35.8818 Y24.3351
G01 X35.9857 Y24.3722
G01 X36.0833 Y24.4183
G01 X36.1781 Y24.4750
G01 X36.2356 Y24.5176
G00 Z2.0000
G00 X36.6724 Y27.9425
G01 F60.00
G01 Z-0.0000
G01 F120.00
G01 X36.6671 Y28.0490
G01 X36.6511 Y28.1570
G01 X36.6246 Y28.2629
G01 X36.5878 Y28.3657
G01 X36.5411 Y28.4644
G01 X36.4850 Y28.5581
G01 X36.4200 Y28.6458
G01 X36.3467 Y28.7267
G01 X36.2658 Y28.8000
G01 X36.1781 Y28.8650
G01 X36.0844 Y28.9211
G01 X35.9857 Y28.9678
G01 X35.8829 Y29.0046
G01 X35.7770 Y29.0311
G01 X35.6690 Y29.0471
G01 X35.5600 Y29.0525
G01 X35.4510 Y29.0471
G01 X35.3430 Y29.0311
G01 X35.2371 Y29.0046
G01 X35.1343 Y28.9678
G01 X35.0356 Y28.9211
G01 X34.9419 Y28.8650
G01 X34.8542 Y28.8000
G01 X34.7733 Y28.7267
G01 X34.7000 Y28.6458
G01 X34.6350 Y28.5581
G01 X34.5789 Y28.4644
G01 X34.5322 Y28.3657
G01 X34.4954 Y28.2629
G01 X34.4689 Y28.1570
G01 X34.4529 Y28.0490
G01 X34.4475 Y27.9400
G01 X34.4529 Y27.8310
G01 X34.4689 Y27.7230
G01 X34.4954 Y27.6171
G01 X34.5322 Y27.5143
G01 X34.5789 Y27.4156
G01 X34.6350 Y27.3219
G01 X34.7000 Y27.2342
G01 X34.7733 Y27.1533
G01 X34.8542 Y27.0800
G01 X34.9419 Y27.0150
G01 X35.0356 Y26.9589
G01 X35.1343 Y26.9122
G01 X35.2371 Y26.8754
G01 X35.3430 Y26.8489
G01 X35.4510 Y26.8329
G01 X35.5600 Y26.8275
G01 X35.6690 Y26.8329
G01 X35.7770 Y26.8489
G01 X35.8829 Y26.8754
G01 X35.9857 Y26.9122
G01 X36.0844 Y26.9589
G01 X36.1781 Y27.0150
G01 X36.2658 Y27.0800
G01 X36.3467 Y27.1533
G01 X36.4200 Y27.2342
G01 X36.4850 Y27.3219
G01 X36.5411 Y27.4156
G01 X36.5878 Y27.5143
G01 X36.6246 Y27.6171
G01 X36.6511 Y27.7230
G01 X36.6671 Y27.8310
G01 X36.6724 Y27.9425
G00 Z2.0000
G00 X36.7623 Y27.9469
G01 F60.00
G01 Z-0.0000
G01 F120.00
G01 X36.7567 Y28.0579
G01 X36.7394 Y28.1746
G01 X36.7107 Y28.2891
G01 X36.6710 Y28.4002
G01 X36.6205 Y28.5069
G01 X36.5598 Y28.6081
G01 X36.4895 Y28.7029
G01 X36.4103 Y28.7903
G01 X36.3229 Y28.8695
G01 X36.2281 Y28.9398
G01 X36.1269 Y29.0005
G01 X36.0202 Y29.0510
G01 X35.9091 Y29.0907
G01 X35.7946 Y29.1194
G01 X35.6779 Y29.1367
G01 X35.5600 Y29.1425
G01 X35.4421 Y29.1367
G01 X35.3254 Y29.1194
G01 X35.2109 Y29.0907
G01 X35.0998 Y29.0510
G01 X34.9931 Y29.0005
G01 X34.8919 Y28.9398
G01 X34.7971 Y28.8695
G01 X34.7097 Y28.7903
G01 X34.6305 Y28.7029
G01 X34.5602 Y28.6081
G01 X34.4995 Y28.5069
G01 X34.4490 Y28.4002
G01 X34.4093 Y28.2891
G01 X34.3806 Y28.1746
G01 X34.3633 Y28.0579
G01 X34.3575 Y27.9400
G01 X34.3633 Y27.8221
G01 X34.3806 Y27.7054
G01 X34.4093 Y27.5909
G01 X34.4490 Y27.4798
G01 X34.4995 Y27.3731
G01 X34.5602 Y27.2719
G01 X34.6305 Y27.1771
G01 X34.7097 Y27.0897
G01 X34.7971 Y27.0105
G01 X34.8919 Y26.9402
G01 X34.9931 Y26.8795
G01 X35.0998 Y26.8290
G01 X35.2109 Y26.7893
G01 X35.3254 Y26.7606
G01 X35.4421 Y26.7433
G01 X35.5600 Y26.7375
G01 X35.6779 Y26.7433
G01 X35.7946 Y26.7606
G01 X35.9091 Y26.7893
G01 X36.0202 Y26.8290
G01 X36.1269 Y26.8795
G01 X36.2281 Y26.9402
G01 X36.3229 Y27.0105
G01 X36.4103 Y27.0897
G01 X36.4895 Y27.1771
G01 X36.5598 Y27.2719
G01 X36.6205 Y27.3731
G01 X36.6710 Y27.4798
G01 X36.7107 Y27.5909
G01 X36.7394 Y27.7054
G01 X36.7567 Y27.8221
G01 X36.7623 Y27.9331
G01 X36.7623 Y27.9469
G00 Z2.0000
G00 X36.1053 Y29.2100
G01 F60.00
G01 Z-0.0000
G01 F120.00
G01 X36.1977 Y29.1663
G01 X36.2117 Y29.1593
G01 X36.2254 Y29.1515
G01 X36.3148 Y29.0979
G01 X36.3281 Y29.0895
G01 X36.3409 Y29.0805
G01 X36.4247 Y29.0183
G01 X36.4370 Y29.0087
G01 X36.4489 Y28.9984
G01 X36.5262 Y28.9284
G01 X36.5376 Y28.9176
G01 X36.5484 Y28.9062
G01 X36.6184 Y28.8289
G01 X36.6287 Y28.8170
G01 X36.6383 Y28.8047
G01 X36.7005 Y28.7209
G01 X36.7095 Y28.7081
G01 X36.7179 Y28.6948
G01 X36.7715 Y28.6054
G01 X36.7793 Y28.5917
G01 X36.7863 Y28.5777
G01 X36.8309 Y28.4834
G01 X36.8373 Y28.4691
G01 X36.8429 Y28.4544
G01 X36.8780 Y28.3562
G01 X36.8830 Y28.3413
G01 X36.8872 Y28.3262
G01 X36.9125 Y28.2250
G01 X36.9159 Y28.2097
G01 X36.9186 Y28.1942
G01 X36.9339 Y28.0911
G01 X36.9358 Y28.0755
G01 X36.9370 Y28.0598
G01 X36.9421 Y27.9557
G01 X36.9425 Y27.9400
G01 X36.9421 Y27.9243
G01 X36.9370 Y27.8202
G01 X36.9358 Y27.8045
G01 X36.9339 Y27.7889
G01 X36.9186 Y27.6858
G01 X36.9159 Y27.6703
G01 X36.9125 Y27.6550
G01 X36.8872 Y27.5538
G01 X36.8830 Y27.5387
G01 X36.8780 Y27.5238
G01 X36.8429 Y27.4256
G01 X36.8373 Y27.4109
G01 X36.8309 Y27.3966
G01 X36.7863 Y27.3023
G01 X36.7793 Y27.2883
G01 X36.7715 Y27.2746
G01 X36.7179 Y27.1852
G01 X36.7095 Y27.1719
G01 X36.7005 Y27.1591
G01 X36.6383 Y27.0753
G01 X36.6287 Y27.0630
G01 X36.6184 Y27.0511
G01 X36.5484 Y26.9738
G01 X36.5376 Y26.9624
G01 X36.5262 Y26.9516
G01 X36.4489 Y26.8816
G01 X36.4370 Y26.8713
G01 X36.4247 Y26.8617
G01 X36.3409 Y26.7995
G01 X36.3281 Y26.7905
G01 X36.3148 Y26.7821
G01 X36.2254 Y26.7285
G01 X36.2117 Y26.7207
G01 X36.1977 Y26.7137
G01 X36.1053 Y26.6700
G01 X36.1977 Y26.6263
G01 X36.2117 Y26.6193
G01 X36.2254 Y26.6115
G01 X36.3148 Y26.5579
G01 X36.3281 Y26.5495
G01 X36.3409 Y26.5405
G01 X36.4192 Y26.4824
G01 X36.5099 Y26.4823
G01 X36.5924 Y26.4783
G01 X36.6159 Y26.4763
G01 X36.6977 Y26.4643
G01 X36.7132 Y26.4616
G01 X36.7285 Y26.4581
G01 X36.8011 Y26.4400
G01 X36.8237 Y26.4334
G01 X36.9016 Y26.4056
G01 X36.9162 Y26.4000
G01 X36.9306 Y26.3936
G01 X36.9982 Y26.3616
G01 X37.0122 Y26.3546
G01 X37.0259 Y26.3468
G01 X37.0901 Y26.3084
G01 X37.1033 Y26.3000
G01 X37.1162 Y26.2909
G01 X37.1763 Y26.2464
G01 X37.1947 Y26.2316
G01 X37.2560 Y26.1762
G01 X37.2674 Y26.1654
G01 X40.2704 Y23.1624
G01 X40.2812 Y23.1510
G01 X40.3314 Y23.0955
G01 X40.3417 Y23.0837
G01 X40.3514 Y23.0713
G01 X40.4005 Y23.0048
G01 X40.4134 Y22.9851
G01 X40.4518 Y22.9209
G01 X40.4596 Y22.9072
G01 X40.4666 Y22.8932
G01 X40.4986 Y22.8256
G01 X40.5050 Y22.8112
G01 X40.5106 Y22.7966
G01 X40.5358 Y22.7261
G01 X40.5430 Y22.7037
G01 X40.5631 Y22.6235
G01 X40.5666 Y22.6082
G01 X40.5693 Y22.5927
G01 X40.5813 Y22.5109
G01 X40.5833 Y22.4874
G01 X40.5873 Y22.4049
G01 X40.5874 Y22.3222
G01 X40.6455 Y22.2439
G01 X40.6545 Y22.2311
G01 X40.6629 Y22.2178
G01 X40.7165 Y22.1284
G01 X40.7243 Y22.1147
G01 X40.7313 Y22.1007
G01 X40.7759 Y22.0064
G01 X40.7823 Y21.9921
G01 X40.7879 Y21.9774
G01 X40.8256 Y21.8718
G01 X40.8322 Y21.8492
G01 X40.8575 Y21.7480
G01 X40.8609 Y21.7327
G01 X40.8636 Y21.7172
G01 X40.8789 Y21.6141
G01 X40.8808 Y21.5985
G01 X40.8820 Y21.5828
G01 X40.8871 Y21.4787
G01 X40.8875 Y21.4630
G01 X40.8871 Y21.4473
G01 X40.8820 Y21.3432
G01 X40.8808 Y21.3275
G01 X40.8789 Y21.3119
G01 X40.8636 Y21.2088
G01 X40.8609 Y21.1933
G01 X40.8575 Y21.1780
G01 X40.8322 Y21.0768
G01 X40.8280 Y21.0617
G01 X40.8230 Y21.0468
G01 X40.7852 Y20.9412
G01 X40.7759 Y20.9196
G01 X40.7313 Y20.8253
G01 X40.7243 Y20.8113
G01 X40.7165 Y20.7976
G01 X40.6588 Y20.7015
G01 X40.6455 Y20.6821
G01 X40.5786 Y20.5921
G01 X40.5634 Y20.5741
G01 X40.5075 Y20.5124
G01 X44.2217 Y20.5124
G01 X53.2173 Y29.5081
G01 X53.2192 Y29.5228
G01 X53.2347 Y29.6276
G01 X53.2374 Y29.6430
G01 X53.2408 Y29.6584
G01 X53.2666 Y29.7611
G01 X53.2708 Y29.7763
G01 X53.2757 Y29.7912
G01 X53.3114 Y29.8909
G01 X53.3170 Y29.9056
G01 X53.3234 Y29.9199
G01 X53.3687 Y30.0157
G01 X53.3758 Y30.0297
G01 X53.3835 Y30.0434
G01 X53.4380 Y30.1343
G01 X53.4464 Y30.1475
G01 X53.4554 Y30.1604
G01 X53.5185 Y30.2455
G01 X53.5282 Y30.2578
G01 X53.5384 Y30.2697
G01 X53.6096 Y30.3482
G01 X53.6204 Y30.3596
G01 X53.6318 Y30.3704
G01 X53.7103 Y30.4416
G01 X53.7222 Y30.4518
G01 X53.7345 Y30.4615
G01 X53.8196 Y30.5246
G01 X53.8325 Y30.5336
G01 X53.8457 Y30.5420
G01 X53.9366 Y30.5965
G01 X53.9503 Y30.6042
G01 X53.9643 Y30.6113
G01 X54.0601 Y30.6566
G01 X54.0744 Y30.6630
G01 X54.0891 Y30.6686
G01 X54.1888 Y30.7043
G01 X54.2037 Y30.7092
G01 X54.2189 Y30.7134
G01 X54.3216 Y30.7392
G01 X54.3370 Y30.7426
G01 X54.3524 Y30.7453
G01 X54.4572 Y30.7608
G01 X54.4728 Y30.7628
G01 X54.4885 Y30.7639
G01 X54.5943 Y30.7691
G01 X54.6100 Y30.7695
G01 X54.6257 Y30.7691
G01 X54.7315 Y30.7639
G01 X54.7472 Y30.7628
G01 X54.7628 Y30.7608
G01 X54.8676 Y30.7453
G01 X54.8907 Y30.7410
G01 X55.0011 Y30.7134
G01 X55.0163 Y30.7092
G01 X55.0312 Y30.7043
G01 X55.1309 Y30.6686
G01 X55.1456 Y30.6630
G01 X55.1599 Y30.6566
G01 X55.2557 Y30.6113
G01 X55.2697 Y30.6042
G01 X55.2834 Y30.5965
G01 X55.3743 Y30.5420
G01 X55.3875 Y30.5336
G01 X55.4004 Y30.5246
G01 X55.4917 Y30.4567
G01 X55.5097 Y30.4416
G01 X55.5882 Y30.3704
G01 X55.5996 Y30.3596
G01 X55.6104 Y30.3482
G01 X55.6816 Y30.2697
G01 X55.6967 Y30.2517
G01 X55.7646 Y30.1604
G01 X55.7779 Y30.1409
G01 X55.8365 Y30.0434
G01 X55.8442 Y30.0297
G01 X55.8513 Y30.0157
G01 X55.8800 Y29.9550
G01 X55.9087 Y30.0157
G01 X55.9158 Y30.0297
G01 X55.9235 Y30.0434
G01 X55.9821 Y30.1409
G01 X55.9954 Y30.1604
G01 X56.0585 Y30.2455
G01 X56.0670 Y30.2564
G01 X56.0673 Y30.3580
G01 X54.4877 Y31.9376
G01 X52.3058 Y31.9376
G01 X52.3502 Y31.8974
G01 X52.3671 Y31.8810
G01 X52.4424 Y31.7979
G01 X52.4576 Y31.7799
G01 X52.5245 Y31.6899
G01 X52.5335 Y31.6771
G01 X52.5419 Y31.6638
G01 X52.5995 Y31.5676
G01 X52.6103 Y31.5467
G01 X52.6549 Y31.4524
G01 X52.6613 Y31.4381
G01 X52.6669 Y31.4234
G01 X52.7020 Y31.3252
G01 X52.7070 Y31.3103
G01 X52.7112 Y31.2952
G01 X52.7383 Y31.1864
G01 X52.7426 Y31.1632
G01 X52.7579 Y31.0601
G01 X52.7598 Y31.0445
G01 X52.7610 Y31.0288
G01 X52.7661 Y30.9247
G01 X52.7665 Y30.9090
G01 X52.7661 Y30.8933
G01 X52.7610 Y30.7892
G01 X52.7598 Y30.7735
G01 X52.7579 Y30.7579
G01 X52.7426 Y30.6548
G01 X52.7399 Y30.6393
G01 X52.7365 Y30.6240
G01 X52.7112 Y30.5228
G01 X52.7070 Y30.5077
G01 X52.7020 Y30.4928
G01 X52.6669 Y30.3946
G01 X52.6582 Y30.3727
G01 X52.6103 Y30.2713
G01 X52.6033 Y30.2573
G01 X52.5955 Y30.2436
G01 X52.5419 Y30.1542
G01 X52.5335 Y30.1409
G01 X52.5245 Y30.1281
G01 X52.4623 Y30.0443
G01 X52.4527 Y30.0320
G01 X52.4424 Y30.0201
G01 X52.3724 Y29.9428
G01 X52.3616 Y29.9314
G01 X52.3502 Y29.9206
G01 X52.2729 Y29.8506
G01 X52.2610 Y29.8403
G01 X52.2487 Y29.8307
G01 X52.1649 Y29.7685
G01 X52.1455 Y29.7552
G01 X52.0494 Y29.6975
G01 X52.0357 Y29.6897
G01 X52.0217 Y29.6827
G01 X51.9274 Y29.6381
G01 X51.9131 Y29.6317
G01 X51.8984 Y29.6261
G01 X51.7928 Y29.5884
G01 X51.7702 Y29.5818
G01 X51.6690 Y29.5565
G01 X51.6460 Y29.5516
G01 X51.5273 Y29.5340
G01 X51.5117 Y29.5325
G01 X51.4744 Y29.5306
G01 X51.4652 Y29.5254
G01 X51.4512 Y29.5184
G01 X51.3836 Y29.4864
G01 X51.3692 Y29.4800
G01 X51.3546 Y29.4744
G01 X51.2841 Y29.4492
G01 X51.2692 Y29.4442
G01 X51.2541 Y29.4400
G01 X51.1815 Y29.4219
G01 X51.1584 Y29.4170
G01 X51.0767 Y29.4048
G01 X51.0611 Y29.4028
G01 X51.0454 Y29.4017
G01 X50.9707 Y29.3980
G01 X50.9550 Y29.3976
G01 X36.4192 Y29.3976
G01 X36.3409 Y29.3395
G01 X36.3281 Y29.3305
G01 X36.3148 Y29.3221
G01 X36.2254 Y29.2685
G01 X36.2117 Y29.2607
G01 X36.1977 Y29.2537
G01 X36.1053 Y29.2100
G00 Z2.0000
G00 X35.7983 Y29.2100
G01 F60.00
G01 Z-0.0000
G01 F120.00
G01 X35.8122 Y29.2077
G01 X35.8232 Y29.2052
G01 X35.9243 Y29.1799
G01 X35.9352 Y29.1768
G01 X35.9459 Y29.1733
G01 X36.0546 Y29.1341
G01 X36.1592 Y29.0850
G01 X36.1693 Y29.0799
G01 X36.1791 Y29.0743
G01 X36.2781 Y29.0147
G01 X36.3711 Y28.9461
G01 X36.3800 Y28.9391
G01 X36.3885 Y28.9317
G01 X36.4739 Y28.8539
G01 X36.5517 Y28.7685
G01 X36.5591 Y28.7600
G01 X36.5661 Y28.7511
G01 X36.6347 Y28.6581
G01 X36.6943 Y28.5591
G01 X36.6999 Y28.5493
G01 X36.7050 Y28.5392
G01 X36.7541 Y28.4346
G01 X36.7933 Y28.3259
G01 X36.7968 Y28.3152
G01 X36.7999 Y28.3043
G01 X36.8252 Y28.2032
G01 X36.8277 Y28.1922
G01 X36.8296 Y28.1810
G01 X36.8463 Y28.0667
G01 X36.8522 Y27.9513
G01 X36.8525 Y27.9400
G01 X36.8522 Y27.9287
G01 X36.8463 Y27.8133
G01 X36.8296 Y27.6990
G01 X36.8277 Y27.6878
G01 X36.8252 Y27.6768
G01 X36.7968 Y27.5648
G01 X36.7582 Y27.4559
G01 X36.7541 Y27.4454
G01 X36.7495 Y27.4351
G01 X36.7050 Y27.3408
G01 X36.6999 Y27.3307
G01 X36.6943 Y27.3209
G01 X36.6347 Y27.2219
G01 X36.5661 Y27.1289
G01 X36.5591 Y27.1200
G01 X36.5517 Y27.1115
G01 X36.4739 Y27.0261
G01 X36.3885 Y26.9483
G01 X36.3800 Y26.9409
G01 X36.3711 Y26.9339
G01 X36.2781 Y26.8653
G01 X36.1791 Y26.8057
G01 X36.1693 Y26.8001
G01 X36.1592 Y26.7950
G01 X36.0546 Y26.7459
G01 X35.9459 Y26.7067
G01 X35.9352 Y26.7032
G01 X35.9243 Y26.7001
G01 X35.8232 Y26.6748
G01 X35.8122 Y26.6723
G01 X35.7983 Y26.6700
G01 X35.8122 Y26.6677
G01 X35.8232 Y26.6652
G01 X35.9352 Y26.6368
G01 X36.0441 Y26.5982
G01 X36.0546 Y26.5941
G01 X36.0649 Y26.5895
G01 X36.1693 Y26.5399
G01 X36.2685 Y26.4807
G01 X36.2781 Y26.4747
G01 X36.2873 Y26.4682
G01 X36.3711 Y26.4061
G01 X36.3800 Y26.3991
G01 X36.3878 Y26.3924
G01 X36.5076 Y26.3923
G01 X36.5880 Y26.3884
G01 X36.5993 Y26.3876
G01 X36.6105 Y26.3862
G01 X36.6845 Y26.3752
G01 X36.6956 Y26.3733
G01 X36.7066 Y26.3708
G01 X36.7901 Y26.3496
G01 X36.8008 Y26.3461
G01 X36.8765 Y26.3189
G01 X36.8921 Y26.3123
G01 X36.9597 Y26.2803
G01 X36.9698 Y26.2752
G01 X36.9796 Y26.2696
G01 X37.0533 Y26.2251
G01 X37.0626 Y26.2186
G01 X37.1316 Y26.1671
G01 X37.1758 Y26.1274
G01 X37.2037 Y26.1017
G01 X40.2067 Y23.0987
G01 X40.2145 Y23.0905
G01 X40.2721 Y23.0266
G01 X40.3236 Y22.9576
G01 X40.3301 Y22.9483
G01 X40.3362 Y22.9388
G01 X40.3746 Y22.8746
G01 X40.3828 Y22.8598
G01 X40.4173 Y22.7871
G01 X40.4218 Y22.7768
G01 X40.4511 Y22.6958
G01 X40.4546 Y22.6851
G01 X40.4577 Y22.6742
G01 X40.4783 Y22.5906
G01 X40.4912 Y22.5055
G01 X40.4931 Y22.4886
G01 X40.4973 Y22.4026
G01 X40.4974 Y22.2908
G01 X40.5041 Y22.2830
G01 X40.5111 Y22.2741
G01 X40.5797 Y22.1811
