(G-CODE GENERATED BY FLATCAM v8.994 - www.flatcam.org - Version Date: 2020/11/7)

(Name: preamp-board-v3-B_Cu.gbr_iso_combined_cnc)
(Type: G-code from Geometry)
(Units: MM)

(Created on Saturday, 01 May 2021 at 00:26)

(This preprocessor is the default preprocessor used by FlatCAM.)
(It is made to work with MACH3 compatible motion controllers.)

(TOOL DIAMETER: 0.1 mm)
(Feedrate_XY: 120.0 mm/min)
(Feedrate_Z: 60.0 mm/min)
(Feedrate rapids 1500.0 mm/min)

(Z_Cut: -0.0 mm)
(Z_Move: 2.0 mm)
(Z Start: None mm)
(Z End: 15.0 mm)
(X,Y End: None mm)
(Steps per circle: 64)
(Preprocessor Geometry: default)

(X range:   15.2174 ...   67.3293  mm)
(Y range:    5.1396 ...   52.5300  mm)

(Spindle Speed: 0.0 RPM)
G21
G90
G94

G01 F120.00

M5
G00 Z15.0000
G00 X0.0000 Y0.0000
T1
M6    
(MSG, Change to Tool Dia = 0.1000)
M0
G00 Z15.0000

M03
G01 F120.00
G00 X17.3171 Y8.9813
G01 F60.00
G01 Z-0.0000
G01 F120.00
G01 X17.3168 Y8.9700
G01 X17.3171 Y8.9587
G01 X17.3243 Y8.8117
G01 X17.3251 Y8.8004
G01 X17.3265 Y8.7892
G01 X17.3481 Y8.6436
G01 X17.3500 Y8.6325
G01 X17.3525 Y8.6215
G01 X17.3883 Y8.4787
G01 X17.3913 Y8.4678
G01 X17.3948 Y8.4571
G01 X17.4444 Y8.3185
G01 X17.4485 Y8.3080
G01 X17.4531 Y8.2976
G01 X17.5160 Y8.1646
G01 X17.5211 Y8.1545
G01 X17.5266 Y8.1447
G01 X17.6023 Y8.0184
G01 X17.6084 Y8.0089
G01 X17.6149 Y7.9996
G01 X17.7025 Y7.8814
G01 X17.7095 Y7.8725
G01 X17.7169 Y7.8640
G01 X17.8157 Y7.7549
G01 X17.8235 Y7.7467
G01 X17.8317 Y7.7389
G01 X17.9408 Y7.6401
G01 X17.9493 Y7.6327
G01 X17.9582 Y7.6257
G01 X18.0764 Y7.5381
G01 X18.0857 Y7.5316
G01 X18.0952 Y7.5255
G01 X18.2215 Y7.4498
G01 X18.2313 Y7.4443
G01 X18.2414 Y7.4392
G01 X18.3744 Y7.3763
G01 X18.3848 Y7.3717
G01 X18.3953 Y7.3676
G01 X18.5339 Y7.3180
G01 X18.5446 Y7.3145
G01 X18.5555 Y7.3115
G01 X18.6983 Y7.2757
G01 X18.7093 Y7.2732
G01 X18.7204 Y7.2713
G01 X18.8660 Y7.2497
G01 X18.8772 Y7.2483
G01 X18.8885 Y7.2475
G01 X19.0355 Y7.2403
G01 X19.0468 Y7.2400
G01 X19.0581 Y7.2403
G01 X19.2051 Y7.2475
G01 X19.2164 Y7.2483
G01 X19.2276 Y7.2497
G01 X19.3732 Y7.2713
G01 X19.3843 Y7.2732
G01 X19.3953 Y7.2757
G01 X19.5381 Y7.3115
G01 X19.5490 Y7.3145
G01 X19.5597 Y7.3180
G01 X19.6983 Y7.3676
G01 X19.7088 Y7.3717
G01 X19.7192 Y7.3763
G01 X19.8522 Y7.4392
G01 X19.8623 Y7.4443
G01 X19.8721 Y7.4498
G01 X19.9984 Y7.5255
G01 X20.0079 Y7.5316
G01 X20.0172 Y7.5381
G01 X20.1354 Y7.6257
G01 X20.1443 Y7.6327
G01 X20.1528 Y7.6401
G01 X20.2619 Y7.7389
G01 X20.2701 Y7.7467
G01 X20.2779 Y7.7549
G01 X20.3767 Y7.8640
G01 X20.3841 Y7.8725
G01 X20.3911 Y7.8814
G01 X20.4787 Y7.9996
G01 X20.4852 Y8.0089
G01 X20.4913 Y8.0184
G01 X20.5670 Y8.1447
G01 X20.5725 Y8.1545
G01 X20.5776 Y8.1646
G01 X20.6405 Y8.2976
G01 X20.6451 Y8.3080
G01 X20.6492 Y8.3185
G01 X20.6988 Y8.4571
G01 X20.7023 Y8.4678
G01 X20.7053 Y8.4787
G01 X20.7411 Y8.6215
G01 X20.7436 Y8.6325
G01 X20.7455 Y8.6436
G01 X20.7671 Y8.7892
G01 X20.7685 Y8.8004
G01 X20.7693 Y8.8117
G01 X20.7765 Y8.9587
G01 X20.7768 Y8.9700
G01 X20.7765 Y8.9813
G01 X20.7693 Y9.1283
G01 X20.7685 Y9.1396
G01 X20.7671 Y9.1508
G01 X20.7455 Y9.2964
G01 X20.7436 Y9.3075
G01 X20.7411 Y9.3185
G01 X20.7053 Y9.4613
G01 X20.7023 Y9.4722
G01 X20.6988 Y9.4829
G01 X20.6492 Y9.6215
G01 X20.6451 Y9.6320
G01 X20.6405 Y9.6424
G01 X20.5776 Y9.7754
G01 X20.5725 Y9.7855
G01 X20.5670 Y9.7953
G01 X20.4913 Y9.9216
G01 X20.4852 Y9.9311
G01 X20.4787 Y9.9404
G01 X20.3911 Y10.0586
G01 X20.3841 Y10.0675
G01 X20.3767 Y10.0760
G01 X20.2779 Y10.1851
G01 X20.2701 Y10.1933
G01 X20.2619 Y10.2011
G01 X20.1528 Y10.2999
G01 X20.1443 Y10.3073
G01 X20.1354 Y10.3143
G01 X20.0172 Y10.4019
G01 X20.0079 Y10.4084
G01 X19.9984 Y10.4145
G01 X19.8721 Y10.4902
G01 X19.8623 Y10.4957
G01 X19.8522 Y10.5008
G01 X19.7192 Y10.5637
G01 X19.7088 Y10.5683
G01 X19.6983 Y10.5724
G01 X19.5597 Y10.6220
G01 X19.5490 Y10.6255
G01 X19.5381 Y10.6285
G01 X19.3953 Y10.6643
G01 X19.3843 Y10.6668
G01 X19.3732 Y10.6687
G01 X19.2276 Y10.6903
G01 X19.2164 Y10.6917
G01 X19.2051 Y10.6925
G01 X19.0581 Y10.6997
G01 X19.0468 Y10.7000
G01 X19.0355 Y10.6997
G01 X18.8885 Y10.6925
G01 X18.8772 Y10.6917
G01 X18.8660 Y10.6903
G01 X18.7204 Y10.6687
G01 X18.7093 Y10.6668
G01 X18.6983 Y10.6643
G01 X18.5555 Y10.6285
G01 X18.5446 Y10.6255
G01 X18.5339 Y10.6220
G01 X18.3953 Y10.5724
G01 X18.3848 Y10.5683
G01 X18.3744 Y10.5637
G01 X18.2414 Y10.5008
G01 X18.2313 Y10.4957
G01 X18.2215 Y10.4902
G01 X18.0952 Y10.4145
G01 X18.0857 Y10.4084
G01 X18.0764 Y10.4019
G01 X17.9582 Y10.3143
G01 X17.9493 Y10.3073
G01 X17.9408 Y10.2999
G01 X17.8317 Y10.2011
G01 X17.8235 Y10.1933
G01 X17.8157 Y10.1851
G01 X17.7169 Y10.0760
G01 X17.7095 Y10.0675
G01 X17.7025 Y10.0586
G01 X17.6149 Y9.9404
G01 X17.6084 Y9.9311
G01 X17.6023 Y9.9216
G01 X17.5266 Y9.7953
G01 X17.5211 Y9.7855
G01 X17.5160 Y9.7754
G01 X17.4531 Y9.6424
G01 X17.4485 Y9.6320
G01 X17.4444 Y9.6215
G01 X17.3948 Y9.4829
G01 X17.3913 Y9.4722
G01 X17.3883 Y9.4613
G01 X17.3525 Y9.3185
G01 X17.3500 Y9.3075
G01 X17.3481 Y9.2964
G01 X17.3265 Y9.1508
G01 X17.3251 Y9.1396
G01 X17.3243 Y9.1283
G01 X17.3171 Y8.9813
G00 Z2.0000
G00 X17.3770 Y8.9783
G01 F60.00
G01 Z-0.0000
G01 F120.00
G01 X17.3770 Y8.9617
G01 X17.3848 Y8.8063
G01 X17.4089 Y8.6442
G01 X17.4487 Y8.4852
G01 X17.5039 Y8.3309
G01 X17.5740 Y8.1828
G01 X17.6582 Y8.0422
G01 X17.7559 Y7.9106
G01 X17.8659 Y7.7891
G01 X17.9874 Y7.6791
G01 X18.1190 Y7.5814
G01 X18.2596 Y7.4972
G01 X18.4077 Y7.4271
G01 X18.5620 Y7.3719
G01 X18.7210 Y7.3321
G01 X18.8831 Y7.3080
G01 X19.0468 Y7.3000
G01 X19.2105 Y7.3080
G01 X19.3726 Y7.3321
G01 X19.5316 Y7.3719
G01 X19.6859 Y7.4271
G01 X19.8340 Y7.4972
G01 X19.9746 Y7.5814
G01 X20.1062 Y7.6791
G01 X20.2277 Y7.7891
G01 X20.3377 Y7.9106
G01 X20.4354 Y8.0422
G01 X20.5196 Y8.1828
G01 X20.5897 Y8.3309
G01 X20.6449 Y8.4852
G01 X20.6847 Y8.6442
G01 X20.7088 Y8.8063
G01 X20.7168 Y8.9700
G01 X20.7088 Y9.1337
G01 X20.6847 Y9.2958
G01 X20.6449 Y9.4548
G01 X20.5897 Y9.6091
G01 X20.5196 Y9.7572
G01 X20.4354 Y9.8978
G01 X20.3377 Y10.0294
G01 X20.2277 Y10.1509
G01 X20.1062 Y10.2609
G01 X19.9746 Y10.3586
G01 X19.8340 Y10.4428
G01 X19.6859 Y10.5129
G01 X19.5316 Y10.5681
G01 X19.3726 Y10.6079
G01 X19.2105 Y10.6320
G01 X19.0468 Y10.6400
G01 X18.8831 Y10.6320
G01 X18.7210 Y10.6079
G01 X18.5620 Y10.5681
G01 X18.4077 Y10.5129
G01 X18.2596 Y10.4428
G01 X18.1190 Y10.3586
G01 X17.9874 Y10.2609
G01 X17.8659 Y10.1509
G01 X17.7559 Y10.0294
G01 X17.6582 Y9.8978
G01 X17.5740 Y9.7572
G01 X17.5039 Y9.6091
G01 X17.4487 Y9.4548
G01 X17.4089 Y9.2958
G01 X17.3848 Y9.1337
G01 X17.3770 Y8.9783
G00 Z2.0000
G00 X17.4369 Y8.9754
G01 F60.00
G01 Z-0.0000
G01 F120.00
G01 X17.4369 Y8.9646
G01 X17.4446 Y8.8122
G01 X17.4677 Y8.6559
G01 X17.5061 Y8.5026
G01 X17.5594 Y8.3539
G01 X17.6269 Y8.2111
G01 X17.7081 Y8.0755
G01 X17.8023 Y7.9486
G01 X17.9084 Y7.8316
G01 X18.0254 Y7.7255
G01 X18.1523 Y7.6313
G01 X18.2879 Y7.5501
G01 X18.4307 Y7.4826
G01 X18.5794 Y7.4293
G01 X18.7327 Y7.3909
G01 X18.8890 Y7.3678
G01 X19.0468 Y7.3600
G01 X19.2046 Y7.3678
G01 X19.3609 Y7.3909
G01 X19.5142 Y7.4293
G01 X19.6629 Y7.4826
G01 X19.8057 Y7.5501
G01 X19.9413 Y7.6313
G01 X20.0682 Y7.7255
G01 X20.1852 Y7.8316
G01 X20.2913 Y7.9486
G01 X20.3855 Y8.0755
G01 X20.4667 Y8.2111
G01 X20.5342 Y8.3539
G01 X20.5875 Y8.5026
G01 X20.6259 Y8.6559
G01 X20.6490 Y8.8122
G01 X20.6568 Y8.9700
G01 X20.6490 Y9.1278
G01 X20.6259 Y9.2841
G01 X20.5875 Y9.4374
G01 X20.5342 Y9.5861
G01 X20.4667 Y9.7289
G01 X20.3855 Y9.8645
G01 X20.2913 Y9.9914
G01 X20.1852 Y10.1084
G01 X20.0682 Y10.2145
G01 X19.9413 Y10.3087
G01 X19.8057 Y10.3899
G01 X19.6629 Y10.4574
G01 X19.5142 Y10.5107
G01 X19.3609 Y10.5491
G01 X19.2046 Y10.5722
G01 X19.0468 Y10.5800
G01 X18.8890 Y10.5722
G01 X18.7327 Y10.5491
G01 X18.5794 Y10.5107
G01 X18.4307 Y10.4574
G01 X18.2879 Y10.3899
G01 X18.1523 Y10.3087
G01 X18.0254 Y10.2145
G01 X17.9084 Y10.1084
G01 X17.8023 Y9.9914
G01 X17.7081 Y9.8645
G01 X17.6269 Y9.7289
G01 X17.5594 Y9.5861
G01 X17.5061 Y9.4374
G01 X17.4677 Y9.2841
G01 X17.4446 Y9.1278
G01 X17.4369 Y8.9754
G00 Z2.0000
G00 X17.4969 Y8.9725
G01 F60.00
G01 Z-0.0000
G01 F120.00
G01 X17.5043 Y8.8181
G01 X17.5266 Y8.6676
G01 X17.5635 Y8.5201
G01 X17.6148 Y8.3768
G01 X17.6798 Y8.2393
G01 X17.7580 Y8.1089
G01 X17.8486 Y7.9867
G01 X17.9508 Y7.8740
G01 X18.0635 Y7.7718
G01 X18.1857 Y7.6812
G01 X18.3161 Y7.6030
G01 X18.4536 Y7.5380
G01 X18.5969 Y7.4867
G01 X18.7444 Y7.4498
G01 X18.8949 Y7.4275
G01 X19.0468 Y7.4200
G01 X19.1987 Y7.4275
G01 X19.3492 Y7.4498
G01 X19.4967 Y7.4867
G01 X19.6400 Y7.5380
G01 X19.7775 Y7.6030
G01 X19.9079 Y7.6812
G01 X20.0301 Y7.7718
G01 X20.1428 Y7.8740
G01 X20.2450 Y7.9867
G01 X20.3356 Y8.1089
G01 X20.4138 Y8.2393
G01 X20.4788 Y8.3768
G01 X20.5301 Y8.5201
G01 X20.5670 Y8.6676
G01 X20.5893 Y8.8181
G01 X20.5968 Y8.9700
G01 X20.5893 Y9.1219
G01 X20.5670 Y9.2724
G01 X20.5301 Y9.4199
G01 X20.4788 Y9.5632
G01 X20.4138 Y9.7007
G01 X20.3356 Y9.8311
G01 X20.2450 Y9.9533
G01 X20.1428 Y10.0660
G01 X20.0301 Y10.1682
G01 X19.9079 Y10.2588
G01 X19.7775 Y10.3370
G01 X19.6400 Y10.4020
G01 X19.4967 Y10.4533
G01 X19.3492 Y10.4902
G01 X19.1987 Y10.5125
G01 X19.0468 Y10.5200
G01 X18.8949 Y10.5125
G01 X18.7444 Y10.4902
G01 X18.5969 Y10.4533
G01 X18.4536 Y10.4020
G01 X18.3161 Y10.3370
G01 X18.1857 Y10.2588
G01 X18.0635 Y10.1682
G01 X17.9508 Y10.0660
G01 X17.8486 Y9.9533
G01 X17.7580 Y9.8311
G01 X17.6798 Y9.7007
G01 X17.6148 Y9.5632
G01 X17.5635 Y9.4199
G01 X17.5266 Y9.2724
G01 X17.5043 Y9.1219
G01 X17.4969 Y8.9725
G00 Z2.0000
G00 X23.1944 Y12.5846
G01 F60.00
G01 Z-0.0000
G01 F120.00
G01 X23.1944 Y11.5454
G01 X23.0674 Y11.4509
G01 X22.9459 Y11.3409
G01 X22.8359 Y11.2194
G01 X22.7382 Y11.0878
G01 X22.6540 Y10.9472
G01 X22.5839 Y10.7991
G01 X22.5287 Y10.6448
G01 X22.4889 Y10.4858
G01 X22.4648 Y10.3237
G01 X22.4570 Y10.1683
G01 X22.4570 Y10.1517
G01 X22.4648 Y9.9963
G01 X22.4875 Y9.8424
G01 X22.4907 Y9.8261
G01 X22.5287 Y9.6752
G01 X22.5824 Y9.5248
G01 X22.5873 Y9.5133
G01 X22.6540 Y9.3728
G01 X22.7382 Y9.2322
G01 X22.8359 Y9.1006
G01 X22.9459 Y8.9791
G01 X23.0674 Y8.8691
G01 X23.1990 Y8.7714
G01 X23.3396 Y8.6872
G01 X23.4877 Y8.6171
G01 X23.6420 Y8.5619
G01 X23.8010 Y8.5221
G01 X23.9631 Y8.4980
G01 X24.1268 Y8.4900
G01 X24.2905 Y8.4980
G01 X24.4526 Y8.5221
G01 X24.6116 Y8.5619
G01 X24.7620 Y8.6156
G01 X24.7735 Y8.6205
G01 X24.9140 Y8.6872
G01 X25.0476 Y8.7670
G01 X25.0614 Y8.7763
G01 X25.1862 Y8.8691
G01 X25.3016 Y8.9734
G01 X25.3134 Y8.9852
G01 X25.4177 Y9.1006
G01 X25.5154 Y9.2322
G01 X25.5955 Y9.3655
G01 X25.6034 Y9.3802
G01 X25.6697 Y9.5209
G01 X25.7223 Y9.6673
G01 X25.7271 Y9.6833
G01 X25.7629 Y9.8261
G01 X25.7661 Y9.8424
G01 X25.7877 Y9.9880
G01 X25.7894 Y10.0046
G01 X25.7968 Y10.1600
G01 X25.7888 Y10.3237
G01 X25.7647 Y10.4858
G01 X25.7271 Y10.6367
G01 X25.7223 Y10.6527
G01 X25.6697 Y10.7991
G01 X25.6034 Y10.9398
G01 X25.5955 Y10.9545
G01 X25.5154 Y11.0878
G01 X25.4177 Y11.2194
G01 X25.3134 Y11.3348
G01 X25.3016 Y11.3466
G01 X25.1862 Y11.4509
G01 X25.0592 Y11.5454
G01 X25.0592 Y12.5846
G01 X25.1797 Y12.6739
G01 X25.1926 Y12.6845
G01 X25.3077 Y12.7891
G01 X25.4123 Y12.9042
G01 X25.4229 Y12.9171
G01 X25.5154 Y13.0422
G01 X25.5955 Y13.1755
G01 X25.6015 Y13.1865
G01 X25.6697 Y13.3309
G01 X25.7223 Y13.4773
G01 X25.7271 Y13.4933
G01 X25.7629 Y13.6361
G01 X25.7661 Y13.6524
G01 X25.7888 Y13.8063
G01 X25.7968 Y13.9700
G01 X25.7888 Y14.1337
G01 X25.7657 Y14.2903
G01 X26.0590 Y14.5837
G01 X26.1175 Y14.6485
G01 X26.1672 Y14.7152
G01 X26.1743 Y14.7255
G01 X26.2150 Y14.7932
G01 X26.2228 Y14.8079
G01 X26.2582 Y14.8832
G01 X26.2864 Y14.9614
G01 X26.2913 Y14.9774
G01 X26.3113 Y15.0581
G01 X26.3237 Y15.1403
G01 X26.3250 Y15.1528
G01 X26.3292 Y15.2400
G01 X26.3292 Y20.6001
G01 X26.3572 Y20.6310
G01 X26.3653 Y20.6406
G01 X26.4334 Y20.7324
G01 X26.4402 Y20.7429
G01 X26.4967 Y20.8373
G01 X26.5025 Y20.8484
G01 X26.5512 Y20.9518
G01 X26.5912 Y21.0633
G01 X26.5947 Y21.0753
G01 X26.6223 Y21.1862
G01 X26.6403 Y21.3075
G01 X26.6463 Y21.4300
G01 X26.6403 Y21.5525
G01 X26.6237 Y21.6655
G01 X26.6205 Y21.6819
G01 X26.5925 Y21.7927
G01 X26.5512 Y21.9082
G01 X26.4988 Y22.0190
G01 X26.4402 Y22.1171
G01 X26.4309 Y22.1310
G01 X26.3678 Y22.2161
G01 X26.3572 Y22.2290
G01 X26.2803 Y22.3135
G01 X26.1895 Y22.3959
G01 X26.0910 Y22.4689
G01 X25.9931 Y22.5278
G01 X25.9784 Y22.5357
G01 X25.8826 Y22.5810
G01 X25.8672 Y22.5874
G01 X25.7595 Y22.6257
G01 X25.6487 Y22.6537
G01 X25.6323 Y22.6569
G01 X25.5193 Y22.6735
G01 X25.3968 Y22.6795
G01 X25.2743 Y22.6735
G01 X25.1530 Y22.6555
G01 X25.0341 Y22.6257
G01 X24.9186 Y22.5844
G01 X24.8078 Y22.5320
G01 X24.7026 Y22.4689
G01 X24.6041 Y22.3959
G01 X24.5133 Y22.3135
G01 X24.4309 Y22.2227
G01 X24.3579 Y22.1242
G01 X24.2948 Y22.0190
G01 X24.2424 Y21.9082
G01 X24.2011 Y21.7927
G01 X24.1731 Y21.6819
G01 X24.1699 Y21.6655
G01 X24.1533 Y21.5525
G01 X24.1475 Y21.4383
G01 X24.1475 Y21.4217
G01 X24.1533 Y21.3075
G01 X24.1699 Y21.1945
G01 X24.1731 Y21.1781
G01 X24.1999 Y21.0713
G01 X24.2037 Y21.0594
G01 X24.2424 Y20.9518
G01 X24.2911 Y20.8484
G01 X24.2969 Y20.8373
G01 X24.3534 Y20.7429
G01 X24.3602 Y20.7324
G01 X24.4283 Y20.6406
G01 X24.4364 Y20.6310
G01 X24.4635 Y20.6011
G01 X24.4644 Y15.6262
G01 X24.4471 Y15.6089
G01 X24.2905 Y15.6320
G01 X24.1351 Y15.6398
G01 X24.1226 Y15.6399
G01 X23.9631 Y15.6320
G01 X23.8051 Y15.6087
G01 X23.7929 Y15.6061
G01 X23.6501 Y15.5703
G01 X23.6341 Y15.5655
G01 X23.4877 Y15.5129
G01 X23.3396 Y15.4428
G01 X23.1990 Y15.3586
G01 X23.0739 Y15.2661
G01 X23.0610 Y15.2555
G01 X22.9520 Y15.1566
G01 X22.9402 Y15.1448
G01 X22.8359 Y15.0294
G01 X22.7382 Y14.8978
G01 X22.6540 Y14.7572
G01 X22.5839 Y14.6091
G01 X22.5287 Y14.4548
G01 X22.4907 Y14.3039
G01 X22.4875 Y14.2876
G01 X22.4659 Y14.1420
G01 X22.4642 Y14.1254
G01 X22.4568 Y13.9700
G01 X22.4648 Y13.8063
G01 X22.4889 Y13.6442
G01 X22.5287 Y13.4852
G01 X22.5839 Y13.3309
G01 X22.6502 Y13.1902
G01 X22.6581 Y13.1755
G01 X22.7338 Y13.0492
G01 X22.7431 Y13.0354
G01 X22.8359 Y12.9106
G01 X22.9459 Y12.7891
G01 X23.0674 Y12.6791
G01 X23.1944 Y12.5846
G00 Z2.0000
G00 X30.0171 Y10.1713
G01 F60.00
G01 Z-0.0000
G01 F120.00
G01 X30.0168 Y10.1600
G01 X30.0171 Y10.1487
G01 X30.0243 Y10.0017
G01 X30.0251 Y9.9904
G01 X30.0265 Y9.9792
G01 X30.0481 Y9.8336
G01 X30.0500 Y9.8225
G01 X30.0525 Y9.8115
G01 X30.0883 Y9.6687
G01 X30.0913 Y9.6578
G01 X30.0948 Y9.6471
G01 X30.1444 Y9.5085
G01 X30.1485 Y9.4980
G01 X30.1531 Y9.4876
G01 X30.2160 Y9.3546
G01 X30.2211 Y9.3445
G01 X30.2266 Y9.3347
G01 X30.3023 Y9.2084
G01 X30.3084 Y9.1989
G01 X30.3149 Y9.1896
G01 X30.4025 Y9.0714
G01 X30.4095 Y9.0625
G01 X30.4169 Y9.0540
G01 X30.5157 Y8.9449
G01 X30.5235 Y8.9367
G01 X30.5317 Y8.9289
G01 X30.6408 Y8.8301
G01 X30.6493 Y8.8227
G01 X30.6582 Y8.8157
G01 X30.7764 Y8.7281
G01 X30.7857 Y8.7216
G01 X30.7952 Y8.7155
G01 X30.9215 Y8.6398
G01 X30.9313 Y8.6343
G01 X30.9414 Y8.6292
G01 X31.0744 Y8.5663
G01 X31.0848 Y8.5617
G01 X31.0953 Y8.5576
G01 X31.2339 Y8.5080
G01 X31.2446 Y8.5045
G01 X31.2555 Y8.5015
G01 X31.3983 Y8.4657
G01 X31.4093 Y8.4632
G01 X31.4204 Y8.4613
G01 X31.5660 Y8.4397
G01 X31.5772 Y8.4383
G01 X31.5885 Y8.4375
G01 X31.7355 Y8.4303
G01 X31.7468 Y8.4300
G01 X31.7581 Y8.4303
G01 X31.9051 Y8.4375
G01 X31.9164 Y8.4383
G01 X31.9276 Y8.4397
G01 X32.0732 Y8.4613
G01 X32.0843 Y8.4632
G01 X32.0953 Y8.4657
G01 X32.2381 Y8.5015
G01 X32.2490 Y8.5045
G01 X32.2597 Y8.5080
G01 X32.3983 Y8.5576
G01 X32.4088 Y8.5617
G01 X32.4192 Y8.5663
G01 X32.5522 Y8.6292
G01 X32.5623 Y8.6343
G01 X32.5721 Y8.6398
G01 X32.6984 Y8.7155
G01 X32.7079 Y8.7216
G01 X32.7172 Y8.7281
G01 X32.8354 Y8.8157
G01 X32.8443 Y8.8227
G01 X32.8528 Y8.8301
G01 X32.9619 Y8.9289
G01 X32.9701 Y8.9367
G01 X32.9779 Y8.9449
G01 X33.0767 Y9.0540
G01 X33.0841 Y9.0625
G01 X33.0911 Y9.0714
G01 X33.1787 Y9.1896
G01 X33.1852 Y9.1989
G01 X33.1913 Y9.2084
G01 X33.2670 Y9.3347
G01 X33.2725 Y9.3445
G01 X33.2776 Y9.3546
G01 X33.3405 Y9.4876
G01 X33.3451 Y9.4980
G01 X33.3492 Y9.5085
G01 X33.3988 Y9.6471
G01 X33.4023 Y9.6578
G01 X33.4053 Y9.6687
G01 X33.4411 Y9.8115
G01 X33.4436 Y9.8225
G01 X33.4455 Y9.8336
G01 X33.4671 Y9.9792
G01 X33.4685 Y9.9904
G01 X33.4693 Y10.0017
G01 X33.4765 Y10.1487
G01 X33.4768 Y10.1600
G01 X33.4765 Y10.1713
G01 X33.4693 Y10.3183
G01 X33.4685 Y10.3296
G01 X33.4671 Y10.3408
G01 X33.4455 Y10.4864
G01 X33.4436 Y10.4975
G01 X33.4411 Y10.5085
G01 X33.4053 Y10.6513
G01 X33.4023 Y10.6622
G01 X33.3988 Y10.6729
G01 X33.3492 Y10.8115
G01 X33.3451 Y10.8220
G01 X33.3405 Y10.8324
G01 X33.2776 Y10.9654
G01 X33.2725 Y10.9755
G01 X33.2670 Y10.9853
G01 X33.1913 Y11.1116
G01 X33.1852 Y11.1211
G01 X33.1787 Y11.1304
G01 X33.0911 Y11.2486
G01 X33.0841 Y11.2575
G01 X33.0767 Y11.2660
G01 X32.9779 Y11.3751
G01 X32.9701 Y11.3833
G01 X32.9619 Y11.3911
G01 X32.8528 Y11.4899
G01 X32.8443 Y11.4973
G01 X32.8354 Y11.5043
G01 X32.7172 Y11.5919
G01 X32.7079 Y11.5984
G01 X32.6984 Y11.6045
G01 X32.5721 Y11.6802
G01 X32.5623 Y11.6857
G01 X32.5522 Y11.6908
G01 X32.4192 Y11.7537
G01 X32.4088 Y11.7583
G01 X32.3983 Y11.7624
G01 X32.2597 Y11.8120
G01 X32.2490 Y11.8155
G01 X32.2381 Y11.8185
G01 X32.0953 Y11.8543
G01 X32.0843 Y11.8568
G01 X32.0732 Y11.8587
G01 X31.9276 Y11.8803
G01 X31.9164 Y11.8817
G01 X31.9051 Y11.8825
G01 X31.7581 Y11.8897
G01 X31.7468 Y11.8900
G01 X31.7355 Y11.8897
G01 X31.5885 Y11.8825
G01 X31.5772 Y11.8817
G01 X31.5660 Y11.8803
G01 X31.4204 Y11.8587
G01 X31.4093 Y11.8568
G01 X31.3983 Y11.8543
G01 X31.2555 Y11.8185
G01 X31.2446 Y11.8155
G01 X31.2339 Y11.8120
G01 X31.0953 Y11.7624
G01 X31.0848 Y11.7583
G01 X31.0744 Y11.7537
G01 X30.9414 Y11.6908
G01 X30.9313 Y11.6857
G01 X30.9215 Y11.6802
G01 X30.7952 Y11.6045
G01 X30.7857 Y11.5984
G01 X30.7764 Y11.5919
G01 X30.6582 Y11.5043
G01 X30.6493 Y11.4973
G01 X30.6408 Y11.4899
G01 X30.5317 Y11.3911
G01 X30.5235 Y11.3833
G01 X30.5157 Y11.3751
G01 X30.4169 Y11.2660
G01 X30.4095 Y11.2575
G01 X30.4025 Y11.2486
G01 X30.3149 Y11.1304
G01 X30.3084 Y11.1211
G01 X30.3023 Y11.1116
G01 X30.2266 Y10.9853
G01 X30.2211 Y10.9755
G01 X30.2160 Y10.9654
G01 X30.1531 Y10.8324
G01 X30.1485 Y10.8220
G01 X30.1444 Y10.8115
G01 X30.0948 Y10.6729
G01 X30.0913 Y10.6622
G01 X30.0883 Y10.6513
G01 X30.0525 Y10.5085
G01 X30.0500 Y10.4975
G01 X30.0481 Y10.4864
G01 X30.0265 Y10.3408
G01 X30.0251 Y10.3296
G01 X30.0243 Y10.3183
G01 X30.0171 Y10.1713
G00 Z2.0000
G00 X30.0770 Y10.1683
G01 F60.00
G01 Z-0.0000
G01 F120.00
G01 X30.0770 Y10.1517
G01 X30.0848 Y9.9963
G01 X30.1089 Y9.8342
G01 X30.1487 Y9.6752
G01 X30.2039 Y9.5209
G01 X30.2740 Y9.3728
G01 X30.3582 Y9.2322
G01 X30.4559 Y9.1006
G01 X30.5659 Y8.9791
G01 X30.6874 Y8.8691
G01 X30.8190 Y8.7714
G01 X30.9596 Y8.6872
G01 X31.1077 Y8.6171
G01 X31.2620 Y8.5619
G01 X31.4210 Y8.5221
G01 X31.5831 Y8.4980
G01 X31.7468 Y8.4900
G01 X31.9105 Y8.4980
G01 X32.0726 Y8.5221
G01 X32.2316 Y8.5619
G01 X32.3859 Y8.6171
G01 X32.5340 Y8.6872
G01 X32.6746 Y8.7714
G01 X32.8062 Y8.8691
G01 X32.9277 Y8.9791
G01 X33.0377 Y9.1006
G01 X33.1354 Y9.2322
G01 X33.2196 Y9.3728
G01 X33.2897 Y9.5209
G01 X33.3449 Y9.6752
G01 X33.3847 Y9.8342
G01 X33.4088 Y9.9963
G01 X33.4168 Y10.1600
G01 X33.4088 Y10.3237
G01 X33.3847 Y10.4858
G01 X33.3449 Y10.6448
G01 X33.2897 Y10.7991
G01 X33.2196 Y10.9472
G01 X33.1354 Y11.0878
G01 X33.0377 Y11.2194
G01 X32.9277 Y11.3409
G01 X32.8062 Y11.4509
G01 X32.6746 Y11.5486
G01 X32.5340 Y11.6328
G01 X32.3859 Y11.7029
G01 X32.2316 Y11.7581
G01 X32.0726 Y11.7979
G01 X31.9105 Y11.8220
G01 X31.7468 Y11.8300
G01 X31.5831 Y11.8220
G01 X31.4210 Y11.7979
G01 X31.2620 Y11.7581
G01 X31.1077 Y11.7029
G01 X30.9596 Y11.6328
G01 X30.8190 Y11.5486
G01 X30.6874 Y11.4509
G01 X30.5659 Y11.3409
G01 X30.4559 Y11.2194
G01 X30.3582 Y11.0878
G01 X30.2740 Y10.9472
G01 X30.2039 Y10.7991
G01 X30.1487 Y10.6448
G01 X30.1089 Y10.4858
G01 X30.0848 Y10.3237
G01 X30.0770 Y10.1683
G00 Z2.0000
G00 X30.1369 Y10.1654
G01 F60.00
G01 Z-0.0000
G01 F120.00
G01 X30.1369 Y10.1546
G01 X30.1446 Y10.0022
G01 X30.1677 Y9.8459
G01 X30.2061 Y9.6926
G01 X30.2594 Y9.5439
G01 X30.3269 Y9.4011
G01 X30.4081 Y9.2655
G01 X30.5023 Y9.1386
G01 X30.6084 Y9.0216
G01 X30.7254 Y8.9155
G01 X30.8523 Y8.8213
G01 X30.9879 Y8.7401
G01 X31.1307 Y8.6726
G01 X31.2794 Y8.6193
G01 X31.4327 Y8.5809
G01 X31.5890 Y8.5578
G01 X31.7468 Y8.5500
G01 X31.9046 Y8.5578
G01 X32.0609 Y8.5809
G01 X32.2142 Y8.6193
G01 X32.3629 Y8.6726
G01 X32.5057 Y8.7401
G01 X32.6413 Y8.8213
G01 X32.7682 Y8.9155
G01 X32.8852 Y9.0216
G01 X32.9913 Y9.1386
G01 X33.0855 Y9.2655
G01 X33.1667 Y9.4011
G01 X33.2342 Y9.5439
G01 X33.2875 Y9.6926
G01 X33.3259 Y9.8459
G01 X33.3490 Y10.0022
G01 X33.3568 Y10.1600
G01 X33.3490 Y10.3178
G01 X33.3259 Y10.4741
G01 X33.2875 Y10.6274
G01 X33.2342 Y10.7761
G01 X33.1667 Y10.9189
G01 X33.0855 Y11.0545
G01 X32.9913 Y11.1814
G01 X32.8852 Y11.2984
G01 X32.7682 Y11.4045
G01 X32.6413 Y11.4987
G01 X32.5057 Y11.5799
G01 X32.3629 Y11.6474
G01 X32.2142 Y11.7007
G01 X32.0609 Y11.7391
G01 X31.9046 Y11.7622
G01 X31.7468 Y11.7700
G01 X31.5890 Y11.7622
G01 X31.4327 Y11.7391
G01 X31.2794 Y11.7007
G01 X31.1307 Y11.6474
G01 X30.9879 Y11.5799
G01 X30.8523 Y11.4987
G01 X30.7254 Y11.4045
G01 X30.6084 Y11.2984
G01 X30.5023 Y11.1814
G01 X30.4081 Y11.0545
G01 X30.3269 Y10.9189
G01 X30.2594 Y10.7761
G01 X30.2061 Y10.6274
G01 X30.1677 Y10.4741
G01 X30.1446 Y10.3178
G01 X30.1369 Y10.1654
G00 Z2.0000
G00 X30.1969 Y10.1625
G01 F60.00
G01 Z-0.0000
G01 F120.00
G01 X30.2043 Y10.0081
G01 X30.2266 Y9.8576
G01 X30.2635 Y9.7101
G01 X30.3148 Y9.5668
G01 X30.3798 Y9.4293
G01 X30.4580 Y9.2989
G01 X30.5486 Y9.1767
G01 X30.6508 Y9.0640
G01 X30.7635 Y8.9618
G01 X30.8857 Y8.8712
G01 X31.0161 Y8.7930
G01 X31.1536 Y8.7280
G01 X31.2969 Y8.6767
G01 X31.4444 Y8.6398
G01 X31.5949 Y8.6175
G01 X31.7468 Y8.6100
G01 X31.8987 Y8.6175
G01 X32.0492 Y8.6398
G01 X32.1967 Y8.6767
G01 X32.3400 Y8.7280
G01 X32.4775 Y8.7930
G01 X32.6079 Y8.8712
G01 X32.7301 Y8.9618
G01 X32.8428 Y9.0640
G01 X32.9450 Y9.1767
G01 X33.0356 Y9.2989
G01 X33.1138 Y9.4293
G01 X33.1788 Y9.5668
G01 X33.2301 Y9.7101
G01 X33.2670 Y9.8576
G01 X33.2893 Y10.0081
G01 X33.2968 Y10.1600
G01 X33.2893 Y10.3119
G01 X33.2670 Y10.4624
G01 X33.2301 Y10.6099
G01 X33.1788 Y10.7532
G01 X33.1138 Y10.8907
G01 X33.0356 Y11.0211
G01 X32.9450 Y11.1433
G01 X32.8428 Y11.2560
G01 X32.7301 Y11.3582
G01 X32.6079 Y11.4488
G01 X32.4775 Y11.5270
G01 X32.3400 Y11.5920
G01 X32.1967 Y11.6433
G01 X32.0492 Y11.6802
G01 X31.8987 Y11.7025
G01 X31.7468 Y11.7100
G01 X31.5949 Y11.7025
G01 X31.4444 Y11.6802
G01 X31.2969 Y11.6433
G01 X31.1536 Y11.5920
G01 X31.0161 Y11.5270
G01 X30.8857 Y11.4488
G01 X30.7635 Y11.3582
G01 X30.6508 Y11.2560
G01 X30.5486 Y11.1433
G01 X30.4580 Y11.0211
G01 X30.3798 Y10.8907
G01 X30.3148 Y10.7532
G01 X30.2635 Y10.6099
G01 X30.2266 Y10.4624
G01 X30.2043 Y10.3119
G01 X30.1969 Y10.1625
G00 Z2.0000
G00 X32.0671 Y15.6089
G01 F60.00
G01 Z-0.0000
G01 F120.00
G01 X31.9105 Y15.6320
G01 X31.7468 Y15.6400
G01 X31.5831 Y15.6320
G01 X31.4210 Y15.6079
G01 X31.2620 Y15.5681
G01 X31.1077 Y15.5129
G01 X30.9596 Y15.4428
G01 X30.8190 Y15.3586
G01 X30.6874 Y15.2609
G01 X30.5659 Y15.1509
G01 X30.4559 Y15.0294
G01 X30.3582 Y14.8978
G01 X30.2740 Y14.7572
G01 X30.2039 Y14.6091
G01 X30.1487 Y14.4548
G01 X30.1089 Y14.2958
G01 X30.0848 Y14.1337
G01 X30.0768 Y13.9700
G01 X30.0848 Y13.8063
G01 X30.1089 Y13.6442
G01 X30.1487 Y13.4852
G01 X30.2039 Y13.3309
G01 X30.2740 Y13.1828
G01 X30.3582 Y13.0422
G01 X30.4559 Y12.9106
G01 X30.5659 Y12.7891
G01 X30.6874 Y12.6791
G01 X30.8190 Y12.5814
G01 X30.9596 Y12.4972
G01 X31.1077 Y12.4271
G01 X31.2620 Y12.3719
G01 X31.4210 Y12.3321
G01 X31.5831 Y12.3080
G01 X31.7385 Y12.3002
G01 X31.7551 Y12.3002
G01 X31.9105 Y12.3080
G01 X32.0644 Y12.3307
G01 X32.0807 Y12.3339
G01 X32.2316 Y12.3719
G01 X32.3859 Y12.4271
G01 X32.5266 Y12.4934
G01 X32.5413 Y12.5013
G01 X32.6746 Y12.5814
G01 X32.7997 Y12.6739
G01 X32.8126 Y12.6845
G01 X32.9216 Y12.7834
G01 X32.9334 Y12.7952
G01 X33.0377 Y12.9106
G01 X33.1305 Y13.0354
G01 X33.1398 Y13.0492
G01 X33.2196 Y13.1828
G01 X33.2863 Y13.3233
G01 X33.2927 Y13.3387
G01 X33.3449 Y13.4852
G01 X33.3847 Y13.6442
G01 X33.4077 Y13.7980
G01 X33.4094 Y13.8146
G01 X33.4168 Y13.9700
G01 X33.4094 Y14.1254
G01 X33.4077 Y14.1420
G01 X33.3857 Y14.2903
G01 X41.6590 Y22.5636
G01 X42.4892 Y22.5636
G01 X42.4645 Y22.5519
G01 X42.4571 Y22.5480
G01 X42.3606 Y22.4901
G01 X42.3502 Y22.4830
G01 X42.2665 Y22.4209
G01 X42.2567 Y22.4130
G01 X42.1703 Y22.3345
G01 X42.0945 Y22.2512
G01 X42.0839 Y22.2383
G01 X42.0170 Y22.1477
G01 X41.9589 Y22.0513
G01 X41.9511 Y22.0365
G01 X41.9031 Y21.9347
G01 X41.8650 Y21.8287
G01 X41.8601 Y21.8127
G01 X41.8330 Y21.7034
G01 X41.8163 Y21.5921
G01 X41.8149 Y21.5796
G01 X41.8093 Y21.4630
G01 X41.8152 Y21.3422
G01 X41.8330 Y21.2226
G01 X41.8601 Y21.1133
G01 X41.8636 Y21.1012
G01 X41.9031 Y20.9913
G01 X41.9511 Y20.8895
G01 X41.9568 Y20.8783
G01 X42.0125 Y20.7853
G01 X42.0194 Y20.7748
G01 X42.0865 Y20.6844
G01 X42.0918 Y20.6779
G01 X42.1094 Y20.6583
G01 X42.1094 Y17.6122
G01 X31.5616 Y7.0644
G01 X18.1020 Y7.0644
G01 X17.1422 Y8.0242
G01 X17.1422 Y10.7468
G01 X18.7265 Y12.3311
G01 X18.8748 Y12.3091
G01 X18.8914 Y12.3074
G01 X19.0468 Y12.3000
G01 X19.2022 Y12.3074
G01 X19.2188 Y12.3091
G01 X19.3726 Y12.3321
G01 X19.5316 Y12.3719
G01 X19.6781 Y12.4241
G01 X19.6935 Y12.4305
G01 X19.8340 Y12.4972
G01 X19.9676 Y12.5770
G01 X19.9814 Y12.5863
G01 X20.1062 Y12.6791
G01 X20.2277 Y12.7891
G01 X20.3323 Y12.9042
G01 X20.3429 Y12.9171
G01 X20.4354 Y13.0422
G01 X20.5155 Y13.1755
G01 X20.5234 Y13.1902
G01 X20.5897 Y13.3309
G01 X20.6449 Y13.4852
G01 X20.6847 Y13.6442
G01 X20.7077 Y13.7980
G01 X20.7094 Y13.8146
G01 X20.7168 Y13.9700
G01 X20.7094 Y14.1254
G01 X20.7077 Y14.1420
G01 X20.6857 Y14.2903
G01 X23.5190 Y17.1237
G01 X23.5721 Y17.1822
G01 X23.5827 Y17.1951
G01 X23.6320 Y17.2620
G01 X23.6750 Y17.3332
G01 X23.6828 Y17.3479
G01 X23.7182 Y17.4232
G01 X23.7464 Y17.5014
G01 X23.7502 Y17.5134
G01 X23.7713 Y17.5981
G01 X23.7837 Y17.6803
G01 X23.7853 Y17.6969
G01 X23.7891 Y17.7758
G01 X23.7892 Y20.6001
G01 X23.8172 Y20.6310
G01 X23.8253 Y20.6406
G01 X23.8934 Y20.7324
G01 X23.9002 Y20.7429
G01 X23.9546 Y20.8337
G01 X23.9607 Y20.8447
G01 X24.0112 Y20.9518
G01 X24.0499 Y21.0594
G01 X24.0547 Y21.0753
G01 X24.0814 Y21.1822
G01 X24.0837 Y21.1945
G01 X24.1003 Y21.3075
G01 X24.1061 Y21.4217
G01 X24.1061 Y21.4383
G01 X24.1003 Y21.5525
G01 X24.0837 Y21.6655
G01 X24.0805 Y21.6819
G01 X24.0525 Y21.7927
G01 X24.0112 Y21.9082
G01 X23.9625 Y22.0116
G01 X23.9546 Y22.0263
G01 X23.9002 Y22.1171
G01 X23.8909 Y22.1310
G01 X23.8227 Y22.2227
G01 X23.7461 Y22.3075
G01 X23.7343 Y22.3193
G01 X23.6495 Y22.3959
G01 X23.5510 Y22.4689
G01 X23.4458 Y22.5320
G01 X23.3350 Y22.5844
G01 X23.2195 Y22.6257
G01 X23.1087 Y22.6537
G01 X23.0923 Y22.6569
G01 X22.9876 Y22.6725
G01 X22.9710 Y22.6741
G01 X22.8568 Y22.6795
G01 X22.7426 Y22.6741
G01 X22.7260 Y22.6725
G01 X22.6130 Y22.6555
G01 X22.4941 Y22.6257
G01 X22.3786 Y22.5844
G01 X22.2752 Y22.5357
G01 X22.2641 Y22.5299
G01 X22.1697 Y22.4734
G01 X22.1558 Y22.4641
G01 X22.0641 Y22.3959
G01 X21.9793 Y22.3193
G01 X21.9675 Y22.3075
G01 X21.8909 Y22.2227
G01 X21.8179 Y22.1242
G01 X21.7590 Y22.0263
G01 X21.7511 Y22.0116
G01 X21.7024 Y21.9082
G01 X21.6637 Y21.8006
G01 X21.6589 Y21.7847
G01 X21.6313 Y21.6738
G01 X21.6143 Y21.5608
G01 X21.6130 Y21.5483
G01 X21.6073 Y21.4300
G01 X21.6133 Y21.3075
G01 X21.6313 Y21.1862
G01 X21.6589 Y21.0753
G01 X21.6624 Y21.0633
G01 X21.7024 Y20.9518
G01 X21.7511 Y20.8484
G01 X21.7569 Y20.8373
G01 X21.8134 Y20.7429
G01 X21.8202 Y20.7324
G01 X21.8883 Y20.6406
G01 X21.8964 Y20.6310
G01 X21.9235 Y20.6011
G01 X21.9244 Y18.1662
G01 X19.3671 Y15.6089
G01 X19.2188 Y15.6309
G01 X19.2022 Y15.6326
G01 X19.0468 Y15.6400
G01 X18.8914 Y15.6326
G01 X18.8748 Y15.6309
G01 X18.7210 Y15.6079
G01 X18.5620 Y15.5681
G01 X18.4077 Y15.5129
G01 X18.2670 Y15.4466
G01 X18.2523 Y15.4387
G01 X18.1190 Y15.3586
G01 X17.9939 Y15.2661
G01 X17.9810 Y15.2555
G01 X17.8659 Y15.1509
G01 X17.7613 Y15.0358
G01 X17.7507 Y15.0229
G01 X17.6582 Y14.8978
G01 X17.5781 Y14.7645
G01 X17.5702 Y14.7498
G01 X17.5039 Y14.6091
G01 X17.4487 Y14.4548
G01 X17.4089 Y14.2958
G01 X17.3859 Y14.1420
G01 X17.3842 Y14.1254
G01 X17.3768 Y13.9700
G01 X17.3842 Y13.8146
G01 X17.3859 Y13.7980
G01 X17.4079 Y13.6497
G01 X15.5476 Y11.7893
G01 X15.4891 Y11.7245
G01 X15.4346 Y11.6510
G01 X15.3875 Y11.5725
G01 X15.3500 Y11.4936
G01 X15.3454 Y11.4820
G01 X15.3176 Y11.4037
G01 X15.2953 Y11.3149
G01 X15.2819 Y11.2244
G01 X15.2775 Y11.1372
G01 X15.2774 Y7.6380
G01 X15.2819 Y7.5466
G01 X15.2939 Y7.4643
G01 X15.2972 Y7.4480
G01 X15.3176 Y7.3673
G01 X15.3454 Y7.2890
G01 X15.3518 Y7.2736
G01 X15.3856 Y7.2022
G01 X15.3916 Y7.1912
G01 X15.4301 Y7.1270
G01 X15.4394 Y7.1132
G01 X15.4891 Y7.0465
G01 X15.5476 Y6.9817
G01 X17.0565 Y5.4727
G01 X17.1180 Y5.4167
G01 X17.1309 Y5.4061
G01 X17.1910 Y5.3616
G01 X17.2048 Y5.3523
G01 X17.2763 Y5.3097
G01 X17.3590 Y5.2706
G01 X17.4372 Y5.2424
G01 X17.4532 Y5.2375
G01 X17.5339 Y5.2175
G01 X17.6203 Y5.2046
G01 X17.6327 Y5.2035
G01 X17.7158 Y5.1996
G01 X31.9478 Y5.1996
G01 X32.0309 Y5.2035
G01 X32.0475 Y5.2051
G01 X32.1297 Y5.2175
G01 X32.2104 Y5.2375
G01 X32.2264 Y5.2424
G01 X32.3046 Y5.2706
G01 X32.3799 Y5.3060
G01 X32.3910 Y5.3117
G01 X32.4658 Y5.3568
G01 X32.5327 Y5.4061
G01 X32.5456 Y5.4167
G01 X32.6071 Y5.4727
G01 X43.7011 Y16.5667
G01 X43.7571 Y16.6282
G01 X43.7677 Y16.6411
G01 X43.8170 Y16.7080
G01 X43.8641 Y16.7865
G01 X43.9032 Y16.8692
G01 X43.9314 Y16.9474
G01 X43.9363 Y16.9634
G01 X43.9544 Y17.0360
G01 X43.9577 Y17.0526
G01 X50.8480 Y17.0527
G01 X50.9352 Y17.0571
G01 X51.0257 Y17.0705
G01 X51.1145 Y17.0928
G01 X51.2006 Y17.1236
G01 X51.2833 Y17.1627
G01 X51.3618 Y17.2098
G01 X51.4353 Y17.2643
G01 X51.5001 Y17.3228
G01 X60.3461 Y26.1687
G01 X60.4075 Y26.2365
G01 X60.4572 Y26.3032
G01 X60.4665 Y26.3170
G01 X60.5091 Y26.3885
G01 X60.5448 Y26.4636
G01 X60.5512 Y26.4790
G01 X60.5790 Y26.5573
G01 X60.5994 Y26.6380
G01 X60.6027 Y26.6543
G01 X60.6147 Y26.7366
G01 X60.6191 Y26.8238
G01 X60.6192 Y30.9853
G01 X60.6368 Y31.0049
G01 X60.6421 Y31.0114
G01 X60.7068 Y31.0984
G01 X60.7139 Y31.1088
G01 X60.7738 Y31.2090
G01 X60.8255 Y31.3183
G01 X60.8662 Y31.4322
G01 X60.8938 Y31.5414
G01 X60.8970 Y31.5578
G01 X60.9123 Y31.6609
G01 X60.9140 Y31.6775
G01 X60.9193 Y31.7900
G01 X60.9140 Y31.9025
G01 X60.9123 Y31.9191
G01 X60.8956 Y32.0304
G01 X60.8662 Y32.1478
G01 X60.8285 Y32.2539
G01 X60.8221 Y32.2693
G01 X60.7775 Y32.3635
G01 X60.7697 Y32.3783
G01 X60.7161 Y32.4677
G01 X60.7068 Y32.4816
G01 X60.6395 Y32.5719
G01 X60.5641 Y32.6555
G01 X60.5523 Y32.6673
G01 X60.4687 Y32.7427
G01 X60.3715 Y32.8148
G01 X60.2751 Y32.8729
G01 X60.2603 Y32.8807
G01 X60.1585 Y32.9287
G01 X60.0525 Y32.9668
G01 X60.0365 Y32.9717
G01 X59.9272 Y32.9988
G01 X59.8076 Y33.0166
G01 X59.6868 Y33.0225
G01 X59.5743 Y33.0172
G01 X59.5577 Y33.0155
G01 X59.4464 Y32.9988
G01 X59.3371 Y32.9717
G01 X59.3211 Y32.9668
G01 X59.2151 Y32.9287
G01 X59.1133 Y32.8807
G01 X59.0985 Y32.8729
G01 X59.0021 Y32.8148
G01 X58.9115 Y32.7479
G01 X58.8986 Y32.7373
G01 X58.8153 Y32.6615
G01 X58.7395 Y32.5782
G01 X58.7315 Y32.5686
G01 X58.6620 Y32.4747
G01 X58.5998 Y32.3710
G01 X58.5481 Y32.2617
G01 X58.5100 Y32.1557
G01 X58.5051 Y32.1397
G01 X58.4798 Y32.0386
G01 X58.4766 Y32.0222
G01 X58.4602 Y31.9108
G01 X58.4543 Y31.7900
G01 X58.4602 Y31.6692
G01 X58.4780 Y31.5496
G01 X58.5074 Y31.4322
G01 X58.5466 Y31.3222
G01 X58.5515 Y31.3107
G01 X58.5998 Y31.2090
G01 X58.6597 Y31.1088
G01 X58.6668 Y31.0984
G01 X58.7315 Y31.0114
G01 X58.7368 Y31.0049
G01 X58.7544 Y30.9853
G01 X58.7544 Y27.2142
G01 X50.4576 Y18.9174
G01 X43.9742 Y18.9174
G01 X43.9742 Y20.6583
G01 X43.9918 Y20.6779
G01 X43.9971 Y20.6844
G01 X44.0618 Y20.7714
G01 X44.0689 Y20.7818
G01 X44.1288 Y20.8820
G01 X44.1805 Y20.9913
G01 X44.2212 Y21.1052
G01 X44.2488 Y21.2144
G01 X44.2520 Y21.2308
G01 X44.2673 Y21.3339
G01 X44.2690 Y21.3505
G01 X44.2743 Y21.4630
G01 X44.2690 Y21.5755
G01 X44.2673 Y21.5921
G01 X44.2506 Y21.7034
G01 X44.2235 Y21.8127
G01 X44.2200 Y21.8248
G01 X44.1805 Y21.9347
G01 X44.1467 Y22.0065
G01 X44.1679 Y21.9970
G01 X44.2462 Y21.9690
G01 X44.2582 Y21.9655
G01 X44.3348 Y21.9464
G01 X44.3471 Y21.9441
G01 X44.4294 Y21.9321
G01 X44.5125 Y21.9278
G01 X46.1821 Y21.9276
G01 X46.2017 Y21.9100
G01 X46.2082 Y21.9047
G01 X46.2952 Y21.8400
G01 X46.3056 Y21.8329
G01 X46.4058 Y21.7730
G01 X46.5113 Y21.7230
G01 X46.5229 Y21.7183
G01 X46.6211 Y21.6832
G01 X46.6371 Y21.6783
G01 X46.7464 Y21.6512
G01 X46.8660 Y21.6334
G01 X46.9868 Y21.6275
G01 X47.0993 Y21.6328
G01 X47.1159 Y21.6345
G01 X47.2272 Y21.6512
G01 X47.3365 Y21.6783
G01 X47.3525 Y21.6832
G01 X47.4507 Y21.7183
G01 X47.4661 Y21.7247
G01 X47.5678 Y21.7730
G01 X47.6715 Y21.8352
G01 X47.7687 Y21.9073
G01 X47.8583 Y21.9885
G01 X47.9395 Y22.0781
G01 X48.0116 Y22.1753
G01 X48.0738 Y22.2790
G01 X48.1221 Y22.3807
G01 X48.1285 Y22.3961
G01 X48.1662 Y22.5022
G01 X48.1938 Y22.6114
G01 X48.1970 Y22.6278
G01 X48.2123 Y22.7309
G01 X48.2140 Y22.7475
G01 X48.2193 Y22.8600
G01 X48.2140 Y22.9725
G01 X48.2123 Y22.9891
G01 X48.1956 Y23.1004
G01 X48.1662 Y23.2178
G01 X48.1255 Y23.3317
G01 X48.0738 Y23.4410
G01 X48.0116 Y23.5447
G01 X47.9447 Y23.6353
G01 X47.9341 Y23.6482
G01 X47.8583 Y23.7315
G01 X47.7750 Y23.8073
G01 X47.7621 Y23.8179
G01 X47.6715 Y23.8848
G01 X47.5678 Y23.9470
G01 X47.4661 Y23.9953
G01 X47.4507 Y24.0017
G01 X47.3525 Y24.0368
G01 X47.3365 Y24.0417
G01 X47.2272 Y24.0688
G01 X47.1159 Y24.0855
G01 X47.0993 Y24.0872
G01 X46.9868 Y24.0925
G01 X46.8660 Y24.0866
G01 X46.7464 Y24.0688
G01 X46.6290 Y24.0394
G01 X46.5151 Y23.9987
G01 X46.4133 Y23.9507
G01 X46.4021 Y23.9450
G01 X46.3091 Y23.8893
G01 X46.2986 Y23.8824
G01 X46.2082 Y23.8153
G01 X46.2017 Y23.8100
G01 X46.1821 Y23.7924
G01 X44.9070 Y23.7924
G01 X44.5411 Y24.1582
G01 X44.4763 Y24.2167
G01 X44.4096 Y24.2664
G01 X44.3958 Y24.2757
G01 X44.3243 Y24.3183
G01 X44.2416 Y24.3574
G01 X44.1555 Y24.3882
G01 X44.0748 Y24.4086
G01 X44.0626 Y24.4112
G01 X43.9762 Y24.4239
G01 X43.8848 Y24.4284
G01 X41.2728 Y24.4284
G01 X41.1814 Y24.4239
G01 X41.0950 Y24.4112
G01 X41.0828 Y24.4086
G01 X41.0102 Y24.3905
G01 X40.9942 Y24.3856
G01 X40.9160 Y24.3574
G01 X40.8333 Y24.3183
G01 X40.7618 Y24.2757
G01 X40.7480 Y24.2664
G01 X40.6813 Y24.2167
G01 X40.6165 Y24.1582
G01 X32.0671 Y15.6089
G00 Z2.0000
G00 X32.0461 Y15.6727
G01 F60.00
G01 Z-0.0000
G01 F120.00
G01 X40.5711 Y24.1977
G01 X40.6347 Y24.2557
G01 X40.6432 Y24.2631
G01 X40.6521 Y24.2701
G01 X40.7215 Y24.3211
G01 X40.7310 Y24.3272
G01 X40.8000 Y24.3685
G01 X40.8151 Y24.3763
G01 X40.8930 Y24.4128
G01 X40.9740 Y24.4421
G01 X40.9847 Y24.4456
G01 X40.9956 Y24.4487
G01 X41.0792 Y24.4693
G01 X41.1643 Y24.4822
G01 X41.1755 Y24.4836
G01 X41.1868 Y24.4844
G01 X41.2672 Y24.4883
G01 X43.8848 Y24.4884
G01 X43.9708 Y24.4844
G01 X43.9877 Y24.4830
G01 X44.0673 Y24.4712
G01 X44.0784 Y24.4693
G01 X44.0894 Y24.4668
G01 X44.1729 Y24.4456
G01 X44.2540 Y24.4169
G01 X44.2646 Y24.4128
G01 X44.2749 Y24.4083
G01 X44.3526 Y24.3712
G01 X44.4266 Y24.3272
G01 X44.4361 Y24.3211
G01 X44.4454 Y24.3146
G01 X44.5144 Y24.2631
G01 X44.5229 Y24.2557
G01 X44.5825 Y24.2017
G01 X44.9319 Y23.8524
G01 X46.1590 Y23.8524
G01 X46.1668 Y23.8591
G01 X46.1757 Y23.8661
G01 X46.2595 Y23.9282
G01 X46.2687 Y23.9347
G01 X46.2783 Y23.9407
G01 X46.3775 Y23.9999
G01 X46.4819 Y24.0495
G01 X46.4922 Y24.0541
G01 X46.5027 Y24.0582
G01 X46.6116 Y24.0968
G01 X46.7236 Y24.1252
G01 X46.7346 Y24.1277
G01 X46.7485 Y24.1300
G01 X46.7346 Y24.1323
G01 X46.7236 Y24.1348
G01 X46.6225 Y24.1601
G01 X46.6116 Y24.1632
G01 X46.6009 Y24.1667
G01 X46.4922 Y24.2059
G01 X46.3876 Y24.2550
G01 X46.3775 Y24.2601
G01 X46.3677 Y24.2657
G01 X46.2687 Y24.3253
G01 X46.1757 Y24.3939
G01 X46.1668 Y24.4009
G01 X46.1583 Y24.4083
G01 X46.0729 Y24.4861
G01 X45.9951 Y24.5715
G01 X45.9877 Y24.5800
G01 X45.9186 Y24.6727
G01 X45.9121 Y24.6819
G01 X45.8525 Y24.7809
G01 X45.8469 Y24.7907
G01 X45.8418 Y24.8008
G01 X45.7973 Y24.8951
G01 X45.7927 Y24.9054
G01 X45.7886 Y24.9159
G01 X45.7500 Y25.0248
G01 X45.7216 Y25.1368
G01 X45.7191 Y25.1478
G01 X45.7172 Y25.1590
G01 X45.7005 Y25.2733
G01 X45.6946 Y25.3887
G01 X45.6943 Y25.4000
G01 X45.6946 Y25.4113
G01 X45.7005 Y25.5267
G01 X45.7172 Y25.6410
G01 X45.7191 Y25.6522
G01 X45.7216 Y25.6632
G01 X45.7469 Y25.7643
G01 X45.7500 Y25.7752
G01 X45.7535 Y25.7859
G01 X45.7927 Y25.8946
G01 X45.7973 Y25.9049
G01 X45.8469 Y26.0093
G01 X45.9061 Y26.1085
G01 X45.9121 Y26.1181
G01 X45.9186 Y26.1273
G01 X45.9877 Y26.2200
G01 X46.0651 Y26.3058
G01 X46.0729 Y26.3139
G01 X46.0810 Y26.3217
G01 X46.1668 Y26.3991
G01 X46.2595 Y26.4682
G01 X46.2687 Y26.4747
G01 X46.3677 Y26.5343
G01 X46.3775 Y26.5399
G01 X46.3876 Y26.5450
G01 X46.4922 Y26.5941
G01 X46.6009 Y26.6333
G01 X46.6116 Y26.6368
G01 X46.6225 Y26.6399
G01 X46.7236 Y26.6652
G01 X46.7346 Y26.6677
G01 X46.7485 Y26.6700
G01 X46.7346 Y26.6723
G01 X46.7236 Y26.6748
G01 X46.6225 Y26.7001
G01 X46.6116 Y26.7032
G01 X46.6009 Y26.7067
G01 X46.4922 Y26.7459
G01 X46.3876 Y26.7950
G01 X46.3775 Y26.8001
G01 X46.3677 Y26.8057
G01 X46.2687 Y26.8653
G01 X46.1757 Y26.9339
G01 X46.1668 Y26.9409
G01 X46.1556 Y26.9507
G01 X46.1322 Y26.9519
G01 X46.1209 Y26.9530
G01 X46.0413 Y26.9648
G01 X46.0247 Y26.9679
G01 X45.9466 Y26.9873
G01 X45.9357 Y26.9904
G01 X45.8546 Y27.0191
G01 X45.8388 Y27.0254
G01 X45.7661 Y27.0597
G01 X45.7560 Y27.0648
G01 X45.6820 Y27.1088
G01 X45.6725 Y27.1149
G01 X45.6632 Y27.1214
G01 X45.6031 Y27.1659
G01 X45.5942 Y27.1729
G01 X45.5857 Y27.1803
G01 X45.5221 Y27.2383
G01 X40.4251 Y32.3353
G01 X40.3671 Y32.3989
G01 X40.3562 Y32.4118
G01 X40.3082 Y32.4764
G01 X40.3017 Y32.4857
G01 X40.2956 Y32.4952
G01 X40.2516 Y32.5692
G01 X40.2145 Y32.6469
G01 X40.2100 Y32.6572
G01 X40.2059 Y32.6678
G01 X40.1772 Y32.7489
G01 X40.1560 Y32.8324
G01 X40.1535 Y32.8434
G01 X40.1516 Y32.8545
G01 X40.1392 Y32.9397
G01 X40.1384 Y32.9510
G01 X40.1344 Y33.0370
G01 X40.1344 Y34.5722
G01 X40.1277 Y34.5800
G01 X40.1207 Y34.5889
G01 X40.0521 Y34.6819
G01 X40.0461 Y34.6915
G01 X39.9869 Y34.7907
G01 X39.9818 Y34.8008
G01 X39.9327 Y34.9054
G01 X39.8935 Y35.0141
G01 X39.8884 Y35.0302
G01 X39.8616 Y35.1368
G01 X39.8591 Y35.1478
G01 X39.8419 Y35.2621
G01 X39.8400 Y35.2789
G01 X39.8346 Y35.3887
G01 X39.8344 Y35.4056
G01 X39.8400 Y35.5211
G01 X39.8419 Y35.5379
G01 X39.8506 Y35.5963
G01 X34.1768 Y29.9226
G01 X34.1710 Y29.8835
G01 X34.1679 Y29.8669
G01 X34.1485 Y29.7888
G01 X34.1437 Y29.7725
G01 X34.1167 Y29.6968
G01 X34.1126 Y29.6862
G01 X34.1081 Y29.6759
G01 X34.0736 Y29.6032
G01 X34.0654 Y29.5884
G01 X34.0270 Y29.5242
G01 X34.0209 Y29.5147
G01 X34.0144 Y29.5054
G01 X33.9629 Y29.4364
G01 X33.9555 Y29.4279
G01 X33.9015 Y29.3683
G01 X29.7635 Y25.2303
G01 X29.7356 Y25.2046
G01 X29.6914 Y25.1649
G01 X29.6224 Y25.1134
G01 X29.6131 Y25.1069
G01 X29.6036 Y25.1008
G01 X29.5394 Y25.0624
G01 X29.5296 Y25.0568
G01 X29.5195 Y25.0517
G01 X29.4416 Y25.0152
G01 X29.3606 Y24.9859
G01 X29.3499 Y24.9824
G01 X29.2664 Y24.9612
G01 X29.2554 Y24.9587
G01 X29.2443 Y24.9568
G01 X29.1591 Y24.9444
G01 X29.1478 Y24.9436
G01 X29.0674 Y24.9397
G01 X24.1029 Y24.9396
G01 X21.3697 Y22.2064
G01 X21.3991 Y22.1667
G01 X21.4087 Y22.1528
G01 X21.4690 Y22.0522
G01 X21.4768 Y22.0372
G01 X21.5220 Y21.9414
G01 X21.5266 Y21.9311
G01 X21.5307 Y21.9206
G01 X21.5682 Y21.8155
G01 X21.5729 Y21.7992
G01 X21.5868 Y21.7439
G01 X21.6007 Y21.7992
G01 X21.6054 Y21.8155
G01 X21.6429 Y21.9206
G01 X21.6492 Y21.9363
G01 X21.6968 Y22.0372
G01 X21.7019 Y22.0473
G01 X21.7075 Y22.0571
G01 X21.7620 Y22.1480
G01 X21.7712 Y22.1622
G01 X21.8376 Y22.2518
G01 X21.8445 Y22.2607
G01 X21.8519 Y22.2693
G01 X21.9231 Y22.3478
G01 X21.9308 Y22.3560
G01 X21.9390 Y22.3637
G01 X22.0175 Y22.4349
G01 X22.0261 Y22.4423
G01 X22.0350 Y22.4492
G01 X22.1201 Y22.5123
G01 X22.1340 Y22.5219
G01 X22.2297 Y22.5793
G01 X22.2395 Y22.5849
G01 X22.2496 Y22.5900
G01 X22.3454 Y22.6352
G01 X22.3557 Y22.6398
G01 X22.3662 Y22.6439
G01 X22.4660 Y22.6796
G01 X22.4767 Y22.6831
G01 X22.4876 Y22.6861
G01 X22.5903 Y22.7119
G01 X22.6013 Y22.7143
G01 X22.6125 Y22.7163
G01 X22.7172 Y22.7318
G01 X22.7284 Y22.7332
G01 X22.7397 Y22.7340
G01 X22.8455 Y22.7392
G01 X22.8568 Y22.7395
G01 X22.8681 Y22.7392
G01 X22.9739 Y22.7340
G01 X22.9852 Y22.7332
G01 X22.9964 Y22.7318
G01 X23.1067 Y22.7154
G01 X23.1233 Y22.7119
G01 X23.2260 Y22.6861
G01 X23.2369 Y22.6831
G01 X23.2476 Y22.6796
G01 X23.3474 Y22.6439
G01 X23.3579 Y22.6398
G01 X23.3682 Y22.6352
G01 X23.4640 Y22.5900
G01 X23.4741 Y22.5849
G01 X23.4839 Y22.5793
G01 X23.5748 Y22.5248
G01 X23.5843 Y22.5188
G01 X23.5935 Y22.5123
G01 X23.6786 Y22.4492
G01 X23.6875 Y22.4423
G01 X23.6961 Y22.4349
G01 X23.7787 Y22.3599
G01 X23.7905 Y22.3478
G01 X23.8617 Y22.2693
G01 X23.8691 Y22.2607
G01 X23.8760 Y22.2518
G01 X23.9391 Y22.1667
G01 X23.9456 Y22.1575
G01 X23.9516 Y22.1480
G01 X24.0090 Y22.0522
G01 X24.0168 Y22.0372
G01 X24.0620 Y21.9414
G01 X24.0687 Y21.9259
G01 X24.1082 Y21.8155
G01 X24.1129 Y21.7992
G01 X24.1268 Y21.7439
G01 X24.1407 Y21.7992
G01 X24.1454 Y21.8155
G01 X24.1829 Y21.9206
G01 X24.1892 Y21.9363
G01 X24.2368 Y22.0372
G01 X24.2419 Y22.0473
G01 X24.2475 Y22.0571
G01 X24.3020 Y22.1480
G01 X24.3112 Y22.1622
G01 X24.3776 Y22.2518
G01 X24.3845 Y22.2607
G01 X24.3919 Y22.2693
G01 X24.4631 Y22.3478
G01 X24.4708 Y22.3560
G01 X24.4790 Y22.3637
G01 X24.5575 Y22.4349
G01 X24.5661 Y22.4423
G01 X24.5750 Y22.4492
G01 X24.6646 Y22.5156
G01 X24.6788 Y22.5248
G01 X24.7697 Y22.5793
G01 X24.7795 Y22.5849
G01 X24.7896 Y22.5900
G01 X24.8854 Y22.6352
G01 X24.8957 Y22.6398
G01 X24.9062 Y22.6439
G01 X25.0060 Y22.6796
G01 X25.0167 Y22.6831
G01 X25.0276 Y22.6861
G01 X25.1303 Y22.7119
G01 X25.1413 Y22.7143
G01 X25.1525 Y22.7163
G01 X25.2572 Y22.7318
G01 X25.2684 Y22.7332
G01 X25.2797 Y22.7340
G01 X25.3855 Y22.7392
G01 X25.3968 Y22.7395
G01 X25.4081 Y22.7392
G01 X25.5139 Y22.7340
G01 X25.5252 Y22.7332
G01 X25.5364 Y22.7318
G01 X25.6411 Y22.7163
G01 X25.6523 Y22.7143
G01 X25.6633 Y22.7119
G01 X25.7660 Y22.6861
G01 X25.7769 Y22.6831
G01 X25.7876 Y22.6796
G01 X25.8874 Y22.6439
G01 X25.8979 Y22.6398
G01 X25.9082 Y22.6352
G01 X26.0040 Y22.5900
G01 X26.0141 Y22.5849
G01 X26.0239 Y22.5793
G01 X26.1148 Y22.5248
G01 X26.1243 Y22.5188
G01 X26.1335 Y22.5123
G01 X26.2186 Y22.4492
G01 X26.2319 Y22.4386
G01 X26.3146 Y22.3637
G01 X26.3228 Y22.3560
G01 X26.3305 Y22.3478
G01 X26.4017 Y22.2693
G01 X26.4091 Y22.2607
G01 X26.4160 Y22.2518
G01 X26.4791 Y22.1667
G01 X26.4887 Y22.1528
G01 X26.5461 Y22.0571
G01 X26.5517 Y22.0473
G01 X26.5568 Y22.0372
G01 X26.6044 Y21.9363
G01 X26.6107 Y21.9206
G01 X26.6482 Y21.8155
G01 X26.6529 Y21.7992
G01 X26.6668 Y21.7439
G01 X26.6807 Y21.7992
G01 X26.6854 Y21.8155
G01 X26.7229 Y21.9206
G01 X26.7292 Y21.9363
G01 X26.7768 Y22.0372
G01 X26.7819 Y22.0473
G01 X26.7875 Y22.0571
G01 X26.8420 Y22.1480
G01 X26.8512 Y22.1622
G01 X26.9176 Y22.2518
G01 X26.9245 Y22.2607
G01 X26.9319 Y22.2693
G01 X27.0031 Y22.3478
G01 X27.0108 Y22.3560
G01 X27.0190 Y22.3637
G01 X27.0975 Y22.4349
G01 X27.1061 Y22.4423
G01 X27.1150 Y22.4492
G01 X27.2046 Y22.5156
G01 X27.2188 Y22.5248
G01 X27.3097 Y22.5793
G01 X27.3195 Y22.5849
G01 X27.3296 Y22.5900
G01 X27.4254 Y22.6352
G01 X27.4357 Y22.6398
G01 X27.4462 Y22.6439
G01 X27.5460 Y22.6796
G01 X27.5567 Y22.6831
G01 X27.5676 Y22.6861
G01 X27.6703 Y22.7119
G01 X27.6813 Y22.7143
G01 X27.6925 Y22.7163
G01 X27.7972 Y22.7318
G01 X27.8084 Y22.7332
G01 X27.8197 Y22.7340
G01 X27.9255 Y22.7392
G01 X27.9368 Y22.7395
G01 X27.9481 Y22.7392
G01 X28.0539 Y22.7340
G01 X28.0708 Y22.7326
G01 X28.1811 Y22.7163
G01 X28.1923 Y22.7143
G01 X28.2033 Y22.7119
G01 X28.3060 Y22.6861
G01 X28.3169 Y22.6831
G01 X28.3276 Y22.6796
G01 X28.4274 Y22.6439
G01 X28.4379 Y22.6398
G01 X28.4482 Y22.6352
G01 X28.5440 Y22.5900
G01 X28.5541 Y22.5849
G01 X28.5639 Y22.5793
G01 X28.6548 Y22.5248
G01 X28.6643 Y22.5188
G01 X28.6735 Y22.5123
G01 X28.7586 Y22.4492
G01 X28.7675 Y22.4423
G01 X28.7761 Y22.4349
G01 X28.8546 Y22.3637
G01 X28.8628 Y22.3560
G01 X28.8705 Y22.3478
G01 X28.9417 Y22.2693
G01 X28.9491 Y22.2607
G01 X28.9560 Y22.2518
G01 X29.0191 Y22.1667
G01 X29.0256 Y22.1575
G01 X29.0316 Y22.1480
G01 X29.0861 Y22.0571
G01 X29.0917 Y22.0473
G01 X29.0968 Y22.0372
G01 X29.1420 Y21.9414
G01 X29.1466 Y21.9311
G01 X29.1507 Y21.9206
G01 X29.1864 Y21.8208
G01 X29.1899 Y21.8101
G01 X29.1929 Y21.7992
G01 X29.2187 Y21.6965
G01 X29.2211 Y21.6855
G01 X29.2231 Y21.6743
G01 X29.2386 Y21.5696
G01 X29.2400 Y21.5584
G01 X29.2408 Y21.5471
G01 X29.2460 Y21.4413
G01 X29.2463 Y21.4300
G01 X29.2460 Y21.4187
G01 X29.2408 Y21.3129
G01 X29.2394 Y21.2960
G01 X29.2231 Y21.1857
G01 X29.2211 Y21.1745
G01 X29.2187 Y21.1635
G01 X29.1929 Y21.0608
G01 X29.1899 Y21.0499
G01 X29.1864 Y21.0392
G01 X29.1507 Y20.9394
G01 X29.1466 Y20.9289
G01 X29.1420 Y20.9186
G01 X29.0968 Y20.8228
G01 X29.0917 Y20.8127
G01 X29.0861 Y20.8029
G01 X29.0316 Y20.7120
G01 X29.0256 Y20.7025
G01 X29.0191 Y20.6933
G01 X28.9560 Y20.6082
G01 X28.9491 Y20.5993
G01 X28.9417 Y20.5907
G01 X28.8705 Y20.5122
G01 X28.8628 Y20.5040
G01 X28.8546 Y20.4963
G01 X28.7761 Y20.4251
G01 X28.7675 Y20.4177
G01 X28.7586 Y20.4108
G01 X28.6735 Y20.3477
G01 X28.6643 Y20.3412
G01 X28.6548 Y20.3352
G01 X28.5639 Y20.2807
G01 X28.5541 Y20.2751
G01 X28.5440 Y20.2700
G01 X28.4482 Y20.2248
G01 X28.4379 Y20.2202
G01 X28.4274 Y20.2161
G01 X28.3276 Y20.1804
G01 X28.3169 Y20.1769
G01 X28.3060 Y20.1739
G01 X28.2033 Y20.1481
G01 X28.1923 Y20.1457
G01 X28.1811 Y20.1437
G01 X28.0764 Y20.1282
G01 X28.0652 Y20.1268
G01 X28.0539 Y20.1260
G01 X27.9481 Y20.1208
G01 X27.9368 Y20.1205
G01 X27.9255 Y20.1208
G01 X27.8197 Y20.1260
G01 X27.8084 Y20.1268
G01 X27.7972 Y20.1282
G01 X27.6925 Y20.1437
G01 X27.6813 Y20.1457
G01 X27.6703 Y20.1481
G01 X27.5676 Y20.1739
G01 X27.5567 Y20.1769
G01 X27.5460 Y20.1804
G01 X27.4462 Y20.2161
G01 X27.4357 Y20.2202
G01 X27.4254 Y20.2248
G01 X27.3296 Y20.2700
G01 X27.3146 Y20.2778
G01 X27.2188 Y20.3352
G01 X27.2093 Y20.3412
G01 X27.2001 Y20.3477
G01 X27.1150 Y20.4108
G01 X27.1061 Y20.4177
G01 X27.0975 Y20.4251
G01 X27.0190 Y20.4963
G01 X27.0108 Y20.5040
G01 X27.0031 Y20.5122
G01 X26.9319 Y20.5907
G01 X26.9210 Y20.6037
G01 X26.8545 Y20.6933
G01 X26.8480 Y20.7025
G01 X26.8420 Y20.7120
G01 X26.7875 Y20.8029
G01 X26.7793 Y20.8177
G01 X26.7316 Y20.9186
G01 X26.7249 Y20.9341
G01 X26.6854 Y21.0445
G01 X26.6807 Y21.0608
G01 X26.6668 Y21.1161
G01 X26.6529 Y21.0608
G01 X26.6482 Y21.0445
G01 X26.6087 Y20.9341
G01 X26.6020 Y20.9186
G01 X26.5543 Y20.8177
G01 X26.5461 Y20.8029
G01 X26.4916 Y20.7120
G01 X26.4856 Y20.7025
G01 X26.4791 Y20.6933
G01 X26.4126 Y20.6037
G01 X26.4054 Y20.5949
G01 X26.3892 Y20.5769
G01 X26.3892 Y15.2400
G01 X26.3889 Y15.2287
G01 X26.3844 Y15.1427
G01 X26.3720 Y15.0575
G01 X26.3701 Y15.0464
G01 X26.3676 Y15.0354
G01 X26.3464 Y14.9519
G01 X26.3429 Y14.9412
G01 X26.3136 Y14.8602
G01 X26.3091 Y14.8499
G01 X26.2720 Y14.7722
G01 X26.2280 Y14.6982
G01 X26.2187 Y14.6840
G01 X26.1709 Y14.6193
G01 X26.1639 Y14.6104
G01 X26.1565 Y14.6019
G01 X26.1025 Y14.5423
G01 X25.8295 Y14.2693
G01 X25.8471 Y14.1508
G01 X25.8485 Y14.1396
G01 X25.8493 Y14.1283
G01 X25.8565 Y13.9813
G01 X25.8568 Y13.9700
G01 X25.8565 Y13.9587
G01 X25.8493 Y13.8117
G01 X25.8485 Y13.8004
G01 X25.8471 Y13.7892
G01 X25.8255 Y13.6436
G01 X25.8236 Y13.6325
G01 X25.8211 Y13.6215
G01 X25.7853 Y13.4787
G01 X25.7823 Y13.4678
G01 X25.7788 Y13.4571
G01 X25.7292 Y13.3185
G01 X25.7251 Y13.3080
G01 X25.7205 Y13.2976
G01 X25.6551 Y13.1595
G01 X25.6470 Y13.1447
G01 X25.5713 Y13.0184
G01 X25.5652 Y13.0089
G01 X25.5587 Y12.9996
G01 X25.4711 Y12.8814
G01 X25.4641 Y12.8725
G01 X25.4567 Y12.8640
G01 X25.3579 Y12.7549
G01 X25.3501 Y12.7467
G01 X25.3419 Y12.7389
G01 X25.2328 Y12.6401
G01 X25.2243 Y12.6327
G01 X25.2154 Y12.6257
G01 X25.1192 Y12.5544
G01 X25.1192 Y11.5756
G01 X25.2154 Y11.5043
G01 X25.2243 Y11.4973
G01 X25.2328 Y11.4899
G01 X25.3419 Y11.3911
G01 X25.3501 Y11.3833
G01 X25.3579 Y11.3751
G01 X25.4567 Y11.2660
G01 X25.4641 Y11.2575
G01 X25.4711 Y11.2486
G01 X25.5587 Y11.1304
G01 X25.5652 Y11.1211
G01 X25.5713 Y11.1116
G01 X25.6470 Y10.9853
G01 X25.6525 Y10.9755
G01 X25.6576 Y10.9654
G01 X25.7205 Y10.8324
G01 X25.7251 Y10.8220
G01 X25.7292 Y10.8115
G01 X25.7788 Y10.6729
G01 X25.7823 Y10.6622
G01 X25.7853 Y10.6513
G01 X25.8211 Y10.5085
G01 X25.8236 Y10.4975
G01 X25.8255 Y10.4864
G01 X25.8471 Y10.3408
G01 X25.8490 Y10.3239
G01 X25.8565 Y10.1713
G01 X25.8568 Y10.1600
G01 X25.8565 Y10.1487
G01 X25.8493 Y10.0017
G01 X25.8485 Y9.9904
G01 X25.8471 Y9.9792
G01 X25.8255 Y9.8336
G01 X25.8236 Y9.8225
G01 X25.8211 Y9.8115
G01 X25.7853 Y9.6687
G01 X25.7823 Y9.6578
G01 X25.7788 Y9.6471
G01 X25.7292 Y9.5085
G01 X25.7251 Y9.4980
G01 X25.7205 Y9.4876
G01 X25.6576 Y9.3546
G01 X25.6525 Y9.3445
G01 X25.6470 Y9.3347
G01 X25.5713 Y9.2084
G01 X25.5652 Y9.1989
G01 X25.5587 Y9.1896
G01 X25.4711 Y9.0714
G01 X25.4641 Y9.0625
G01 X25.4567 Y9.0540
G01 X25.3579 Y8.9449
G01 X25.3501 Y8.9367
G01 X25.3419 Y8.9289
G01 X25.2328 Y8.8301
G01 X25.2243 Y8.8227
G01 X25.2154 Y8.8157
G01 X25.0972 Y8.7281
G01 X25.0879 Y8.7216
G01 X25.0784 Y8.7155
G01 X24.9521 Y8.6398
G01 X24.9423 Y8.6343
G01 X24.9322 Y8.6292
G01 X24.7992 Y8.5663
G01 X24.7888 Y8.5617
G01 X24.7783 Y8.5576
G01 X24.6397 Y8.5080
G01 X24.6290 Y8.5045
G01 X24.6181 Y8.5015
G01 X24.4753 Y8.4657
G01 X24.4643 Y8.4632
G01 X24.4532 Y8.4613
G01 X24.3076 Y8.4397
G01 X24.2964 Y8.4383
G01 X24.2851 Y8.4375
G01 X24.1381 Y8.4303
G01 X24.1268 Y8.4300
G01 X24.1155 Y8.4303
G01 X23.9685 Y8.4375
G01 X23.9572 Y8.4383
G01 X23.9460 Y8.4397
G01 X23.8004 Y8.4613
G01 X23.7893 Y8.4632
G01 X23.7783 Y8.4657
G01 X23.6355 Y8.5015
G01 X23.6246 Y8.5045
G01 X23.6139 Y8.5080
G01 X23.4753 Y8.5576
G01 X23.4648 Y8.5617
G01 X23.4544 Y8.5663
G01 X23.3214 Y8.6292
G01 X23.3113 Y8.6343
G01 X23.3015 Y8.6398
G01 X23.1752 Y8.7155
G01 X23.1657 Y8.7216
G01 X23.1564 Y8.7281
G01 X23.0382 Y8.8157
G01 X23.0293 Y8.8227
G01 X23.0208 Y8.8301
G01 X22.9117 Y8.9289
G01 X22.9035 Y8.9367
G01 X22.8957 Y8.9449
G01 X22.7969 Y9.0540
G01 X22.7895 Y9.0625
G01 X22.7825 Y9.0714
G01 X22.6949 Y9.1896
G01 X22.6884 Y9.1989
G01 X22.6823 Y9.2084
G01 X22.6066 Y9.3347
G01 X22.6011 Y9.3445
G01 X22.5960 Y9.3546
G01 X22.5331 Y9.4876
G01 X22.5285 Y9.4980
G01 X22.5244 Y9.5085
G01 X22.4748 Y9.6471
G01 X22.4713 Y9.6578
G01 X22.4683 Y9.6687
G01 X22.4325 Y9.8115
G01 X22.4300 Y9.8225
G01 X22.4281 Y9.8336
G01 X22.4065 Y9.9792
G01 X22.4051 Y9.9904
G01 X22.4043 Y10.0017
G01 X22.3971 Y10.1487
G01 X22.3968 Y10.1600
G01 X22.3971 Y10.1713
G01 X22.4043 Y10.3183
G01 X22.4051 Y10.3296
G01 X22.4065 Y10.3408
G01 X22.4281 Y10.4864
G01 X22.4300 Y10.4975
G01 X22.4325 Y10.5085
G01 X22.4683 Y10.6513
G01 X22.4713 Y10.6622
G01 X22.4748 Y10.6729
G01 X22.5244 Y10.8115
G01 X22.5285 Y10.8220
G01 X22.5331 Y10.8324
G01 X22.5960 Y10.9654
G01 X22.6011 Y10.9755
G01 X22.6066 Y10.9853
G01 X22.6823 Y11.1116
G01 X22.6884 Y11.1211
G01 X22.6949 Y11.1304
G01 X22.7825 Y11.2486
G01 X22.7895 Y11.2575
G01 X22.7969 Y11.2660
G01 X22.8957 Y11.3751
G01 X22.9035 Y11.3833
G01 X22.9117 Y11.3911
G01 X23.0208 Y11.4899
G01 X23.0293 Y11.4973
G01 X23.0382 Y11.5043
G01 X23.1344 Y11.5756
G01 X23.1344 Y12.5544
G01 X23.0382 Y12.6257
G01 X23.0293 Y12.6327
G01 X23.0208 Y12.6401
G01 X22.9117 Y12.7389
G01 X22.9035 Y12.7467
G01 X22.8957 Y12.7549
G01 X22.7969 Y12.8640
G01 X22.7895 Y12.8725
G01 X22.7825 Y12.8814
G01 X22.6949 Y12.9996
G01 X22.6884 Y13.0089
G01 X22.6823 Y13.0184
G01 X22.6066 Y13.1447
G01 X22.6011 Y13.1545
G01 X22.5960 Y13.1646
G01 X22.5331 Y13.2976
G01 X22.5285 Y13.3080
G01 X22.5244 Y13.3185
G01 X22.4748 Y13.4571
G01 X22.4713 Y13.4678
G01 X22.4683 Y13.4787
G01 X22.4312 Y13.6270
G01 X22.4281 Y13.6436
G01 X22.4065 Y13.7892
G01 X22.4051 Y13.8004
G01 X22.4043 Y13.8117
G01 X22.3971 Y13.9587
G01 X22.3968 Y13.9700
G01 X22.3971 Y13.9813
G01 X22.4043 Y14.1283
G01 X22.4051 Y14.1396
G01 X22.4065 Y14.1508
G01 X22.4281 Y14.2964
G01 X22.4300 Y14.3075
G01 X22.4325 Y14.3185
G01 X22.4683 Y14.4613
G01 X22.4713 Y14.4722
G01 X22.4748 Y14.4829
G01 X22.5244 Y14.6215
G01 X22.5285 Y14.6320
G01 X22.5331 Y14.6424
G01 X22.5960 Y14.7754
G01 X22.6011 Y14.7855
G01 X22.6066 Y14.7953
G01 X22.6823 Y14.9216
G01 X22.6884 Y14.9311
G01 X22.6949 Y14.9404
G01 X22.7825 Y15.0586
G01 X22.7895 Y15.0675
G01 X22.7969 Y15.0760
G01 X22.8957 Y15.1851
G01 X22.9035 Y15.1933
G01 X22.9117 Y15.2011
G01 X23.0208 Y15.2999
G01 X23.0293 Y15.3073
G01 X23.0382 Y15.3143
G01 X23.1564 Y15.4019
G01 X23.1704 Y15.4115
G01 X23.3015 Y15.4902
G01 X23.3113 Y15.4957
G01 X23.3214 Y15.5008
G01 X23.4544 Y15.5637
G01 X23.4648 Y15.5683
G01 X23.4753 Y15.5724
G01 X23.6139 Y15.6220
G01 X23.6246 Y15.6255
G01 X23.6355 Y15.6285
G01 X23.7838 Y15.6656
G01 X23.8004 Y15.6687
G01 X23.9460 Y15.6903
G01 X23.9572 Y15.6917
G01 X23.9685 Y15.6925
G01 X24.1212 Y15.6999
G01 X24.1381 Y15.6997
G01 X24.2907 Y15.6922
G01 X24.3076 Y15.6903
G01 X24.4044 Y15.6759
G01 X24.4035 Y20.5779
G01 X24.3882 Y20.5949
G01 X24.3810 Y20.6037
G01 X24.3145 Y20.6933
G01 X24.3080 Y20.7025
G01 X24.3020 Y20.7120
G01 X24.2475 Y20.8029
G01 X24.2393 Y20.8177
G01 X24.1916 Y20.9186
G01 X24.1849 Y20.9341
G01 X24.1454 Y21.0445
G01 X24.1407 Y21.0608
G01 X24.1268 Y21.1161
G01 X24.1129 Y21.0608
G01 X24.1082 Y21.0445
G01 X24.0687 Y20.9341
G01 X24.0620 Y20.9186
G01 X24.0143 Y20.8177
G01 X24.0061 Y20.8029
G01 X23.9516 Y20.7120
G01 X23.9456 Y20.7025
G01 X23.9391 Y20.6933
G01 X23.8726 Y20.6037
G01 X23.8654 Y20.5949
G01 X23.8492 Y20.5769
G01 X23.8491 Y17.7744
G01 X23.8452 Y17.6940
G01 X23.8444 Y17.6827
G01 X23.8430 Y17.6715
G01 X23.8301 Y17.5864
G01 X23.8095 Y17.5028
G01 X23.8064 Y17.4919
G01 X23.8029 Y17.4812
G01 X23.7736 Y17.4002
G01 X23.7691 Y17.3899
G01 X23.7320 Y17.3122
G01 X23.6880 Y17.2382
G01 X23.6819 Y17.2287
G01 X23.6754 Y17.2194
G01 X23.6239 Y17.1504
G01 X23.6165 Y17.1419
G01 X23.5585 Y17.0783
G01 X20.7495 Y14.2693
G01 X20.7671 Y14.1508
G01 X20.7685 Y14.1396
G01 X20.7693 Y14.1283
G01 X20.7765 Y13.9813
G01 X20.7768 Y13.9700
G01 X20.7765 Y13.9587
G01 X20.7693 Y13.8117
G01 X20.7685 Y13.8004
G01 X20.7671 Y13.7892
G01 X20.7455 Y13.6436
G01 X20.7436 Y13.6325
G01 X20.7411 Y13.6215
G01 X20.7053 Y13.4787
G01 X20.7023 Y13.4678
G01 X20.6988 Y13.4571
G01 X20.6492 Y13.3185
G01 X20.6451 Y13.3080
G01 X20.6405 Y13.2976
G01 X20.5776 Y13.1646
G01 X20.5725 Y13.1545
G01 X20.5670 Y13.1447
G01 X20.4913 Y13.0184
G01 X20.4852 Y13.0089
G01 X20.4787 Y12.9996
G01 X20.3911 Y12.8814
G01 X20.3841 Y12.8725
G01 X20.3767 Y12.8640
G01 X20.2779 Y12.7549
G01 X20.2701 Y12.7467
G01 X20.2619 Y12.7389
G01 X20.1528 Y12.6401
G01 X20.1443 Y12.6327
G01 X20.1354 Y12.6257
G01 X20.0172 Y12.5381
G01 X20.0079 Y12.5316
G01 X19.9984 Y12.5255
G01 X19.8721 Y12.4498
G01 X19.8623 Y12.4443
G01 X19.8522 Y12.4392
G01 X19.7192 Y12.3763
G01 X19.7088 Y12.3717
G01 X19.6983 Y12.3676
G01 X19.5597 Y12.3180
G01 X19.5490 Y12.3145
G01 X19.5381 Y12.3115
G01 X19.3953 Y12.2757
G01 X19.3843 Y12.2732
G01 X19.3732 Y12.2713
G01 X19.2276 Y12.2497
G01 X19.2164 Y12.2483
G01 X19.2051 Y12.2475
G01 X19.0581 Y12.2403
G01 X19.0468 Y12.2400
G01 X19.0355 Y12.2403
G01 X18.8885 Y12.2475
G01 X18.8772 Y12.2483
G01 X18.8660 Y12.2497
G01 X18.7475 Y12.2673
G01 X17.2022 Y10.7219
G01 X17.2022 Y8.0491
G01 X18.1269 Y7.1244
G01 X31.5367 Y7.1244
G01 X42.0494 Y17.6371
G01 X42.0494 Y20.6352
G01 X42.0427 Y20.6430
G01 X42.0357 Y20.6519
G01 X41.9671 Y20.7449
G01 X41.9611 Y20.7545
G01 X41.9019 Y20.8537
G01 X41.8523 Y20.9581
G01 X41.8477 Y20.9684
G01 X41.8085 Y21.0771
G01 X41.8050 Y21.0878
G01 X41.8019 Y21.0987
G01 X41.7766 Y21.1998
G01 X41.7741 Y21.2108
G01 X41.7722 Y21.2220
G01 X41.7555 Y21.3363
G01 X41.7496 Y21.4517
G01 X41.7493 Y21.4630
G01 X41.7496 Y21.4743
G01 X41.7547 Y21.5784
G01 X41.7555 Y21.5897
G01 X41.7569 Y21.6009
G01 X41.7741 Y21.7152
G01 X41.8019 Y21.8273
G01 X41.8050 Y21.8382
G01 X41.8085 Y21.8489
G01 X41.8477 Y21.9576
G01 X41.8523 Y21.9679
G01 X41.8993 Y22.0673
G01 X41.9075 Y22.0821
G01 X41.9671 Y22.1811
G01 X42.0357 Y22.2741
G01 X42.0463 Y22.2873
G01 X42.1201 Y22.3688
G01 X42.1319 Y22.3809
G01 X42.2175 Y22.4585
G01 X42.2307 Y22.4691
G01 X42.2773 Y22.5036
G01 X41.6839 Y22.5036
G01 X33.4495 Y14.2693
G01 X33.4671 Y14.1508
G01 X33.4685 Y14.1396
G01 X33.4693 Y14.1283
G01 X33.4765 Y13.9813
G01 X33.4768 Y13.9700
G01 X33.4765 Y13.9587
G01 X33.4693 Y13.8117
G01 X33.4685 Y13.8004
G01 X33.4671 Y13.7892
G01 X33.4455 Y13.6436
G01 X33.4436 Y13.6325
G01 X33.4411 Y13.6215
G01 X33.4053 Y13.4787
G01 X33.4023 Y13.4678
G01 X33.3988 Y13.4571
G01 X33.3492 Y13.3185
G01 X33.3451 Y13.3080
G01 X33.3405 Y13.2976
G01 X33.2776 Y13.1646
G01 X33.2725 Y13.1545
G01 X33.2670 Y13.1447
G01 X33.1913 Y13.0184
G01 X33.1852 Y13.0089
G01 X33.1787 Y12.9996
G01 X33.0911 Y12.8814
G01 X33.0841 Y12.8725
G01 X33.0767 Y12.8640
G01 X32.9779 Y12.7549
G01 X32.9661 Y12.7428
G01 X32.8528 Y12.6401
G01 X32.8443 Y12.6327
G01 X32.8354 Y12.6257
G01 X32.7172 Y12.5381
G01 X32.7079 Y12.5316
G01 X32.6984 Y12.5255
G01 X32.5721 Y12.4498
G01 X32.5623 Y12.4443
G01 X32.5522 Y12.4392
G01 X32.4192 Y12.3763
G01 X32.4088 Y12.3717
G01 X32.3983 Y12.3676
G01 X32.2597 Y12.3180
G01 X32.2490 Y12.3145
G01 X32.2381 Y12.3115
G01 X32.0953 Y12.2757
G01 X32.0843 Y12.2732
G01 X32.0732 Y12.2713
G01 X31.9276 Y12.2497
G01 X31.9164 Y12.2483
G01 X31.9051 Y12.2475
G01 X31.7581 Y12.2403
G01 X31.7468 Y12.2400
G01 X31.7355 Y12.2403
G01 X31.5885 Y12.2475
G01 X31.5772 Y12.2483
G01 X31.5660 Y12.2497
G01 X31.4204 Y12.2713
G01 X31.4093 Y12.2732
G01 X31.3983 Y12.2757
G01 X31.2555 Y12.3115
G01 X31.2446 Y12.3145
G01 X31.2339 Y12.3180
G01 X31.0953 Y12.3676
G01 X31.0848 Y12.3717
G01 X31.0744 Y12.3763
G01 X30.9414 Y12.4392
G01 X30.9313 Y12.4443
G01 X30.9215 Y12.4498
G01 X30.7952 Y12.5255
G01 X30.7857 Y12.5316
G01 X30.7764 Y12.5381
G01 X30.6582 Y12.6257
G01 X30.6493 Y12.6327
G01 X30.6408 Y12.6401
G01 X30.5317 Y12.7389
G01 X30.5235 Y12.7467
G01 X30.5157 Y12.7549
G01 X30.4169 Y12.8640
G01 X30.4095 Y12.8725
G01 X30.4025 Y12.8814
G01 X30.3149 Y12.9996
G01 X30.3084 Y13.0089
G01 X30.3023 Y13.0184
G01 X30.2266 Y13.1447
G01 X30.2211 Y13.1545
G01 X30.2160 Y13.1646
G01 X30.1531 Y13.2976
G01 X30.1485 Y13.3080
G01 X30.1444 Y13.3185
G01 X30.0948 Y13.4571
G01 X30.0913 Y13.4678
G01 X30.0883 Y13.4787
G01 X30.0525 Y13.6215
G01 X30.0500 Y13.6325
G01 X30.0481 Y13.6436
G01 X30.0265 Y13.7892
G01 X30.0251 Y13.8004
G01 X30.0243 Y13.8117
G01 X30.0171 Y13.9587
G01 X30.0168 Y13.9700
G01 X30.0171 Y13.9813
G01 X30.0243 Y14.1283
G01 X30.0251 Y14.1396
G01 X30.0265 Y14.1508
G01 X30.0481 Y14.2964
G01 X30.0500 Y14.3075
G01 X30.0525 Y14.3185
G01 X30.0883 Y14.4613
G01 X30.0913 Y14.4722
G01 X30.0948 Y14.4829
G01 X30.1444 Y14.6215
G01 X30.1485 Y14.6320
G01 X30.1531 Y14.6424
G01 X30.2160 Y14.7754
G01 X30.2211 Y14.7855
G01 X30.2266 Y14.7953
G01 X30.3023 Y14.9216
G01 X30.3084 Y14.9311
G01 X30.3149 Y14.9404
G01 X30.4025 Y15.0586
G01 X30.4095 Y15.0675
G01 X30.4169 Y15.0760
G01 X30.5157 Y15.1851
G01 X30.5235 Y15.1933
G01 X30.5317 Y15.2011
G01 X30.6408 Y15.2999
G01 X30.6493 Y15.3073
G01 X30.6582 Y15.3143
G01 X30.7764 Y15.4019
G01 X30.7857 Y15.4084
G01 X30.7952 Y15.4145
G01 X30.9215 Y15.4902
G01 X30.9313 Y15.4957
G01 X30.9414 Y15.5008
G01 X31.0744 Y15.5637
G01 X31.0848 Y15.5683
G01 X31.0953 Y15.5724
G01 X31.2339 Y15.6220
G01 X31.2446 Y15.6255
G01 X31.2555 Y15.6285
G01 X31.3983 Y15.6643
G01 X31.4093 Y15.6668
G01 X31.4204 Y15.6687
G01 X31.5660 Y15.6903
G01 X31.5772 Y15.6917
G01 X31.5885 Y15.6925
G01 X31.7355 Y15.6997
G01 X31.7468 Y15.7000
G01 X31.7581 Y15.6997
G01 X31.9051 Y15.6925
G01 X31.9164 Y15.6917
G01 X31.9276 Y15.6903
G01 X32.0461 Y15.6727
G00 Z2.0000
G00 X26.8074 Y21.4325
G01 F60.00
G01 Z-0.0000
G01 F120.00
G01 X26.8127 Y21.3193
G01 X26.8290 Y21.2096
G01 X26.8559 Y21.1021
G01 X26.8933 Y20.9978
G01 X26.9407 Y20.8976
G01 X26.9977 Y20.8025
G01 X27.0637 Y20.7135
G01 X27.1381 Y20.6313
G01 X27.2203 Y20.5569
G01 X27.3093 Y20.4909
G01 X27.4044 Y20.4339
G01 X27.5046 Y20.3865
G01 X27.6089 Y20.3491
G01 X27.7164 Y20.3222
G01 X27.8261 Y20.3059
G01 X27.9368 Y20.3005
G01 X28.0475 Y20.3059
G01 X28.1572 Y20.3222
G01 X28.2647 Y20.3491
G01 X28.3690 Y20.3865
G01 X28.4692 Y20.4339
G01 X28.5643 Y20.4909
G01 X28.6533 Y20.5569
G01 X28.7355 Y20.6313
G01 X28.8099 Y20.7135
G01 X28.8759 Y20.8025
G01 X28.9329 Y20.8976
G01 X28.9803 Y20.9978
G01 X29.0177 Y21.1021
G01 X29.0446 Y21.2096
G01 X29.0609 Y21.3193
G01 X29.0663 Y21.4300
G01 X29.0609 Y21.5407
G01 X29.0446 Y21.6504
G01 X29.0177 Y21.7579
G01 X28.9803 Y21.8622
G01 X28.9329 Y21.9624
G01 X28.8759 Y22.0575
G01 X28.8099 Y22.1465
G01 X28.7355 Y22.2287
G01 X28.6533 Y22.3031
G01 X28.5643 Y22.3691
G01 X28.4692 Y22.4261
G01 X28.3690 Y22.4735
G01 X28.2647 Y22.5109
G01 X28.1572 Y22.5378
G01 X28.0475 Y22.5541
G01 X27.9368 Y22.5595
G01 X27.8261 Y22.5541
G01 X27.7164 Y22.5378
G01 X27.6089 Y22.5109
G01 X27.5046 Y22.4735
G01 X27.4044 Y22.4261
G01 X27.3093 Y22.3691
G01 X27.2203 Y22.3031
G01 X27.1381 Y22.2287
G01 X27.0637 Y22.1465
G01 X26.9977 Y22.0575
G01 X26.9407 Y21.9624
G01 X26.8933 Y21.8622
G01 X26.8559 Y21.7579
G01 X26.8290 Y21.6504
G01 X26.8127 Y21.5407
G01 X26.8074 Y21.4325
G00 Z2.0000
G00 X26.7474 Y21.4354
G01 F60.00
G01 Z-0.0000
G01 F120.00
G01 X26.7474 Y21.4246
G01 X26.7530 Y21.3134
G01 X26.7702 Y21.1979
G01 X26.7985 Y21.0847
G01 X26.8378 Y20.9748
G01 X26.8878 Y20.8693
G01 X26.9478 Y20.7691
G01 X27.0173 Y20.6754
G01 X27.0957 Y20.5889
G01 X27.1822 Y20.5105
G01 X27.2759 Y20.4410
G01 X27.3761 Y20.3810
G01 X27.4816 Y20.3310
G01 X27.5915 Y20.2917
G01 X27.7047 Y20.2634
G01 X27.8202 Y20.2462
G01 X27.9368 Y20.2405
G01 X28.0534 Y20.2462
G01 X28.1689 Y20.2634
G01 X28.2821 Y20.2917
G01 X28.3920 Y20.3310
G01 X28.4975 Y20.3810
G01 X28.5977 Y20.4410
G01 X28.6914 Y20.5105
G01 X28.7779 Y20.5889
G01 X28.8563 Y20.6754
G01 X28.9258 Y20.7691
G01 X28.9858 Y20.8693
G01 X29.0358 Y20.9748
G01 X29.0751 Y21.0847
G01 X29.1034 Y21.1979
G01 X29.1206 Y21.3134
G01 X29.1263 Y21.4300
G01 X29.1206 Y21.5466
G01 X29.1034 Y21.6621
G01 X29.0751 Y21.7753
G01 X29.0358 Y21.8852
G01 X28.9858 Y21.9907
G01 X28.9258 Y22.0909
G01 X28.8563 Y22.1846
G01 X28.7779 Y22.2711
G01 X28.6914 Y22.3495
G01 X28.5977 Y22.4190
G01 X28.4975 Y22.4790
G01 X28.3920 Y22.5290
G01 X28.2821 Y22.5683
G01 X28.1689 Y22.5966
G01 X28.0534 Y22.6138
G01 X27.9368 Y22.6195
G01 X27.8202 Y22.6138
G01 X27.7047 Y22.5966
G01 X27.5915 Y22.5683
G01 X27.4816 Y22.5290
G01 X27.3761 Y22.4790
G01 X27.2759 Y22.4190
G01 X27.1822 Y22.3495
G01 X27.0957 Y22.2711
G01 X27.0173 Y22.1846
G01 X26.9478 Y22.0909
G01 X26.8878 Y21.9907
G01 X26.8378 Y21.8852
G01 X26.7985 Y21.7753
G01 X26.7702 Y21.6621
G01 X26.7530 Y21.5466
G01 X26.7474 Y21.4354
G00 Z2.0000
G00 X26.6875 Y21.4383
G01 F60.00
G01 Z-0.0000
G01 F120.00
G01 X26.6875 Y21.4217
G01 X26.6933 Y21.3075
G01 X26.7113 Y21.1862
G01 X26.7411 Y21.0673
G01 X26.7824 Y20.9518
G01 X26.8348 Y20.8410
G01 X26.8979 Y20.7358
G01 X26.9709 Y20.6373
G01 X27.0533 Y20.5465
G01 X27.1441 Y20.4641
G01 X27.2426 Y20.3911
G01 X27.3478 Y20.3280
G01 X27.4586 Y20.2756
G01 X27.5741 Y20.2343
G01 X27.6930 Y20.2045
G01 X27.8143 Y20.1865
G01 X27.9368 Y20.1805
G01 X28.0593 Y20.1865
G01 X28.1806 Y20.2045
G01 X28.2995 Y20.2343
G01 X28.4150 Y20.2756
G01 X28.5258 Y20.3280
G01 X28.6310 Y20.3911
G01 X28.7295 Y20.4641
G01 X28.8203 Y20.5465
G01 X28.9027 Y20.6373
G01 X28.9757 Y20.7358
G01 X29.0388 Y20.8410
G01 X29.0912 Y20.9518
G01 X29.1325 Y21.0673
G01 X29.1623 Y21.1862
G01 X29.1803 Y21.3075
G01 X29.1863 Y21.4300
G01 X29.1803 Y21.5525
G01 X29.1623 Y21.6738
G01 X29.1325 Y21.7927
G01 X29.0912 Y21.9082
G01 X29.0388 Y22.0190
G01 X28.9757 Y22.1242
G01 X28.9027 Y22.2227
G01 X28.8203 Y22.3135
G01 X28.7295 Y22.3959
G01 X28.6310 Y22.4689
G01 X28.5258 Y22.5320
G01 X28.4150 Y22.5844
G01 X28.2995 Y22.6257
G01 X28.1806 Y22.6555
G01 X28.0593 Y22.6735
G01 X27.9368 Y22.6795
G01 X27.8143 Y22.6735
G01 X27.6930 Y22.6555
G01 X27.5741 Y22.6257
G01 X27.4586 Y22.5844
G01 X27.3478 Y22.5320
G01 X27.2426 Y22.4689
G01 X27.1441 Y22.3959
G01 X27.0533 Y22.3135
G01 X26.9709 Y22.2227
G01 X26.8979 Y22.1242
G01 X26.8348 Y22.0190
G01 X26.7824 Y21.9082
G01 X26.7411 Y21.7927
G01 X26.7113 Y21.6738
G01 X26.6933 Y21.5525
G01 X26.6875 Y21.4383
G00 Z2.0000
G00 X24.5844 Y20.6464
G01 F60.00
G01 Z-0.0000
G01 F120.00
G01 X24.5844 Y15.5765
G01 X24.4844 Y15.4765
G01 X24.4280 Y15.4904
G01 X24.2799 Y15.5124
G01 X24.1256 Y15.5200
G01 X23.9724 Y15.5122
G01 X23.8244 Y15.4902
G01 X23.6780 Y15.4536
G01 X23.5336 Y15.4020
G01 X23.3961 Y15.3370
G01 X23.2657 Y15.2588
G01 X23.1444 Y15.1689
G01 X23.0308 Y15.0660
G01 X22.9286 Y14.9533
G01 X22.8380 Y14.8311
G01 X22.7587 Y14.6985
G01 X22.6948 Y14.5632
G01 X22.6443 Y14.4223
G01 X22.6071 Y14.2748
G01 X22.5843 Y14.1219
G01 X22.5769 Y13.9725
G01 X22.5843 Y13.8181
G01 X22.6071 Y13.6652
G01 X22.6435 Y13.5201
G01 X22.6939 Y13.3791
G01 X22.7604 Y13.2383
G01 X22.8380 Y13.1089
G01 X22.9271 Y12.9886
G01 X23.0299 Y12.8749
G01 X23.1444 Y12.7711
G01 X23.2647 Y12.6819
G01 X23.3144 Y12.6519
G01 X23.3144 Y11.4781
G01 X23.2647 Y11.4481
G01 X23.1426 Y11.3574
G01 X23.0308 Y11.2560
G01 X22.9294 Y11.1442
G01 X22.8380 Y11.0211
G01 X22.7610 Y10.8928
G01 X22.6943 Y10.7520
G01 X22.6435 Y10.6099
G01 X22.6071 Y10.4648
G01 X22.5841 Y10.3095
G01 X22.5768 Y10.1600
G01 X22.5843 Y10.0081
G01 X22.6066 Y9.8576
G01 X22.6432 Y9.7112
G01 X22.6958 Y9.5646
G01 X22.7598 Y9.4293
G01 X22.8380 Y9.2989
G01 X22.9286 Y9.1767
G01 X23.0291 Y9.0658
G01 X23.1454 Y8.9603
G01 X23.2657 Y8.8712
G01 X23.3961 Y8.7930
G01 X23.5336 Y8.7280
G01 X23.6745 Y8.6775
G01 X23.8268 Y8.6394
G01 X23.9749 Y8.6175
G01 X24.1243 Y8.6101
G01 X24.2812 Y8.6178
G01 X24.4292 Y8.6398
G01 X24.5791 Y8.6775
G01 X24.7200 Y8.7280
G01 X24.8575 Y8.7930
G01 X24.9879 Y8.8712
G01 X25.1101 Y8.9618
G01 X25.2228 Y9.0640
G01 X25.3250 Y9.1767
G01 X25.4156 Y9.2989
G01 X25.4926 Y9.4272
G01 X25.5588 Y9.5668
G01 X25.6093 Y9.7077
G01 X25.6474 Y9.8600
G01 X25.6693 Y10.0081
G01 X25.6767 Y10.1575
G01 X25.6693 Y10.3119
G01 X25.6470 Y10.4624
G01 X25.6107 Y10.6076
G01 X25.5583 Y10.7543
G01 X25.4938 Y10.8907
G01 X25.4169 Y11.0191
G01 X25.3242 Y11.1442
G01 X25.2228 Y11.2560
G01 X25.1110 Y11.3574
G01 X24.9889 Y11.4481
G01 X24.9392 Y11.4781
G01 X24.9392 Y12.6519
G01 X24.9889 Y12.6819
G01 X25.1092 Y12.7711
G01 X25.2237 Y12.8749
G01 X25.3250 Y12.9867
G01 X25.4142 Y13.1069
G01 X25.4943 Y13.2404
G01 X25.5588 Y13.3768
G01 X25.6101 Y13.5201
G01 X25.6470 Y13.6676
G01 X25.6692 Y13.8169
G01 X25.6768 Y13.9700
G01 X25.6694 Y14.1207
G01 X25.6472 Y14.2712
G01 X25.6333 Y14.3276
G01 X25.9721 Y14.6664
G01 X26.0248 Y14.7246
G01 X26.0716 Y14.7877
G01 X26.1133 Y14.8570
G01 X26.1482 Y14.9314
G01 X26.1742 Y15.0042
G01 X26.1930 Y15.0791
G01 X26.2051 Y15.1592
G01 X26.2092 Y15.2400
G01 X26.2092 Y20.6464
G01 X26.2699 Y20.7135
G01 X26.3359 Y20.8025
G01 X26.3929 Y20.8976
G01 X26.4403 Y20.9978
G01 X26.4777 Y21.1021
G01 X26.5046 Y21.2096
G01 X26.5209 Y21.3193
G01 X26.5263 Y21.4300
G01 X26.5209 Y21.5407
G01 X26.5046 Y21.6504
G01 X26.4777 Y21.7579
G01 X26.4403 Y21.8622
G01 X26.3929 Y21.9624
G01 X26.3359 Y22.0575
G01 X26.2699 Y22.1465
G01 X26.1955 Y22.2287
G01 X26.1133 Y22.3031
G01 X26.0243 Y22.3691
G01 X25.9292 Y22.4261
G01 X25.8290 Y22.4735
G01 X25.7247 Y22.5109
G01 X25.6172 Y22.5378
G01 X25.5075 Y22.5541
G01 X25.3968 Y22.5595
G01 X25.2861 Y22.5541
G01 X25.1764 Y22.5378
G01 X25.0689 Y22.5109
G01 X24.9646 Y22.4735
G01 X24.8644 Y22.4261
G01 X24.7693 Y22.3691
G01 X24.6803 Y22.3031
G01 X24.5981 Y22.2287
G01 X24.5237 Y22.1465
G01 X24.4577 Y22.0575
G01 X24.4007 Y21.9624
G01 X24.3533 Y21.8622
G01 X24.3159 Y21.7579
G01 X24.2890 Y21.6504
G01 X24.2727 Y21.5407
G01 X24.2673 Y21.4300
G01 X24.2727 Y21.3193
G01 X24.2890 Y21.2096
G01 X24.3159 Y21.1021
G01 X24.3533 Y20.9978
G01 X24.4007 Y20.8976
G01 X24.4577 Y20.8025
G01 X24.5237 Y20.7135
G01 X24.5844 Y20.6464
G00 Z2.0000
G00 X24.5244 Y20.6232
G01 F60.00
G01 Z-0.0000
G01 F120.00
G01 X24.5244 Y15.6014
G01 X24.4660 Y15.5429
G01 X24.4382 Y15.5496
G01 X24.2846 Y15.5722
G01 X24.1322 Y15.5799
G01 X24.1214 Y15.5799
G01 X23.9690 Y15.5722
G01 X23.8180 Y15.5500
G01 X23.8074 Y15.5479
G01 X23.6620 Y15.5114
G01 X23.6543 Y15.5090
G01 X23.5107 Y15.4574
G01 X23.3679 Y15.3899
G01 X23.2323 Y15.3087
G01 X23.1054 Y15.2145
G01 X22.9884 Y15.1084
G01 X22.8823 Y14.9914
G01 X22.7881 Y14.8645
G01 X22.7096 Y14.7336
G01 X22.7045 Y14.7241
G01 X22.6394 Y14.5861
G01 X22.5878 Y14.4425
G01 X22.5847 Y14.4322
G01 X22.5489 Y14.2894
G01 X22.5468 Y14.2788
G01 X22.5246 Y14.1278
G01 X22.5168 Y13.9727
G01 X22.5169 Y13.9646
G01 X22.5246 Y13.8122
G01 X22.5468 Y13.6612
G01 X22.5489 Y13.6506
G01 X22.5861 Y13.5026
G01 X22.6374 Y13.3589
G01 X22.6415 Y13.3489
G01 X22.7069 Y13.2111
G01 X22.7852 Y13.0801
G01 X22.7912 Y13.0711
G01 X22.8823 Y12.9486
G01 X22.9846 Y12.8355
G01 X22.9923 Y12.8278
G01 X23.1054 Y12.7255
G01 X23.2301 Y12.6329
G01 X23.2544 Y12.6179
G01 X23.2544 Y11.5121
G01 X23.2346 Y11.5001
G01 X23.2279 Y11.4956
G01 X23.1097 Y11.4079
G01 X23.1013 Y11.4010
G01 X22.9884 Y11.2984
G01 X22.8823 Y11.1814
G01 X22.7881 Y11.0545
G01 X22.7096 Y10.9236
G01 X22.7045 Y10.9141
G01 X22.6415 Y10.7811
G01 X22.6374 Y10.7711
G01 X22.5861 Y10.6274
G01 X22.5477 Y10.4741
G01 X22.5246 Y10.3178
G01 X22.5169 Y10.1654
G01 X22.5169 Y10.1546
G01 X22.5242 Y10.0076
G01 X22.5252 Y9.9968
G01 X22.5477 Y9.8459
G01 X22.5861 Y9.6926
G01 X22.6394 Y9.5439
G01 X22.7045 Y9.4059
G01 X22.7096 Y9.3964
G01 X22.7881 Y9.2655
G01 X22.8823 Y9.1386
G01 X22.9846 Y9.0255
G01 X22.9923 Y9.0178
G01 X23.1013 Y8.9190
G01 X23.1097 Y8.9121
G01 X23.2323 Y8.8213
G01 X23.3679 Y8.7401
G01 X23.5107 Y8.6726
G01 X23.6543 Y8.6210
G01 X23.6646 Y8.6179
G01 X23.8074 Y8.5821
G01 X23.8180 Y8.5800
G01 X23.9690 Y8.5578
G01 X24.1241 Y8.5500
G01 X24.1322 Y8.5501
G01 X24.2846 Y8.5578
G01 X24.4356 Y8.5800
G01 X24.4462 Y8.5821
G01 X24.5890 Y8.6179
G01 X24.5993 Y8.6210
G01 X24.7429 Y8.6726
G01 X24.8857 Y8.7401
G01 X25.0213 Y8.8213
G01 X25.1482 Y8.9155
G01 X25.2652 Y9.0216
G01 X25.3713 Y9.1386
G01 X25.4655 Y9.2655
G01 X25.5440 Y9.3964
G01 X25.5491 Y9.4059
G01 X25.6142 Y9.5439
G01 X25.6658 Y9.6875
G01 X25.6689 Y9.6978
G01 X25.7047 Y9.8406
G01 X25.7068 Y9.8512
G01 X25.7290 Y10.0022
G01 X25.7367 Y10.1546
G01 X25.7367 Y10.1654
G01 X25.7290 Y10.3178
G01 X25.7059 Y10.4741
G01 X25.6689 Y10.6222
G01 X25.6658 Y10.6325
G01 X25.6142 Y10.7761
G01 X25.5491 Y10.9141
G01 X25.5440 Y10.9236
G01 X25.4655 Y11.0545
G01 X25.3713 Y11.1814
G01 X25.2652 Y11.2984
G01 X25.1523 Y11.4010
G01 X25.1439 Y11.4079
G01 X25.0257 Y11.4956
G01 X25.0190 Y11.5001
G01 X24.9992 Y11.5121
G01 X24.9992 Y12.6179
G01 X25.0235 Y12.6329
G01 X25.1482 Y12.7255
G01 X25.2613 Y12.8278
G01 X25.2690 Y12.8355
G01 X25.3713 Y12.9486
G01 X25.4624 Y13.0711
G01 X25.4684 Y13.0801
G01 X25.5440 Y13.2064
G01 X25.5479 Y13.2134
G01 X25.6142 Y13.3539
G01 X25.6675 Y13.5026
G01 X25.7059 Y13.6559
G01 X25.7284 Y13.8068
G01 X25.7294 Y13.8176
G01 X25.7368 Y13.9700
G01 X25.7294 Y14.1224
G01 X25.7284 Y14.1332
G01 X25.7068 Y14.2788
G01 X25.7053 Y14.2867
G01 X25.6997 Y14.3092
G01 X26.0156 Y14.6251
G01 X26.0712 Y14.6866
G01 X26.1222 Y14.7553
G01 X26.1662 Y14.8288
G01 X26.2006 Y14.9012
G01 X26.2047 Y14.9112
G01 X26.2316 Y14.9868
G01 X26.2512 Y15.0645
G01 X26.2533 Y15.0751
G01 X26.2647 Y15.1518
G01 X26.2654 Y15.1599
G01 X26.2692 Y15.2400
G01 X26.2692 Y20.6232
G01 X26.3128 Y20.6713
G01 X26.3180 Y20.6775
G01 X26.3827 Y20.7647
G01 X26.3873 Y20.7714
G01 X26.4458 Y20.8693
G01 X26.4936 Y20.9699
G01 X26.4968 Y20.9773
G01 X26.5351 Y21.0847
G01 X26.5634 Y21.1979
G01 X26.5806 Y21.3134
G01 X26.5863 Y21.4300
G01 X26.5806 Y21.5466
G01 X26.5634 Y21.6621
G01 X26.5351 Y21.7753
G01 X26.4958 Y21.8852
G01 X26.4458 Y21.9907
G01 X26.3858 Y22.0909
G01 X26.3163 Y22.1846
G01 X26.2398 Y22.2692
G01 X26.2340 Y22.2748
G01 X26.1514 Y22.3495
G01 X26.0577 Y22.4190
G01 X25.9575 Y22.4790
G01 X25.8520 Y22.5290
G01 X25.7421 Y22.5683
G01 X25.6289 Y22.5966
G01 X25.5134 Y22.6138
G01 X25.3968 Y22.6195
G01 X25.2802 Y22.6138
G01 X25.1647 Y22.5966
G01 X25.0515 Y22.5683
G01 X24.9416 Y22.5290
G01 X24.8361 Y22.4790
G01 X24.7359 Y22.4190
G01 X24.6422 Y22.3495
G01 X24.5576 Y22.2730
G01 X24.5520 Y22.2672
G01 X24.4773 Y22.1846
G01 X24.4078 Y22.0909
G01 X24.3478 Y21.9907
G01 X24.2978 Y21.8852
G01 X24.2585 Y21.7753
G01 X24.2302 Y21.6621
G01 X24.2130 Y21.5466
G01 X24.2073 Y21.4327
G01 X24.2074 Y21.4246
G01 X24.2130 Y21.3134
G01 X24.2302 Y21.1979
G01 X24.2585 Y21.0847
G01 X24.2968 Y20.9773
G01 X24.3000 Y20.9699
G01 X24.3478 Y20.8693
G01 X24.4063 Y20.7714
G01 X24.4109 Y20.7647
G01 X24.4756 Y20.6775
G01 X24.4808 Y20.6713
G01 X24.5244 Y20.6232
G00 Z2.0000
G00 X22.0444 Y20.6464
G01 F60.00
G01 Z-0.0000
G01 F120.00
G01 X22.0444 Y18.1165
G01 X19.4044 Y15.4765
G01 X19.3480 Y15.4904
G01 X19.1999 Y15.5124
G01 X19.0456 Y15.5200
G01 X18.8924 Y15.5122
G01 X18.7444 Y15.4902
G01 X18.5980 Y15.4536
G01 X18.4536 Y15.4020
G01 X18.3140 Y15.3358
G01 X18.1857 Y15.2588
G01 X18.0654 Y15.1697
G01 X17.9508 Y15.0660
G01 X17.8471 Y14.9514
G01 X17.7580 Y14.8311
G01 X17.6810 Y14.7028
G01 X17.6148 Y14.5632
G01 X17.5632 Y14.4188
G01 X17.5266 Y14.2724
G01 X17.5046 Y14.1244
G01 X17.4968 Y13.9712
G01 X17.5044 Y13.8169
G01 X17.5264 Y13.6688
G01 X17.5403 Y13.6124
G01 X15.6354 Y11.7074
G01 X15.5818 Y11.6484
G01 X15.5357 Y11.5863
G01 X15.4922 Y11.5138
G01 X15.4584 Y11.4416
G01 X15.4324 Y11.3688
G01 X15.4136 Y11.2939
G01 X15.4013 Y11.2126
G01 X15.3974 Y11.1342
G01 X15.3974 Y7.6380
G01 X15.4012 Y7.5608
G01 X15.4019 Y7.5539
G01 X15.4130 Y7.4795
G01 X15.4324 Y7.4022
G01 X15.4603 Y7.3249
G01 X15.4933 Y7.2550
G01 X15.5343 Y7.1867
G01 X15.5818 Y7.1226
G01 X15.6354 Y7.0636
G01 X17.1414 Y5.5576
G01 X17.1986 Y5.5056
G01 X17.2665 Y5.4552
G01 X17.3328 Y5.4155
G01 X17.4049 Y5.3815
G01 X17.4823 Y5.3539
G01 X17.5573 Y5.3352
G01 X17.6362 Y5.3235
G01 X17.7158 Y5.3196
G01 X31.9478 Y5.3196
G01 X32.0299 Y5.3238
G01 X32.1063 Y5.3352
G01 X32.1836 Y5.3546
G01 X32.2609 Y5.3825
G01 X32.3308 Y5.4155
G01 X32.3971 Y5.4552
G01 X32.4632 Y5.5040
G01 X32.5222 Y5.5576
G01 X43.6162 Y16.6516
G01 X43.6698 Y16.7106
G01 X43.7173 Y16.7747
G01 X43.7583 Y16.8430
G01 X43.7919 Y16.9140
G01 X43.8192 Y16.9902
G01 X43.8383 Y17.0663
G01 X43.8501 Y17.1452
G01 X43.8516 Y17.1726
G01 X50.8450 Y17.1726
G01 X50.9234 Y17.1765
G01 X51.0023 Y17.1882
G01 X51.0796 Y17.2076
G01 X51.1547 Y17.2345
G01 X51.2268 Y17.2685
G01 X51.2951 Y17.3095
G01 X51.3592 Y17.3570
G01 X51.4174 Y17.4097
G01 X60.2612 Y26.2536
G01 X60.3148 Y26.3126
G01 X60.3629 Y26.3777
G01 X60.4033 Y26.4450
G01 X60.4363 Y26.5149
G01 X60.4642 Y26.5922
G01 X60.4840 Y26.6719
G01 X60.4953 Y26.7484
G01 X60.4992 Y26.8268
G01 X60.4992 Y31.0316
G01 X60.5468 Y31.0842
G01 X60.6111 Y31.1709
G01 X60.6685 Y31.2667
G01 X60.7155 Y31.3666
G01 X60.7514 Y31.4671
G01 X60.7777 Y31.5718
G01 X60.7939 Y31.6810
G01 X60.7992 Y31.7925
G01 X60.7939 Y31.8990
G01 X60.7783 Y32.0046
G01 X60.7514 Y32.1129
G01 X60.7136 Y32.2180
G01 X60.6679 Y32.3144
G01 X60.6118 Y32.4081
G01 X60.5452 Y32.4976
G01 X60.4735 Y32.5767
G01 X60.3944 Y32.6484
G01 X60.3049 Y32.7150
G01 X60.2090 Y32.7722
G01 X60.1125 Y32.8178
G01 X60.0121 Y32.8538
G01 X59.9038 Y32.8811
G01 X59.7934 Y32.8973
G01 X59.6868 Y32.9025
G01 X59.5778 Y32.8971
G01 X59.4674 Y32.8806
G01 X59.3639 Y32.8546
G01 X59.2634 Y32.8187
G01 X59.1624 Y32.7711
G01 X59.0667 Y32.7136
G01 X58.9810 Y32.6500
G01 X58.9019 Y32.5783
G01 X58.8261 Y32.4948
G01 X58.7618 Y32.4081
G01 X58.7057 Y32.3144
G01 X58.6590 Y32.2157
G01 X58.6230 Y32.1153
G01 X58.5953 Y32.0046
G01 X58.5797 Y31.8990
G01 X58.5743 Y31.7900
G01 X58.5797 Y31.6810
G01 X58.5957 Y31.5730
G01 X58.6222 Y31.4671
G01 X58.6585 Y31.3654
G01 X58.7057 Y31.2656
G01 X58.7611 Y31.1730
G01 X58.8268 Y31.0842
G01 X58.8744 Y31.0316
G01 X58.8744 Y27.1645
G01 X50.5073 Y18.7974
G01 X43.8542 Y18.7974
G01 X43.8542 Y20.7046
G01 X43.9018 Y20.7572
G01 X43.9661 Y20.8439
G01 X44.0235 Y20.9397
G01 X44.0696 Y21.0373
G01 X44.1056 Y21.1377
G01 X44.1331 Y21.2472
G01 X44.1489 Y21.3540
G01 X44.1542 Y21.4605
G01 X44.1489 Y21.5720
G01 X44.1329 Y21.6800
G01 X44.1071 Y21.7836
G01 X44.0691 Y21.8899
G01 X44.0217 Y21.9896
G01 X43.9668 Y22.0811
G01 X43.9033 Y22.1668
G01 X43.8285 Y22.2497
G01 X43.7476 Y22.3230
G01 X43.6599 Y22.3880
G01 X43.5640 Y22.4452
G01 X43.4652 Y22.4917
G01 X43.3647 Y22.5276
G01 X43.2612 Y22.5536
G01 X43.1508 Y22.5701
G01 X43.0418 Y22.5755
G01 X42.9328 Y22.5701
G01 X42.8224 Y22.5536
G01 X42.7165 Y22.5268
G01 X42.6161 Y22.4908
G01 X42.5196 Y22.4452
G01 X42.4237 Y22.3880
G01 X42.3351 Y22.3222
G01 X42.2551 Y22.2497
G01 X42.1803 Y22.1668
G01 X42.1168 Y22.0811
G01 X42.0619 Y21.9896
G01 X42.0150 Y21.8910
G01 X41.9772 Y21.7859
G01 X41.9507 Y21.6800
G01 X41.9347 Y21.5720
G01 X41.9293 Y21.4642
G01 X41.9347 Y21.3540
G01 X41.9507 Y21.2460
G01 X41.9772 Y21.1401
G01 X42.0135 Y21.0384
G01 X42.0607 Y20.9386
G01 X42.1161 Y20.8460
G01 X42.1818 Y20.7572
G01 X42.2294 Y20.7046
G01 X42.2294 Y17.5625
G01 X31.6113 Y6.9444
G01 X18.0523 Y6.9444
G01 X17.0222 Y7.9745
G01 X17.0222 Y10.7965
G01 X18.6892 Y12.4635
G01 X18.7456 Y12.4496
G01 X18.8937 Y12.4276
G01 X19.0480 Y12.4200
G01 X19.2012 Y12.4278
G01 X19.3492 Y12.4498
G01 X19.4956 Y12.4864
G01 X19.6400 Y12.5380
G01 X19.7796 Y12.6042
G01 X19.9079 Y12.6812
G01 X20.0282 Y12.7703
G01 X20.1428 Y12.8740
G01 X20.2465 Y12.9886
G01 X20.3356 Y13.1089
G01 X20.4126 Y13.2372
G01 X20.4788 Y13.3768
G01 X20.5304 Y13.5212
G01 X20.5670 Y13.6676
G01 X20.5890 Y13.8156
G01 X20.5968 Y13.9688
G01 X20.5892 Y14.1231
G01 X20.5672 Y14.2712
G01 X20.5533 Y14.3276
G01 X23.4321 Y17.2064
G01 X23.4848 Y17.2646
G01 X23.5323 Y17.3287
G01 X23.5733 Y17.3970
G01 X23.6078 Y17.4703
G01 X23.6342 Y17.5442
G01 X23.6536 Y17.6215
G01 X23.6653 Y17.7004
G01 X23.6692 Y17.7788
G01 X23.6692 Y20.6464
G01 X23.7299 Y20.7135
G01 X23.7959 Y20.8025
G01 X23.8529 Y20.8976
G01 X23.9003 Y20.9978
G01 X23.9377 Y21.1021
G01 X23.9646 Y21.2096
G01 X23.9809 Y21.3193
G01 X23.9863 Y21.4300
G01 X23.9809 Y21.5407
G01 X23.9646 Y21.6504
G01 X23.9377 Y21.7579
G01 X23.9003 Y21.8622
G01 X23.8529 Y21.9624
G01 X23.7959 Y22.0575
G01 X23.7299 Y22.1465
G01 X23.6555 Y22.2287
G01 X23.5733 Y22.3031
G01 X23.4843 Y22.3691
G01 X23.3892 Y22.4261
G01 X23.2890 Y22.4735
G01 X23.1847 Y22.5109
G01 X23.0772 Y22.5378
G01 X22.9675 Y22.5541
G01 X22.8568 Y22.5595
G01 X22.7461 Y22.5541
G01 X22.6364 Y22.5378
G01 X22.5289 Y22.5109
G01 X22.4246 Y22.4735
G01 X22.3244 Y22.4261
G01 X22.2293 Y22.3691
G01 X22.1403 Y22.3031
G01 X22.0581 Y22.2287
G01 X21.9837 Y22.1465
G01 X21.9177 Y22.0575
G01 X21.8607 Y21.9624
G01 X21.8133 Y21.8622
G01 X21.7759 Y21.7579
G01 X21.7490 Y21.6504
G01 X21.7327 Y21.5407
G01 X21.7273 Y21.4300
G01 X21.7327 Y21.3193
G01 X21.7490 Y21.2096
G01 X21.7759 Y21.1021
G01 X21.8133 Y20.9978
G01 X21.8607 Y20.8976
G01 X21.9177 Y20.8025
G01 X21.9837 Y20.7135
G01 X22.0444 Y20.6464
G00 Z2.0000
G00 X19.5044 Y22.2136
G01 F60.00
G01 Z-0.0000
G01 F120.00
G01 X19.4437 Y22.1465
G01 X19.3777 Y22.0575
G01 X19.3207 Y21.9624
G01 X19.2743 Y21.8645
G01 X19.2353 Y21.7555
G01 X19.2090 Y21.6504
G01 X19.1927 Y21.5407
G01 X19.1873 Y21.4300
G01 X19.1926 Y21.3217
G01 X19.2095 Y21.2073
G01 X19.2359 Y21.1021
G01 X19.2733 Y20.9978
G01 X19.3207 Y20.8976
G01 X19.3763 Y20.8046
G01 X19.4453 Y20.7116
G01 X19.5181 Y20.6313
G01 X19.6003 Y20.5569
G01 X19.6893 Y20.4909
G01 X19.7822 Y20.4351
G01 X19.8868 Y20.3856
G01 X19.9889 Y20.3491
G01 X20.0964 Y20.3222
G01 X20.2061 Y20.3059
G01 X20.3143 Y20.3006
G01 X20.4299 Y20.3062
G01 X20.5372 Y20.3222
G01 X20.6447 Y20.3491
G01 X20.7513 Y20.3875
G01 X20.8492 Y20.4339
G01 X20.9422 Y20.4895
G01 X21.0333 Y20.5569
G01 X21.1155 Y20.6313
G01 X21.1914 Y20.7154
G01 X21.2559 Y20.8025
G01 X21.3117 Y20.8954
G01 X21.3603 Y20.9978
G01 X21.3983 Y21.1045
G01 X21.4250 Y21.2121
G01 X21.4409 Y21.3193
G01 X21.4462 Y21.4275
G01 X21.4409 Y21.5407
G01 X21.4241 Y21.6527
G01 X21.3977 Y21.7579
G01 X21.3612 Y21.8600
G01 X21.3129 Y21.9624
G01 X21.2553 Y22.0585
G01 X21.1899 Y22.1465
G01 X21.1292 Y22.2136
G01 X21.1292 Y22.2205
G01 X24.0283 Y25.1196
G01 X29.0630 Y25.1196
G01 X29.1414 Y25.1235
G01 X29.2179 Y25.1348
G01 X29.3000 Y25.1554
G01 X29.3727 Y25.1815
G01 X29.4448 Y25.2155
G01 X29.5131 Y25.2565
G01 X29.5762 Y25.3033
G01 X29.6362 Y25.3576
G01 X33.7711 Y29.4924
G01 X33.8238 Y29.5506
G01 X33.8713 Y29.6147
G01 X33.9123 Y29.6830
G01 X33.9459 Y29.7540
G01 X33.9732 Y29.8302
G01 X33.9923 Y29.9063
G01 X34.0041 Y29.9852
G01 X34.0053 Y30.0056
G01 X46.3032 Y42.3035
G01 X46.3687 Y42.2550
G01 X46.4624 Y42.1989
G01 X46.5611 Y42.1522
G01 X46.6639 Y42.1154
G01 X46.7698 Y42.0889
G01 X46.8778 Y42.0729
G01 X46.9868 Y42.0675
G01 X47.0934 Y42.0727
G01 X47.2062 Y42.0894
G01 X47.3097 Y42.1154
G01 X47.4148 Y42.1532
G01 X47.5112 Y42.1989
G01 X47.6049 Y42.2550
G01 X47.6926 Y42.3200
G01 X47.7735 Y42.3933
G01 X47.8468 Y42.4742
G01 X47.9118 Y42.5619
G01 X47.9679 Y42.6556
G01 X48.0136 Y42.7520
G01 X48.0514 Y42.8571
G01 X48.0774 Y42.9606
G01 X48.0941 Y43.0734
G01 X48.0993 Y43.1800
G01 X48.0939 Y43.2890
G01 X48.0779 Y43.3970
G01 X48.0514 Y43.5029
G01 X48.0146 Y43.6057
G01 X47.9679 Y43.7044
G01 X47.9118 Y43.7981
G01 X47.8475 Y43.8848
G01 X47.7735 Y43.9667
G01 X47.6906 Y44.0415
G01 X47.6049 Y44.1050
G01 X47.5134 Y44.1599
G01 X47.4148 Y44.2068
G01 X47.3097 Y44.2446
G01 X47.2038 Y44.2711
G01 X47.0958 Y44.2871
G01 X46.9856 Y44.2925
G01 X46.8778 Y44.2871
G01 X46.7722 Y44.2715
G01 X46.6627 Y44.2442
G01 X46.5611 Y44.2078
G01 X46.4613 Y44.1605
G01 X46.3677 Y44.1043
G01 X46.2810 Y44.0400
G01 X46.2284 Y43.9924
G01 X46.0296 Y43.9924
G01 X45.9524 Y43.9886
G01 X45.8723 Y43.9768
G01 X45.7973 Y43.9581
G01 X45.7199 Y43.9305
G01 X45.6478 Y43.8965
G01 X45.5795 Y43.8555
G01 X45.5136 Y43.8064
G01 X45.4564 Y43.7544
G01 X32.6214 Y30.9194
G01 X32.5678 Y30.8604
G01 X32.5203 Y30.7963
G01 X32.4793 Y30.7280
G01 X32.4457 Y30.6570
G01 X32.4184 Y30.5808
G01 X32.3993 Y30.5047
G01 X32.3875 Y30.4258
G01 X32.3863 Y30.4054
G01 X28.7253 Y26.7444
G01 X23.6906 Y26.7444
G01 X23.6122 Y26.7405
G01 X23.5309 Y26.7282
G01 X23.4560 Y26.7094
G01 X23.3832 Y26.6834
G01 X23.3099 Y26.6490
G01 X23.2385 Y26.6061
G01 X23.1764 Y26.5600
G01 X23.1174 Y26.5064
G01 X19.7424 Y23.1314
G01 X19.6896 Y23.0733
G01 X19.6413 Y23.0083
G01 X19.5992 Y22.9378
G01 X19.5663 Y22.8679
G01 X19.5402 Y22.7952
G01 X19.5203 Y22.7167
G01 X19.5083 Y22.6366
G01 X19.5044 Y22.5582
G01 X19.5044 Y22.2136
G00 Z2.0000
G00 X22.0444 Y30.1536
G01 F60.00
G01 Z-0.0000
G01 F120.00
G01 X21.9837 Y30.0865
G01 X21.9177 Y29.9975
G01 X21.8607 Y29.9024
G01 X21.8133 Y29.8022
G01 X21.7759 Y29.6979
G01 X21.7490 Y29.5904
G01 X21.7327 Y29.4807
G01 X21.7273 Y29.3700
G01 X21.7327 Y29.2593
G01 X21.7490 Y29.1496
G01 X21.7759 Y29.0421
G01 X21.8133 Y28.9378
G01 X21.8607 Y28.8376
G01 X21.9177 Y28.7425
G01 X21.9837 Y28.6535
G01 X22.0581 Y28.5713
G01 X22.1403 Y28.4969
G01 X22.2293 Y28.4309
G01 X22.3244 Y28.3739
G01 X22.4246 Y28.3265
G01 X22.5289 Y28.2891
G01 X22.6364 Y28.2622
G01 X22.7461 Y28.2459
G01 X22.8568 Y28.2405
G01 X22.9675 Y28.2459
G01 X23.0772 Y28.2622
G01 X23.1847 Y28.2891
G01 X23.2890 Y28.3265
G01 X23.3892 Y28.3739
G01 X23.4843 Y28.4309
G01 X23.5733 Y28.4969
G01 X23.6555 Y28.5713
G01 X23.7299 Y28.6535
G01 X23.7959 Y28.7425
G01 X23.8529 Y28.8376
G01 X23.9003 Y28.9378
G01 X23.9377 Y29.0421
G01 X23.9646 Y29.1496
G01 X23.9809 Y29.2593
G01 X23.9863 Y29.3700
G01 X23.9809 Y29.4807
G01 X23.9646 Y29.5904
G01 X23.9377 Y29.6979
G01 X23.9003 Y29.8022
G01 X23.8529 Y29.9024
G01 X23.7959 Y29.9975
G01 X23.7299 Y30.0865
G01 X23.6692 Y30.1536
G01 X23.6692 Y37.7635
G01 X23.7692 Y37.8635
G01 X23.8256 Y37.8496
G01 X23.9737 Y37.8276
G01 X24.1256 Y37.8200
G01 X24.2787 Y37.8275
G01 X24.4316 Y37.8503
G01 X24.5767 Y37.8867
G01 X24.7200 Y37.9380
G01 X24.8575 Y38.0030
G01 X24.9899 Y38.0826
G01 X25.1101 Y38.1718
G01 X25.2245 Y38.2758
G01 X25.3250 Y38.3867
G01 X25.4142 Y38.5069
G01 X25.4926 Y38.6372
G01 X25.5588 Y38.7768
G01 X25.6101 Y38.9201
G01 X25.6470 Y39.0676
G01 X25.6694 Y39.2193
G01 X25.6768 Y39.3700
G01 X25.6693 Y39.5219
G01 X25.6470 Y39.6724
G01 X25.6101 Y39.8199
G01 X25.5588 Y39.9632
G01 X25.4938 Y40.1007
G01 X25.4156 Y40.2311
G01 X25.3265 Y40.3514
G01 X25.2210 Y40.4677
G01 X25.1101 Y40.5682
G01 X24.9859 Y40.6601
G01 X24.8575 Y40.7370
G01 X24.7200 Y40.8020
G01 X24.5767 Y40.8533
G01 X24.4304 Y40.8900
G01 X24.2763 Y40.9127
G01 X24.1268 Y40.9200
G01 X23.9773 Y40.9127
G01 X23.8244 Y40.8902
G01 X23.6745 Y40.8525
G01 X23.5336 Y40.8020
G01 X23.3983 Y40.7381
G01 X23.2657 Y40.6588
G01 X23.1416 Y40.5666
G01 X23.0308 Y40.4660
G01 X22.9302 Y40.3552
G01 X22.8380 Y40.2311
G01 X22.7587 Y40.0985
G01 X22.6948 Y39.9632
G01 X22.6443 Y39.8223
G01 X22.6068 Y39.6736
G01 X22.5843 Y39.5219
G01 X22.5768 Y39.3688
G01 X22.5844 Y39.2169
G01 X22.6064 Y39.0688
G01 X22.6203 Y39.0124
G01 X22.2824 Y38.6744
G01 X22.2273 Y38.6134
G01 X22.1813 Y38.5513
G01 X22.1416 Y38.4851
G01 X22.1073 Y38.4131
G01 X22.0794 Y38.3358
G01 X22.0603 Y38.2597
G01 X22.0483 Y38.1796
G01 X22.0444 Y38.1000
G01 X22.0444 Y30.1536
G00 Z2.0000
G00 X21.9844 Y30.1768
G01 F60.00
G01 Z-0.0000
G01 F120.00
G01 X21.9408 Y30.1287
G01 X21.9356 Y30.1225
G01 X21.8709 Y30.0353
G01 X21.8663 Y30.0286
G01 X21.8078 Y29.9307
G01 X21.7600 Y29.8301
G01 X21.7568 Y29.8227
G01 X21.7185 Y29.7153
G01 X21.6902 Y29.6021
G01 X21.6730 Y29.4866
G01 X21.6674 Y29.3754
G01 X21.6673 Y29.3673
G01 X21.6730 Y29.2534
G01 X21.6902 Y29.1379
G01 X21.7185 Y29.0247
G01 X21.7578 Y28.9148
G01 X21.8078 Y28.8093
G01 X21.8678 Y28.7091
G01 X21.9373 Y28.6154
G01 X22.0120 Y28.5328
G01 X22.0176 Y28.5270
G01 X22.1022 Y28.4505
G01 X22.1959 Y28.3810
G01 X22.2961 Y28.3210
G01 X22.4016 Y28.2710
G01 X22.5115 Y28.2317
G01 X22.6247 Y28.2034
G01 X22.7402 Y28.1862
G01 X22.8568 Y28.1805
G01 X22.9734 Y28.1862
G01 X23.0889 Y28.2034
G01 X23.2021 Y28.2317
G01 X23.3120 Y28.2710
G01 X23.4175 Y28.3210
G01 X23.5177 Y28.3810
G01 X23.6114 Y28.4505
G01 X23.6940 Y28.5252
G01 X23.6998 Y28.5308
G01 X23.7763 Y28.6154
G01 X23.8458 Y28.7091
G01 X23.9058 Y28.8093
G01 X23.9558 Y28.9148
G01 X23.9951 Y29.0247
G01 X24.0234 Y29.1379
G01 X24.0406 Y29.2534
G01 X24.0463 Y29.3700
G01 X24.0406 Y29.4866
G01 X24.0234 Y29.6021
G01 X23.9951 Y29.7153
G01 X23.9568 Y29.8227
G01 X23.9536 Y29.8301
G01 X23.9058 Y29.9307
G01 X23.8473 Y30.0286
G01 X23.8427 Y30.0353
G01 X23.7780 Y30.1225
G01 X23.7728 Y30.1287
G01 X23.7292 Y30.1768
G01 X23.7292 Y37.7386
G01 X23.7876 Y37.7971
G01 X23.8154 Y37.7904
G01 X23.9690 Y37.7678
G01 X24.1268 Y37.7600
G01 X24.2846 Y37.7678
G01 X24.4356 Y37.7900
G01 X24.4435 Y37.7915
G01 X24.5942 Y37.8293
G01 X24.7429 Y37.8826
G01 X24.8857 Y37.9501
G01 X25.0167 Y38.0284
G01 X25.0257 Y38.0344
G01 X25.1482 Y38.1255
G01 X25.2613 Y38.2278
G01 X25.2690 Y38.2355
G01 X25.3713 Y38.3486
G01 X25.4624 Y38.4711
G01 X25.4684 Y38.4801
G01 X25.5440 Y38.6064
G01 X25.5491 Y38.6159
G01 X25.6142 Y38.7539
G01 X25.6675 Y38.9026
G01 X25.7059 Y39.0559
G01 X25.7284 Y39.2068
G01 X25.7294 Y39.2176
G01 X25.7368 Y39.3700
G01 X25.7290 Y39.5278
G01 X25.7059 Y39.6841
G01 X25.6675 Y39.8374
G01 X25.6142 Y39.9861
G01 X25.5467 Y40.1289
G01 X25.4655 Y40.2645
G01 X25.3747 Y40.3871
G01 X25.3678 Y40.3955
G01 X25.2690 Y40.5045
G01 X25.2613 Y40.5122
G01 X25.1482 Y40.6145
G01 X25.0257 Y40.7056
G01 X25.0167 Y40.7116
G01 X24.8857 Y40.7899
G01 X24.7429 Y40.8574
G01 X24.5942 Y40.9107
G01 X24.4435 Y40.9485
G01 X24.4356 Y40.9500
G01 X24.2846 Y40.9722
G01 X24.1322 Y40.9799
G01 X24.1214 Y40.9799
G01 X23.9690 Y40.9722
G01 X23.8180 Y40.9500
G01 X23.8074 Y40.9479
G01 X23.6594 Y40.9107
G01 X23.5157 Y40.8594
G01 X23.5057 Y40.8553
G01 X23.3679 Y40.7899
G01 X23.2369 Y40.7116
G01 X23.2279 Y40.7056
G01 X23.1054 Y40.6145
G01 X22.9923 Y40.5122
G01 X22.9846 Y40.5045
G01 X22.8823 Y40.3914
G01 X22.7912 Y40.2689
G01 X22.7852 Y40.2599
G01 X22.7096 Y40.1336
G01 X22.7045 Y40.1241
G01 X22.6394 Y39.9861
G01 X22.5861 Y39.8374
G01 X22.5489 Y39.6894
G01 X22.5468 Y39.6788
G01 X22.5246 Y39.5278
G01 X22.5169 Y39.3754
G01 X22.5169 Y39.3646
G01 X22.5246 Y39.2122
G01 X22.5472 Y39.0586
G01 X22.5539 Y39.0308
G01 X22.2380 Y38.7149
G01 X22.1824 Y38.6534
G01 X22.1346 Y38.5891
G01 X22.1286 Y38.5801
G01 X22.0874 Y38.5112
G01 X22.0508 Y38.4338
G01 X22.0220 Y38.3532
G01 X22.0017 Y38.2728
G01 X22.0003 Y38.2649
G01 X21.9886 Y38.1855
G01 X21.9844 Y38.1000
G01 X21.9844 Y30.1768
G00 Z2.0000
G00 X21.9244 Y30.1999
G01 F60.00
G01 Z-0.0000
G01 F120.00
G01 X21.8964 Y30.1690
G01 X21.8883 Y30.1594
G01 X21.8202 Y30.0676
G01 X21.8134 Y30.0571
G01 X21.7569 Y29.9627
G01 X21.7511 Y29.9516
G01 X21.7024 Y29.8482
G01 X21.6624 Y29.7367
G01 X21.6589 Y29.7247
G01 X21.6313 Y29.6138
G01 X21.6133 Y29.4925
G01 X21.6073 Y29.3700
G01 X21.6130 Y29.2517
G01 X21.6143 Y29.2392
G01 X21.6313 Y29.1262
G01 X21.6611 Y29.0073
G01 X21.7024 Y28.8918
G01 X21.7548 Y28.7810
G01 X21.8179 Y28.6758
G01 X21.8909 Y28.5773
G01 X21.9733 Y28.4865
G01 X22.0609 Y28.4068
G01 X22.0707 Y28.3990
G01 X22.1626 Y28.3311
G01 X22.2678 Y28.2680
G01 X22.3786 Y28.2156
G01 X22.4941 Y28.1743
G01 X22.6130 Y28.1445
G01 X22.7343 Y28.1265
G01 X22.8568 Y28.1205
G01 X22.9793 Y28.1265
G01 X23.1006 Y28.1445
G01 X23.2195 Y28.1743
G01 X23.3350 Y28.2156
G01 X23.4458 Y28.2680
G01 X23.5510 Y28.3311
G01 X23.6495 Y28.4041
G01 X23.7403 Y28.4865
G01 X23.8200 Y28.5741
G01 X23.8278 Y28.5839
G01 X23.8957 Y28.6758
G01 X23.9546 Y28.7737
G01 X23.9625 Y28.7884
G01 X24.0078 Y28.8842
G01 X24.0142 Y28.8996
G01 X24.0525 Y29.0073
G01 X24.0823 Y29.1262
G01 X24.1003 Y29.2475
G01 X24.1063 Y29.3700
G01 X24.1003 Y29.4925
G01 X24.0823 Y29.6138
G01 X24.0525 Y29.7327
G01 X24.0127 Y29.8443
G01 X24.0078 Y29.8558
G01 X23.9588 Y29.9590
G01 X23.8980 Y30.0607
G01 X23.8909 Y30.0710
G01 X23.8253 Y30.1594
G01 X23.8172 Y30.1690
G01 X23.7901 Y30.1989
G01 X23.7892 Y37.7138
G01 X23.8065 Y37.7311
G01 X23.9631 Y37.7080
G01 X24.1185 Y37.7002
G01 X24.1351 Y37.7002
G01 X24.2863 Y37.7077
G01 X24.2988 Y37.7091
G01 X24.4526 Y37.7321
G01 X24.6035 Y37.7697
G01 X24.6195 Y37.7745
G01 X24.7659 Y37.8271
G01 X24.9140 Y37.8972
G01 X25.0546 Y37.9814
G01 X25.1797 Y38.0739
G01 X25.1926 Y38.0845
G01 X25.3077 Y38.1891
G01 X25.4177 Y38.3106
G01 X25.5154 Y38.4422
G01 X25.5996 Y38.5828
G01 X25.6697 Y38.7309
G01 X25.7249 Y38.8852
G01 X25.7647 Y39.0442
G01 X25.7877 Y39.1980
G01 X25.7894 Y39.2146
G01 X25.7968 Y39.3700
G01 X25.7888 Y39.5337
G01 X25.7647 Y39.6958
G01 X25.7249 Y39.8548
G01 X25.6697 Y40.0091
G01 X25.5996 Y40.1572
G01 X25.5154 Y40.2978
G01 X25.4229 Y40.4229
G01 X25.4123 Y40.4358
G01 X25.3134 Y40.5448
G01 X25.3016 Y40.5566
G01 X25.1862 Y40.6609
G01 X25.0614 Y40.7537
G01 X25.0476 Y40.7630
G01 X24.9140 Y40.8428
G01 X24.7659 Y40.9129
G01 X24.6116 Y40.9681
G01 X24.4567 Y41.0070
G01 X24.4444 Y41.0093
G01 X24.2905 Y41.0320
G01 X24.1351 Y41.0398
G01 X24.1185 Y41.0398
G01 X23.9631 Y41.0320
G01 X23.8092 Y41.0093
G01 X23.7929 Y41.0061
G01 X23.6420 Y40.9681
G01 X23.4955 Y40.9159
G01 X23.4801 Y40.9095
G01 X23.3396 Y40.8428
G01 X23.2060 Y40.7630
G01 X23.1922 Y40.7537
G01 X23.0674 Y40.6609
G01 X22.9520 Y40.5566
G01 X22.9402 Y40.5448
G01 X22.8359 Y40.4294
G01 X22.7431 Y40.3046
G01 X22.7338 Y40.2908
G01 X22.6581 Y40.1645
G01 X22.6502 Y40.1498
G01 X22.5839 Y40.0091
G01 X22.5287 Y39.8548
G01 X22.4889 Y39.6958
G01 X22.4659 Y39.5420
G01 X22.4642 Y39.5254
G01 X22.4568 Y39.3700
G01 X22.4642 Y39.2146
G01 X22.4659 Y39.1980
G01 X22.4879 Y39.0497
G01 X22.1946 Y38.7563
G01 X22.1361 Y38.6915
G01 X22.0839 Y38.6214
G01 X22.0771 Y38.6110
G01 X22.0345 Y38.5395
G01 X21.9954 Y38.4568
G01 X21.9646 Y38.3707
G01 X21.9432 Y38.2860
G01 X21.9409 Y38.2737
G01 X21.9289 Y38.1914
G01 X21.9244 Y38.1000
G01 X21.9244 Y30.1999
G00 Z2.0000
G00 X24.1475 Y29.3783
G01 F60.00
G01 Z-0.0000
G01 F120.00
G01 X24.1475 Y29.3617
G01 X24.1533 Y29.2475
G01 X24.1713 Y29.1262
G01 X24.2011 Y29.0073
G01 X24.2424 Y28.8918
G01 X24.2948 Y28.7810
G01 X24.3579 Y28.6758
G01 X24.4309 Y28.5773
G01 X24.5133 Y28.4865
G01 X24.6041 Y28.4041
G01 X24.7026 Y28.3311
G01 X24.8078 Y28.2680
G01 X24.9186 Y28.2156
G01 X25.0341 Y28.1743
G01 X25.1530 Y28.1445
G01 X25.2743 Y28.1265
G01 X25.3968 Y28.1205
G01 X25.5193 Y28.1265
G01 X25.6406 Y28.1445
G01 X25.7595 Y28.1743
G01 X25.8750 Y28.2156
G01 X25.9858 Y28.2680
G01 X26.0910 Y28.3311
G01 X26.1895 Y28.4041
G01 X26.2803 Y28.4865
G01 X26.3627 Y28.5773
G01 X26.4357 Y28.6758
G01 X26.4988 Y28.7810
G01 X26.5512 Y28.8918
G01 X26.5925 Y29.0073
G01 X26.6223 Y29.1262
G01 X26.6403 Y29.2475
G01 X26.6463 Y29.3700
G01 X26.6403 Y29.4925
G01 X26.6223 Y29.6138
G01 X26.5925 Y29.7327
G01 X26.5512 Y29.8482
G01 X26.4988 Y29.9590
G01 X26.4357 Y30.0642
G01 X26.3627 Y30.1627
G01 X26.2803 Y30.2535
G01 X26.1895 Y30.3359
G01 X26.0910 Y30.4089
G01 X25.9858 Y30.4720
G01 X25.8750 Y30.5244
G01 X25.7595 Y30.5657
G01 X25.6406 Y30.5955
G01 X25.5193 Y30.6135
G01 X25.3968 Y30.6195
G01 X25.2743 Y30.6135
G01 X25.1530 Y30.5955
G01 X25.0341 Y30.5657
G01 X24.9186 Y30.5244
G01 X24.8078 Y30.4720
G01 X24.7026 Y30.4089
G01 X24.6041 Y30.3359
G01 X24.5133 Y30.2535
G01 X24.4309 Y30.1627
G01 X24.3579 Y30.0642
G01 X24.2948 Y29.9590
G01 X24.2424 Y29.8482
G01 X24.2011 Y29.7327
G01 X24.1713 Y29.6138
G01 X24.1533 Y29.4925
G01 X24.1475 Y29.3783
G00 Z2.0000
G00 X24.2074 Y29.3754
G01 F60.00
G01 Z-0.0000
G01 F120.00
G01 X24.2074 Y29.3646
G01 X24.2130 Y29.2534
G01 X24.2302 Y29.1379
G01 X24.2585 Y29.0247
G01 X24.2978 Y28.9148
G01 X24.3478 Y28.8093
G01 X24.4078 Y28.7091
G01 X24.4773 Y28.6154
G01 X24.5557 Y28.5289
G01 X24.6422 Y28.4505
G01 X24.7359 Y28.3810
G01 X24.8361 Y28.3210
G01 X24.9416 Y28.2710
G01 X25.0515 Y28.2317
G01 X25.1647 Y28.2034
G01 X25.2802 Y28.1862
G01 X25.3968 Y28.1805
G01 X25.5134 Y28.1862
G01 X25.6289 Y28.2034
G01 X25.7421 Y28.2317
G01 X25.8520 Y28.2710
G01 X25.9575 Y28.3210
G01 X26.0577 Y28.3810
G01 X26.1514 Y28.4505
G01 X26.2379 Y28.5289
G01 X26.3163 Y28.6154
G01 X26.3858 Y28.7091
G01 X26.4458 Y28.8093
G01 X26.4958 Y28.9148
G01 X26.5351 Y29.0247
G01 X26.5634 Y29.1379
G01 X26.5806 Y29.2534
G01 X26.5863 Y29.3700
G01 X26.5806 Y29.4866
G01 X26.5634 Y29.6021
G01 X26.5351 Y29.7153
G01 X26.4958 Y29.8252
G01 X26.4458 Y29.9307
G01 X26.3858 Y30.0309
G01 X26.3163 Y30.1246
G01 X26.2379 Y30.2111
G01 X26.1514 Y30.2895
G01 X26.0577 Y30.3590
G01 X25.9575 Y30.4190
G01 X25.8520 Y30.4690
G01 X25.7421 Y30.5083
G01 X25.6289 Y30.5366
G01 X25.5134 Y30.5538
G01 X25.3968 Y30.5595
G01 X25.2802 Y30.5538
G01 X25.1647 Y30.5366
G01 X25.0515 Y30.5083
G01 X24.9416 Y30.4690
G01 X24.8361 Y30.4190
G01 X24.7359 Y30.3590
G01 X24.6422 Y30.2895
G01 X24.5557 Y30.2111
G01 X24.4773 Y30.1246
G01 X24.4078 Y30.0309
G01 X24.3478 Y29.9307
G01 X24.2978 Y29.8252
G01 X24.2585 Y29.7153
G01 X24.2302 Y29.6021
G01 X24.2130 Y29.4866
G01 X24.2074 Y29.3754
G00 Z2.0000
G00 X24.2674 Y29.3725
G01 F60.00
G01 Z-0.0000
G01 F120.00
G01 X24.2727 Y29.2593
G01 X24.2890 Y29.1496
G01 X24.3159 Y29.0421
G01 X24.3533 Y28.9378
G01 X24.4007 Y28.8376
G01 X24.4577 Y28.7425
G01 X24.5237 Y28.6535
G01 X24.5981 Y28.5713
G01 X24.6803 Y28.4969
G01 X24.7693 Y28.4309
G01 X24.8644 Y28.3739
G01 X24.9646 Y28.3265
G01 X25.0689 Y28.2891
G01 X25.1764 Y28.2622
G01 X25.2861 Y28.2459
G01 X25.3968 Y28.2405
G01 X25.5075 Y28.2459
G01 X25.6172 Y28.2622
G01 X25.7247 Y28.2891
G01 X25.8290 Y28.3265
G01 X25.9292 Y28.3739
G01 X26.0243 Y28.4309
G01 X26.1133 Y28.4969
G01 X26.1955 Y28.5713
G01 X26.2699 Y28.6535
G01 X26.3359 Y28.7425
G01 X26.3929 Y28.8376
G01 X26.4403 Y28.9378
G01 X26.4777 Y29.0421
G01 X26.5046 Y29.1496
G01 X26.5209 Y29.2593
G01 X26.5263 Y29.3700
G01 X26.5209 Y29.4807
G01 X26.5046 Y29.5904
G01 X26.4777 Y29.6979
G01 X26.4403 Y29.8022
G01 X26.3929 Y29.9024
G01 X26.3359 Y29.9975
G01 X26.2699 Y30.0865
G01 X26.1955 Y30.1687
G01 X26.1133 Y30.2431
G01 X26.0243 Y30.3091
G01 X25.9292 Y30.3661
G01 X25.8290 Y30.4135
G01 X25.7247 Y30.4509
G01 X25.6172 Y30.4778
G01 X25.5075 Y30.4941
G01 X25.3968 Y30.4995
G01 X25.2861 Y30.4941
G01 X25.1764 Y30.4778
G01 X25.0689 Y30.4509
G01 X24.9646 Y30.4135
G01 X24.8644 Y30.3661
G01 X24.7693 Y30.3091
G01 X24.6803 Y30.2431
G01 X24.5981 Y30.1687
G01 X24.5237 Y30.0865
G01 X24.4577 Y29.9975
G01 X24.4007 Y29.9024
G01 X24.3533 Y29.8022
G01 X24.3159 Y29.6979
G01 X24.2890 Y29.5904
G01 X24.2727 Y29.4807
G01 X24.2674 Y29.3725
G00 Z2.0000
G00 X26.6875 Y29.3783
G01 F60.00
G01 Z-0.0000
G01 F120.00
G01 X26.6875 Y29.3617
G01 X26.6933 Y29.2475
G01 X26.7113 Y29.1262
G01 X26.7411 Y29.0073
G01 X26.7824 Y28.8918
G01 X26.8348 Y28.7810
G01 X26.8979 Y28.6758
G01 X26.9709 Y28.5773
G01 X27.0533 Y28.4865
G01 X27.1441 Y28.4041
G01 X27.2426 Y28.3311
G01 X27.3478 Y28.2680
G01 X27.4586 Y28.2156
G01 X27.5741 Y28.1743
G01 X27.6930 Y28.1445
G01 X27.8143 Y28.1265
G01 X27.9368 Y28.1205
G01 X28.0593 Y28.1265
G01 X28.1806 Y28.1445
G01 X28.2995 Y28.1743
G01 X28.4150 Y28.2156
G01 X28.5258 Y28.2680
G01 X28.6310 Y28.3311
G01 X28.7295 Y28.4041
G01 X28.8203 Y28.4865
G01 X28.9027 Y28.5773
G01 X28.9757 Y28.6758
G01 X29.0388 Y28.7810
G01 X29.0912 Y28.8918
G01 X29.1325 Y29.0073
G01 X29.1623 Y29.1262
G01 X29.1803 Y29.2475
G01 X29.1863 Y29.3700
G01 X29.1803 Y29.4925
G01 X29.1623 Y29.6138
G01 X29.1325 Y29.7327
G01 X29.0912 Y29.8482
G01 X29.0388 Y29.9590
G01 X28.9757 Y30.0642
G01 X28.9027 Y30.1627
G01 X28.8203 Y30.2535
G01 X28.7295 Y30.3359
G01 X28.6310 Y30.4089
G01 X28.5258 Y30.4720
G01 X28.4150 Y30.5244
G01 X28.2995 Y30.5657
G01 X28.1806 Y30.5955
G01 X28.0593 Y30.6135
G01 X27.9368 Y30.6195
G01 X27.8143 Y30.6135
G01 X27.6930 Y30.5955
G01 X27.5741 Y30.5657
G01 X27.4586 Y30.5244
G01 X27.3478 Y30.4720
G01 X27.2426 Y30.4089
G01 X27.1441 Y30.3359
G01 X27.0533 Y30.2535
G01 X26.9709 Y30.1627
G01 X26.8979 Y30.0642
G01 X26.8348 Y29.9590
G01 X26.7824 Y29.8482
G01 X26.7411 Y29.7327
G01 X26.7113 Y29.6138
G01 X26.6933 Y29.4925
G01 X26.6875 Y29.3783
G00 Z2.0000
G00 X26.7474 Y29.3754
G01 F60.00
G01 Z-0.0000
G01 F120.00
G01 X26.7474 Y29.3646
G01 X26.7530 Y29.2534
G01 X26.7702 Y29.1379
G01 X26.7985 Y29.0247
G01 X26.8378 Y28.9148
G01 X26.8878 Y28.8093
G01 X26.9478 Y28.7091
G01 X27.0173 Y28.6154
G01 X27.0957 Y28.5289
G01 X27.1822 Y28.4505
G01 X27.2759 Y28.3810
G01 X27.3761 Y28.3210
G01 X27.4816 Y28.2710
G01 X27.5915 Y28.2317
G01 X27.7047 Y28.2034
G01 X27.8202 Y28.1862
G01 X27.9368 Y28.1805
G01 X28.0534 Y28.1862
G01 X28.1689 Y28.2034
G01 X28.2821 Y28.2317
G01 X28.3920 Y28.2710
G01 X28.4975 Y28.3210
G01 X28.5977 Y28.3810
G01 X28.6914 Y28.4505
G01 X28.7779 Y28.5289
G01 X28.8563 Y28.6154
G01 X28.9258 Y28.7091
G01 X28.9858 Y28.8093
G01 X29.0358 Y28.9148
G01 X29.0751 Y29.0247
G01 X29.1034 Y29.1379
G01 X29.1206 Y29.2534
G01 X29.1263 Y29.3700
G01 X29.1206 Y29.4866
G01 X29.1034 Y29.6021
G01 X29.0751 Y29.7153
G01 X29.0358 Y29.8252
G01 X28.9858 Y29.9307
G01 X28.9258 Y30.0309
G01 X28.8563 Y30.1246
G01 X28.7779 Y30.2111
G01 X28.6914 Y30.2895
G01 X28.5977 Y30.3590
G01 X28.4975 Y30.4190
G01 X28.3920 Y30.4690
G01 X28.2821 Y30.5083
G01 X28.1689 Y30.5366
G01 X28.0534 Y30.5538
G01 X27.9368 Y30.5595
G01 X27.8202 Y30.5538
G01 X27.7047 Y30.5366
G01 X27.5915 Y30.5083
G01 X27.4816 Y30.4690
G01 X27.3761 Y30.4190
G01 X27.2759 Y30.3590
G01 X27.1822 Y30.2895
G01 X27.0957 Y30.2111
G01 X27.0173 Y30.1246
G01 X26.9478 Y30.0309
G01 X26.8878 Y29.9307
G01 X26.8378 Y29.8252
G01 X26.7985 Y29.7153
G01 X26.7702 Y29.6021
G01 X26.7530 Y29.4866
G01 X26.7474 Y29.3754
G00 Z2.0000
G00 X26.8074 Y29.3725
G01 F60.00
G01 Z-0.0000
G01 F120.00
G01 X26.8127 Y29.2593
G01 X26.8290 Y29.1496
G01 X26.8559 Y29.0421
G01 X26.8933 Y28.9378
G01 X26.9407 Y28.8376
G01 X26.9977 Y28.7425
G01 X27.0637 Y28.6535
G01 X27.1381 Y28.5713
G01 X27.2203 Y28.4969
G01 X27.3093 Y28.4309
G01 X27.4044 Y28.3739
G01 X27.5046 Y28.3265
G01 X27.6089 Y28.2891
G01 X27.7164 Y28.2622
G01 X27.8261 Y28.2459
G01 X27.9368 Y28.2405
G01 X28.0475 Y28.2459
G01 X28.1572 Y28.2622
G01 X28.2647 Y28.2891
G01 X28.3690 Y28.3265
G01 X28.4692 Y28.3739
G01 X28.5643 Y28.4309
G01 X28.6533 Y28.4969
G01 X28.7355 Y28.5713
G01 X28.8099 Y28.6535
G01 X28.8759 Y28.7425
G01 X28.9329 Y28.8376
G01 X28.9803 Y28.9378
G01 X29.0177 Y29.0421
G01 X29.0446 Y29.1496
G01 X29.0609 Y29.2593
G01 X29.0663 Y29.3700
G01 X29.0609 Y29.4807
G01 X29.0446 Y29.5904
G01 X29.0177 Y29.6979
G01 X28.9803 Y29.8022
G01 X28.9329 Y29.9024
G01 X28.8759 Y29.9975
G01 X28.8099 Y30.0865
G01 X28.7355 Y30.1687
G01 X28.6533 Y30.2431
G01 X28.5643 Y30.3091
G01 X28.4692 Y30.3661
G01 X28.3690 Y30.4135
G01 X28.2647 Y30.4509
G01 X28.1572 Y30.4778
G01 X28.0475 Y30.4941
G01 X27.9368 Y30.4995
G01 X27.8261 Y30.4941
G01 X27.7164 Y30.4778
G01 X27.6089 Y30.4509
G01 X27.5046 Y30.4135
G01 X27.4044 Y30.3661
G01 X27.3093 Y30.3091
G01 X27.2203 Y30.2431
G01 X27.1381 Y30.1687
G01 X27.0637 Y30.0865
G01 X26.9977 Y29.9975
G01 X26.9407 Y29.9024
G01 X26.8933 Y29.8022
G01 X26.8559 Y29.6979
G01 X26.8290 Y29.5904
G01 X26.8127 Y29.4807
G01 X26.8074 Y29.3725
G00 Z2.0000
G00 X30.0171 Y39.3813
G01 F60.00
G01 Z-0.0000
G01 F120.00
G01 X30.0168 Y39.3700
G01 X30.0171 Y39.3587
G01 X30.0243 Y39.2117
G01 X30.0251 Y39.2004
G01 X30.0265 Y39.1892
G01 X30.0481 Y39.0436
G01 X30.0500 Y39.0325
G01 X30.0525 Y39.0215
G01 X30.0883 Y38.8787
G01 X30.0913 Y38.8678
G01 X30.0948 Y38.8571
G01 X30.1444 Y38.7185
G01 X30.1485 Y38.7080
G01 X30.1531 Y38.6976
G01 X30.2160 Y38.5646
G01 X30.2211 Y38.5545
G01 X30.2266 Y38.5447
G01 X30.3023 Y38.4184
G01 X30.3084 Y38.4089
G01 X30.3149 Y38.3996
G01 X30.4025 Y38.2814
G01 X30.4095 Y38.2725
G01 X30.4169 Y38.2640
G01 X30.5157 Y38.1549
G01 X30.5235 Y38.1467
G01 X30.5317 Y38.1389
G01 X30.6408 Y38.0401
G01 X30.6493 Y38.0327
G01 X30.6582 Y38.0257
G01 X30.7764 Y37.9381
G01 X30.7857 Y37.9316
G01 X30.7952 Y37.9255
G01 X30.9215 Y37.8498
G01 X30.9313 Y37.8443
G01 X30.9414 Y37.8392
G01 X31.0744 Y37.7763
G01 X31.0848 Y37.7717
G01 X31.0953 Y37.7676
G01 X31.2339 Y37.7180
G01 X31.2446 Y37.7145
G01 X31.2555 Y37.7115
G01 X31.3983 Y37.6757
G01 X31.4093 Y37.6732
G01 X31.4204 Y37.6713
G01 X31.5660 Y37.6497
G01 X31.5772 Y37.6483
G01 X31.5885 Y37.6475
