(G-CODE GENERATED BY FLATCAM v8.994 - www.flatcam.org - Version Date: 2020/11/7)

(Name: preamp-board-v3-B_Cu.gbr_iso_combined_cnc)
(Type: G-code from Geometry)
(Units: MM)

(Created on Friday, 30 April 2021 at 18:27)

(This preprocessor is the default preprocessor used by FlatCAM.)
(It is made to work with MACH3 compatible motion controllers.)

(TOOL DIAMETER: 0.1 mm)
(Feedrate_XY: 120.0 mm/min)
(Feedrate_Z: 60.0 mm/min)
(Feedrate rapids 1500.0 mm/min)

(Z_Cut: -0.0 mm)
(Z_Move: 2.0 mm)
(Z Start: None mm)
(Z End: 15.0 mm)
(X,Y End: None mm)
(Steps per circle: 64)
(Preprocessor Geometry: default)

(X range:   15.1275 ...   67.4194  mm)
(Y range:    5.0496 ...   52.6200  mm)

(Spindle Speed: 0.0 RPM)
G21
G90
G94

G01 F120.00

M5
G00 Z15.0000
G00 X0.0000 Y0.0000
T1
M6    
(MSG, Change to Tool Dia = 0.1000)
M0
G00 Z15.0000

M03
G01 F120.00
G00 X17.2684 Y32.6024
G01 F60.00
G01 Z-0.0000
G01 F120.00
G01 X17.2158 Y32.6500
G01 X17.1270 Y32.7157
G01 X17.0344 Y32.7711
G01 X16.9346 Y32.8183
G01 X16.8329 Y32.8546
G01 X16.7270 Y32.8811
G01 X16.6190 Y32.8971
G01 X16.5088 Y32.9025
G01 X16.4010 Y32.8971
G01 X16.2930 Y32.8811
G01 X16.1871 Y32.8546
G01 X16.0843 Y32.8178
G01 X15.9856 Y32.7711
G01 X15.8919 Y32.7150
G01 X15.8042 Y32.6500
G01 X15.7225 Y32.5758
G01 X15.6500 Y32.4958
G01 X15.5850 Y32.4081
G01 X15.5289 Y32.3144
G01 X15.4822 Y32.2157
G01 X15.4454 Y32.1129
G01 X15.4189 Y32.0070
G01 X15.4029 Y31.8990
G01 X15.3975 Y31.7900
G01 X15.4029 Y31.6810
G01 X15.4189 Y31.5730
G01 X15.4454 Y31.4671
G01 X15.4822 Y31.3643
G01 X15.5289 Y31.2656
G01 X15.5850 Y31.1719
G01 X15.6500 Y31.0842
G01 X15.7242 Y31.0025
G01 X15.8042 Y30.9300
G01 X15.8919 Y30.8650
G01 X15.9856 Y30.8089
G01 X16.0866 Y30.7613
G01 X16.1871 Y30.7254
G01 X16.2954 Y30.6985
G01 X16.4034 Y30.6827
G01 X16.5100 Y30.6775
G01 X16.6166 Y30.6827
G01 X16.7294 Y30.6994
G01 X16.8329 Y30.7254
G01 X16.9369 Y30.7627
G01 X17.0344 Y30.8089
G01 X17.1270 Y30.8643
G01 X17.2158 Y30.9300
G01 X17.2684 Y30.9776
G01 X18.0640 Y30.9776
G01 X18.1461 Y30.9818
G01 X18.2225 Y30.9932
G01 X18.2975 Y31.0119
G01 X18.3749 Y31.0395
G01 X18.4470 Y31.0735
G01 X18.5133 Y31.1132
G01 X18.5812 Y31.1636
G01 X18.6384 Y31.2156
G01 X19.9553 Y32.5324
G01 X20.0095 Y32.5926
G01 X20.0555 Y32.6547
G01 X20.0952 Y32.7209
G01 X20.1305 Y32.7951
G01 X20.1574 Y32.8702
G01 X20.1768 Y32.9475
G01 X20.1886 Y33.0276
G01 X20.1924 Y33.1060
G01 X20.1924 Y33.9215
G01 X30.9735 Y44.7026
G01 X48.2475 Y44.7026
G01 X53.7976 Y39.1525
G01 X53.7976 Y34.4715
G01 X51.3458 Y32.0197
G01 X51.2750 Y32.0161
G01 X51.1682 Y32.0003
G01 X51.0622 Y31.9739
G01 X50.9583 Y31.9368
G01 X50.8585 Y31.8895
G01 X50.7659 Y31.8340
G01 X50.6764 Y31.7674
G01 X50.5957 Y31.6939
G01 X50.5240 Y31.6148
G01 X50.4604 Y31.5291
G01 X50.4029 Y31.4334
G01 X50.3572 Y31.3370
G01 X50.3187 Y31.2296
G01 X50.2929 Y31.1260
G01 X50.2769 Y31.0180
G01 X50.2715 Y30.9090
G01 X50.2769 Y30.8000
G01 X50.2929 Y30.6920
G01 X50.3187 Y30.5884
G01 X50.3572 Y30.4810
G01 X50.4029 Y30.3846
G01 X50.4590 Y30.2909
G01 X50.5240 Y30.2032
G01 X50.5957 Y30.1241
G01 X50.6782 Y30.0490
G01 X50.7659 Y29.9840
G01 X50.8596 Y29.9279
G01 X50.9560 Y29.8822
G01 X51.0611 Y29.8444
G01 X51.1646 Y29.8184
G01 X51.2774 Y29.8017
G01 X51.3840 Y29.7965
G01 X51.4930 Y29.8019
G01 X51.6010 Y29.8179
G01 X51.7069 Y29.8444
G01 X51.8097 Y29.8812
G01 X51.9084 Y29.9279
G01 X52.0021 Y29.9840
G01 X52.0888 Y30.0483
G01 X52.1707 Y30.1223
G01 X52.2440 Y30.2032
G01 X52.3090 Y30.2909
G01 X52.3657 Y30.3857
G01 X52.4118 Y30.4833
G01 X52.4489 Y30.5872
G01 X52.4753 Y30.6932
G01 X52.4911 Y30.8000
G01 X52.4947 Y30.8708
G01 X55.1844 Y33.5606
G01 X55.2395 Y33.6216
G01 X55.2855 Y33.6837
G01 X55.3265 Y33.7520
G01 X55.3605 Y33.8241
G01 X55.3881 Y33.9015
G01 X55.4068 Y33.9765
G01 X55.4182 Y34.0529
G01 X55.4224 Y34.1338
G01 X55.4224 Y39.1525
G01 X57.6385 Y41.3686
G01 X59.7175 Y41.3686
G01 X61.7161 Y39.3700
G01 X61.6547 Y39.3086
G01 X61.6020 Y39.2504
G01 X61.5545 Y39.1863
G01 X61.5135 Y39.1180
G01 X61.4795 Y39.0459
G01 X61.4526 Y38.9708
G01 X61.4332 Y38.8935
G01 X61.4214 Y38.8122
G01 X61.4176 Y38.7350
G01 X61.4176 Y30.4995
G01 X61.1505 Y30.4995
G01 X61.1444 Y30.4991
G01 X61.1372 Y30.4977
G01 X61.1291 Y30.4947
G01 X61.1217 Y30.4904
G01 X61.1160 Y30.4857
G01 X61.1111 Y30.4803
G01 X61.1064 Y30.4731
G01 X61.1030 Y30.4652
G01 X61.1010 Y30.4568
G01 X61.1005 Y30.4495
G01 X61.1005 Y28.2905
G01 X61.1010 Y28.2832
G01 X61.1023 Y28.2772
G01 X61.1048 Y28.2702
G01 X61.1089 Y28.2627
G01 X61.1143 Y28.2560
G01 X61.1197 Y28.2511
G01 X61.1269 Y28.2464
G01 X61.1337 Y28.2434
G01 X61.1407 Y28.2415
G01 X61.1493 Y28.2405
G01 X63.3095 Y28.2405
G01 X63.3168 Y28.2410
G01 X63.3252 Y28.2430
G01 X63.3331 Y28.2464
G01 X63.3403 Y28.2511
G01 X63.3465 Y28.2569
G01 X63.3517 Y28.2638
G01 X63.3557 Y28.2714
G01 X63.3583 Y28.2795
G01 X63.3595 Y28.2893
G01 X63.3595 Y30.4495
G01 X63.3591 Y30.4556
G01 X63.3573 Y30.4640
G01 X63.3547 Y30.4709
G01 X63.3511 Y30.4773
G01 X63.3457 Y30.4840
G01 X63.3393 Y30.4897
G01 X63.3320 Y30.4942
G01 X63.3240 Y30.4973
G01 X63.3168 Y30.4990
G01 X63.3095 Y30.4995
G01 X63.0424 Y30.4995
G01 X63.0424 Y37.8894
G01 X63.0524 Y37.8861
G01 X63.1976 Y37.8498
G01 X63.3505 Y37.8273
G01 X63.5000 Y37.8200
G01 X63.6495 Y37.8273
G01 X63.8024 Y37.8498
G01 X63.9499 Y37.8867
G01 X64.0954 Y37.9390
G01 X64.2307 Y38.0030
G01 X64.3591 Y38.0799
G01 X64.4833 Y38.1718
G01 X64.5977 Y38.2758
G01 X64.6982 Y38.3867
G01 X64.7874 Y38.5069
G01 X64.8670 Y38.6393
G01 X64.9320 Y38.7768
G01 X64.9839 Y38.9224
G01 X65.0202 Y39.0676
G01 X65.0422 Y39.2156
G01 X65.0500 Y39.3700
G01 X65.0422 Y39.5244
G01 X65.0202 Y39.6724
G01 X64.9839 Y39.8176
G01 X64.9329 Y39.9609
G01 X64.8670 Y40.1007
G01 X64.7901 Y40.2291
G01 X64.6982 Y40.3533
G01 X64.5960 Y40.4660
G01 X64.4833 Y40.5682
G01 X64.3621 Y40.6581
G01 X64.2285 Y40.7381
G01 X64.0932 Y40.8020
G01 X63.9499 Y40.8533
G01 X63.8000 Y40.8906
G01 X63.6519 Y40.9125
G01 X63.5012 Y40.9200
G01 X63.3456 Y40.9122
G01 X63.1976 Y40.8902
G01 X63.0512 Y40.8536
G01 X62.9057 Y40.8015
G01 X62.7704 Y40.7375
G01 X62.6927 Y40.6911
G01 X60.6284 Y42.7554
G01 X60.5712 Y42.8074
G01 X60.5033 Y42.8578
G01 X60.4370 Y42.8975
G01 X60.3649 Y42.9315
G01 X60.2875 Y42.9591
G01 X60.2125 Y42.9778
G01 X60.1336 Y42.9895
G01 X60.0540 Y42.9934
G01 X57.3008 Y42.9934
G01 X57.2224 Y42.9895
G01 X57.1435 Y42.9778
G01 X57.0662 Y42.9584
G01 X56.9911 Y42.9315
G01 X56.9190 Y42.8975
G01 X56.8507 Y42.8565
G01 X56.7866 Y42.8090
G01 X56.7284 Y42.7563
G01 X54.6100 Y40.6379
G01 X49.1576 Y46.0903
G01 X49.0994 Y46.1430
G01 X49.0373 Y46.1891
G01 X48.9670 Y46.2315
G01 X48.8926 Y46.2664
G01 X48.8198 Y46.2924
G01 X48.7425 Y46.3118
G01 X48.6636 Y46.3235
G01 X48.5840 Y46.3274
G01 X30.6370 Y46.3274
G01 X30.5549 Y46.3232
G01 X30.4785 Y46.3118
G01 X30.4012 Y46.2924
G01 X30.3261 Y46.2655
G01 X30.2562 Y46.2326
G01 X30.1837 Y46.1891
G01 X30.1216 Y46.1430
G01 X30.0626 Y46.0894
G01 X18.8047 Y34.8316
G01 X18.7520 Y34.7734
G01 X18.7059 Y34.7113
G01 X18.6635 Y34.6410
G01 X18.6295 Y34.5689
G01 X18.6034 Y34.4962
G01 X18.5830 Y34.4153
G01 X18.5715 Y34.3376
G01 X18.5676 Y34.2592
G01 X18.5676 Y33.4425
G01 X17.7275 Y32.6024
G01 X17.2684 Y32.6024
G00 Z2.0000
G00 X17.6224 Y34.2925
G01 F60.00
G01 Z-0.0000
G01 F120.00
G01 X17.6171 Y34.3990
G01 X17.6011 Y34.5070
G01 X17.5746 Y34.6129
G01 X17.5378 Y34.7157
G01 X17.4911 Y34.8144
G01 X17.4350 Y34.9081
G01 X17.3700 Y34.9958
G01 X17.2967 Y35.0767
G01 X17.2158 Y35.1500
G01 X17.1281 Y35.2150
G01 X17.0344 Y35.2711
G01 X16.9357 Y35.3178
G01 X16.8329 Y35.3546
G01 X16.7270 Y35.3811
G01 X16.6190 Y35.3971
G01 X16.5100 Y35.4025
G01 X16.4010 Y35.3971
G01 X16.2930 Y35.3811
G01 X16.1871 Y35.3546
G01 X16.0843 Y35.3178
G01 X15.9856 Y35.2711
G01 X15.8919 Y35.2150
G01 X15.8042 Y35.1500
G01 X15.7233 Y35.0767
G01 X15.6500 Y34.9958
G01 X15.5850 Y34.9081
G01 X15.5289 Y34.8144
G01 X15.4822 Y34.7157
G01 X15.4454 Y34.6129
G01 X15.4189 Y34.5070
G01 X15.4029 Y34.3990
G01 X15.3975 Y34.2900
G01 X15.4029 Y34.1810
G01 X15.4189 Y34.0730
G01 X15.4454 Y33.9671
G01 X15.4822 Y33.8643
G01 X15.5289 Y33.7656
G01 X15.5850 Y33.6719
G01 X15.6500 Y33.5842
G01 X15.7233 Y33.5033
G01 X15.8042 Y33.4300
G01 X15.8919 Y33.3650
G01 X15.9856 Y33.3089
G01 X16.0843 Y33.2622
G01 X16.1871 Y33.2254
G01 X16.2930 Y33.1989
G01 X16.4010 Y33.1829
G01 X16.5100 Y33.1775
G01 X16.6190 Y33.1829
G01 X16.7270 Y33.1989
G01 X16.8329 Y33.2254
G01 X16.9357 Y33.2622
G01 X17.0344 Y33.3089
G01 X17.1281 Y33.3650
G01 X17.2158 Y33.4300
G01 X17.2967 Y33.5033
G01 X17.3700 Y33.5842
G01 X17.4350 Y33.6719
G01 X17.4911 Y33.7656
G01 X17.5378 Y33.8643
G01 X17.5746 Y33.9671
G01 X17.6011 Y34.0730
G01 X17.6171 Y34.1810
G01 X17.6224 Y34.2925
G00 Z2.0000
G00 X17.7123 Y34.2969
G01 F60.00
G01 Z-0.0000
G01 F120.00
G01 X17.7067 Y34.4079
G01 X17.6894 Y34.5246
G01 X17.6607 Y34.6391
G01 X17.6210 Y34.7502
G01 X17.5705 Y34.8569
G01 X17.5098 Y34.9581
G01 X17.4395 Y35.0529
G01 X17.3603 Y35.1403
G01 X17.2729 Y35.2195
G01 X17.1781 Y35.2898
G01 X17.0769 Y35.3505
G01 X16.9702 Y35.4010
G01 X16.8591 Y35.4407
G01 X16.7446 Y35.4694
G01 X16.6279 Y35.4867
G01 X16.5100 Y35.4925
G01 X16.3921 Y35.4867
G01 X16.2754 Y35.4694
G01 X16.1609 Y35.4407
G01 X16.0498 Y35.4010
G01 X15.9431 Y35.3505
G01 X15.8419 Y35.2898
G01 X15.7471 Y35.2195
G01 X15.6597 Y35.1403
G01 X15.5805 Y35.0529
G01 X15.5102 Y34.9581
G01 X15.4495 Y34.8569
G01 X15.3990 Y34.7502
G01 X15.3593 Y34.6391
G01 X15.3306 Y34.5246
G01 X15.3133 Y34.4079
G01 X15.3075 Y34.2900
G01 X15.3133 Y34.1721
G01 X15.3306 Y34.0554
G01 X15.3593 Y33.9409
G01 X15.3990 Y33.8298
G01 X15.4495 Y33.7231
G01 X15.5102 Y33.6219
G01 X15.5805 Y33.5271
G01 X15.6597 Y33.4397
G01 X15.7471 Y33.3605
G01 X15.8419 Y33.2902
G01 X15.9431 Y33.2295
G01 X16.0498 Y33.1790
G01 X16.1609 Y33.1393
G01 X16.2754 Y33.1106
G01 X16.3921 Y33.0933
G01 X16.5100 Y33.0875
G01 X16.6279 Y33.0933
G01 X16.7446 Y33.1106
G01 X16.8591 Y33.1393
G01 X16.9702 Y33.1790
G01 X17.0769 Y33.2295
G01 X17.1781 Y33.2902
G01 X17.2729 Y33.3605
G01 X17.3603 Y33.4397
G01 X17.4395 Y33.5271
G01 X17.5098 Y33.6219
G01 X17.5705 Y33.7231
G01 X17.6210 Y33.8298
G01 X17.6607 Y33.9409
G01 X17.6894 Y34.0554
G01 X17.7067 Y34.1721
G01 X17.7123 Y34.2831
G01 X17.7123 Y34.2969
G00 Z2.0000
G00 X22.0476 Y31.0316
G01 F60.00
G01 Z-0.0000
G01 F120.00
G01 X22.0476 Y26.8268
G01 X22.0515 Y26.7484
G01 X22.0628 Y26.6719
G01 X22.0826 Y26.5922
G01 X22.1090 Y26.5183
G01 X22.1256 Y26.4829
G01 X22.1441 Y26.4440
G01 X22.1845 Y26.3767
G01 X22.2320 Y26.3126
G01 X22.2856 Y26.2536
G01 X31.1303 Y17.4089
G01 X31.1876 Y17.3570
G01 X31.2517 Y17.3095
G01 X31.3200 Y17.2685
G01 X31.3921 Y17.2345
G01 X31.4672 Y17.2076
G01 X31.5445 Y17.1882
G01 X31.6234 Y17.1765
G01 X31.7018 Y17.1726
G01 X38.6952 Y17.1726
G01 X38.6967 Y17.1452
G01 X38.7085 Y17.0663
G01 X38.7276 Y16.9902
G01 X38.7549 Y16.9140
G01 X38.7885 Y16.8430
G01 X38.8295 Y16.7747
G01 X38.8770 Y16.7106
G01 X38.9306 Y16.6516
G01 X50.0246 Y5.5576
G01 X50.0856 Y5.5025
G01 X50.1477 Y5.4565
G01 X50.2160 Y5.4155
G01 X50.2904 Y5.3806
G01 X50.3632 Y5.3546
G01 X50.4381 Y5.3358
G01 X50.5194 Y5.3235
G01 X50.5990 Y5.3196
G01 X64.8310 Y5.3196
G01 X64.9106 Y5.3235
G01 X64.9895 Y5.3352
G01 X65.0645 Y5.3539
G01 X65.1419 Y5.3815
G01 X65.2140 Y5.4155
G01 X65.2803 Y5.4552
G01 X65.3482 Y5.5056
G01 X65.4054 Y5.5576
G01 X66.9123 Y7.0644
G01 X66.9650 Y7.1226
G01 X67.0111 Y7.1847
G01 X67.0535 Y7.2550
G01 X67.0884 Y7.3294
G01 X67.1144 Y7.4022
G01 X67.1332 Y7.4771
G01 X67.1455 Y7.5584
G01 X67.1494 Y7.6380
G01 X67.1494 Y11.1342
G01 X67.1455 Y11.2126
G01 X67.1338 Y11.2915
G01 X67.1144 Y11.3688
G01 X67.0871 Y11.4450
G01 X67.0535 Y11.5160
G01 X67.0125 Y11.5843
G01 X66.9650 Y11.6484
G01 X66.9123 Y11.7066
G01 X65.0065 Y13.6124
G01 X65.0204 Y13.6688
G01 X65.0424 Y13.8169
G01 X65.0500 Y13.9712
G01 X65.0422 Y14.1244
G01 X65.0202 Y14.2724
G01 X64.9836 Y14.4188
G01 X64.9320 Y14.5632
G01 X64.8658 Y14.7028
G01 X64.7888 Y14.8311
G01 X64.6997 Y14.9514
G01 X64.5960 Y15.0660
G01 X64.4814 Y15.1697
G01 X64.3611 Y15.2588
G01 X64.2328 Y15.3358
G01 X64.0932 Y15.4020
G01 X63.9488 Y15.4536
G01 X63.8024 Y15.4902
G01 X63.6544 Y15.5122
G01 X63.5012 Y15.5200
G01 X63.3469 Y15.5124
G01 X63.1988 Y15.4904
G01 X63.1424 Y15.4765
G01 X60.5024 Y18.1165
G01 X60.5024 Y20.6464
G01 X60.5631 Y20.7135
G01 X60.6277 Y20.8005
G01 X60.6849 Y20.8954
G01 X60.7335 Y20.9978
G01 X60.7701 Y21.0998
G01 X60.7978 Y21.2096
G01 X60.8141 Y21.3193
G01 X60.8195 Y21.4300
G01 X60.8142 Y21.5395
G01 X60.7978 Y21.6504
G01 X60.7701 Y21.7602
G01 X60.7335 Y21.8622
G01 X60.6872 Y21.9603
G01 X60.6291 Y22.0575
G01 X60.5615 Y22.1484
G01 X60.4887 Y22.2287
G01 X60.4084 Y22.3015
G01 X60.3175 Y22.3691
G01 X60.2224 Y22.4261
G01 X60.1222 Y22.4735
G01 X60.0179 Y22.5109
G01 X59.9104 Y22.5378
G01 X59.7983 Y22.5542
G01 X59.6900 Y22.5595
G01 X59.5817 Y22.5542
G01 X59.4721 Y22.5382
G01 X59.3621 Y22.5109
G01 X59.2578 Y22.4735
G01 X59.1576 Y22.4261
G01 X59.0605 Y22.3677
G01 X58.9735 Y22.3031
G01 X58.8931 Y22.2304
G01 X58.8185 Y22.1484
G01 X58.7509 Y22.0575
G01 X58.6939 Y21.9624
G01 X58.6465 Y21.8622
G01 X58.6085 Y21.7555
G01 X58.5822 Y21.6504
G01 X58.5662 Y21.5431
G01 X58.5606 Y21.4325
G01 X58.5659 Y21.3193
G01 X58.5827 Y21.2073
G01 X58.6091 Y21.1021
G01 X58.6456 Y21.0000
G01 X58.6939 Y20.8976
G01 X58.7523 Y20.8005
G01 X58.8169 Y20.7135
G01 X58.8776 Y20.6464
G01 X58.8776 Y17.7788
G01 X58.8815 Y17.7004
G01 X58.8932 Y17.6215
G01 X58.9126 Y17.5442
G01 X58.9386 Y17.4714
G01 X58.9735 Y17.3970
G01 X59.0145 Y17.3287
G01 X59.0620 Y17.2646
G01 X59.1147 Y17.2064
G01 X61.9935 Y14.3276
G01 X61.9796 Y14.2712
G01 X61.9576 Y14.1231
G01 X61.9500 Y13.9688
G01 X61.9578 Y13.8156
G01 X61.9798 Y13.6676
G01 X62.0164 Y13.5212
G01 X62.0680 Y13.3768
G01 X62.1342 Y13.2372
G01 X62.2112 Y13.1089
G01 X62.3003 Y12.9886
G01 X62.4040 Y12.8740
G01 X62.5186 Y12.7703
G01 X62.6389 Y12.6812
G01 X62.7672 Y12.6042
G01 X62.9068 Y12.5380
G01 X63.0512 Y12.4864
G01 X63.1976 Y12.4498
G01 X63.3456 Y12.4278
G01 X63.4988 Y12.4200
G01 X63.6531 Y12.4276
G01 X63.8012 Y12.4496
G01 X63.8576 Y12.4635
G01 X65.5246 Y10.7965
G01 X65.5246 Y7.9745
G01 X64.4945 Y6.9444
G01 X50.9355 Y6.9444
G01 X40.3174 Y17.5625
G01 X40.3174 Y20.7046
G01 X40.3650 Y20.7572
G01 X40.4307 Y20.8460
G01 X40.4861 Y20.9386
G01 X40.5333 Y21.0384
G01 X40.5696 Y21.1401
G01 X40.5961 Y21.2460
G01 X40.6121 Y21.3540
G01 X40.6175 Y21.4642
G01 X40.6121 Y21.5720
G01 X40.5956 Y21.6824
G01 X40.5688 Y21.7883
G01 X40.5328 Y21.8887
G01 X40.4872 Y21.9852
G01 X40.4300 Y22.0811
G01 X40.3650 Y22.1688
G01 X40.2917 Y22.2497
G01 X40.2108 Y22.3230
G01 X40.1231 Y22.3880
G01 X40.0272 Y22.4452
G01 X39.9284 Y22.4917
G01 X39.8279 Y22.5276
G01 X39.7244 Y22.5536
G01 X39.6140 Y22.5701
G01 X39.5050 Y22.5755
G01 X39.3960 Y22.5701
G01 X39.2856 Y22.5536
G01 X39.1821 Y22.5276
G01 X39.0816 Y22.4917
G01 X38.9828 Y22.4452
G01 X38.8869 Y22.3880
G01 X38.7992 Y22.3230
G01 X38.7183 Y22.2497
G01 X38.6435 Y22.1668
G01 X38.5800 Y22.0811
G01 X38.5251 Y21.9896
G01 X38.4777 Y21.8899
G01 X38.4397 Y21.7836
G01 X38.4139 Y21.6800
G01 X38.3979 Y21.5720
G01 X38.3926 Y21.4605
G01 X38.3979 Y21.3540
G01 X38.4137 Y21.2472
G01 X38.4412 Y21.1377
G01 X38.4772 Y21.0373
G01 X38.5233 Y20.9397
G01 X38.5807 Y20.8439
G01 X38.6450 Y20.7572
G01 X38.6926 Y20.7046
G01 X38.6926 Y18.7974
G01 X32.0395 Y18.7974
G01 X23.6724 Y27.1645
G01 X23.6724 Y31.0316
G01 X23.7200 Y31.0842
G01 X23.7857 Y31.1730
G01 X23.8411 Y31.2656
G01 X23.8883 Y31.3654
G01 X23.9246 Y31.4671
G01 X23.9511 Y31.5730
G01 X23.9671 Y31.6810
G01 X23.9725 Y31.7900
G01 X23.9671 Y31.8990
G01 X23.9511 Y32.0070
G01 X23.9246 Y32.1129
G01 X23.8878 Y32.2157
G01 X23.8411 Y32.3144
G01 X23.7850 Y32.4081
G01 X23.7200 Y32.4958
G01 X23.6475 Y32.5758
G01 X23.5658 Y32.6500
G01 X23.4781 Y32.7150
G01 X23.3844 Y32.7711
G01 X23.2857 Y32.8178
G01 X23.1829 Y32.8546
G01 X23.0770 Y32.8811
G01 X22.9690 Y32.8971
G01 X22.8600 Y32.9025
G01 X22.7510 Y32.8971
G01 X22.6430 Y32.8811
G01 X22.5371 Y32.8546
G01 X22.4343 Y32.8178
G01 X22.3356 Y32.7711
G01 X22.2419 Y32.7150
G01 X22.1542 Y32.6500
G01 X22.0742 Y32.5775
G01 X22.0000 Y32.4958
G01 X21.9350 Y32.4081
G01 X21.8789 Y32.3144
G01 X21.8322 Y32.2157
G01 X21.7954 Y32.1129
G01 X21.7689 Y32.0070
G01 X21.7529 Y31.8990
G01 X21.7475 Y31.7912
G01 X21.7529 Y31.6810
G01 X21.7689 Y31.5730
G01 X21.7954 Y31.4671
G01 X21.8317 Y31.3654
G01 X21.8789 Y31.2656
G01 X21.9343 Y31.1730
G01 X22.0000 Y31.0842
G01 X22.0476 Y31.0316
G00 Z2.0000
G00 X23.4476 Y33.0400
G01 F60.00
G01 Z-0.0000
G01 F120.00
G01 X23.4977 Y33.0163
G01 X23.5186 Y33.0055
G01 X23.6215 Y32.9438
G01 X23.6409 Y32.9305
G01 X23.7247 Y32.8683
G01 X23.7431 Y32.8536
G01 X23.8262 Y32.7784
G01 X23.8376 Y32.7676
G01 X23.8484 Y32.7562
G01 X23.9184 Y32.6789
G01 X23.9287 Y32.6670
G01 X23.9383 Y32.6547
G01 X24.0051 Y32.5646
G01 X24.0179 Y32.5448
G01 X24.0715 Y32.4554
G01 X24.0793 Y32.4417
G01 X24.0863 Y32.4277
G01 X24.1309 Y32.3334
G01 X24.1373 Y32.3191
G01 X24.1429 Y32.3044
G01 X24.1780 Y32.2062
G01 X24.1830 Y32.1913
G01 X24.1872 Y32.1762
G01 X24.2125 Y32.0750
G01 X24.2159 Y32.0597
G01 X24.2186 Y32.0442
G01 X24.2339 Y31.9411
G01 X24.2365 Y31.9177
G01 X24.2421 Y31.8057
G01 X24.2425 Y31.7900
G01 X24.2421 Y31.7743
G01 X24.2370 Y31.6702
G01 X24.2358 Y31.6545
G01 X24.2339 Y31.6389
G01 X24.2186 Y31.5358
G01 X24.2159 Y31.5203
G01 X24.2125 Y31.5050
G01 X24.1872 Y31.4038
G01 X24.1830 Y31.3887
G01 X24.1780 Y31.3738
G01 X24.1429 Y31.2756
G01 X24.1373 Y31.2609
G01 X24.1309 Y31.2466
G01 X24.0863 Y31.1523
G01 X24.0793 Y31.1383
G01 X24.0715 Y31.1246
G01 X24.0179 Y31.0352
G01 X24.0095 Y31.0219
G01 X24.0005 Y31.0091
G01 X23.9424 Y30.9308
G01 X23.9424 Y27.2763
G01 X32.1513 Y19.0674
G01 X32.4379 Y19.0674
G01 X32.3823 Y19.0937
G01 X32.3614 Y19.1045
G01 X32.2585 Y19.1662
G01 X32.2391 Y19.1795
G01 X32.1553 Y19.2417
G01 X32.1369 Y19.2564
G01 X32.0538 Y19.3316
G01 X32.0424 Y19.3424
G01 X32.0316 Y19.3538
G01 X31.9616 Y19.4311
G01 X31.9513 Y19.4430
G01 X31.9417 Y19.4553
G01 X31.8795 Y19.5391
G01 X31.8662 Y19.5585
G01 X31.8085 Y19.6546
G01 X31.8007 Y19.6683
G01 X31.7937 Y19.6823
G01 X31.7491 Y19.7766
G01 X31.7427 Y19.7909
G01 X31.7371 Y19.8056
G01 X31.7020 Y19.9038
G01 X31.6970 Y19.9187
G01 X31.6928 Y19.9338
G01 X31.6675 Y20.0350
G01 X31.6641 Y20.0503
G01 X31.6614 Y20.0658
G01 X31.6461 Y20.1689
G01 X31.6442 Y20.1845
G01 X31.6430 Y20.2002
G01 X31.6379 Y20.3043
G01 X31.6376 Y20.3279
G01 X31.6430 Y20.4398
G01 X31.6442 Y20.4555
G01 X31.6461 Y20.4711
G01 X31.6614 Y20.5742
G01 X31.6641 Y20.5897
G01 X31.6675 Y20.6050
G01 X31.6928 Y20.7062
G01 X31.6970 Y20.7213
G01 X31.7020 Y20.7362
G01 X31.7371 Y20.8344
G01 X31.7427 Y20.8491
G01 X31.7491 Y20.8634
G01 X31.7937 Y20.9577
G01 X31.8007 Y20.9717
G01 X31.8085 Y20.9854
G01 X31.8621 Y21.0748
G01 X31.8705 Y21.0881
G01 X31.8795 Y21.1009
G01 X31.9417 Y21.1847
G01 X31.9513 Y21.1970
G01 X31.9616 Y21.2089
G01 X32.0316 Y21.2862
G01 X32.0424 Y21.2976
G01 X32.0538 Y21.3084
G01 X32.1311 Y21.3784
G01 X32.1430 Y21.3887
G01 X32.1553 Y21.3983
G01 X32.2391 Y21.4605
G01 X32.2519 Y21.4695
G01 X32.2652 Y21.4779
G01 X32.3546 Y21.5315
G01 X32.3683 Y21.5393
G01 X32.3823 Y21.5463
G01 X32.4747 Y21.5900
G01 X32.3823 Y21.6337
G01 X32.3683 Y21.6407
G01 X32.3546 Y21.6485
G01 X32.2652 Y21.7021
G01 X32.2519 Y21.7105
G01 X32.2391 Y21.7195
G01 X32.1553 Y21.7817
G01 X32.1430 Y21.7913
G01 X32.1311 Y21.8016
G01 X32.0538 Y21.8716
G01 X32.0424 Y21.8824
G01 X32.0316 Y21.8938
G01 X31.9616 Y21.9711
G01 X31.9513 Y21.9830
G01 X31.9417 Y21.9953
G01 X31.8795 Y22.0791
G01 X31.8705 Y22.0919
G01 X31.8621 Y22.1052
G01 X31.8085 Y22.1946
G01 X31.8007 Y22.2083
G01 X31.7937 Y22.2223
G01 X31.7491 Y22.3166
G01 X31.7427 Y22.3309
G01 X31.7371 Y22.3456
G01 X31.7020 Y22.4438
G01 X31.6970 Y22.4587
G01 X31.6928 Y22.4738
G01 X31.6675 Y22.5750
G01 X31.6641 Y22.5903
G01 X31.6614 Y22.6058
G01 X31.6461 Y22.7089
G01 X31.6442 Y22.7245
G01 X31.6430 Y22.7402
G01 X31.6379 Y22.8443
G01 X31.6375 Y22.8600
G01 X31.6379 Y22.8757
G01 X31.6430 Y22.9798
G01 X31.6442 Y22.9955
G01 X31.6461 Y23.0111
G01 X31.6614 Y23.1142
G01 X31.6641 Y23.1297
G01 X31.6675 Y23.1450
G01 X31.6928 Y23.2462
G01 X31.6970 Y23.2613
G01 X31.7020 Y23.2762
G01 X31.7371 Y23.3744
G01 X31.7427 Y23.3891
G01 X31.7491 Y23.4034
G01 X31.7937 Y23.4977
G01 X31.8007 Y23.5117
G01 X31.8085 Y23.5254
G01 X31.8621 Y23.6148
G01 X31.8705 Y23.6281
G01 X31.8795 Y23.6409
G01 X31.9417 Y23.7247
G01 X31.9513 Y23.7370
G01 X31.9616 Y23.7489
G01 X32.0316 Y23.8262
G01 X32.0424 Y23.8376
G01 X32.0538 Y23.8484
G01 X32.1311 Y23.9184
G01 X32.1430 Y23.9287
G01 X32.1553 Y23.9383
G01 X32.2391 Y24.0005
G01 X32.2519 Y24.0095
G01 X32.2652 Y24.0179
G01 X32.3546 Y24.0715
G01 X32.3683 Y24.0793
G01 X32.3823 Y24.0863
G01 X32.4747 Y24.1300
G01 X32.3823 Y24.1737
G01 X32.3683 Y24.1807
G01 X32.3546 Y24.1885
G01 X32.2652 Y24.2421
G01 X32.2519 Y24.2505
G01 X32.2391 Y24.2595
G01 X32.1608 Y24.3176
G01 X31.8540 Y24.3176
G01 X31.8383 Y24.3180
G01 X31.7557 Y24.3222
G01 X31.7323 Y24.3248
G01 X31.6583 Y24.3357
G01 X31.6428 Y24.3384
G01 X31.6275 Y24.3419
G01 X31.5549 Y24.3600
G01 X31.5398 Y24.3642
G01 X31.5249 Y24.3692
G01 X31.4544 Y24.3944
G01 X31.4398 Y24.4000
G01 X31.4254 Y24.4064
G01 X31.3578 Y24.4384
G01 X31.3438 Y24.4454
G01 X31.3301 Y24.4532
G01 X31.2659 Y24.4916
G01 X31.2527 Y24.5000
G01 X31.2398 Y24.5091
G01 X31.1797 Y24.5536
G01 X31.1613 Y24.5684
G01 X31.1000 Y24.6238
G01 X31.0886 Y24.6346
G01 X29.5566 Y26.1666
G01 X29.5458 Y26.1780
G01 X29.4956 Y26.2335
G01 X29.4853 Y26.2453
G01 X29.4756 Y26.2577
G01 X29.4311 Y26.3178
G01 X29.4220 Y26.3307
G01 X29.4136 Y26.3439
G01 X29.3752 Y26.4081
G01 X29.3638 Y26.4287
G01 X29.3435 Y26.4714
G01 X29.3251 Y26.5106
G01 X29.3164 Y26.5324
G01 X29.2912 Y26.6029
G01 X29.2862 Y26.6178
G01 X29.2820 Y26.6329
G01 X29.2639 Y26.7055
G01 X29.2604 Y26.7208
G01 X29.2577 Y26.7363
G01 X29.2468 Y26.8103
G01 X29.2448 Y26.8259
G01 X29.2437 Y26.8416
G01 X29.2397 Y26.9241
G01 X29.2396 Y33.8270
G01 X29.2400 Y33.8427
G01 X29.2437 Y33.9174
G01 X29.2448 Y33.9331
G01 X29.2468 Y33.9487
G01 X29.2577 Y34.0227
G01 X29.2604 Y34.0382
G01 X29.2639 Y34.0535
G01 X29.2820 Y34.1261
G01 X29.2886 Y34.1487
G01 X29.3164 Y34.2266
G01 X29.3220 Y34.2412
G01 X29.3284 Y34.2556
G01 X29.3604 Y34.3232
G01 X29.3674 Y34.3372
G01 X29.3752 Y34.3509
G01 X29.4136 Y34.4151
G01 X29.4220 Y34.4283
G01 X29.4311 Y34.4412
G01 X29.4756 Y34.5013
G01 X29.4904 Y34.5197
G01 X29.5458 Y34.5810
G01 X29.5566 Y34.5924
G01 X31.2896 Y36.3254
G01 X31.3010 Y36.3362
G01 X31.3623 Y36.3916
G01 X31.3807 Y36.4064
G01 X31.4408 Y36.4509
G01 X31.4537 Y36.4600
G01 X31.4669 Y36.4684
G01 X31.5119 Y36.4953
G01 X31.5448 Y36.5146
G01 X31.5588 Y36.5216
G01 X31.6264 Y36.5536
G01 X31.6408 Y36.5600
G01 X31.6554 Y36.5656
G01 X31.7259 Y36.5908
G01 X31.7408 Y36.5958
G01 X31.7559 Y36.6000
G01 X31.8285 Y36.6181
G01 X31.8438 Y36.6216
G01 X31.8593 Y36.6243
G01 X31.9411 Y36.6363
G01 X31.9646 Y36.6383
G01 X32.0471 Y36.6423
G01 X32.1608 Y36.6424
G01 X32.2391 Y36.7005
G01 X32.2519 Y36.7095
G01 X32.2652 Y36.7179
G01 X32.3546 Y36.7715
G01 X32.3683 Y36.7793
G01 X32.3823 Y36.7863
G01 X32.4747 Y36.8300
G01 X32.3823 Y36.8737
G01 X32.3683 Y36.8807
G01 X32.3546 Y36.8885
G01 X32.2652 Y36.9421
G01 X32.2519 Y36.9505
G01 X32.2391 Y36.9595
G01 X32.1553 Y37.0217
G01 X32.1430 Y37.0313
G01 X32.1311 Y37.0416
G01 X32.0538 Y37.1116
G01 X32.0424 Y37.1224
G01 X32.0316 Y37.1338
G01 X31.9616 Y37.2111
G01 X31.9513 Y37.2230
G01 X31.9417 Y37.2353
G01 X31.8795 Y37.3191
G01 X31.8705 Y37.3319
G01 X31.8621 Y37.3452
G01 X31.8085 Y37.4346
G01 X31.8007 Y37.4483
G01 X31.7937 Y37.4623
G01 X31.7491 Y37.5566
G01 X31.7427 Y37.5709
G01 X31.7371 Y37.5856
G01 X31.7020 Y37.6838
G01 X31.6970 Y37.6987
G01 X31.6928 Y37.7138
G01 X31.6675 Y37.8150
G01 X31.6641 Y37.8303
G01 X31.6614 Y37.8458
G01 X31.6461 Y37.9489
G01 X31.6435 Y37.9723
G01 X31.6379 Y38.0843
G01 X31.6375 Y38.1000
G01 X31.6379 Y38.1157
G01 X31.6430 Y38.2198
G01 X31.6442 Y38.2355
G01 X31.6461 Y38.2511
G01 X31.6614 Y38.3542
G01 X31.6641 Y38.3697
G01 X31.6675 Y38.3850
G01 X31.6928 Y38.4862
G01 X31.6970 Y38.5013
G01 X31.7020 Y38.5162
G01 X31.7371 Y38.6144
G01 X31.7427 Y38.6291
G01 X31.7491 Y38.6434
G01 X31.7937 Y38.7377
G01 X31.8007 Y38.7517
G01 X31.8085 Y38.7654
G01 X31.8621 Y38.8548
G01 X31.8705 Y38.8681
G01 X31.8795 Y38.8809
G01 X31.9376 Y38.9592
G01 X31.9376 Y39.7808
G01 X31.8795 Y39.8591
G01 X31.8705 Y39.8719
G01 X31.8621 Y39.8852
G01 X31.8085 Y39.9746
G01 X31.8007 Y39.9883
G01 X31.7937 Y40.0023
G01 X31.7491 Y40.0966
G01 X31.7427 Y40.1109
G01 X31.7371 Y40.1256
G01 X31.7020 Y40.2238
G01 X31.6970 Y40.2387
G01 X31.6928 Y40.2538
G01 X31.6675 Y40.3550
G01 X31.6641 Y40.3703
G01 X31.6614 Y40.3858
G01 X31.6461 Y40.4889
G01 X31.6442 Y40.5045
G01 X31.6430 Y40.5202
G01 X31.6379 Y40.6243
G01 X31.6375 Y40.6400
G01 X31.6379 Y40.6557
G01 X31.6430 Y40.7598
G01 X31.6442 Y40.7755
G01 X31.6461 Y40.7911
G01 X31.6626 Y40.9020
G01 X31.6675 Y40.9250
G01 X31.6928 Y41.0262
G01 X31.6970 Y41.0413
G01 X31.7020 Y41.0562
G01 X31.7371 Y41.1544
G01 X31.7427 Y41.1691
G01 X31.7491 Y41.1834
G01 X31.7937 Y41.2777
G01 X31.8007 Y41.2917
G01 X31.8085 Y41.3054
G01 X31.8621 Y41.3948
G01 X31.8705 Y41.4081
G01 X31.8795 Y41.4209
G01 X31.9417 Y41.5047
G01 X31.9513 Y41.5170
G01 X31.9616 Y41.5289
G01 X32.0316 Y41.6062
G01 X32.0424 Y41.6176
G01 X32.0538 Y41.6284
G01 X32.1311 Y41.6984
G01 X32.1430 Y41.7087
G01 X32.1553 Y41.7183
G01 X32.2391 Y41.7805
G01 X32.2519 Y41.7895
G01 X32.2646 Y41.7976
G01 X32.2236 Y41.7994
G01 X32.2079 Y41.8005
G01 X32.1923 Y41.8025
G01 X32.1620 Y41.8070
G01 X32.1465 Y41.8097
G01 X32.1312 Y41.8131
G01 X32.1014 Y41.8205
G01 X32.0863 Y41.8247
G01 X32.0714 Y41.8297
G01 X32.0352 Y41.8427
G01 X32.0207 Y41.8487
G01 X31.9787 Y41.8686
G01 X31.9649 Y41.8760
G01 X31.9318 Y41.8957
G01 X31.9121 Y41.9085
G01 X31.8811 Y41.9314
G01 X31.8687 Y41.9410
G01 X31.8568 Y41.9513
G01 X31.8341 Y41.9719
G01 X31.8227 Y41.9827
G01 X31.8119 Y41.9941
G01 X31.7913 Y42.0168
G01 X31.7810 Y42.0287
G01 X31.7714 Y42.0411
G01 X31.7531 Y42.0657
G01 X31.7441 Y42.0785
G01 X31.7357 Y42.0918
G01 X31.7199 Y42.1181
G01 X31.7122 Y42.1318
G01 X31.7051 Y42.1458
G01 X31.6920 Y42.1735
G01 X31.6856 Y42.1879
G01 X31.6800 Y42.2025
G01 X31.6697 Y42.2314
G01 X31.6647 Y42.2463
G01 X31.6605 Y42.2614
G01 X31.6531 Y42.2912
G01 X31.6497 Y42.3065
G01 X31.6470 Y42.3220
G01 X31.6425 Y42.3523
G01 X31.6399 Y42.3757
G01 X31.6379 Y42.4142
G01 X31.6375 Y42.4299
G01 X31.6375 Y43.9301
G01 X31.6379 Y43.9458
G01 X31.6394 Y43.9764
G01 X31.6414 Y43.9999
G01 X31.6482 Y44.0458
G01 X31.6513 Y44.0612
G01 X31.6625 Y44.1062
G01 X31.6671 Y44.1212
G01 X31.6827 Y44.1648
G01 X31.6887 Y44.1793
G01 X31.7086 Y44.2213
G01 X31.7160 Y44.2351
G01 X31.7398 Y44.2749
G01 X31.7485 Y44.2879
G01 X31.7761 Y44.3252
G01 X31.7861 Y44.3373
G01 X31.8172 Y44.3717
G01 X31.8283 Y44.3828
G01 X31.8627 Y44.4139
G01 X31.8748 Y44.4239
G01 X31.8865 Y44.4326
G01 X31.0853 Y44.4326
G01 X22.0928 Y35.4401
G01 X22.1052 Y35.4479
G01 X22.1946 Y35.5015
G01 X22.2083 Y35.5093
G01 X22.2223 Y35.5163
G01 X22.3166 Y35.5609
G01 X22.3309 Y35.5673
G01 X22.3456 Y35.5729
G01 X22.4438 Y35.6080
G01 X22.4587 Y35.6130
G01 X22.4738 Y35.6172
G01 X22.5750 Y35.6425
G01 X22.5903 Y35.6459
G01 X22.6058 Y35.6486
G01 X22.7089 Y35.6639
G01 X22.7245 Y35.6658
G01 X22.7402 Y35.6670
G01 X22.8443 Y35.6721
G01 X22.8600 Y35.6725
G01 X22.8757 Y35.6721
G01 X22.9798 Y35.6670
G01 X22.9955 Y35.6658
G01 X23.0111 Y35.6639
G01 X23.1142 Y35.6486
G01 X23.1297 Y35.6459
G01 X23.1450 Y35.6425
G01 X23.2462 Y35.6172
G01 X23.2613 Y35.6130
G01 X23.2762 Y35.6080
G01 X23.3744 Y35.5729
G01 X23.3891 Y35.5673
G01 X23.4034 Y35.5609
G01 X23.4977 Y35.5163
G01 X23.5117 Y35.5093
G01 X23.5254 Y35.5015
G01 X23.6148 Y35.4479
G01 X23.6281 Y35.4395
G01 X23.6409 Y35.4305
G01 X23.7247 Y35.3683
G01 X23.7370 Y35.3587
G01 X23.7489 Y35.3484
G01 X23.8262 Y35.2784
G01 X23.8376 Y35.2676
G01 X23.8484 Y35.2562
G01 X23.9184 Y35.1789
G01 X23.9287 Y35.1670
G01 X23.9383 Y35.1547
G01 X24.0005 Y35.0709
G01 X24.0095 Y35.0581
G01 X24.0179 Y35.0448
G01 X24.0755 Y34.9486
G01 X24.0863 Y34.9277
G01 X24.1309 Y34.8334
G01 X24.1373 Y34.8191
G01 X24.1429 Y34.8044
G01 X24.1780 Y34.7062
G01 X24.1830 Y34.6913
G01 X24.1872 Y34.6762
G01 X24.2125 Y34.5750
G01 X24.2159 Y34.5597
G01 X24.2186 Y34.5442
G01 X24.2339 Y34.4411
G01 X24.2358 Y34.4255
G01 X24.2370 Y34.4098
G01 X24.2421 Y34.3057
G01 X24.2425 Y34.2900
G01 X24.2421 Y34.2743
G01 X24.2370 Y34.1702
G01 X24.2358 Y34.1545
G01 X24.2339 Y34.1389
G01 X24.2186 Y34.0358
G01 X24.2159 Y34.0203
G01 X24.2125 Y34.0050
G01 X24.1872 Y33.9038
G01 X24.1806 Y33.8812
G01 X24.1429 Y33.7756
G01 X24.1373 Y33.7609
G01 X24.1309 Y33.7466
G01 X24.0863 Y33.6523
G01 X24.0793 Y33.6383
G01 X24.0715 Y33.6246
G01 X24.0179 Y33.5352
G01 X24.0095 Y33.5219
G01 X24.0005 Y33.5091
G01 X23.9383 Y33.4253
G01 X23.9236 Y33.4069
G01 X23.8484 Y33.3238
G01 X23.8376 Y33.3124
G01 X23.8262 Y33.3016
G01 X23.7489 Y33.2316
G01 X23.7309 Y33.2164
G01 X23.6409 Y33.1495
G01 X23.6215 Y33.1362
G01 X23.5186 Y33.0745
G01 X23.4977 Y33.0637
G01 X23.4476 Y33.0400
G00 Z2.0000
G00 X23.9724 Y34.2925
G01 F60.00
G01 Z-0.0000
G01 F120.00
G01 X23.9671 Y34.3990
G01 X23.9511 Y34.5070
G01 X23.9246 Y34.6129
G01 X23.8878 Y34.7157
G01 X23.8411 Y34.8144
G01 X23.7850 Y34.9081
G01 X23.7200 Y34.9958
G01 X23.6467 Y35.0767
G01 X23.5658 Y35.1500
G01 X23.4781 Y35.2150
G01 X23.3844 Y35.2711
G01 X23.2857 Y35.3178
G01 X23.1829 Y35.3546
G01 X23.0770 Y35.3811
G01 X22.9690 Y35.3971
G01 X22.8600 Y35.4025
G01 X22.7510 Y35.3971
G01 X22.6430 Y35.3811
G01 X22.5371 Y35.3546
G01 X22.4343 Y35.3178
G01 X22.3356 Y35.2711
G01 X22.2419 Y35.2150
G01 X22.1542 Y35.1500
G01 X22.0733 Y35.0767
G01 X22.0000 Y34.9958
G01 X21.9350 Y34.9081
G01 X21.8789 Y34.8144
G01 X21.8322 Y34.7157
G01 X21.7954 Y34.6129
G01 X21.7689 Y34.5070
G01 X21.7529 Y34.3990
G01 X21.7475 Y34.2900
G01 X21.7529 Y34.1810
G01 X21.7689 Y34.0730
G01 X21.7954 Y33.9671
G01 X21.8322 Y33.8643
G01 X21.8789 Y33.7656
G01 X21.9350 Y33.6719
G01 X22.0000 Y33.5842
G01 X22.0733 Y33.5033
G01 X22.1542 Y33.4300
G01 X22.2419 Y33.3650
G01 X22.3356 Y33.3089
G01 X22.4343 Y33.2622
G01 X22.5371 Y33.2254
G01 X22.6430 Y33.1989
G01 X22.7510 Y33.1829
G01 X22.8600 Y33.1775
G01 X22.9690 Y33.1829
G01 X23.0770 Y33.1989
G01 X23.1829 Y33.2254
G01 X23.2857 Y33.2622
G01 X23.3844 Y33.3089
G01 X23.4781 Y33.3650
G01 X23.5658 Y33.4300
G01 X23.6467 Y33.5033
G01 X23.7200 Y33.5842
G01 X23.7850 Y33.6719
G01 X23.8411 Y33.7656
G01 X23.8878 Y33.8643
G01 X23.9246 Y33.9671
G01 X23.9511 Y34.0730
G01 X23.9671 Y34.1810
G01 X23.9724 Y34.2925
G00 Z2.0000
G00 X24.0623 Y34.2969
G01 F60.00
G01 Z-0.0000
G01 F120.00
G01 X24.0567 Y34.4079
G01 X24.0394 Y34.5246
G01 X24.0107 Y34.6391
G01 X23.9710 Y34.7502
G01 X23.9205 Y34.8569
G01 X23.8598 Y34.9581
G01 X23.7895 Y35.0529
G01 X23.7103 Y35.1403
G01 X23.6229 Y35.2195
G01 X23.5281 Y35.2898
G01 X23.4269 Y35.3505
G01 X23.3202 Y35.4010
G01 X23.2091 Y35.4407
G01 X23.0946 Y35.4694
G01 X22.9779 Y35.4867
G01 X22.8600 Y35.4925
G01 X22.7421 Y35.4867
G01 X22.6254 Y35.4694
G01 X22.5109 Y35.4407
G01 X22.3998 Y35.4010
G01 X22.2931 Y35.3505
G01 X22.1919 Y35.2898
G01 X22.0971 Y35.2195
G01 X22.0097 Y35.1403
G01 X21.9305 Y35.0529
G01 X21.8602 Y34.9581
G01 X21.7995 Y34.8569
G01 X21.7490 Y34.7502
G01 X21.7093 Y34.6391
G01 X21.6806 Y34.5246
G01 X21.6633 Y34.4079
G01 X21.6575 Y34.2900
G01 X21.6633 Y34.1721
G01 X21.6806 Y34.0554
G01 X21.7093 Y33.9409
G01 X21.7490 Y33.8298
G01 X21.7995 Y33.7231
G01 X21.8602 Y33.6219
G01 X21.9305 Y33.5271
G01 X22.0097 Y33.4397
G01 X22.0971 Y33.3605
G01 X22.1919 Y33.2902
G01 X22.2931 Y33.2295
G01 X22.3998 Y33.1790
G01 X22.5109 Y33.1393
G01 X22.6254 Y33.1106
G01 X22.7421 Y33.0933
G01 X22.8600 Y33.0875
G01 X22.9779 Y33.0933
G01 X23.0946 Y33.1106
G01 X23.2091 Y33.1393
G01 X23.3202 Y33.1790
G01 X23.4269 Y33.2295
G01 X23.5281 Y33.2902
G01 X23.6229 Y33.3605
G01 X23.7103 Y33.4397
G01 X23.7895 Y33.5271
G01 X23.8598 Y33.6219
G01 X23.9205 Y33.7231
G01 X23.9710 Y33.8298
G01 X24.0107 Y33.9409
G01 X24.0394 Y34.0554
G01 X24.0567 Y34.1721
G01 X24.0623 Y34.2831
G01 X24.0623 Y34.2969
G00 Z2.0000
G00 X29.4196 Y33.8270
G01 F60.00
G01 Z-0.0000
G01 F120.00
G01 X29.4196 Y26.9320
G01 X29.4240 Y26.8436
G01 X29.4370 Y26.7560
G01 X29.4585 Y26.6701
G01 X29.4883 Y26.5867
G01 X29.5262 Y26.5066
G01 X29.5717 Y26.4307
G01 X29.6244 Y26.3595
G01 X29.6839 Y26.2939
G01 X31.2184 Y24.7595
G01 X31.2763 Y24.7069
G01 X31.2870 Y24.6982
G01 X31.3527 Y24.6497
G01 X31.4256 Y24.6058
G01 X31.4348 Y24.6011
G01 X31.5087 Y24.5663
G01 X31.5921 Y24.5365
G01 X31.6780 Y24.5150
G01 X31.7621 Y24.5023
G01 X31.7724 Y24.5015
G01 X31.8540 Y24.4976
G01 X32.2269 Y24.4976
G01 X32.2519 Y24.4749
G01 X32.2598 Y24.4683
G01 X32.3491 Y24.4021
G01 X32.3577 Y24.3965
G01 X32.4472 Y24.3429
G01 X32.4562 Y24.3379
G01 X32.5598 Y24.2890
G01 X32.6644 Y24.2514
G01 X32.6776 Y24.2474
G01 X32.7787 Y24.2221
G01 X32.7922 Y24.2194
G01 X32.9021 Y24.2033
G01 X33.0131 Y24.1977
G01 X33.0269 Y24.1977
G01 X33.1379 Y24.2033
G01 X33.2546 Y24.2206
G01 X33.3624 Y24.2474
G01 X33.3756 Y24.2514
G01 X33.4802 Y24.2890
G01 X33.5869 Y24.3395
G01 X33.6823 Y24.3965
G01 X33.6937 Y24.4041
G01 X33.7774 Y24.4662
G01 X33.7881 Y24.4749
G01 X33.8703 Y24.5497
G01 X33.9451 Y24.6319
G01 X33.9538 Y24.6426
G01 X34.0198 Y24.7319
G01 X34.0805 Y24.8331
G01 X34.1310 Y24.9398
G01 X34.1686 Y25.0444
G01 X34.1726 Y25.0576
G01 X34.1979 Y25.1587
G01 X34.2006 Y25.1722
G01 X34.2167 Y25.2821
G01 X34.2223 Y25.3931
G01 X34.2223 Y25.4069
G01 X34.2167 Y25.5179
G01 X34.1994 Y25.6346
G01 X34.1707 Y25.7491
G01 X34.1334 Y25.8538
G01 X34.1282 Y25.8665
G01 X34.0836 Y25.9607
G01 X34.0771 Y25.9728
G01 X34.0198 Y26.0681
G01 X33.9538 Y26.1574
G01 X33.9451 Y26.1681
G01 X33.8703 Y26.2503
G01 X33.7829 Y26.3295
G01 X33.6881 Y26.3998
G01 X33.5869 Y26.4605
G01 X33.4802 Y26.5110
G01 X33.3691 Y26.5507
G01 X33.2546 Y26.5794
G01 X33.1447 Y26.5959
G01 X33.1344 Y26.5970
G01 X33.0200 Y26.6025
G01 X32.9021 Y26.5967
G01 X32.7854 Y26.5794
G01 X32.6776 Y26.5526
G01 X32.6677 Y26.5497
G01 X32.5598 Y26.5110
G01 X32.4593 Y26.4636
G01 X32.4501 Y26.4589
G01 X32.3577 Y26.4035
G01 X32.3491 Y26.3979
G01 X32.2598 Y26.3317
G01 X32.2519 Y26.3251
G01 X32.2274 Y26.3028
G01 X31.2244 Y27.3058
G01 X31.2244 Y33.4532
G01 X32.3400 Y34.5688
G01 X32.3491 Y34.5621
G01 X32.3577 Y34.5565
G01 X32.4472 Y34.5029
G01 X32.4593 Y34.4964
G01 X32.5598 Y34.4490
G01 X32.6644 Y34.4114
G01 X32.6776 Y34.4074
G01 X32.7854 Y34.3806
G01 X32.9021 Y34.3633
G01 X33.0200 Y34.3575
G01 X33.1379 Y34.3633
G01 X33.2546 Y34.3806
G01 X33.3624 Y34.4074
G01 X33.3756 Y34.4114
G01 X33.4738 Y34.4466
G01 X33.4865 Y34.4518
G01 X33.5869 Y34.4995
G01 X33.6881 Y34.5602
G01 X33.7829 Y34.6305
G01 X33.8678 Y34.7073
G01 X33.8750 Y34.7147
G01 X33.9451 Y34.7919
G01 X33.9538 Y34.8026
G01 X34.0198 Y34.8919
G01 X34.0805 Y34.9931
G01 X34.1310 Y35.0998
G01 X34.1686 Y35.2044
G01 X34.1726 Y35.2176
G01 X34.1979 Y35.3187
G01 X34.2006 Y35.3322
G01 X34.2167 Y35.4421
G01 X34.2225 Y35.5600
G01 X34.2167 Y35.6779
G01 X34.2006 Y35.7878
G01 X34.1979 Y35.8013
G01 X34.1726 Y35.9024
G01 X34.1686 Y35.9156
G01 X34.1310 Y36.0202
G01 X34.0821 Y36.1238
G01 X34.0771 Y36.1328
G01 X34.0198 Y36.2281
G01 X33.9538 Y36.3174
G01 X33.9451 Y36.3281
G01 X33.8703 Y36.4103
G01 X33.7881 Y36.4851
G01 X33.7774 Y36.4938
G01 X33.6881 Y36.5598
G01 X33.5869 Y36.6205
G01 X33.4865 Y36.6682
G01 X33.4738 Y36.6734
G01 X33.3691 Y36.7107
G01 X33.2613 Y36.7379
G01 X33.2478 Y36.7406
G01 X33.1379 Y36.7567
G01 X33.0200 Y36.7625
G01 X32.9021 Y36.7567
G01 X32.7854 Y36.7394
G01 X32.6742 Y36.7117
G01 X32.6644 Y36.7086
G01 X32.5598 Y36.6710
G01 X32.4593 Y36.6236
G01 X32.4501 Y36.6189
G01 X32.3577 Y36.5635
G01 X32.3491 Y36.5579
G01 X32.2598 Y36.4917
G01 X32.2519 Y36.4851
G01 X32.2269 Y36.4624
G01 X32.0481 Y36.4622
G01 X31.9666 Y36.4580
G01 X31.8823 Y36.4457
G01 X31.8722 Y36.4435
G01 X31.7997 Y36.4254
G01 X31.7865 Y36.4214
G01 X31.7097 Y36.3937
G01 X31.6327 Y36.3574
G01 X31.6236 Y36.3524
G01 X31.5595 Y36.3140
G01 X31.5480 Y36.3063
G01 X31.4825 Y36.2576
G01 X31.4194 Y36.2005
G01 X29.6839 Y34.4651
G01 X29.6267 Y34.4021
G01 X29.6202 Y34.3940
G01 X29.5717 Y34.3283
G01 X29.5296 Y34.2584
G01 X29.5231 Y34.2462
G01 X29.4911 Y34.1786
G01 X29.4858 Y34.1659
G01 X29.4585 Y34.0889
G01 X29.4370 Y34.0030
G01 X29.4240 Y33.9154
G01 X29.4196 Y33.8270
G00 Z2.0000
G00 X29.5096 Y33.8270
G01 F60.00
G01 Z-0.0000
G01 F120.00
G01 X29.5096 Y26.9320
G01 X29.5135 Y26.8524
G01 X29.5252 Y26.7735
G01 X29.5446 Y26.6962
G01 X29.5715 Y26.6211
G01 X29.6055 Y26.5490
G01 X29.6465 Y26.4807
G01 X29.6940 Y26.4166
G01 X29.7476 Y26.3576
G01 X31.2804 Y24.8247
G01 X31.3406 Y24.7705
G01 X31.4027 Y24.7245
G01 X31.4700 Y24.6841
G01 X31.5431 Y24.6495
G01 X31.6182 Y24.6226
G01 X31.6955 Y24.6032
G01 X31.7732 Y24.5917
G01 X31.8540 Y24.5876
G01 X32.2616 Y24.5876
G01 X32.3142 Y24.5400
G01 X32.4009 Y24.4757
G01 X32.4967 Y24.4183
G01 X32.5943 Y24.3722
G01 X32.6947 Y24.3362
G01 X32.8054 Y24.3085
G01 X32.9110 Y24.2929
G01 X33.0175 Y24.2876
G01 X33.1290 Y24.2929
G01 X33.2370 Y24.3089
G01 X33.3406 Y24.3347
G01 X33.4457 Y24.3722
G01 X33.5444 Y24.4189
G01 X33.6401 Y24.4764
G01 X33.7276 Y24.5416
G01 X33.8067 Y24.6133
G01 X33.8784 Y24.6924
G01 X33.9450 Y24.7819
G01 X34.0011 Y24.8756
G01 X34.0478 Y24.9743
G01 X34.0853 Y25.0794
G01 X34.1115 Y25.1854
G01 X34.1271 Y25.2910
G01 X34.1324 Y25.3975
G01 X34.1271 Y25.5090
G01 X34.1111 Y25.6170
G01 X34.0846 Y25.7229
G01 X34.0468 Y25.8280
G01 X34.0011 Y25.9244
G01 X33.9463 Y26.0160
G01 X33.8807 Y26.1048
G01 X33.8067 Y26.1867
G01 X33.7258 Y26.2600
G01 X33.6381 Y26.3250
G01 X33.5444 Y26.3811
G01 X33.4457 Y26.4278
G01 X33.3429 Y26.4646
G01 X33.2370 Y26.4911
G01 X33.1278 Y26.5072
G01 X33.0200 Y26.5125
G01 X32.9110 Y26.5071
G01 X32.8030 Y26.4911
G01 X32.6971 Y26.4646
G01 X32.5943 Y26.4278
G01 X32.4945 Y26.3805
G01 X32.4009 Y26.3243
G01 X32.3142 Y26.2600
G01 X32.2616 Y26.2124
G01 X32.1905 Y26.2124
G01 X31.1344 Y27.2685
G01 X31.1344 Y33.4905
G01 X32.3312 Y34.6873
G01 X32.4019 Y34.6350
G01 X32.4956 Y34.5789
G01 X32.5943 Y34.5322
G01 X32.6947 Y34.4962
G01 X32.8054 Y34.4685
G01 X32.9110 Y34.4529
G01 X33.0200 Y34.4475
G01 X33.1290 Y34.4529
G01 X33.2370 Y34.4689
G01 X33.3429 Y34.4954
G01 X33.4434 Y34.5313
G01 X33.5466 Y34.5801
G01 X33.6381 Y34.6350
G01 X33.7276 Y34.7016
G01 X33.8067 Y34.7733
G01 X33.8800 Y34.8542
G01 X33.9450 Y34.9419
G01 X33.9999 Y35.0334
G01 X34.0487 Y35.1366
G01 X34.0846 Y35.2371
G01 X34.1111 Y35.3430
G01 X34.1271 Y35.4510
G01 X34.1324 Y35.5575
G01 X34.1268 Y35.6715
G01 X34.1111 Y35.7770
G01 X34.0846 Y35.8829
G01 X34.0478 Y35.9857
G01 X34.0017 Y36.0833
G01 X33.9450 Y36.1781
G01 X33.8784 Y36.2676
G01 X33.8067 Y36.3467
G01 X33.7276 Y36.4184
G01 X33.6381 Y36.4850
G01 X33.5422 Y36.5422
G01 X33.4457 Y36.5878
G01 X33.3453 Y36.6238
G01 X33.2370 Y36.6511
G01 X33.1278 Y36.6672
G01 X33.0200 Y36.6725
G01 X32.9110 Y36.6671
G01 X32.8030 Y36.6511
G01 X32.6982 Y36.6249
G01 X32.5943 Y36.5878
G01 X32.4945 Y36.5405
G01 X32.4009 Y36.4843
G01 X32.3142 Y36.4200
G01 X32.2616 Y36.3724
G01 X32.0525 Y36.3723
G01 X31.9754 Y36.3685
G01 X31.8977 Y36.3570
G01 X31.8168 Y36.3366
G01 X31.7441 Y36.3105
G01 X31.6731 Y36.2770
G01 X31.6017 Y36.2341
G01 X31.5396 Y36.1880
G01 X31.4806 Y36.1344
G01 X29.7476 Y34.4014
G01 X29.6948 Y34.3433
G01 X29.6465 Y34.2783
G01 X29.6068 Y34.2121
G01 X29.5706 Y34.1356
G01 X29.5446 Y34.0628
G01 X29.5252 Y33.9855
G01 X29.5135 Y33.9066
G01 X29.5096 Y33.8270
G00 Z2.0000
G00 X32.4747 Y34.2900
G01 F60.00
G01 Z-0.0000
G01 F120.00
G01 X32.3823 Y34.3337
G01 X32.3671 Y34.3414
G01 X31.4044 Y33.3787
G01 X31.4044 Y27.3803
G01 X32.2421 Y26.5426
G01 X32.2519 Y26.5495
G01 X32.2652 Y26.5579
G01 X32.3546 Y26.6115
G01 X32.3683 Y26.6193
G01 X32.3823 Y26.6263
G01 X32.4747 Y26.6700
G01 X32.3823 Y26.7137
G01 X32.3683 Y26.7207
G01 X32.3546 Y26.7285
G01 X32.2652 Y26.7821
G01 X32.2519 Y26.7905
G01 X32.2391 Y26.7995
G01 X32.1553 Y26.8617
G01 X32.1430 Y26.8713
G01 X32.1311 Y26.8816
G01 X32.0538 Y26.9516
G01 X32.0424 Y26.9624
G01 X32.0316 Y26.9738
G01 X31.9616 Y27.0511
G01 X31.9513 Y27.0630
G01 X31.9417 Y27.0753
G01 X31.8795 Y27.1591
G01 X31.8705 Y27.1719
G01 X31.8621 Y27.1852
G01 X31.8085 Y27.2746
G01 X31.8007 Y27.2883
G01 X31.7937 Y27.3023
G01 X31.7491 Y27.3966
G01 X31.7427 Y27.4109
G01 X31.7371 Y27.4256
G01 X31.7020 Y27.5238
G01 X31.6970 Y27.5387
G01 X31.6928 Y27.5538
G01 X31.6675 Y27.6550
G01 X31.6641 Y27.6703
G01 X31.6614 Y27.6858
G01 X31.6461 Y27.7889
G01 X31.6442 Y27.8045
G01 X31.6430 Y27.8202
G01 X31.6379 Y27.9243
G01 X31.6375 Y27.9400
G01 X31.6379 Y27.9557
G01 X31.6430 Y28.0598
G01 X31.6442 Y28.0755
G01 X31.6461 Y28.0911
G01 X31.6614 Y28.1942
G01 X31.6641 Y28.2097
G01 X31.6675 Y28.2250
G01 X31.6928 Y28.3262
G01 X31.6970 Y28.3413
G01 X31.7020 Y28.3562
G01 X31.7371 Y28.4544
G01 X31.7427 Y28.4691
G01 X31.7491 Y28.4834
G01 X31.7937 Y28.5777
G01 X31.8007 Y28.5917
G01 X31.8085 Y28.6054
G01 X31.8621 Y28.6948
G01 X31.8705 Y28.7081
G01 X31.8795 Y28.7209
G01 X31.9376 Y28.7992
G01 X31.9376 Y29.6208
G01 X31.8795 Y29.6991
G01 X31.8705 Y29.7119
G01 X31.8621 Y29.7252
G01 X31.8085 Y29.8146
G01 X31.8007 Y29.8283
G01 X31.7937 Y29.8423
G01 X31.7491 Y29.9366
G01 X31.7427 Y29.9509
G01 X31.7371 Y29.9656
G01 X31.6994 Y30.0712
G01 X31.6928 Y30.0938
G01 X31.6675 Y30.1950
G01 X31.6641 Y30.2103
G01 X31.6614 Y30.2258
G01 X31.6461 Y30.3289
G01 X31.6442 Y30.3445
G01 X31.6430 Y30.3602
G01 X31.6379 Y30.4643
G01 X31.6375 Y30.4800
G01 X31.6379 Y30.4957
G01 X31.6430 Y30.5998
G01 X31.6442 Y30.6155
G01 X31.6461 Y30.6311
G01 X31.6614 Y30.7342
G01 X31.6641 Y30.7497
G01 X31.6675 Y30.7650
G01 X31.6928 Y30.8662
G01 X31.6970 Y30.8813
G01 X31.7020 Y30.8962
G01 X31.7371 Y30.9944
G01 X31.7427 Y31.0091
G01 X31.7491 Y31.0234
G01 X31.7937 Y31.1177
G01 X31.8007 Y31.1317
G01 X31.8085 Y31.1454
G01 X31.8621 Y31.2348
G01 X31.8705 Y31.2481
G01 X31.8795 Y31.2609
G01 X31.9417 Y31.3447
G01 X31.9513 Y31.3570
G01 X31.9616 Y31.3689
G01 X32.0316 Y31.4462
G01 X32.0424 Y31.4576
G01 X32.0538 Y31.4684
G01 X32.1311 Y31.5384
G01 X32.1430 Y31.5487
G01 X32.1553 Y31.5583
G01 X32.2391 Y31.6205
G01 X32.2519 Y31.6295
G01 X32.2652 Y31.6379
G01 X32.3546 Y31.6915
G01 X32.3683 Y31.6993
G01 X32.3823 Y31.7063
G01 X32.4747 Y31.7500
G01 X32.3823 Y31.7937
G01 X32.3683 Y31.8007
G01 X32.3546 Y31.8085
G01 X32.2652 Y31.8621
G01 X32.2519 Y31.8705
G01 X32.2391 Y31.8795
G01 X32.1553 Y31.9417
G01 X32.1430 Y31.9513
G01 X32.1311 Y31.9616
G01 X32.0538 Y32.0316
G01 X32.0424 Y32.0424
G01 X32.0316 Y32.0538
G01 X31.9616 Y32.1311
G01 X31.9513 Y32.1430
G01 X31.9417 Y32.1553
G01 X31.8795 Y32.2391
G01 X31.8705 Y32.2519
G01 X31.8621 Y32.2652
G01 X31.8085 Y32.3546
G01 X31.8007 Y32.3683
G01 X31.7937 Y32.3823
G01 X31.7491 Y32.4766
G01 X31.7427 Y32.4909
G01 X31.7371 Y32.5056
G01 X31.7020 Y32.6038
G01 X31.6970 Y32.6187
G01 X31.6928 Y32.6338
G01 X31.6675 Y32.7350
G01 X31.6641 Y32.7503
G01 X31.6614 Y32.7658
G01 X31.6461 Y32.8689
G01 X31.6442 Y32.8845
G01 X31.6430 Y32.9002
G01 X31.6379 Y33.0043
G01 X31.6376 Y33.0279
G01 X31.6430 Y33.1398
G01 X31.6442 Y33.1555
G01 X31.6461 Y33.1711
G01 X31.6614 Y33.2742
G01 X31.6641 Y33.2897
G01 X31.6675 Y33.3050
G01 X31.6928 Y33.4062
G01 X31.6970 Y33.4213
G01 X31.7020 Y33.4362
G01 X31.7371 Y33.5344
G01 X31.7427 Y33.5491
G01 X31.7491 Y33.5634
G01 X31.7937 Y33.6577
G01 X31.8007 Y33.6717
G01 X31.8085 Y33.6854
G01 X31.8621 Y33.7748
G01 X31.8705 Y33.7881
G01 X31.8795 Y33.8009
G01 X31.9417 Y33.8847
G01 X31.9513 Y33.8970
G01 X31.9616 Y33.9089
G01 X32.0316 Y33.9862
G01 X32.0424 Y33.9976
G01 X32.0538 Y34.0084
G01 X32.1311 Y34.0784
G01 X32.1430 Y34.0887
G01 X32.1553 Y34.0983
G01 X32.2391 Y34.1605
G01 X32.2519 Y34.1695
G01 X32.2652 Y34.1779
G01 X32.3546 Y34.2315
G01 X32.3683 Y34.2393
G01 X32.3823 Y34.2463
G01 X32.4747 Y34.2900
G00 Z2.0000
G00 X32.7817 Y34.2900
G01 F60.00
G01 Z-0.0000
G01 F120.00
G01 X32.7678 Y34.2923
G01 X32.7568 Y34.2948
G01 X32.6448 Y34.3232
G01 X32.6341 Y34.3267
G01 X32.5306 Y34.3638
G01 X32.5151 Y34.3705
G01 X32.4157 Y34.4175
G01 X32.4009 Y34.4257
G01 X32.3529 Y34.4545
G01 X31.3144 Y33.4159
G01 X31.3144 Y27.3431
G01 X32.2333 Y26.4241
G01 X32.3019 Y26.4747
G01 X32.4009 Y26.5343
G01 X32.4107 Y26.5399
G01 X32.4208 Y26.5450
G01 X32.5202 Y26.5919
G01 X32.5359 Y26.5982
G01 X32.6448 Y26.6368
G01 X32.7568 Y26.6652
G01 X32.7678 Y26.6677
G01 X32.7817 Y26.6700
G01 X32.7678 Y26.6723
G01 X32.7568 Y26.6748
G01 X32.6448 Y26.7032
G01 X32.5359 Y26.7418
G01 X32.5254 Y26.7459
G01 X32.5151 Y26.7505
G01 X32.4107 Y26.8001
G01 X32.3115 Y26.8593
G01 X32.3019 Y26.8653
G01 X32.2927 Y26.8718
G01 X32.2089 Y26.9339
G01 X32.2000 Y26.9409
G01 X32.1915 Y26.9483
G01 X32.1061 Y27.0261
G01 X32.0283 Y27.1115
G01 X32.0209 Y27.1200
G01 X32.0139 Y27.1289
G01 X31.9453 Y27.2219
G01 X31.9393 Y27.2315
G01 X31.8801 Y27.3307
G01 X31.8305 Y27.4351
G01 X31.8259 Y27.4454
G01 X31.8218 Y27.4559
G01 X31.7867 Y27.5541
G01 X31.7816 Y27.5702
G01 X31.7548 Y27.6768
G01 X31.7523 Y27.6878
G01 X31.7351 Y27.8021
G01 X31.7337 Y27.8133
G01 X31.7329 Y27.8246
G01 X31.7275 Y27.9400
G01 X31.7329 Y28.0554
G01 X31.7343 Y28.0723
G01 X31.7504 Y28.1810
G01 X31.7523 Y28.1922
G01 X31.7801 Y28.3043
G01 X31.7832 Y28.3152
G01 X31.7867 Y28.3259
G01 X31.8259 Y28.4346
G01 X31.8750 Y28.5392
G01 X31.8801 Y28.5493
G01 X31.9393 Y28.6485
G01 X31.9453 Y28.6581
G01 X31.9518 Y28.6673
G01 X32.0139 Y28.7511
G01 X32.0209 Y28.7600
G01 X32.0276 Y28.7678
G01 X32.0276 Y29.6522
G01 X32.0209 Y29.6600
G01 X32.0139 Y29.6689
G01 X31.9453 Y29.7619
G01 X31.9393 Y29.7715
G01 X31.8801 Y29.8707
G01 X31.8750 Y29.8808
G01 X31.8259 Y29.9854
G01 X31.7867 Y30.0941
G01 X31.7832 Y30.1048
G01 X31.7548 Y30.2168
G01 X31.7523 Y30.2278
G01 X31.7351 Y30.3421
G01 X31.7337 Y30.3533
G01 X31.7329 Y30.3646
G01 X31.7275 Y30.4800
G01 X31.7329 Y30.5954
G01 X31.7337 Y30.6067
G01 X31.7351 Y30.6179
G01 X31.7523 Y30.7322
G01 X31.7801 Y30.8443
G01 X31.7832 Y30.8552
G01 X31.7867 Y30.8659
G01 X31.8218 Y30.9641
G01 X31.8259 Y30.9746
G01 X31.8305 Y30.9849
G01 X31.8801 Y31.0893
G01 X31.9393 Y31.1885
G01 X31.9453 Y31.1981
G01 X32.0139 Y31.2911
G01 X32.0209 Y31.3000
G01 X32.0983 Y31.3858
G01 X32.1061 Y31.3939
G01 X32.1142 Y31.4017
G01 X32.1915 Y31.4717
G01 X32.2000 Y31.4791
G01 X32.2089 Y31.4861
G01 X32.3019 Y31.5547
G01 X32.4009 Y31.6143
G01 X32.4107 Y31.6199
G01 X32.5151 Y31.6695
G01 X32.5254 Y31.6741
G01 X32.6341 Y31.7133
G01 X32.6448 Y31.7168
G01 X32.6557 Y31.7199
G01 X32.7568 Y31.7452
G01 X32.7678 Y31.7477
G01 X32.7817 Y31.7500
G01 X32.7678 Y31.7523
G01 X32.7568 Y31.7548
G01 X32.6557 Y31.7801
G01 X32.6448 Y31.7832
G01 X32.6341 Y31.7867
G01 X32.5254 Y31.8259
G01 X32.4208 Y31.8750
G01 X32.4107 Y31.8801
G01 X32.4009 Y31.8857
G01 X32.3019 Y31.9453
G01 X32.2927 Y31.9518
G01 X32.2000 Y32.0209
G01 X32.1915 Y32.0283
G01 X32.1061 Y32.1061
G01 X32.0283 Y32.1915
G01 X32.0209 Y32.2000
G01 X32.0139 Y32.2089
G01 X31.9453 Y32.3019
G01 X31.9393 Y32.3115
G01 X31.8801 Y32.4107
G01 X31.8305 Y32.5151
G01 X31.8259 Y32.5254
G01 X31.7867 Y32.6341
G01 X31.7832 Y32.6448
G01 X31.7801 Y32.6557
G01 X31.7523 Y32.7678
G01 X31.7504 Y32.7790
G01 X31.7337 Y32.8933
G01 X31.7329 Y32.9046
G01 X31.7275 Y33.0200
G01 X31.7278 Y33.0313
G01 X31.7332 Y33.1411
G01 X31.7351 Y33.1579
G01 X31.7523 Y33.2722
G01 X31.7801 Y33.3843
G01 X31.7832 Y33.3952
G01 X31.7867 Y33.4059
G01 X31.8218 Y33.5041
G01 X31.8259 Y33.5146
G01 X31.8305 Y33.5249
G01 X31.8801 Y33.6293
G01 X31.8857 Y33.6391
G01 X31.9453 Y33.7381
G01 X31.9518 Y33.7473
G01 X32.0209 Y33.8400
G01 X32.0983 Y33.9258
G01 X32.1061 Y33.9339
G01 X32.1142 Y33.9417
G01 X32.1915 Y34.0117
G01 X32.2000 Y34.0191
G01 X32.2089 Y34.0261
G01 X32.3019 Y34.0947
G01 X32.4009 Y34.1543
G01 X32.4107 Y34.1599
G01 X32.4208 Y34.1650
G01 X32.5254 Y34.2141
G01 X32.6341 Y34.2533
G01 X32.6448 Y34.2568
G01 X32.6557 Y34.2599
G01 X32.7568 Y34.2852
G01 X32.7678 Y34.2877
G01 X32.7817 Y34.2900
G00 Z2.0000
G00 X34.2900 Y35.0147
G01 F60.00
G01 Z-0.0000
G01 F120.00
G01 X34.2463 Y34.9223
G01 X34.2393 Y34.9083
G01 X34.2315 Y34.8946
G01 X34.1779 Y34.8052
G01 X34.1695 Y34.7919
G01 X34.1605 Y34.7791
G01 X34.0983 Y34.6953
G01 X34.0887 Y34.6830
G01 X34.0784 Y34.6711
G01 X34.0084 Y34.5938
G01 X33.9976 Y34.5824
G01 X33.9862 Y34.5716
G01 X33.9089 Y34.5016
G01 X33.8970 Y34.4913
G01 X33.8847 Y34.4817
G01 X33.8009 Y34.4195
G01 X33.7881 Y34.4105
G01 X33.7748 Y34.4021
G01 X33.6854 Y34.3485
G01 X33.6717 Y34.3407
G01 X33.6577 Y34.3337
G01 X33.5653 Y34.2900
G01 X33.6577 Y34.2463
G01 X33.6717 Y34.2393
G01 X33.6854 Y34.2315
G01 X33.7748 Y34.1779
G01 X33.7881 Y34.1695
G01 X33.8009 Y34.1605
G01 X33.8847 Y34.0983
G01 X33.8970 Y34.0887
G01 X33.9089 Y34.0784
G01 X33.9862 Y34.0084
G01 X33.9976 Y33.9976
G01 X34.0084 Y33.9862
G01 X34.0784 Y33.9089
G01 X34.0887 Y33.8970
G01 X34.0983 Y33.8847
G01 X34.1605 Y33.8009
G01 X34.1695 Y33.7881
G01 X34.1779 Y33.7748
G01 X34.2315 Y33.6854
G01 X34.2393 Y33.6717
G01 X34.2463 Y33.6577
G01 X34.2900 Y33.5653
G01 X34.3337 Y33.6577
G01 X34.3407 Y33.6717
G01 X34.3485 Y33.6854
G01 X34.4021 Y33.7748
G01 X34.4105 Y33.7881
G01 X34.4195 Y33.8009
G01 X34.4817 Y33.8847
G01 X34.4913 Y33.8970
G01 X34.5016 Y33.9089
G01 X34.5716 Y33.9862
G01 X34.5824 Y33.9976
G01 X34.5938 Y34.0084
G01 X34.6711 Y34.0784
G01 X34.6830 Y34.0887
G01 X34.6953 Y34.0983
G01 X34.7791 Y34.1605
G01 X34.7919 Y34.1695
G01 X34.8052 Y34.1779
G01 X34.8946 Y34.2315
G01 X34.9083 Y34.2393
G01 X34.9223 Y34.2463
G01 X35.0147 Y34.2900
G01 X34.9223 Y34.3337
G01 X34.9083 Y34.3407
G01 X34.8946 Y34.3485
G01 X34.8052 Y34.4021
G01 X34.7919 Y34.4105
G01 X34.7791 Y34.4195
G01 X34.6953 Y34.4817
G01 X34.6830 Y34.4913
G01 X34.6711 Y34.5016
G01 X34.5938 Y34.5716
G01 X34.5824 Y34.5824
G01 X34.5716 Y34.5938
G01 X34.5016 Y34.6711
G01 X34.4913 Y34.6830
G01 X34.4817 Y34.6953
G01 X34.4195 Y34.7791
G01 X34.4105 Y34.7919
G01 X34.4021 Y34.8052
G01 X34.3485 Y34.8946
G01 X34.3407 Y34.9083
G01 X34.3337 Y34.9223
G01 X34.2900 Y35.0147
G00 Z2.0000
G00 X34.2900 Y35.3217
G01 F60.00
G01 Z-0.0000
G01 F120.00
G01 X34.2877 Y35.3078
G01 X34.2852 Y35.2968
G01 X34.2599 Y35.1957
G01 X34.2568 Y35.1848
G01 X34.2533 Y35.1741
G01 X34.2141 Y35.0654
G01 X34.1650 Y34.9608
G01 X34.1599 Y34.9507
G01 X34.1543 Y34.9409
G01 X34.0947 Y34.8419
G01 X34.0261 Y34.7489
G01 X34.0191 Y34.7400
G01 X34.0117 Y34.7315
G01 X33.9339 Y34.6461
G01 X33.8485 Y34.5683
G01 X33.8400 Y34.5609
G01 X33.7473 Y34.4918
G01 X33.7381 Y34.4853
G01 X33.7285 Y34.4793
G01 X33.6293 Y34.4201
G01 X33.6192 Y34.4150
G01 X33.5146 Y34.3659
G01 X33.4059 Y34.3267
G01 X33.3952 Y34.3232
G01 X33.3843 Y34.3201
G01 X33.2832 Y34.2948
G01 X33.2722 Y34.2923
G01 X33.2583 Y34.2900
G01 X33.2722 Y34.2877
G01 X33.2832 Y34.2852
G01 X33.3843 Y34.2599
G01 X33.3952 Y34.2568
G01 X33.4059 Y34.2533
G01 X33.5146 Y34.2141
G01 X33.5249 Y34.2095
G01 X33.6293 Y34.1599
G01 X33.7285 Y34.1007
G01 X33.7381 Y34.0947
G01 X33.8311 Y34.0261
G01 X33.8400 Y34.0191
G01 X33.8485 Y34.0117
G01 X33.9339 Y33.9339
G01 X34.0117 Y33.8485
G01 X34.0191 Y33.8400
G01 X34.0882 Y33.7473
G01 X34.0947 Y33.7381
G01 X34.1007 Y33.7285
G01 X34.1599 Y33.6293
G01 X34.1650 Y33.6192
G01 X34.2141 Y33.5146
G01 X34.2533 Y33.4059
G01 X34.2568 Y33.3952
G01 X34.2599 Y33.3843
G01 X34.2852 Y33.2832
G01 X34.2877 Y33.2722
G01 X34.2900 Y33.2583
G01 X34.2923 Y33.2722
G01 X34.2948 Y33.2832
G01 X34.3201 Y33.3843
G01 X34.3232 Y33.3952
G01 X34.3267 Y33.4059
G01 X34.3659 Y33.5146
G01 X34.4150 Y33.6192
G01 X34.4201 Y33.6293
G01 X34.4257 Y33.6391
G01 X34.4853 Y33.7381
G01 X34.5539 Y33.8311
G01 X34.5609 Y33.8400
G01 X34.5683 Y33.8485
G01 X34.6461 Y33.9339
G01 X34.7315 Y34.0117
G01 X34.7400 Y34.0191
G01 X34.8327 Y34.0882
G01 X34.8419 Y34.0947
G01 X34.8515 Y34.1007
G01 X34.9507 Y34.1599
G01 X34.9608 Y34.1650
G01 X35.0654 Y34.2141
G01 X35.1741 Y34.2533
G01 X35.1848 Y34.2568
G01 X35.1957 Y34.2599
G01 X35.2968 Y34.2852
G01 X35.3078 Y34.2877
G01 X35.3217 Y34.2900
G01 X35.3078 Y34.2923
G01 X35.2968 Y34.2948
G01 X35.1957 Y34.3201
G01 X35.1848 Y34.3232
G01 X35.1741 Y34.3267
G01 X35.0654 Y34.3659
G01 X35.0551 Y34.3705
G01 X34.9507 Y34.4201
G01 X34.8515 Y34.4793
G01 X34.8419 Y34.4853
G01 X34.7489 Y34.5539
G01 X34.7400 Y34.5609
G01 X34.7315 Y34.5683
G01 X34.6461 Y34.6461
G01 X34.5683 Y34.7315
G01 X34.5609 Y34.7400
G01 X34.4918 Y34.8327
G01 X34.4853 Y34.8419
G01 X34.4793 Y34.8515
G01 X34.4201 Y34.9507
G01 X34.3705 Y35.0551
G01 X34.3659 Y35.0654
G01 X34.3267 Y35.1741
G01 X34.3232 Y35.1848
G01 X34.3201 Y35.1957
G01 X34.2948 Y35.2968
G01 X34.2923 Y35.3078
G01 X34.2900 Y35.3217
G00 Z2.0000
G00 X33.5653 Y36.8300
G01 F60.00
G01 Z-0.0000
G01 F120.00
G01 X33.6577 Y36.7863
G01 X33.6717 Y36.7793
G01 X33.6854 Y36.7715
G01 X33.7748 Y36.7179
G01 X33.7881 Y36.7095
G01 X33.8009 Y36.7005
G01 X33.8847 Y36.6383
G01 X33.8970 Y36.6287
G01 X33.9089 Y36.6184
G01 X33.9862 Y36.5484
G01 X33.9976 Y36.5376
G01 X34.0084 Y36.5262
G01 X34.0784 Y36.4489
G01 X34.0887 Y36.4370
G01 X34.0983 Y36.4247
G01 X34.1605 Y36.3409
G01 X34.1695 Y36.3281
G01 X34.1779 Y36.3148
G01 X34.2315 Y36.2254
G01 X34.2393 Y36.2117
G01 X34.2463 Y36.1977
G01 X34.2900 Y36.1053
G01 X34.3337 Y36.1977
G01 X34.3407 Y36.2117
G01 X34.3485 Y36.2254
G01 X34.4021 Y36.3148
G01 X34.4105 Y36.3281
G01 X34.4195 Y36.3409
G01 X34.4817 Y36.4247
G01 X34.4913 Y36.4370
G01 X34.5016 Y36.4489
G01 X34.5716 Y36.5262
G01 X34.5824 Y36.5376
G01 X34.5938 Y36.5484
G01 X34.6711 Y36.6184
G01 X34.6830 Y36.6287
G01 X34.6953 Y36.6383
G01 X34.7791 Y36.7005
G01 X34.7919 Y36.7095
G01 X34.8052 Y36.7179
G01 X34.8946 Y36.7715
G01 X34.9083 Y36.7793
G01 X34.9223 Y36.7863
G01 X35.0147 Y36.8300
G01 X34.9223 Y36.8737
G01 X34.9083 Y36.8807
G01 X34.8946 Y36.8885
G01 X34.8052 Y36.9421
G01 X34.7919 Y36.9505
G01 X34.7791 Y36.9595
G01 X34.6953 Y37.0217
G01 X34.6830 Y37.0313
G01 X34.6711 Y37.0416
G01 X34.5938 Y37.1116
G01 X34.5824 Y37.1224
G01 X34.5716 Y37.1338
G01 X34.5016 Y37.2111
G01 X34.4913 Y37.2230
G01 X34.4817 Y37.2353
G01 X34.4195 Y37.3191
G01 X34.4105 Y37.3319
G01 X34.4021 Y37.3452
G01 X34.3485 Y37.4346
G01 X34.3407 Y37.4483
G01 X34.3337 Y37.4623
G01 X34.2900 Y37.5547
G01 X34.2463 Y37.4623
G01 X34.2393 Y37.4483
G01 X34.2315 Y37.4346
G01 X34.1779 Y37.3452
G01 X34.1695 Y37.3319
G01 X34.1605 Y37.3191
G01 X34.0983 Y37.2353
G01 X34.0887 Y37.2230
G01 X34.0784 Y37.2111
G01 X34.0084 Y37.1338
G01 X33.9976 Y37.1224
G01 X33.9862 Y37.1116
G01 X33.9089 Y37.0416
G01 X33.8970 Y37.0313
G01 X33.8847 Y37.0217
G01 X33.8009 Y36.9595
G01 X33.7881 Y36.9505
G01 X33.7748 Y36.9421
G01 X33.6854 Y36.8885
G01 X33.6717 Y36.8807
G01 X33.6577 Y36.8737
G01 X33.5653 Y36.8300
G00 Z2.0000
G00 X33.2583 Y36.8300
G01 F60.00
G01 Z-0.0000
G01 F120.00
G01 X33.2722 Y36.8277
G01 X33.2832 Y36.8252
G01 X33.3843 Y36.7999
G01 X33.3952 Y36.7968
G01 X33.4059 Y36.7933
G01 X33.5146 Y36.7541
G01 X33.6192 Y36.7050
G01 X33.6293 Y36.6999
G01 X33.6391 Y36.6943
G01 X33.7381 Y36.6347
G01 X33.8311 Y36.5661
G01 X33.8400 Y36.5591
G01 X33.8485 Y36.5517
G01 X33.9339 Y36.4739
G01 X34.0117 Y36.3885
G01 X34.0191 Y36.3800
G01 X34.0882 Y36.2873
G01 X34.0947 Y36.2781
G01 X34.1007 Y36.2685
G01 X34.1599 Y36.1693
G01 X34.1650 Y36.1592
G01 X34.2141 Y36.0546
G01 X34.2533 Y35.9459
G01 X34.2568 Y35.9352
G01 X34.2599 Y35.9243
G01 X34.2852 Y35.8232
G01 X34.2877 Y35.8122
G01 X34.2900 Y35.7983
G01 X34.2923 Y35.8122
G01 X34.2948 Y35.8232
G01 X34.3201 Y35.9243
G01 X34.3232 Y35.9352
G01 X34.3267 Y35.9459
G01 X34.3659 Y36.0546
G01 X34.4150 Y36.1592
G01 X34.4201 Y36.1693
G01 X34.4257 Y36.1791
G01 X34.4853 Y36.2781
G01 X34.5539 Y36.3711
G01 X34.5609 Y36.3800
G01 X34.5683 Y36.3885
G01 X34.6461 Y36.4739
G01 X34.7315 Y36.5517
G01 X34.7400 Y36.5591
G01 X34.8327 Y36.6282
G01 X34.8419 Y36.6347
G01 X34.8515 Y36.6407
G01 X34.9507 Y36.6999
G01 X34.9608 Y36.7050
G01 X35.0654 Y36.7541
G01 X35.1741 Y36.7933
G01 X35.1848 Y36.7968
G01 X35.1957 Y36.7999
G01 X35.2968 Y36.8252
G01 X35.3078 Y36.8277
G01 X35.3217 Y36.8300
G01 X35.3078 Y36.8323
G01 X35.2968 Y36.8348
G01 X35.1957 Y36.8601
G01 X35.1848 Y36.8632
G01 X35.1741 Y36.8667
G01 X35.0654 Y36.9059
G01 X35.0551 Y36.9105
G01 X34.9507 Y36.9601
G01 X34.8515 Y37.0193
G01 X34.8419 Y37.0253
G01 X34.7489 Y37.0939
G01 X34.7400 Y37.1009
G01 X34.7315 Y37.1083
G01 X34.6461 Y37.1861
G01 X34.5683 Y37.2715
G01 X34.5609 Y37.2800
G01 X34.4918 Y37.3727
G01 X34.4853 Y37.3819
G01 X34.4793 Y37.3915
G01 X34.4201 Y37.4907
G01 X34.3705 Y37.5951
G01 X34.3659 Y37.6054
G01 X34.3267 Y37.7141
G01 X34.3232 Y37.7248
G01 X34.3201 Y37.7357
G01 X34.2948 Y37.8368
G01 X34.2923 Y37.8478
G01 X34.2900 Y37.8617
G01 X34.2877 Y37.8478
G01 X34.2852 Y37.8368
G01 X34.2599 Y37.7357
G01 X34.2568 Y37.7248
G01 X34.2533 Y37.7141
G01 X34.2141 Y37.6054
G01 X34.1650 Y37.5008
G01 X34.1599 Y37.4907
G01 X34.1543 Y37.4809
G01 X34.0947 Y37.3819
G01 X34.0261 Y37.2889
G01 X34.0191 Y37.2800
G01 X34.0117 Y37.2715
G01 X33.9339 Y37.1861
G01 X33.8485 Y37.1083
G01 X33.8400 Y37.1009
G01 X33.7473 Y37.0318
G01 X33.7381 Y37.0253
G01 X33.7285 Y37.0193
G01 X33.6293 Y36.9601
G01 X33.6192 Y36.9550
G01 X33.5146 Y36.9059
G01 X33.4059 Y36.8667
G01 X33.3952 Y36.8632
G01 X33.3843 Y36.8601
G01 X33.2832 Y36.8348
G01 X33.2722 Y36.8323
G01 X33.2583 Y36.8300
G00 Z2.0000
G00 X34.2900 Y38.3383
G01 F60.00
G01 Z-0.0000
G01 F120.00
G01 X34.2923 Y38.3522
G01 X34.2948 Y38.3632
G01 X34.3201 Y38.4643
G01 X34.3232 Y38.4752
G01 X34.3267 Y38.4859
G01 X34.3659 Y38.5946
G01 X34.4150 Y38.6992
G01 X34.4201 Y38.7093
G01 X34.4257 Y38.7191
G01 X34.4853 Y38.8181
G01 X34.5539 Y38.9111
G01 X34.5609 Y38.9200
G01 X34.5683 Y38.9285
G01 X34.6461 Y39.0139
G01 X34.7315 Y39.0917
G01 X34.7400 Y39.0991
G01 X34.8327 Y39.1682
G01 X34.8419 Y39.1747
G01 X34.8515 Y39.1807
G01 X34.9507 Y39.2399
G01 X34.9608 Y39.2450
G01 X35.0654 Y39.2941
G01 X35.1741 Y39.3333
G01 X35.1848 Y39.3368
G01 X35.1957 Y39.3399
G01 X35.2968 Y39.3652
G01 X35.3078 Y39.3677
G01 X35.3217 Y39.3700
G01 X35.3078 Y39.3723
G01 X35.2968 Y39.3748
G01 X35.1957 Y39.4001
G01 X35.1848 Y39.4032
G01 X35.1741 Y39.4067
G01 X35.0654 Y39.4459
G01 X35.0551 Y39.4505
G01 X34.9507 Y39.5001
G01 X34.8515 Y39.5593
G01 X34.8419 Y39.5653
G01 X34.7489 Y39.6339
G01 X34.7400 Y39.6409
G01 X34.7315 Y39.6483
G01 X34.6461 Y39.7261
G01 X34.5683 Y39.8115
G01 X34.5609 Y39.8200
G01 X34.4918 Y39.9127
G01 X34.4853 Y39.9219
G01 X34.4793 Y39.9315
G01 X34.4201 Y40.0307
G01 X34.3705 Y40.1351
G01 X34.3659 Y40.1454
G01 X34.3267 Y40.2541
G01 X34.3232 Y40.2648
G01 X34.3201 Y40.2757
G01 X34.2948 Y40.3768
G01 X34.2923 Y40.3878
G01 X34.2900 Y40.4017
G01 X34.2877 Y40.3878
G01 X34.2852 Y40.3768
G01 X34.2568 Y40.2648
G01 X34.2182 Y40.1559
G01 X34.2141 Y40.1454
G01 X34.2095 Y40.1351
G01 X34.1599 Y40.0307
G01 X34.1007 Y39.9315
G01 X34.0947 Y39.9219
G01 X34.0882 Y39.9127
G01 X34.0261 Y39.8289
G01 X34.0191 Y39.8200
G01 X34.0124 Y39.8122
G01 X34.0124 Y38.9278
G01 X34.0191 Y38.9200
G01 X34.0261 Y38.9111
G01 X34.0882 Y38.8273
G01 X34.0947 Y38.8181
G01 X34.1007 Y38.8085
G01 X34.1599 Y38.7093
G01 X34.2095 Y38.6049
G01 X34.2141 Y38.5946
G01 X34.2182 Y38.5841
G01 X34.2568 Y38.4752
G01 X34.2852 Y38.3632
G01 X34.2877 Y38.3522
G01 X34.2900 Y38.3383
G00 Z2.0000
G00 X34.2900 Y38.6453
G01 F60.00
G01 Z-0.0000
G01 F120.00
G01 X34.3337 Y38.7377
G01 X34.3407 Y38.7517
G01 X34.3485 Y38.7654
G01 X34.4021 Y38.8548
G01 X34.4105 Y38.8681
G01 X34.4195 Y38.8809
G01 X34.4817 Y38.9647
G01 X34.4913 Y38.9770
G01 X34.5016 Y38.9889
G01 X34.5716 Y39.0662
G01 X34.5824 Y39.0776
G01 X34.5938 Y39.0884
G01 X34.6711 Y39.1584
G01 X34.6830 Y39.1687
G01 X34.6953 Y39.1783
G01 X34.7791 Y39.2405
G01 X34.7919 Y39.2495
G01 X34.8052 Y39.2579
G01 X34.8946 Y39.3115
G01 X34.9083 Y39.3193
G01 X34.9223 Y39.3263
G01 X35.0147 Y39.3700
G01 X34.9223 Y39.4137
G01 X34.9083 Y39.4207
G01 X34.8946 Y39.4285
G01 X34.8052 Y39.4821
G01 X34.7919 Y39.4905
G01 X34.7791 Y39.4995
G01 X34.6953 Y39.5617
G01 X34.6830 Y39.5713
G01 X34.6711 Y39.5816
G01 X34.5938 Y39.6516
G01 X34.5824 Y39.6624
G01 X34.5716 Y39.6738
G01 X34.5016 Y39.7511
G01 X34.4913 Y39.7630
G01 X34.4817 Y39.7753
G01 X34.4195 Y39.8591
G01 X34.4105 Y39.8719
G01 X34.4021 Y39.8852
G01 X34.3485 Y39.9746
G01 X34.3407 Y39.9883
G01 X34.3337 Y40.0023
G01 X34.2900 Y40.0947
G01 X34.2463 Y40.0023
G01 X34.2393 Y39.9883
G01 X34.2315 Y39.9746
G01 X34.1779 Y39.8852
G01 X34.1695 Y39.8719
G01 X34.1605 Y39.8591
G01 X34.1024 Y39.7808
G01 X34.1024 Y38.9592
G01 X34.1605 Y38.8809
G01 X34.1695 Y38.8681
G01 X34.1779 Y38.8548
G01 X34.2315 Y38.7654
G01 X34.2393 Y38.7517
G01 X34.2463 Y38.7377
G01 X34.2900 Y38.6453
G00 Z2.0000
G00 X32.2076 Y38.8584
G01 F60.00
G01 Z-0.0000
G01 F120.00
G01 X32.1600 Y38.8058
G01 X32.0943 Y38.7170
G01 X32.0389 Y38.6244
G01 X31.9917 Y38.5246
G01 X31.9554 Y38.4229
G01 X31.9289 Y38.3170
G01 X31.9129 Y38.2090
G01 X31.9075 Y38.0988
G01 X31.9129 Y37.9910
G01 X31.9289 Y37.8830
G01 X31.9554 Y37.7771
G01 X31.9922 Y37.6743
G01 X32.0389 Y37.5756
G01 X32.0950 Y37.4819
G01 X32.1600 Y37.3942
G01 X32.2342 Y37.3125
G01 X32.3142 Y37.2400
G01 X32.4019 Y37.1750
G01 X32.4956 Y37.1189
G01 X32.5943 Y37.0722
G01 X32.6971 Y37.0354
G01 X32.8030 Y37.0089
G01 X32.9110 Y36.9929
G01 X33.0200 Y36.9875
G01 X33.1290 Y36.9929
G01 X33.2370 Y37.0089
G01 X33.3429 Y37.0354
G01 X33.4457 Y37.0722
G01 X33.5444 Y37.1189
G01 X33.6381 Y37.1750
G01 X33.7258 Y37.2400
G01 X33.8075 Y37.3142
G01 X33.8800 Y37.3942
G01 X33.9450 Y37.4819
G01 X34.0011 Y37.5756
G01 X34.0468 Y37.6720
G01 X34.0853 Y37.7794
G01 X34.1111 Y37.8830
G01 X34.1271 Y37.9910
G01 X34.1325 Y38.1000
G01 X34.1271 Y38.2090
G01 X34.1111 Y38.3170
G01 X34.0842 Y38.4241
G01 X34.0478 Y38.5257
G01 X34.0005 Y38.6255
G01 X33.9443 Y38.7191
G01 X33.8800 Y38.8058
G01 X33.8324 Y38.8584
G01 X33.8324 Y39.8816
G01 X33.8800 Y39.9342
G01 X33.9443 Y40.0209
G01 X34.0005 Y40.1145
G01 X34.0478 Y40.2143
G01 X34.0842 Y40.3159
G01 X34.1111 Y40.4230
G01 X34.1271 Y40.5310
G01 X34.1325 Y40.6400
G01 X34.1272 Y40.7478
G01 X34.1106 Y40.8594
G01 X34.0846 Y40.9629
G01 X34.0487 Y41.0634
G01 X34.0011 Y41.1644
G01 X33.9436 Y41.2601
G01 X33.8800 Y41.3458
G01 X33.8083 Y41.4249
G01 X33.7258 Y41.5000
G01 X33.6360 Y41.5663
G01 X33.5444 Y41.6211
G01 X33.4469 Y41.6673
G01 X33.3429 Y41.7046
G01 X33.2370 Y41.7311
G01 X33.1290 Y41.7471
G01 X33.0200 Y41.7525
G01 X32.9110 Y41.7471
G01 X32.8030 Y41.7311
G01 X32.6971 Y41.7046
G01 X32.5943 Y41.6678
G01 X32.4956 Y41.6211
G01 X32.4019 Y41.5650
G01 X32.3142 Y41.5000
G01 X32.2333 Y41.4267
G01 X32.1600 Y41.3458
G01 X32.0950 Y41.2581
G01 X32.0389 Y41.1644
G01 X31.9927 Y41.0669
G01 X31.9554 Y40.9629
G01 X31.9285 Y40.8546
G01 X31.9129 Y40.7490
G01 X31.9076 Y40.6425
G01 X31.9129 Y40.5310
G01 X31.9289 Y40.4230
G01 X31.9547 Y40.3194
G01 X31.9927 Y40.2131
G01 X32.0389 Y40.1156
G01 X32.0943 Y40.0230
G01 X32.1600 Y39.9342
G01 X32.2076 Y39.8816
G01 X32.2076 Y38.8584
G00 Z2.0000
G00 X32.1176 Y38.8931
G01 F60.00
G01 Z-0.0000
G01 F120.00
G01 X32.0949 Y38.8681
G01 X32.0883 Y38.8602
G01 X32.0221 Y38.7709
G01 X32.0165 Y38.7623
G01 X31.9611 Y38.6699
G01 X31.9564 Y38.6607
G01 X31.9090 Y38.5602
G01 X31.8703 Y38.4523
G01 X31.8674 Y38.4424
G01 X31.8406 Y38.3346
G01 X31.8233 Y38.2179
G01 X31.8175 Y38.1000
G01 X31.8230 Y37.9856
G01 X31.8241 Y37.9753
G01 X31.8406 Y37.8654
G01 X31.8693 Y37.7509
G01 X31.9090 Y37.6398
G01 X31.9595 Y37.5331
G01 X32.0202 Y37.4319
G01 X32.0905 Y37.3371
G01 X32.1697 Y37.2497
G01 X32.2545 Y37.1727
G01 X32.2626 Y37.1662
G01 X32.3519 Y37.1002
G01 X32.4531 Y37.0395
G01 X32.5598 Y36.9890
G01 X32.6709 Y36.9493
G01 X32.7854 Y36.9206
G01 X32.9021 Y36.9033
G01 X33.0200 Y36.8975
G01 X33.1379 Y36.9033
G01 X33.2546 Y36.9206
G01 X33.3691 Y36.9493
G01 X33.4802 Y36.9890
G01 X33.5869 Y37.0395
G01 X33.6881 Y37.1002
G01 X33.7829 Y37.1705
G01 X33.8703 Y37.2497
G01 X33.9473 Y37.3345
G01 X33.9538 Y37.3426
G01 X34.0198 Y37.4319
G01 X34.0771 Y37.5272
G01 X34.0836 Y37.5393
G01 X34.1282 Y37.6335
G01 X34.1334 Y37.6462
G01 X34.1707 Y37.7509
G01 X34.1994 Y37.8654
G01 X34.2167 Y37.9821
G01 X34.2225 Y38.1000
G01 X34.2167 Y38.2179
G01 X34.1994 Y38.3346
G01 X34.1707 Y38.4491
G01 X34.1322 Y38.5570
G01 X34.1282 Y38.5665
G01 X34.0805 Y38.6669
G01 X34.0217 Y38.7652
G01 X34.0159 Y38.7737
G01 X33.9517 Y38.8602
G01 X33.9451 Y38.8681
G01 X33.9224 Y38.8931
G01 X33.9224 Y39.8469
G01 X33.9451 Y39.8719
G01 X33.9517 Y39.8798
G01 X34.0179 Y39.9691
G01 X34.0235 Y39.9777
G01 X34.0789 Y40.0701
G01 X34.0836 Y40.0793
G01 X34.1310 Y40.1798
G01 X34.1697 Y40.2877
G01 X34.1726 Y40.2976
G01 X34.1994 Y40.4054
G01 X34.2167 Y40.5221
G01 X34.2225 Y40.6400
G01 X34.2170 Y40.7544
G01 X34.2159 Y40.7647
G01 X34.1994 Y40.8746
G01 X34.1726 Y40.9824
G01 X34.1686 Y40.9956
G01 X34.1310 Y41.1002
G01 X34.0836 Y41.2007
G01 X34.0771 Y41.2128
G01 X34.0198 Y41.3081
G01 X33.9495 Y41.4029
G01 X33.8750 Y41.4853
G01 X33.8653 Y41.4950
G01 X33.7829 Y41.5695
G01 X33.6937 Y41.6359
G01 X33.6823 Y41.6435
G01 X33.5869 Y41.7005
G01 X33.4802 Y41.7510
G01 X33.3691 Y41.7907
G01 X33.2546 Y41.8194
G01 X33.1379 Y41.8367
G01 X33.0200 Y41.8425
G01 X32.9021 Y41.8367
G01 X32.7854 Y41.8194
G01 X32.6709 Y41.7907
G01 X32.5598 Y41.7510
G01 X32.4531 Y41.7005
G01 X32.3519 Y41.6398
G01 X32.2571 Y41.5695
G01 X32.1697 Y41.4903
G01 X32.0905 Y41.4029
G01 X32.0202 Y41.3081
G01 X31.9595 Y41.2069
G01 X31.9118 Y41.1065
G01 X31.9066 Y41.0938
G01 X31.8693 Y40.9891
G01 X31.8406 Y40.8746
G01 X31.8241 Y40.7647
G01 X31.8228 Y40.7510
G01 X31.8175 Y40.6400
G01 X31.8230 Y40.5256
G01 X31.8241 Y40.5153
G01 X31.8406 Y40.4054
G01 X31.8674 Y40.2976
G01 X31.8714 Y40.2844
G01 X31.9066 Y40.1862
G01 X31.9104 Y40.1767
G01 X31.9595 Y40.0731
G01 X32.0183 Y39.9748
G01 X32.0241 Y39.9663
G01 X32.0883 Y39.8798
G01 X32.0949 Y39.8719
G01 X32.1176 Y39.8469
G01 X32.1176 Y38.8931
G00 Z2.0000
G00 X31.9076 Y42.4274
G01 F60.00
G01 Z-0.0000
G01 F120.00
G01 X31.9092 Y42.3944
G01 X31.9145 Y42.3592
G01 X31.9231 Y42.3247
G01 X31.9351 Y42.2912
G01 X31.9503 Y42.2591
G01 X31.9686 Y42.2286
G01 X31.9898 Y42.2000
G01 X32.0119 Y42.1754
G01 X32.0419 Y42.1482
G01 X32.0686 Y42.1286
G01 X32.1012 Y42.1092
G01 X32.1312 Y42.0951
G01 X32.1647 Y42.0831
G01 X32.1992 Y42.0745
G01 X32.2331 Y42.0694
G01 X32.2699 Y42.0675
G01 X33.7726 Y42.0676
G01 X33.8056 Y42.0692
G01 X33.8408 Y42.0745
G01 X33.8753 Y42.0831
G01 X33.9065 Y42.0942
G01 X33.9431 Y42.1115
G01 X33.9714 Y42.1286
G01 X34.0000 Y42.1498
G01 X34.0264 Y42.1736
G01 X34.0502 Y42.2000
G01 X34.0714 Y42.2286
G01 X34.0908 Y42.2612
G01 X34.1058 Y42.2935
G01 X34.1169 Y42.3247
G01 X34.1250 Y42.3568
G01 X34.1308 Y42.3944
G01 X34.1325 Y42.4286
G01 X34.1324 Y43.9326
G01 X34.1308 Y43.9656
G01 X34.1255 Y44.0008
G01 X34.1169 Y44.0353
G01 X34.1058 Y44.0665
G01 X34.0885 Y44.1031
G01 X34.0714 Y44.1314
G01 X34.0502 Y44.1600
G01 X34.0264 Y44.1864
G01 X34.0000 Y44.2102
G01 X33.9714 Y44.2314
G01 X33.9388 Y44.2508
G01 X33.9065 Y44.2658
G01 X33.8753 Y44.2769
G01 X33.8432 Y44.2850
G01 X33.8056 Y44.2908
G01 X33.7714 Y44.2925
G01 X32.2674 Y44.2924
G01 X32.2344 Y44.2908
G01 X32.1992 Y44.2855
G01 X32.1647 Y44.2769
G01 X32.1335 Y44.2658
G01 X32.0969 Y44.2485
G01 X32.0686 Y44.2314
G01 X32.0400 Y44.2102
G01 X32.0136 Y44.1864
G01 X31.9898 Y44.1600
G01 X31.9686 Y44.1314
G01 X31.9503 Y44.1009
G01 X31.9351 Y44.0688
G01 X31.9231 Y44.0353
G01 X31.9145 Y44.0008
G01 X31.9091 Y43.9644
G01 X31.9075 Y43.9301
G01 X31.9076 Y42.4274
G00 Z2.0000
G00 X31.8177 Y42.4230
G01 F60.00
G01 Z-0.0000
G01 F120.00
G01 X31.8197 Y42.3855
G01 X31.8262 Y42.3416
G01 X31.8370 Y42.2986
G01 X31.8495 Y42.2632
G01 X31.8533 Y42.2536
G01 X31.8678 Y42.2228
G01 X31.8743 Y42.2106
G01 X31.8937 Y42.1785
G01 X31.9160 Y42.1483
G01 X31.9224 Y42.1403
G01 X31.9500 Y42.1100
G01 X31.9829 Y42.0802
G01 X32.0185 Y42.0537
G01 X32.0506 Y42.0343
G01 X32.0597 Y42.0293
G01 X32.0905 Y42.0147
G01 X32.1032 Y42.0095
G01 X32.1320 Y41.9991
G01 X32.1419 Y41.9960
G01 X32.1783 Y41.9869
G01 X32.1884 Y41.9850
G01 X32.2255 Y41.9797
G01 X32.2699 Y41.9775
G01 X33.7701 Y41.9775
G01 X33.8076 Y41.9792
G01 X33.8179 Y41.9801
G01 X33.8516 Y41.9850
G01 X33.8651 Y41.9877
G01 X33.9014 Y41.9970
G01 X33.9432 Y42.0119
G01 X33.9772 Y42.0278
G01 X33.9894 Y42.0343
G01 X34.0215 Y42.0537
G01 X34.0544 Y42.0780
G01 X34.0623 Y42.0847
G01 X34.0900 Y42.1100
G01 X34.1198 Y42.1429
G01 X34.1463 Y42.1785
G01 X34.1657 Y42.2106
G01 X34.1722 Y42.2228
G01 X34.1867 Y42.2536
G01 X34.1905 Y42.2632
G01 X34.2030 Y42.2986
G01 X34.2123 Y42.3349
G01 X34.2144 Y42.3450
G01 X34.2199 Y42.3821
G01 X34.2208 Y42.3924
G01 X34.2225 Y42.4264
G01 X34.2225 Y43.9301
G01 X34.2208 Y43.9676
G01 X34.2195 Y43.9813
G01 X34.2144 Y44.0150
G01 X34.2123 Y44.0251
G01 X34.2030 Y44.0614
G01 X34.1881 Y44.1032
G01 X34.1722 Y44.1372
G01 X34.1657 Y44.1494
G01 X34.1463 Y44.1815
G01 X34.1220 Y44.2144
G01 X34.1153 Y44.2223
G01 X34.0900 Y44.2500
G01 X34.0571 Y44.2798
G01 X34.0215 Y44.3063
G01 X33.9894 Y44.3257
G01 X33.9772 Y44.3322
G01 X33.9464 Y44.3467
G01 X33.9368 Y44.3505
G01 X33.9014 Y44.3630
G01 X33.8651 Y44.3723
G01 X33.8550 Y44.3744
G01 X33.8179 Y44.3799
G01 X33.8076 Y44.3808
G01 X33.7736 Y44.3825
G01 X32.2699 Y44.3825
G01 X32.2324 Y44.3808
G01 X32.2221 Y44.3799
G01 X32.1884 Y44.3750
G01 X32.1749 Y44.3723
G01 X32.1386 Y44.3630
G01 X32.0968 Y44.3481
G01 X32.0628 Y44.3322
G01 X32.0506 Y44.3257
G01 X32.0185 Y44.3063
G01 X31.9856 Y44.2820
G01 X31.9777 Y44.2753
G01 X31.9500 Y44.2500
G01 X31.9202 Y44.2171
G01 X31.8937 Y44.1815
G01 X31.8709 Y44.1434
G01 X31.8519 Y44.1032
G01 X31.8370 Y44.0614
G01 X31.8262 Y44.0184
G01 X31.8197 Y43.9745
G01 X31.8175 Y43.9301
G01 X31.8177 Y42.4230
G00 Z2.0000
G00 X34.4024 Y43.9354
G01 F60.00
G01 Z-0.0000
G01 F120.00
G01 X34.4105 Y43.9481
G01 X34.4195 Y43.9609
G01 X34.4817 Y44.0447
G01 X34.4913 Y44.0570
G01 X34.5016 Y44.0689
G01 X34.5716 Y44.1462
G01 X34.5824 Y44.1576
G01 X34.5938 Y44.1684
G01 X34.6769 Y44.2436
G01 X34.6953 Y44.2583
G01 X34.7791 Y44.3205
G01 X34.7985 Y44.3338
G01 X34.9014 Y44.3955
G01 X34.9223 Y44.4063
G01 X34.9779 Y44.4326
G01 X34.1535 Y44.4326
G01 X34.1652 Y44.4239
G01 X34.1773 Y44.4139
G01 X34.2117 Y44.3828
G01 X34.2228 Y44.3717
G01 X34.2539 Y44.3373
G01 X34.2686 Y44.3189
G01 X34.2869 Y44.2943
G01 X34.2959 Y44.2815
G01 X34.3043 Y44.2682
G01 X34.3201 Y44.2419
G01 X34.3314 Y44.2213
G01 X34.3513 Y44.1793
G01 X34.3600 Y44.1575
G01 X34.3703 Y44.1286
G01 X34.3753 Y44.1137
G01 X34.3795 Y44.0986
G01 X34.3869 Y44.0688
G01 X34.3918 Y44.0458
G01 X34.3986 Y43.9999
G01 X34.4006 Y43.9764
G01 X34.4024 Y43.9354
G00 Z2.0000
G00 X36.1421 Y44.4326
G01 F60.00
G01 Z-0.0000
G01 F120.00
G01 X36.1977 Y44.4063
G01 X36.2117 Y44.3993
G01 X36.2254 Y44.3915
G01 X36.3148 Y44.3379
G01 X36.3281 Y44.3295
G01 X36.3409 Y44.3205
G01 X36.4192 Y44.2624
G01 X36.5239 Y44.2623
G01 X36.6143 Y44.2578
G01 X36.6377 Y44.2552
G01 X36.7194 Y44.2430
G01 X36.7425 Y44.2381
G01 X36.8151 Y44.2200
G01 X36.8302 Y44.2158
G01 X36.8451 Y44.2108
G01 X36.9156 Y44.1856
G01 X36.9302 Y44.1800
G01 X36.9446 Y44.1736
G01 X37.0122 Y44.1416
G01 X37.0262 Y44.1346
G01 X37.0399 Y44.1268
G01 X37.1041 Y44.0884
G01 X37.1173 Y44.0800
G01 X37.1302 Y44.0709
G01 X37.1903 Y44.0264
G01 X37.2027 Y44.0167
G01 X37.2145 Y44.0064
G01 X37.2757 Y43.9508
G01 X50.0317 Y31.1950
G01 X50.0568 Y31.2952
G01 X50.0610 Y31.3103
G01 X50.0660 Y31.3252
G01 X50.1011 Y31.4234
G01 X50.1067 Y31.4381
G01 X50.1131 Y31.4524
G01 X50.1577 Y31.5467
G01 X50.1647 Y31.5607
G01 X50.1725 Y31.5744
G01 X50.2261 Y31.6638
G01 X50.2345 Y31.6771
G01 X50.2435 Y31.6899
G01 X50.3057 Y31.7737
G01 X50.3153 Y31.7860
G01 X50.3256 Y31.7979
G01 X50.3956 Y31.8752
G01 X50.4120 Y31.8921
G01 X50.4951 Y31.9674
G01 X50.5070 Y31.9777
G01 X50.5193 Y31.9873
G01 X50.6031 Y32.0495
G01 X50.6159 Y32.0585
G01 X50.6292 Y32.0669
G01 X50.7186 Y32.1205
G01 X50.7323 Y32.1283
G01 X50.7463 Y32.1353
G01 X50.8406 Y32.1799
G01 X50.8549 Y32.1863
G01 X50.8696 Y32.1919
G01 X50.9678 Y32.2270
G01 X50.9827 Y32.2320
G01 X50.9978 Y32.2362
G01 X51.0990 Y32.2615
G01 X51.1143 Y32.2649
G01 X51.1298 Y32.2676
G01 X51.2262 Y32.2819
G01 X53.5276 Y34.5833
G01 X53.5276 Y39.0407
G01 X52.4640 Y40.1043
G01 X52.4784 Y40.0737
G01 X52.4871 Y40.0518
G01 X52.5367 Y39.9132
G01 X52.5416 Y39.8983
G01 X52.5458 Y39.8832
G01 X52.5816 Y39.7404
G01 X52.5850 Y39.7251
G01 X52.5877 Y39.7096
G01 X52.6093 Y39.5640
G01 X52.6119 Y39.5406
G01 X52.6196 Y39.3857
G01 X52.6200 Y39.3700
G01 X52.6196 Y39.3543
G01 X52.6124 Y39.2073
G01 X52.6112 Y39.1916
G01 X52.6093 Y39.1760
G01 X52.5877 Y39.0304
G01 X52.5850 Y39.0149
G01 X52.5816 Y38.9996
G01 X52.5458 Y38.8568
G01 X52.5416 Y38.8417
G01 X52.5367 Y38.8268
G01 X52.4871 Y38.6882
G01 X52.4815 Y38.6735
G01 X52.4751 Y38.6592
G01 X52.4122 Y38.5261
G01 X52.4051 Y38.5121
G01 X52.3974 Y38.4984
G01 X52.3217 Y38.3721
G01 X52.3133 Y38.3589
G01 X52.3042 Y38.3460
G01 X52.2165 Y38.2278
G01 X52.2069 Y38.2154
G01 X52.1966 Y38.2035
G01 X52.0978 Y38.0944
G01 X52.0869 Y38.0831
G01 X52.0756 Y38.0722
G01 X51.9665 Y37.9734
G01 X51.9546 Y37.9631
G01 X51.9422 Y37.9535
G01 X51.8240 Y37.8658
G01 X51.8111 Y37.8567
G01 X51.7979 Y37.8483
G01 X51.6716 Y37.7726
G01 X51.6579 Y37.7649
G01 X51.6439 Y37.7578
G01 X51.5108 Y37.6949
G01 X51.4965 Y37.6885
G01 X51.4818 Y37.6829
G01 X51.3432 Y37.6333
G01 X51.3283 Y37.6284
G01 X51.3132 Y37.6242
G01 X51.1704 Y37.5884
G01 X51.1551 Y37.5850
G01 X51.1396 Y37.5823
G01 X50.9940 Y37.5607
G01 X50.9784 Y37.5588
G01 X50.9627 Y37.5576
G01 X50.8157 Y37.5504
G01 X50.8000 Y37.5500
G01 X50.7843 Y37.5504
G01 X50.6373 Y37.5576
G01 X50.6216 Y37.5588
G01 X50.6060 Y37.5607
G01 X50.4604 Y37.5823
G01 X50.4449 Y37.5850
G01 X50.4296 Y37.5884
G01 X50.2868 Y37.6242
G01 X50.2717 Y37.6284
G01 X50.2568 Y37.6333
G01 X50.1182 Y37.6829
G01 X50.1035 Y37.6885
G01 X50.0892 Y37.6949
G01 X49.9561 Y37.7578
G01 X49.9421 Y37.7649
G01 X49.9284 Y37.7726
G01 X49.8021 Y37.8483
G01 X49.7889 Y37.8567
G01 X49.7760 Y37.8658
G01 X49.6578 Y37.9535
G01 X49.6454 Y37.9631
G01 X49.6335 Y37.9734
G01 X49.5244 Y38.0722
G01 X49.5131 Y38.0831
G01 X49.5022 Y38.0944
G01 X49.4034 Y38.2035
G01 X49.3931 Y38.2154
G01 X49.3835 Y38.2278
G01 X49.2958 Y38.3460
G01 X49.2867 Y38.3589
G01 X49.2783 Y38.3721
G01 X49.2026 Y38.4984
G01 X49.1949 Y38.5121
G01 X49.1878 Y38.5261
G01 X49.1249 Y38.6592
G01 X49.1185 Y38.6735
G01 X49.1129 Y38.6882
G01 X49.0633 Y38.8268
G01 X49.0584 Y38.8417
G01 X49.0542 Y38.8568
G01 X49.0184 Y38.9996
G01 X49.0150 Y39.0149
G01 X49.0123 Y39.0304
G01 X48.9907 Y39.1760
G01 X48.9888 Y39.1916
G01 X48.9876 Y39.2073
G01 X48.9804 Y39.3543
G01 X48.9800 Y39.3700
G01 X48.9804 Y39.3857
G01 X48.9876 Y39.5327
G01 X48.9888 Y39.5484
G01 X48.9907 Y39.5640
G01 X49.0123 Y39.7096
G01 X49.0150 Y39.7251
G01 X49.0184 Y39.7404
G01 X49.0542 Y39.8832
G01 X49.0584 Y39.8983
G01 X49.0633 Y39.9132
G01 X49.1129 Y40.0518
G01 X49.1185 Y40.0665
G01 X49.1249 Y40.0808
G01 X49.1878 Y40.2139
G01 X49.1949 Y40.2279
G01 X49.2026 Y40.2416
G01 X49.2783 Y40.3679
G01 X49.2867 Y40.3811
G01 X49.2958 Y40.3940
G01 X49.3835 Y40.5122
G01 X49.3931 Y40.5246
G01 X49.4034 Y40.5365
G01 X49.5022 Y40.6456
G01 X49.5131 Y40.6569
G01 X49.5244 Y40.6678
G01 X49.6335 Y40.7666
G01 X49.6454 Y40.7769
G01 X49.6578 Y40.7865
G01 X49.7760 Y40.8742
G01 X49.7889 Y40.8833
G01 X49.8021 Y40.8917
G01 X49.9284 Y40.9674
G01 X49.9421 Y40.9751
G01 X49.9561 Y40.9822
G01 X50.0892 Y41.0451
G01 X50.1035 Y41.0515
G01 X50.1182 Y41.0571
G01 X50.2568 Y41.1067
G01 X50.2717 Y41.1116
G01 X50.2868 Y41.1158
G01 X50.4296 Y41.1516
G01 X50.4449 Y41.1550
G01 X50.4604 Y41.1577
G01 X50.6060 Y41.1793
G01 X50.6216 Y41.1812
G01 X50.6373 Y41.1824
G01 X50.7843 Y41.1896
G01 X50.8000 Y41.1900
G01 X50.8157 Y41.1896
G01 X50.9706 Y41.1819
G01 X50.9940 Y41.1793
G01 X51.1396 Y41.1577
G01 X51.1551 Y41.1550
G01 X51.1704 Y41.1516
G01 X51.3132 Y41.1158
G01 X51.3283 Y41.1116
G01 X51.3432 Y41.1067
G01 X51.4818 Y41.0571
G01 X51.5037 Y41.0484
G01 X51.5343 Y41.0340
G01 X48.1357 Y44.4326
G01 X36.1421 Y44.4326
G00 Z2.0000
G00 X36.2436 Y42.3035
G01 F60.00
G01 Z-0.0000
G01 F120.00
G01 X48.5415 Y30.0056
G01 X48.5427 Y29.9852
G01 X48.5545 Y29.9063
G01 X48.5736 Y29.8302
G01 X48.6009 Y29.7540
G01 X48.6345 Y29.6830
G01 X48.6755 Y29.6147
G01 X48.7230 Y29.5506
G01 X48.7757 Y29.4924
G01 X52.9106 Y25.3576
G01 X52.9696 Y25.3040
G01 X53.0337 Y25.2565
G01 X53.0999 Y25.2168
G01 X53.1764 Y25.1806
G01 X53.2492 Y25.1546
G01 X53.3265 Y25.1352
G01 X53.4054 Y25.1235
G01 X53.4838 Y25.1196
G01 X58.5185 Y25.1196
G01 X61.4176 Y22.2205
G01 X61.4176 Y22.2136
G01 X61.3569 Y22.1465
G01 X61.2902 Y22.0565
G01 X61.2339 Y21.9624
G01 X61.1865 Y21.8622
G01 X61.1491 Y21.7579
G01 X61.1222 Y21.6504
G01 X61.1059 Y21.5407
G01 X61.1005 Y21.4300
G01 X61.1059 Y21.3193
G01 X61.1222 Y21.2096
G01 X61.1491 Y21.1021
G01 X61.1865 Y20.9978
G01 X61.2339 Y20.8976
G01 X61.2909 Y20.8025
G01 X61.3569 Y20.7135
G01 X61.4322 Y20.6305
G01 X61.5135 Y20.5569
G01 X61.6025 Y20.4909
G01 X61.6976 Y20.4339
G01 X61.8000 Y20.3856
G01 X61.9021 Y20.3491
G01 X62.0073 Y20.3227
G01 X62.1169 Y20.3062
G01 X62.2300 Y20.3005
G01 X62.3383 Y20.3058
G01 X62.4504 Y20.3222
G01 X62.5579 Y20.3491
G01 X62.6622 Y20.3865
G01 X62.7624 Y20.4339
G01 X62.8575 Y20.4909
G01 X62.9465 Y20.5569
G01 X63.0287 Y20.6313
G01 X63.1031 Y20.7135
G01 X63.1691 Y20.8025
G01 X63.2261 Y20.8976
G01 X63.2735 Y20.9978
G01 X63.3109 Y21.1021
G01 X63.3378 Y21.2096
G01 X63.3541 Y21.3193
G01 X63.3595 Y21.4300
G01 X63.3542 Y21.5395
G01 X63.3378 Y21.6504
G01 X63.3115 Y21.7555
G01 X63.2725 Y21.8645
G01 X63.2261 Y21.9624
G01 X63.1691 Y22.0575
G01 X63.1031 Y22.1465
G01 X63.0424 Y22.2136
G01 X63.0424 Y22.5582
G01 X63.0385 Y22.6366
G01 X63.0270 Y22.7143
G01 X63.0074 Y22.7928
G01 X62.9805 Y22.8679
G01 X62.9465 Y22.9400
G01 X62.9061 Y23.0073
G01 X62.8580 Y23.0724
G01 X62.8044 Y23.1314
G01 X59.4294 Y26.5064
G01 X59.3704 Y26.5600
G01 X59.3063 Y26.6075
G01 X59.2401 Y26.6472
G01 X59.1636 Y26.6834
G01 X59.0908 Y26.7094
G01 X59.0135 Y26.7288
G01 X58.9346 Y26.7405
G01 X58.8562 Y26.7444
G01 X53.8215 Y26.7444
G01 X50.1605 Y30.4054
G01 X50.1593 Y30.4258
G01 X50.1475 Y30.5047
G01 X50.1284 Y30.5808
G01 X50.1011 Y30.6570
G01 X50.0675 Y30.7280
G01 X50.0265 Y30.7963
G01 X49.9790 Y30.8604
G01 X49.9254 Y30.9194
G01 X37.0887 Y43.7561
G01 X37.0314 Y43.8080
G01 X36.9673 Y43.8555
G01 X36.8990 Y43.8965
G01 X36.8257 Y43.9310
G01 X36.7495 Y43.9581
G01 X36.6745 Y43.9768
G01 X36.5968 Y43.9883
G01 X36.5172 Y43.9924
G01 X36.3184 Y43.9924
G01 X36.2658 Y44.0400
G01 X36.1770 Y44.1057
G01 X36.0844 Y44.1611
G01 X35.9869 Y44.2073
G01 X35.8806 Y44.2453
G01 X35.7770 Y44.2711
G01 X35.6703 Y44.2870
G01 X35.5600 Y44.2925
G01 X35.4510 Y44.2871
G01 X35.3430 Y44.2711
G01 X35.2371 Y44.2446
G01 X35.1343 Y44.2078
G01 X35.0356 Y44.1611
G01 X34.9419 Y44.1050
G01 X34.8552 Y44.0407
G01 X34.7733 Y43.9667
G01 X34.7000 Y43.8858
G01 X34.6350 Y43.7981
G01 X34.5789 Y43.7044
G01 X34.5322 Y43.6057
G01 X34.4954 Y43.5029
G01 X34.4689 Y43.3970
G01 X34.4529 Y43.2890
G01 X34.4475 Y43.1800
G01 X34.4529 Y43.0710
G01 X34.4689 Y42.9630
G01 X34.4954 Y42.8571
G01 X34.5322 Y42.7543
G01 X34.5789 Y42.6556
G01 X34.6350 Y42.5619
G01 X34.6993 Y42.4752
G01 X34.7733 Y42.3933
G01 X34.8542 Y42.3200
G01 X34.9419 Y42.2550
G01 X35.0356 Y42.1989
G01 X35.1343 Y42.1522
G01 X35.2371 Y42.1154
G01 X35.3430 Y42.0889
G01 X35.4497 Y42.0730
G01 X35.5600 Y42.0675
G01 X35.6690 Y42.0729
G01 X35.7770 Y42.0889
G01 X35.8829 Y42.1154
G01 X35.9857 Y42.1522
G01 X36.0844 Y42.1989
G01 X36.1781 Y42.2550
G01 X36.2436 Y42.3035
G00 Z2.0000
G00 X35.3217 Y41.9100
G01 F60.00
G01 Z-0.0000
G01 F120.00
G01 X35.3078 Y41.9123
G01 X35.2968 Y41.9148
G01 X35.1957 Y41.9401
G01 X35.1848 Y41.9432
G01 X35.1741 Y41.9467
G01 X35.0654 Y41.9859
G01 X35.0551 Y41.9905
G01 X34.9507 Y42.0401
G01 X34.8515 Y42.0993
G01 X34.8419 Y42.1053
G01 X34.8327 Y42.1118
G01 X34.7400 Y42.1809
G01 X34.6542 Y42.2583
G01 X34.6461 Y42.2661
G01 X34.6383 Y42.2742
G01 X34.5683 Y42.3515
G01 X34.5609 Y42.3600
G01 X34.5539 Y42.3689
G01 X34.4853 Y42.4619
G01 X34.4793 Y42.4715
G01 X34.4228 Y42.5658
G01 X34.4150 Y42.5808
G01 X34.3705 Y42.6751
G01 X34.3638 Y42.6906
G01 X34.3249 Y42.7994
G01 X34.3216 Y42.8102
G01 X34.3125 Y42.8462
G01 X34.3124 Y42.4242
G01 X34.3099 Y42.3767
G01 X34.3040 Y42.3352
G01 X34.3021 Y42.3241
G01 X34.2922 Y42.2833
G01 X34.2891 Y42.2724
G01 X34.2753 Y42.2328
G01 X34.2690 Y42.2171
G01 X34.2485 Y42.1742
G01 X34.2429 Y42.1644
G01 X34.2211 Y42.1285
G01 X34.1963 Y42.0947
G01 X34.1858 Y42.0815
G01 X34.1536 Y42.0464
G01 X34.1228 Y42.0180
G01 X34.1142 Y42.0106
G01 X34.0807 Y41.9854
G01 X34.0667 Y41.9758
G01 X34.0258 Y41.9515
G01 X33.9829 Y41.9310
G01 X33.9672 Y41.9247
G01 X33.9276 Y41.9109
G01 X33.9167 Y41.9078
G01 X33.8759 Y41.8979
G01 X33.8648 Y41.8960
G01 X33.8233 Y41.8901
G01 X33.7758 Y41.8876
G01 X33.3538 Y41.8875
G01 X33.3898 Y41.8784
G01 X33.4006 Y41.8751
G01 X33.5094 Y41.8362
G01 X33.5249 Y41.8295
G01 X33.6192 Y41.7850
G01 X33.6342 Y41.7772
G01 X33.7285 Y41.7207
G01 X33.7381 Y41.7147
G01 X33.8311 Y41.6461
G01 X33.8400 Y41.6391
G01 X33.8485 Y41.6317
G01 X33.9258 Y41.5617
G01 X33.9339 Y41.5539
G01 X33.9417 Y41.5458
G01 X34.0191 Y41.4600
G01 X34.0882 Y41.3673
G01 X34.0947 Y41.3581
G01 X34.1007 Y41.3485
G01 X34.1599 Y41.2493
G01 X34.1650 Y41.2392
G01 X34.2141 Y41.1346
G01 X34.2533 Y41.0259
G01 X34.2568 Y41.0152
G01 X34.2599 Y41.0043
G01 X34.2852 Y40.9032
G01 X34.2877 Y40.8922
G01 X34.2900 Y40.8783
G01 X34.2923 Y40.8922
G01 X34.2948 Y40.9032
G01 X34.3201 Y41.0043
G01 X34.3232 Y41.0152
G01 X34.3267 Y41.0259
G01 X34.3659 Y41.1346
G01 X34.4150 Y41.2392
G01 X34.4201 Y41.2493
G01 X34.4257 Y41.2591
G01 X34.4853 Y41.3581
G01 X34.5539 Y41.4511
G01 X34.5609 Y41.4600
G01 X34.5683 Y41.4685
G01 X34.6461 Y41.5539
G01 X34.7315 Y41.6317
G01 X34.7400 Y41.6391
G01 X34.8327 Y41.7082
G01 X34.8419 Y41.7147
G01 X34.8515 Y41.7207
G01 X34.9507 Y41.7799
G01 X34.9608 Y41.7850
G01 X35.0654 Y41.8341
G01 X35.1741 Y41.8733
G01 X35.1848 Y41.8768
G01 X35.1957 Y41.8799
G01 X35.2968 Y41.9052
G01 X35.3078 Y41.9077
G01 X35.3217 Y41.9100
G00 Z2.0000
G00 X35.0147 Y41.9100
G01 F60.00
G01 Z-0.0000
G01 F120.00
G01 X34.9223 Y41.9537
G01 X34.9083 Y41.9607
G01 X34.8946 Y41.9685
G01 X34.8052 Y42.0221
G01 X34.7919 Y42.0305
G01 X34.7791 Y42.0395
G01 X34.6953 Y42.1017
G01 X34.6830 Y42.1113
G01 X34.6711 Y42.1216
G01 X34.5938 Y42.1916
G01 X34.5824 Y42.2024
G01 X34.5716 Y42.2138
G01 X34.5016 Y42.2911
G01 X34.4913 Y42.3030
G01 X34.4817 Y42.3153
G01 X34.4195 Y42.3991
G01 X34.4105 Y42.4119
G01 X34.4024 Y42.4246
G01 X34.4006 Y42.3836
G01 X34.3995 Y42.3679
G01 X34.3975 Y42.3523
G01 X34.3930 Y42.3220
G01 X34.3903 Y42.3065
G01 X34.3869 Y42.2912
G01 X34.3795 Y42.2614
G01 X34.3753 Y42.2463
G01 X34.3703 Y42.2314
G01 X34.3600 Y42.2025
G01 X34.3544 Y42.1879
G01 X34.3480 Y42.1735
G01 X34.3349 Y42.1458
G01 X34.3278 Y42.1318
G01 X34.3201 Y42.1181
G01 X34.3043 Y42.0918
G01 X34.2959 Y42.0785
G01 X34.2869 Y42.0657
G01 X34.2686 Y42.0411
G01 X34.2590 Y42.0287
G01 X34.2487 Y42.0168
G01 X34.2281 Y41.9941
G01 X34.2173 Y41.9827
G01 X34.2059 Y41.9719
G01 X34.1832 Y41.9513
G01 X34.1713 Y41.9410
G01 X34.1589 Y41.9314
G01 X34.1343 Y41.9131
G01 X34.1215 Y41.9041
G01 X34.1082 Y41.8957
G01 X34.0819 Y41.8799
G01 X34.0682 Y41.8722
G01 X34.0542 Y41.8651
G01 X34.0265 Y41.8520
G01 X34.0121 Y41.8456
G01 X33.9975 Y41.8400
G01 X33.9686 Y41.8297
G01 X33.9537 Y41.8247
G01 X33.9386 Y41.8205
G01 X33.9088 Y41.8131
G01 X33.8935 Y41.8097
G01 X33.8780 Y41.8070
G01 X33.8477 Y41.8025
G01 X33.8321 Y41.8005
G01 X33.8164 Y41.7994
G01 X33.7754 Y41.7976
G01 X33.7881 Y41.7895
G01 X33.8009 Y41.7805
G01 X33.8847 Y41.7183
G01 X33.8970 Y41.7087
G01 X33.9089 Y41.6984
G01 X33.9862 Y41.6284
G01 X33.9976 Y41.6176
G01 X34.0084 Y41.6062
G01 X34.0784 Y41.5289
G01 X34.0887 Y41.5170
G01 X34.0983 Y41.5047
G01 X34.1605 Y41.4209
G01 X34.1695 Y41.4081
G01 X34.1779 Y41.3948
G01 X34.2315 Y41.3054
G01 X34.2393 Y41.2917
G01 X34.2463 Y41.2777
G01 X34.2900 Y41.1853
G01 X34.3337 Y41.2777
G01 X34.3407 Y41.2917
G01 X34.3485 Y41.3054
G01 X34.4021 Y41.3948
G01 X34.4105 Y41.4081
G01 X34.4195 Y41.4209
G01 X34.4817 Y41.5047
G01 X34.4913 Y41.5170
G01 X34.5016 Y41.5289
G01 X34.5716 Y41.6062
G01 X34.5824 Y41.6176
G01 X34.5938 Y41.6284
G01 X34.6711 Y41.6984
G01 X34.6830 Y41.7087
G01 X34.6953 Y41.7183
G01 X34.7791 Y41.7805
G01 X34.7919 Y41.7895
G01 X34.8052 Y41.7979
G01 X34.8946 Y41.8515
G01 X34.9083 Y41.8593
G01 X34.9223 Y41.8663
G01 X35.0147 Y41.9100
G00 Z2.0000
G00 X36.6724 Y40.6425
G01 F60.00
G01 Z-0.0000
G01 F120.00
G01 X36.6671 Y40.7490
G01 X36.6511 Y40.8570
G01 X36.6246 Y40.9629
G01 X36.5878 Y41.0657
G01 X36.5411 Y41.1644
G01 X36.4850 Y41.2581
G01 X36.4200 Y41.3458
G01 X36.3467 Y41.4267
G01 X36.2658 Y41.5000
G01 X36.1781 Y41.5650
G01 X36.0844 Y41.6211
G01 X35.9857 Y41.6678
G01 X35.8829 Y41.7046
G01 X35.7770 Y41.7311
G01 X35.6690 Y41.7471
G01 X35.5600 Y41.7525
G01 X35.4510 Y41.7471
G01 X35.3430 Y41.7311
G01 X35.2371 Y41.7046
G01 X35.1343 Y41.6678
G01 X35.0356 Y41.6211
G01 X34.9419 Y41.5650
G01 X34.8542 Y41.5000
G01 X34.7733 Y41.4267
G01 X34.7000 Y41.3458
G01 X34.6350 Y41.2581
G01 X34.5789 Y41.1644
G01 X34.5322 Y41.0657
G01 X34.4954 Y40.9629
G01 X34.4689 Y40.8570
G01 X34.4529 Y40.7490
G01 X34.4475 Y40.6400
G01 X34.4529 Y40.5310
G01 X34.4689 Y40.4230
G01 X34.4954 Y40.3171
G01 X34.5322 Y40.2143
G01 X34.5789 Y40.1156
G01 X34.6350 Y40.0219
G01 X34.7000 Y39.9342
G01 X34.7733 Y39.8533
G01 X34.8542 Y39.7800
G01 X34.9419 Y39.7150
G01 X35.0356 Y39.6589
G01 X35.1343 Y39.6122
G01 X35.2371 Y39.5754
G01 X35.3430 Y39.5489
G01 X35.4510 Y39.5329
G01 X35.5600 Y39.5275
G01 X35.6690 Y39.5329
G01 X35.7770 Y39.5489
G01 X35.8829 Y39.5754
G01 X35.9857 Y39.6122
G01 X36.0844 Y39.6589
G01 X36.1781 Y39.7150
G01 X36.2658 Y39.7800
G01 X36.3467 Y39.8533
G01 X36.4200 Y39.9342
G01 X36.4850 Y40.0219
G01 X36.5411 Y40.1156
G01 X36.5878 Y40.2143
G01 X36.6246 Y40.3171
G01 X36.6511 Y40.4230
G01 X36.6671 Y40.5310
G01 X36.6724 Y40.6425
G00 Z2.0000
G00 X36.7623 Y40.6469
G01 F60.00
G01 Z-0.0000
G01 F120.00
G01 X36.7567 Y40.7579
G01 X36.7394 Y40.8746
G01 X36.7107 Y40.9891
G01 X36.6710 Y41.1002
G01 X36.6205 Y41.2069
G01 X36.5598 Y41.3081
G01 X36.4895 Y41.4029
G01 X36.4103 Y41.4903
G01 X36.3229 Y41.5695
G01 X36.2281 Y41.6398
G01 X36.1269 Y41.7005
G01 X36.0202 Y41.7510
G01 X35.9091 Y41.7907
G01 X35.7946 Y41.8194
G01 X35.6779 Y41.8367
G01 X35.5600 Y41.8425
G01 X35.4421 Y41.8367
G01 X35.3254 Y41.8194
G01 X35.2109 Y41.7907
G01 X35.0998 Y41.7510
G01 X34.9931 Y41.7005
G01 X34.8919 Y41.6398
G01 X34.7971 Y41.5695
G01 X34.7097 Y41.4903
G01 X34.6305 Y41.4029
G01 X34.5602 Y41.3081
G01 X34.4995 Y41.2069
G01 X34.4490 Y41.1002
G01 X34.4093 Y40.9891
G01 X34.3806 Y40.8746
G01 X34.3633 Y40.7579
G01 X34.3575 Y40.6400
G01 X34.3633 Y40.5221
G01 X34.3806 Y40.4054
G01 X34.4093 Y40.2909
G01 X34.4490 Y40.1798
G01 X34.4995 Y40.0731
G01 X34.5602 Y39.9719
G01 X34.6305 Y39.8771
G01 X34.7097 Y39.7897
G01 X34.7971 Y39.7105
G01 X34.8919 Y39.6402
G01 X34.9931 Y39.5795
G01 X35.0998 Y39.5290
G01 X35.2109 Y39.4893
G01 X35.3254 Y39.4606
G01 X35.4421 Y39.4433
G01 X35.5600 Y39.4375
G01 X35.6779 Y39.4433
G01 X35.7946 Y39.4606
G01 X35.9091 Y39.4893
G01 X36.0202 Y39.5290
G01 X36.1269 Y39.5795
G01 X36.2281 Y39.6402
G01 X36.3229 Y39.7105
G01 X36.4103 Y39.7897
G01 X36.4895 Y39.8771
G01 X36.5598 Y39.9719
G01 X36.6205 Y40.0731
G01 X36.6710 Y40.1798
G01 X36.7107 Y40.2909
G01 X36.7394 Y40.4054
G01 X36.7567 Y40.5221
G01 X36.7623 Y40.6331
G01 X36.7623 Y40.6469
G00 Z2.0000
G00 X36.7623 Y38.1069
G01 F60.00
G01 Z-0.0000
G01 F120.00
G01 X36.7567 Y38.2179
G01 X36.7394 Y38.3346
G01 X36.7107 Y38.4491
G01 X36.6710 Y38.5602
G01 X36.6205 Y38.6669
G01 X36.5598 Y38.7681
G01 X36.4895 Y38.8629
G01 X36.4103 Y38.9503
G01 X36.3229 Y39.0295
G01 X36.2281 Y39.0998
G01 X36.1269 Y39.1605
G01 X36.0202 Y39.2110
G01 X35.9091 Y39.2507
G01 X35.7946 Y39.2794
G01 X35.6779 Y39.2967
G01 X35.5600 Y39.3025
G01 X35.4421 Y39.2967
G01 X35.3254 Y39.2794
G01 X35.2109 Y39.2507
G01 X35.0998 Y39.2110
G01 X34.9931 Y39.1605
G01 X34.8919 Y39.0998
G01 X34.7971 Y39.0295
G01 X34.7097 Y38.9503
G01 X34.6305 Y38.8629
G01 X34.5602 Y38.7681
G01 X34.4995 Y38.6669
G01 X34.4490 Y38.5602
G01 X34.4093 Y38.4491
G01 X34.3806 Y38.3346
G01 X34.3633 Y38.2179
G01 X34.3575 Y38.1000
G01 X34.3633 Y37.9821
G01 X34.3806 Y37.8654
G01 X34.4093 Y37.7509
G01 X34.4490 Y37.6398
G01 X34.4995 Y37.5331
G01 X34.5602 Y37.4319
G01 X34.6305 Y37.3371
G01 X34.7097 Y37.2497
G01 X34.7971 Y37.1705
G01 X34.8919 Y37.1002
G01 X34.9931 Y37.0395
G01 X35.0998 Y36.9890
G01 X35.2109 Y36.9493
G01 X35.3254 Y36.9206
G01 X35.4421 Y36.9033
G01 X35.5600 Y36.8975
G01 X35.6779 Y36.9033
G01 X35.7946 Y36.9206
G01 X35.9091 Y36.9493
G01 X36.0202 Y36.9890
G01 X36.1269 Y37.0395
G01 X36.2281 Y37.1002
G01 X36.3229 Y37.1705
G01 X36.4103 Y37.2497
G01 X36.4895 Y37.3371
G01 X36.5598 Y37.4319
G01 X36.6205 Y37.5331
G01 X36.6710 Y37.6398
G01 X36.7107 Y37.7509
G01 X36.7394 Y37.8654
G01 X36.7567 Y37.9821
G01 X36.7623 Y38.0931
G01 X36.7623 Y38.1069
G00 Z2.0000
G00 X36.6724 Y38.1025
G01 F60.00
G01 Z-0.0000
G01 F120.00
G01 X36.6671 Y38.2090
G01 X36.6511 Y38.3170
G01 X36.6246 Y38.4229
G01 X36.5878 Y38.5257
G01 X36.5411 Y38.6244
G01 X36.4850 Y38.7181
G01 X36.4200 Y38.8058
G01 X36.3467 Y38.8867
G01 X36.2658 Y38.9600
G01 X36.1781 Y39.0250
G01 X36.0844 Y39.0811
G01 X35.9857 Y39.1278
G01 X35.8829 Y39.1646
G01 X35.7770 Y39.1911
G01 X35.6690 Y39.2071
G01 X35.5600 Y39.2125
G01 X35.4510 Y39.2071
G01 X35.3430 Y39.1911
G01 X35.2371 Y39.1646
G01 X35.1343 Y39.1278
G01 X35.0356 Y39.0811
G01 X34.9419 Y39.0250
G01 X34.8542 Y38.9600
G01 X34.7733 Y38.8867
G01 X34.7000 Y38.8058
G01 X34.6350 Y38.7181
G01 X34.5789 Y38.6244
G01 X34.5322 Y38.5257
G01 X34.4954 Y38.4229
G01 X34.4689 Y38.3170
G01 X34.4529 Y38.2090
G01 X34.4475 Y38.1000
G01 X34.4529 Y37.9910
G01 X34.4689 Y37.8830
G01 X34.4954 Y37.7771
G01 X34.5322 Y37.6743
G01 X34.5789 Y37.5756
G01 X34.6350 Y37.4819
G01 X34.7000 Y37.3942
G01 X34.7733 Y37.3133
G01 X34.8542 Y37.2400
G01 X34.9419 Y37.1750
G01 X35.0356 Y37.1189
G01 X35.1343 Y37.0722
G01 X35.2371 Y37.0354
G01 X35.3430 Y37.0089
G01 X35.4510 Y36.9929
G01 X35.5600 Y36.9875
G01 X35.6690 Y36.9929
G01 X35.7770 Y37.0089
G01 X35.8829 Y37.0354
G01 X35.9857 Y37.0722
G01 X36.0844 Y37.1189
G01 X36.1781 Y37.1750
G01 X36.2658 Y37.2400
G01 X36.3467 Y37.3133
G01 X36.4200 Y37.3942
G01 X36.4850 Y37.4819
G01 X36.5411 Y37.5756
G01 X36.5878 Y37.6743
G01 X36.6246 Y37.7771
G01 X36.6511 Y37.8830
G01 X36.6671 Y37.9910
G01 X36.6724 Y38.1025
G00 Z2.0000
G00 X36.7623 Y35.5669
G01 F60.00
G01 Z-0.0000
G01 F120.00
G01 X36.7567 Y35.6779
G01 X36.7394 Y35.7946
G01 X36.7107 Y35.9091
G01 X36.6710 Y36.0202
G01 X36.6205 Y36.1269
G01 X36.5598 Y36.2281
G01 X36.4895 Y36.3229
G01 X36.4103 Y36.4103
G01 X36.3229 Y36.4895
G01 X36.2281 Y36.5598
G01 X36.1269 Y36.6205
G01 X36.0202 Y36.6710
G01 X35.9091 Y36.7107
G01 X35.7946 Y36.7394
G01 X35.6779 Y36.7567
G01 X35.5600 Y36.7625
G01 X35.4421 Y36.7567
G01 X35.3254 Y36.7394
G01 X35.2109 Y36.7107
G01 X35.0998 Y36.6710
G01 X34.9931 Y36.6205
G01 X34.8919 Y36.5598
G01 X34.7971 Y36.4895
G01 X34.7097 Y36.4103
G01 X34.6305 Y36.3229
G01 X34.5602 Y36.2281
G01 X34.4995 Y36.1269
G01 X34.4490 Y36.0202
G01 X34.4093 Y35.9091
G01 X34.3806 Y35.7946
G01 X34.3633 Y35.6779
G01 X34.3575 Y35.5600
G01 X34.3633 Y35.4421
G01 X34.3806 Y35.3254
G01 X34.4093 Y35.2109
G01 X34.4490 Y35.0998
G01 X34.4995 Y34.9931
G01 X34.5602 Y34.8919
G01 X34.6305 Y34.7971
G01 X34.7097 Y34.7097
G01 X34.7971 Y34.6305
G01 X34.8919 Y34.5602
G01 X34.9931 Y34.4995
G01 X35.0998 Y34.4490
G01 X35.2109 Y34.4093
G01 X35.3254 Y34.3806
G01 X35.4421 Y34.3633
G01 X35.5600 Y34.3575
G01 X35.6779 Y34.3633
G01 X35.7946 Y34.3806
G01 X35.9091 Y34.4093
G01 X36.0202 Y34.4490
G01 X36.1269 Y34.4995
G01 X36.2281 Y34.5602
G01 X36.3229 Y34.6305
G01 X36.4103 Y34.7097
G01 X36.4895 Y34.7971
G01 X36.5598 Y34.8919
G01 X36.6205 Y34.9931
G01 X36.6710 Y35.0998
G01 X36.7107 Y35.2109
G01 X36.7394 Y35.3254
G01 X36.7567 Y35.4421
G01 X36.7623 Y35.5531
G01 X36.7623 Y35.5669
G00 Z2.0000
G00 X36.6724 Y35.5625
G01 F60.00
G01 Z-0.0000
G01 F120.00
G01 X36.6671 Y35.6690
G01 X36.6511 Y35.7770
G01 X36.6246 Y35.8829
G01 X36.5878 Y35.9857
G01 X36.5411 Y36.0844
G01 X36.4850 Y36.1781
G01 X36.4200 Y36.2658
G01 X36.3467 Y36.3467
G01 X36.2658 Y36.4200
G01 X36.1781 Y36.4850
G01 X36.0844 Y36.5411
G01 X35.9857 Y36.5878
G01 X35.8829 Y36.6246
G01 X35.7770 Y36.6511
G01 X35.6690 Y36.6671
G01 X35.5600 Y36.6725
G01 X35.4510 Y36.6671
G01 X35.3430 Y36.6511
G01 X35.2371 Y36.6246
G01 X35.1343 Y36.5878
G01 X35.0356 Y36.5411
G01 X34.9419 Y36.4850
G01 X34.8542 Y36.4200
G01 X34.7733 Y36.3467
G01 X34.7000 Y36.2658
G01 X34.6350 Y36.1781
G01 X34.5789 Y36.0844
G01 X34.5322 Y35.9857
G01 X34.4954 Y35.8829
G01 X34.4689 Y35.7770
G01 X34.4529 Y35.6690
G01 X34.4475 Y35.5600
G01 X34.4529 Y35.4510
G01 X34.4689 Y35.3430
G01 X34.4954 Y35.2371
G01 X34.5322 Y35.1343
G01 X34.5789 Y35.0356
G01 X34.6350 Y34.9419
G01 X34.7000 Y34.8542
G01 X34.7733 Y34.7733
G01 X34.8542 Y34.7000
G01 X34.9419 Y34.6350
G01 X35.0356 Y34.5789
G01 X35.1343 Y34.5322
G01 X35.2371 Y34.4954
G01 X35.3430 Y34.4689
G01 X35.4510 Y34.4529
G01 X35.5600 Y34.4475
G01 X35.6690 Y34.4529
G01 X35.7770 Y34.4689
G01 X35.8829 Y34.4954
G01 X35.9857 Y34.5322
G01 X36.0844 Y34.5789
G01 X36.1781 Y34.6350
G01 X36.2658 Y34.7000
G01 X36.3467 Y34.7733
G01 X36.4200 Y34.8542
G01 X36.4850 Y34.9419
G01 X36.5411 Y35.0356
G01 X36.5878 Y35.1343
G01 X36.6246 Y35.2371
G01 X36.6511 Y35.3430
G01 X36.6671 Y35.4510
G01 X36.6724 Y35.5625
G00 Z2.0000
G00 X36.7623 Y33.0269
G01 F60.00
G01 Z-0.0000
G01 F120.00
G01 X36.7567 Y33.1379
G01 X36.7394 Y33.2546
G01 X36.7107 Y33.3691
G01 X36.6710 Y33.4802
G01 X36.6205 Y33.5869
G01 X36.5598 Y33.6881
G01 X36.4895 Y33.7829
G01 X36.4103 Y33.8703
G01 X36.3229 Y33.9495
G01 X36.2281 Y34.0198
G01 X36.1269 Y34.0805
G01 X36.0202 Y34.1310
G01 X35.9091 Y34.1707
G01 X35.7946 Y34.1994
G01 X35.6779 Y34.2167
G01 X35.5600 Y34.2225
G01 X35.4421 Y34.2167
G01 X35.3254 Y34.1994
G01 X35.2109 Y34.1707
G01 X35.0998 Y34.1310
G01 X34.9931 Y34.0805
G01 X34.8919 Y34.0198
G01 X34.7971 Y33.9495
G01 X34.7097 Y33.8703
G01 X34.6305 Y33.7829
G01 X34.5602 Y33.6881
G01 X34.4995 Y33.5869
G01 X34.4490 Y33.4802
G01 X34.4093 Y33.3691
G01 X34.3806 Y33.2546
G01 X34.3633 Y33.1379
G01 X34.3575 Y33.0200
G01 X34.3633 Y32.9021
G01 X34.3806 Y32.7854
G01 X34.4093 Y32.6709
G01 X34.4490 Y32.5598
G01 X34.4995 Y32.4531
G01 X34.5602 Y32.3519
G01 X34.6305 Y32.2571
G01 X34.7097 Y32.1697
G01 X34.7971 Y32.0905
G01 X34.8919 Y32.0202
G01 X34.9931 Y31.9595
G01 X35.0998 Y31.9090
G01 X35.2109 Y31.8693
G01 X35.3254 Y31.8406
G01 X35.4421 Y31.8233
G01 X35.5600 Y31.8175
G01 X35.6779 Y31.8233
G01 X35.7946 Y31.8406
G01 X35.9091 Y31.8693
G01 X36.0202 Y31.9090
G01 X36.1269 Y31.9595
G01 X36.2281 Y32.0202
G01 X36.3229 Y32.0905
G01 X36.4103 Y32.1697
G01 X36.4895 Y32.2571
G01 X36.5598 Y32.3519
G01 X36.6205 Y32.4531
G01 X36.6710 Y32.5598
G01 X36.7107 Y32.6709
G01 X36.7394 Y32.7854
G01 X36.7567 Y32.9021
G01 X36.7623 Y33.0131
G01 X36.7623 Y33.0269
G00 Z2.0000
G00 X36.6724 Y33.0225
G01 F60.00
G01 Z-0.0000
G01 F120.00
G01 X36.6671 Y33.1290
G01 X36.6511 Y33.2370
G01 X36.6246 Y33.3429
G01 X36.5878 Y33.4457
G01 X36.5411 Y33.5444
G01 X36.4850 Y33.6381
G01 X36.4200 Y33.7258
G01 X36.3467 Y33.8067
G01 X36.2658 Y33.8800
G01 X36.1781 Y33.9450
G01 X36.0844 Y34.0011
G01 X35.9857 Y34.0478
G01 X35.8829 Y34.0846
G01 X35.7770 Y34.1111
G01 X35.6690 Y34.1271
G01 X35.5600 Y34.1325
G01 X35.4510 Y34.1271
G01 X35.3430 Y34.1111
G01 X35.2371 Y34.0846
G01 X35.1343 Y34.0478
G01 X35.0356 Y34.0011
G01 X34.9419 Y33.9450
G01 X34.8542 Y33.8800
G01 X34.7733 Y33.8067
G01 X34.7000 Y33.7258
G01 X34.6350 Y33.6381
G01 X34.5789 Y33.5444
G01 X34.5322 Y33.4457
G01 X34.4954 Y33.3429
G01 X34.4689 Y33.2370
G01 X34.4529 Y33.1290
G01 X34.4475 Y33.0200
G01 X34.4529 Y32.9110
G01 X34.4689 Y32.8030
G01 X34.4954 Y32.6971
G01 X34.5322 Y32.5943
G01 X34.5789 Y32.4956
G01 X34.6350 Y32.4019
G01 X34.7000 Y32.3142
G01 X34.7733 Y32.2333
G01 X34.8542 Y32.1600
G01 X34.9419 Y32.0950
G01 X35.0356 Y32.0389
G01 X35.1343 Y31.9922
G01 X35.2371 Y31.9554
G01 X35.3430 Y31.9289
G01 X35.4510 Y31.9129
G01 X35.5600 Y31.9075
G01 X35.6690 Y31.9129
G01 X35.7770 Y31.9289
G01 X35.8829 Y31.9554
G01 X35.9857 Y31.9922
G01 X36.0844 Y32.0389
G01 X36.1781 Y32.0950
G01 X36.2658 Y32.1600
G01 X36.3467 Y32.2333
G01 X36.4200 Y32.3142
G01 X36.4850 Y32.4019
G01 X36.5411 Y32.4956
G01 X36.5878 Y32.5943
G01 X36.6246 Y32.6971
G01 X36.6511 Y32.8030
G01 X36.6671 Y32.9110
G01 X36.6724 Y33.0225
G00 Z2.0000
G00 X36.1053 Y31.7500
G01 F60.00
G01 Z-0.0000
G01 F120.00
G01 X36.1977 Y31.7063
G01 X36.2117 Y31.6993
G01 X36.2254 Y31.6915
G01 X36.3148 Y31.6379
G01 X36.3281 Y31.6295
G01 X36.3409 Y31.6205
G01 X36.4247 Y31.5583
G01 X36.4370 Y31.5487
G01 X36.4489 Y31.5384
G01 X36.5262 Y31.4684
G01 X36.5376 Y31.4576
G01 X36.5484 Y31.4462
G01 X36.6184 Y31.3689
G01 X36.6287 Y31.3570
G01 X36.6383 Y31.3447
G01 X36.7005 Y31.2609
G01 X36.7095 Y31.2481
G01 X36.7179 Y31.2348
G01 X36.7715 Y31.1454
G01 X36.7793 Y31.1317
G01 X36.7863 Y31.1177
G01 X36.8342 Y31.0163
G01 X36.8429 Y30.9944
G01 X36.8780 Y30.8962
G01 X36.8830 Y30.8813
G01 X36.8872 Y30.8662
G01 X36.9125 Y30.7650
G01 X36.9159 Y30.7497
G01 X36.9186 Y30.7342
G01 X36.9339 Y30.6311
G01 X36.9358 Y30.6155
G01 X36.9370 Y30.5998
G01 X36.9424 Y30.4879
G01 X36.9421 Y30.4643
G01 X36.9370 Y30.3602
G01 X36.9358 Y30.3445
G01 X36.9339 Y30.3289
G01 X36.9174 Y30.2180
G01 X36.9125 Y30.1950
G01 X36.8852 Y30.0862
G01 X36.8780 Y30.0638
G01 X36.8569 Y30.0046
G01 X40.3376 Y33.4853
G01 X40.3376 Y34.5408
G01 X40.2795 Y34.6191
