( pcb2gcode 2.4.0 )
( Software-independent Gcode )

G94 ( Millimeters per minute feed rate. )
G21 ( Units == Millimeters. )

G90 ( Absolute coordinates. )
G00 S10000 ( RPM spindle speed. )
G64 P0.01000 ( set maximum deviation from commanded toolpath )
G01 F120.00000 ( Feedrate. )


G00 Z10.00000 (Retract to tool change height)
T0
M5      (Spindle stop.)
G04 P1.00000 (Wait for spindle to stop)
(MSG, Change tool bit to mill diameter 0.20000mm)
M6      (Tool change.)
M0      (Temporary machine stop.)
M3 ( Spindle on clockwise. )
G04 P1.00000 (Wait for spindle to get up to speed)
G04 P0 ( dwell for no time -- G64 should not smooth over this point )
G00 Z5.00000 ( retract )

G00 X-1.04997 Y7.57704 ( rapid move to begin. )
G01 F60.00000
( Mill infeed pass 1/1 )
G01 Z-0.10000
G04 P0 ( dwell for no time -- G64 should not smooth over this point )
G01 F120.00000
G01 X-1.04997 Y7.57704
G01 X-1.06300 Y7.57239
G01 X-1.07243 Y7.56955
G01 X-1.09143 Y7.56480
G01 X-1.10103 Y7.56289
G01 X-1.12041 Y7.56002
G01 X-1.13011 Y7.55905
G01 X-1.14967 Y7.55809
G01 X-1.15462 Y7.55796
G01 X-4.75535 Y7.55796
G01 X-4.76028 Y7.55809
G01 X-4.77984 Y7.55905
G01 X-4.78954 Y7.56002
G01 X-4.80892 Y7.56289
G01 X-4.81852 Y7.56480
G01 X-4.83752 Y7.56955
G01 X-4.84694 Y7.57239
G01 X-4.86541 Y7.57899
G01 X-4.87453 Y7.58278
G01 X-4.89223 Y7.59116
G01 X-4.90094 Y7.59581
G01 X-4.91773 Y7.60589
G01 X-4.92574 Y7.61125
G01 X-4.94148 Y7.62291
G01 X-4.94910 Y7.62916
G01 X-4.96363 Y7.64232
G01 X-4.97064 Y7.64933
G01 X-4.98380 Y7.66386
G01 X-4.99000 Y7.67140
G01 X-5.00166 Y7.68712
G01 X-5.00709 Y7.69528
G01 X-5.01718 Y7.71209
G01 X-5.02185 Y7.72083
G01 X-5.03021 Y7.73853
G01 X-5.03391 Y7.74750
G01 X-5.04052 Y7.76594
G01 X-5.04336 Y7.77531
G01 X-5.04814 Y7.79434
G01 X-5.05007 Y7.80404
G01 X-5.05294 Y7.82342
G01 X-5.05390 Y7.83312
G01 X-5.05487 Y7.85268
G01 X-5.05500 Y7.85763
G01 X-5.05500 Y8.98234
G01 X-5.05487 Y8.98727
G01 X-5.05390 Y9.00683
G01 X-5.05294 Y9.01653
G01 X-5.05007 Y9.03591
G01 X-5.04814 Y9.04562
G01 X-5.04336 Y9.06464
G01 X-5.04052 Y9.07401
G01 X-5.03391 Y9.09245
G01 X-5.03021 Y9.10142
G01 X-5.02185 Y9.11912
G01 X-5.01718 Y9.12786
G01 X-5.00709 Y9.14468
G01 X-5.00166 Y9.15283
G01 X-4.99000 Y9.16855
G01 X-4.98380 Y9.17610
G01 X-4.97064 Y9.19062
G01 X-4.96363 Y9.19763
G01 X-4.94910 Y9.21079
G01 X-4.94148 Y9.21704
G01 X-4.92574 Y9.22870
G01 X-4.91773 Y9.23406
G01 X-4.90094 Y9.24414
G01 X-4.89223 Y9.24879
G01 X-4.87453 Y9.25717
G01 X-4.86541 Y9.26096
G01 X-4.84694 Y9.26756
G01 X-4.83752 Y9.27041
G01 X-4.81852 Y9.27516
G01 X-4.80892 Y9.27706
G01 X-4.78954 Y9.27993
G01 X-4.77984 Y9.28090
G01 X-4.76028 Y9.28186
G01 X-4.75535 Y9.28199
G01 X-1.15462 Y9.28199
G01 X-1.14967 Y9.28186
G01 X-1.13011 Y9.28090
G01 X-1.12041 Y9.27993
G01 X-1.10103 Y9.27706
G01 X-1.09143 Y9.27516
G01 X-1.07243 Y9.27041
G01 X-1.06300 Y9.26756
G01 X-1.04997 Y9.26289
G01 X-1.04454 Y9.26096
G01 X-1.03542 Y9.25717
G01 X-1.01772 Y9.24879
G01 X-1.00900 Y9.24414
G01 X-0.99849 Y9.23782
G01 X-0.98462 Y9.22776
G01 X-0.97266 Y9.21549
G01 X-0.96295 Y9.20134
G01 X-0.95582 Y9.18575
G01 X-0.95145 Y9.16916
G01 X-0.94997 Y9.15209
G01 X-0.94997 Y7.68786
G01 X-0.95145 Y7.67079
G01 X-0.95582 Y7.65420
G01 X-0.96295 Y7.63861
G01 X-0.97266 Y7.62446
G01 X-0.98462 Y7.61219
G01 X-0.99849 Y7.60213
G01 X-1.00900 Y7.59581
G01 X-1.01772 Y7.59116
G01 X-1.03542 Y7.58278
G01 X-1.04454 Y7.57899
G01 X-1.04997 Y7.57704
G01 X-1.04997 Y7.47209
G01 X-1.06717 Y7.46779
G01 X-1.08637 Y7.46396
G01 X-1.10575 Y7.46109
G01 X-1.12518 Y7.45918
G01 X-1.14474 Y7.45822
G01 X-1.15462 Y7.45796
G01 X-4.75535 Y7.45796
G01 X-4.76521 Y7.45822
G01 X-4.78477 Y7.45918
G01 X-4.80420 Y7.46109
G01 X-4.82358 Y7.46396
G01 X-4.84278 Y7.46779
G01 X-4.86178 Y7.47254
G01 X-4.88062 Y7.47823
G01 X-4.89909 Y7.48484
G01 X-4.91733 Y7.49241
G01 X-4.93503 Y7.50079
G01 X-4.95243 Y7.51008
G01 X-4.96922 Y7.52017
G01 X-4.98525 Y7.53089
G01 X-5.00100 Y7.54254
G01 X-5.01624 Y7.55504
G01 X-5.03076 Y7.56820
G01 X-5.04476 Y7.58219
G01 X-5.05792 Y7.59672
G01 X-5.07031 Y7.61184
G01 X-5.08197 Y7.62756
G01 X-5.09284 Y7.64384
G01 X-5.10293 Y7.66065
G01 X-5.11227 Y7.67813
G01 X-5.12063 Y7.69583
G01 X-5.12805 Y7.71379
G01 X-5.13465 Y7.73223
G01 X-5.14037 Y7.75098
G01 X-5.14514 Y7.77000
G01 X-5.14900 Y7.78938
G01 X-5.15187 Y7.80876
G01 X-5.15378 Y7.82819
G01 X-5.15474 Y7.84775
G01 X-5.15500 Y7.85763
G01 X-5.15500 Y8.98234
G01 X-5.15474 Y8.99220
G01 X-5.15378 Y9.01176
G01 X-5.15187 Y9.03119
G01 X-5.14900 Y9.05057
G01 X-5.14514 Y9.06995
G01 X-5.14037 Y9.08897
G01 X-5.13465 Y9.10772
G01 X-5.12805 Y9.12616
G01 X-5.12063 Y9.14412
G01 X-5.11227 Y9.16182
G01 X-5.10293 Y9.17930
G01 X-5.09284 Y9.19611
G01 X-5.08197 Y9.21239
G01 X-5.07031 Y9.22811
G01 X-5.05792 Y9.24323
G01 X-5.04476 Y9.25776
G01 X-5.03076 Y9.27175
G01 X-5.01624 Y9.28491
G01 X-5.00100 Y9.29741
G01 X-4.98525 Y9.30906
G01 X-4.96922 Y9.31978
G01 X-4.95243 Y9.32987
G01 X-4.93503 Y9.33916
G01 X-4.91733 Y9.34755
G01 X-4.89909 Y9.35511
G01 X-4.88062 Y9.36172
G01 X-4.86178 Y9.36741
G01 X-4.84278 Y9.37216
G01 X-4.82358 Y9.37599
G01 X-4.80420 Y9.37886
G01 X-4.78477 Y9.38077
G01 X-4.76521 Y9.38173
G01 X-4.75535 Y9.38199
G01 X-1.15462 Y9.38199
G01 X-1.14474 Y9.38173
G01 X-1.12518 Y9.38077
G01 X-1.10575 Y9.37886
G01 X-1.08637 Y9.37599
G01 X-1.06717 Y9.37216
G01 X-1.04997 Y9.36787
G01 X-1.04997 Y9.26289
G04 P0 ( dwell for no time -- G64 should not smooth over this point )
G00 Z5.00000 ( retract )

G00 X-1.04997 Y12.65704 ( rapid move to begin. )
G01 F60.00000
( Mill infeed pass 1/1 )
G01 Z-0.10000
G04 P0 ( dwell for no time -- G64 should not smooth over this point )
G01 F120.00000
G01 X-1.04997 Y12.65704
G01 X-1.06300 Y12.65239
G01 X-1.07243 Y12.64955
G01 X-1.09143 Y12.64480
G01 X-1.10103 Y12.64289
G01 X-1.12041 Y12.64002
G01 X-1.13011 Y12.63905
G01 X-1.14967 Y12.63809
G01 X-1.15462 Y12.63796
G01 X-4.75535 Y12.63796
G01 X-4.76028 Y12.63809
G01 X-4.77984 Y12.63905
G01 X-4.78954 Y12.64002
G01 X-4.80892 Y12.64289
G01 X-4.81852 Y12.64480
G01 X-4.83752 Y12.64955
G01 X-4.84694 Y12.65239
G01 X-4.86541 Y12.65899
G01 X-4.87453 Y12.66278
G01 X-4.89223 Y12.67116
G01 X-4.90094 Y12.67581
G01 X-4.91773 Y12.68589
G01 X-4.92574 Y12.69125
G01 X-4.94148 Y12.70291
G01 X-4.94910 Y12.70916
G01 X-4.96363 Y12.72232
G01 X-4.97064 Y12.72933
G01 X-4.98380 Y12.74386
G01 X-4.99000 Y12.75140
G01 X-5.00166 Y12.76712
G01 X-5.00709 Y12.77528
G01 X-5.01718 Y12.79209
G01 X-5.02185 Y12.80083
G01 X-5.03021 Y12.81853
G01 X-5.03391 Y12.82750
G01 X-5.04052 Y12.84594
G01 X-5.04336 Y12.85531
G01 X-5.04814 Y12.87434
G01 X-5.05007 Y12.88404
G01 X-5.05294 Y12.90342
G01 X-5.05390 Y12.91312
G01 X-5.05487 Y12.93268
G01 X-5.05500 Y12.93763
G01 X-5.05500 Y14.05587
G01 X-5.05500 Y14.06234
G01 X-5.05487 Y14.06727
G01 X-5.05390 Y14.08683
G01 X-5.05294 Y14.09653
G01 X-5.05007 Y14.11591
G01 X-5.04814 Y14.12562
G01 X-5.04336 Y14.14464
G01 X-5.04052 Y14.15401
G01 X-5.03391 Y14.17245
G01 X-5.03021 Y14.18142
G01 X-5.02185 Y14.19912
G01 X-5.01718 Y14.20786
G01 X-5.00709 Y14.22468
G01 X-5.00166 Y14.23283
G01 X-4.99000 Y14.24855
G01 X-4.98380 Y14.25610
G01 X-4.97064 Y14.27062
G01 X-4.96363 Y14.27763
G01 X-4.94910 Y14.29079
G01 X-4.94148 Y14.29704
G01 X-4.92574 Y14.30870
G01 X-4.91773 Y14.31406
G01 X-4.90094 Y14.32414
G01 X-4.89223 Y14.32879
G01 X-4.87453 Y14.33717
G01 X-4.86541 Y14.34096
G01 X-4.84694 Y14.34756
G01 X-4.83752 Y14.35041
G01 X-4.81852 Y14.35516
G01 X-4.80892 Y14.35706
G01 X-4.78954 Y14.35993
G01 X-4.77984 Y14.36090
G01 X-4.76028 Y14.36186
G01 X-4.75535 Y14.36199
G01 X-4.74890 Y14.36199
G01 X-1.15462 Y14.36199
G01 X-1.14967 Y14.36186
G01 X-1.13011 Y14.36090
G01 X-1.12041 Y14.35993
G01 X-1.10103 Y14.35706
G01 X-1.09143 Y14.35516
G01 X-1.07243 Y14.35041
G01 X-1.06300 Y14.34756
G01 X-1.04997 Y14.34289
G01 X-1.04454 Y14.34096
G01 X-1.03542 Y14.33717
G01 X-1.01772 Y14.32879
G01 X-1.00900 Y14.32414
G01 X-0.99849 Y14.31782
G01 X-0.98462 Y14.30776
G01 X-0.97266 Y14.29549
G01 X-0.96295 Y14.28134
G01 X-0.95582 Y14.26575
G01 X-0.95145 Y14.24916
G01 X-0.94997 Y14.23209
G01 X-0.94997 Y12.76786
G01 X-0.95145 Y12.75079
G01 X-0.95582 Y12.73420
G01 X-0.96295 Y12.71861
G01 X-0.97266 Y12.70446
G01 X-0.98462 Y12.69219
G01 X-0.99849 Y12.68213
G01 X-1.00900 Y12.67581
G01 X-1.01772 Y12.67116
G01 X-1.03542 Y12.66278
G01 X-1.04454 Y12.65899
G01 X-1.04997 Y12.65704
G01 X-1.04997 Y12.55209
G01 X-1.06717 Y12.54779
G01 X-1.08637 Y12.54396
G01 X-1.10575 Y12.54109
G01 X-1.12518 Y12.53918
G01 X-1.14474 Y12.53822
G01 X-1.15462 Y12.53796
G01 X-4.75535 Y12.53796
G01 X-4.76521 Y12.53822
G01 X-4.78477 Y12.53918
G01 X-4.80420 Y12.54109
G01 X-4.82358 Y12.54396
G01 X-4.84278 Y12.54779
G01 X-4.86178 Y12.55254
G01 X-4.88062 Y12.55823
G01 X-4.89909 Y12.56484
G01 X-4.91733 Y12.57241
G01 X-4.93503 Y12.58079
G01 X-4.95243 Y12.59008
G01 X-4.96922 Y12.60017
G01 X-4.98525 Y12.61089
G01 X-5.00100 Y12.62254
G01 X-5.01624 Y12.63504
G01 X-5.03076 Y12.64820
G01 X-5.04476 Y12.66219
G01 X-5.05792 Y12.67672
G01 X-5.07031 Y12.69184
G01 X-5.08197 Y12.70756
G01 X-5.09284 Y12.72384
G01 X-5.10293 Y12.74065
G01 X-5.11227 Y12.75813
G01 X-5.12063 Y12.77583
G01 X-5.12805 Y12.79379
G01 X-5.13465 Y12.81223
G01 X-5.14037 Y12.83098
G01 X-5.14514 Y12.85000
G01 X-5.14900 Y12.86938
G01 X-5.15187 Y12.88876
G01 X-5.15378 Y12.90819
G01 X-5.15474 Y12.92775
G01 X-5.15500 Y12.93763
G01 X-5.15500 Y13.81513
G01 X-5.06063 Y14.04289
G01 X-5.05787 Y14.04939
G01 X-5.05500 Y14.05587
G01 X-5.05500 Y14.06234
G01 X-5.05487 Y14.06727
G01 X-5.05390 Y14.08683
G01 X-5.05294 Y14.09653
G01 X-5.05007 Y14.11591
G01 X-5.04814 Y14.12562
G01 X-5.04336 Y14.14464
G01 X-5.04052 Y14.15401
G01 X-5.03391 Y14.17245
G01 X-5.03021 Y14.18142
G01 X-5.02185 Y14.19912
G01 X-5.01718 Y14.20786
G01 X-5.00709 Y14.22468
G01 X-5.00166 Y14.23283
G01 X-4.99000 Y14.24855
G01 X-4.98380 Y14.25610
G01 X-4.97064 Y14.27062
G01 X-4.96363 Y14.27763
G01 X-4.94910 Y14.29079
G01 X-4.94148 Y14.29704
G01 X-4.92574 Y14.30870
G01 X-4.91773 Y14.31406
G01 X-4.90094 Y14.32414
G01 X-4.89223 Y14.32879
G01 X-4.87453 Y14.33717
G01 X-4.86541 Y14.34096
G01 X-4.84694 Y14.34756
G01 X-4.83752 Y14.35041
G01 X-4.81852 Y14.35516
G01 X-4.80892 Y14.35706
G01 X-4.78954 Y14.35993
G01 X-4.77984 Y14.36090
G01 X-4.76028 Y14.36186
G01 X-4.75535 Y14.36199
G01 X-4.74890 Y14.36199
G01 X-4.74296 Y14.36460
G01 X-4.73612 Y14.36752
G01 X-4.50813 Y14.46199
G01 X-1.15462 Y14.46199
G01 X-1.14474 Y14.46173
G01 X-1.12518 Y14.46077
G01 X-1.10575 Y14.45886
G01 X-1.08637 Y14.45599
G01 X-1.06717 Y14.45216
G01 X-1.04997 Y14.44787
G01 X-1.04997 Y14.34289
G04 P0 ( dwell for no time -- G64 should not smooth over this point )
G00 Z5.00000 ( retract )

G00 X-1.04997 Y17.73704 ( rapid move to begin. )
G01 F60.00000
( Mill infeed pass 1/1 )
G01 Z-0.10000
G04 P0 ( dwell for no time -- G64 should not smooth over this point )
G01 F120.00000
G01 X-1.04997 Y17.73704
G01 X-1.04997 Y17.63209
G01 X-1.06717 Y17.62779
G01 X-1.08637 Y17.62396
G01 X-1.10575 Y17.62109
G01 X-1.12518 Y17.61918
G01 X-1.14474 Y17.61822
G01 X-1.15462 Y17.61796
G01 X-4.75535 Y17.61796
G01 X-4.76521 Y17.61822
G01 X-4.78477 Y17.61918
G01 X-4.80420 Y17.62109
G01 X-4.82358 Y17.62396
G01 X-4.84278 Y17.62779
G01 X-4.86178 Y17.63254
G01 X-4.88062 Y17.63823
G01 X-4.89909 Y17.64484
G01 X-4.91733 Y17.65241
G01 X-4.93503 Y17.66079
G01 X-4.95243 Y17.67008
G01 X-4.96922 Y17.68017
G01 X-4.97242 Y17.68233
G01 X-4.97839 Y17.69419
G01 X-4.98880 Y17.71616
G01 X-4.99698 Y17.73460
G01 X-5.00516 Y17.75434
G01 X-5.01235 Y17.77295
G01 X-5.01885 Y17.79111
G01 X-5.02495 Y17.80961
G01 X-5.03013 Y17.82665
G01 X-5.03518 Y17.84491
G01 X-5.03922 Y17.86104
G01 X-5.04339 Y17.87963
G01 X-5.04639 Y17.89470
G01 X-5.04956 Y17.91293
G01 X-5.05174 Y17.92759
G01 X-5.05398 Y17.94580
G01 X-5.05540 Y17.96013
G01 X-5.05675 Y17.97849
G01 X-5.05743 Y17.99236
G01 X-5.05789 Y18.01131
G01 X-5.05799 Y18.01824
G01 X-5.05799 Y19.14171
G01 X-5.05789 Y19.14864
G01 X-5.05743 Y19.16759
G01 X-5.05675 Y19.18146
G01 X-5.05540 Y19.19985
G01 X-5.05398 Y19.21415
G01 X-5.05174 Y19.23236
G01 X-5.04956 Y19.24707
G01 X-5.04639 Y19.26531
G01 X-5.04341 Y19.28027
G01 X-5.03925 Y19.29886
G01 X-5.03518 Y19.31504
G01 X-5.03013 Y19.33330
G01 X-5.02495 Y19.35034
G01 X-5.01883 Y19.36889
G01 X-5.01235 Y19.38700
G01 X-5.00521 Y19.40551
G01 X-4.99706 Y19.42517
G01 X-4.98205 Y19.43879
G01 X-4.96798 Y19.45090
G01 X-4.95187 Y19.46411
G01 X-4.93742 Y19.47541
G01 X-4.91964 Y19.48860
G01 X-4.90440 Y19.49932
G01 X-4.88565 Y19.51184
G01 X-4.86958 Y19.52205
G01 X-4.85970 Y19.52794
G01 X-4.84278 Y19.53216
G01 X-4.82358 Y19.53599
G01 X-4.80420 Y19.53886
G01 X-4.78477 Y19.54077
G01 X-4.76521 Y19.54173
G01 X-4.75535 Y19.54199
G01 X-1.15462 Y19.54199
G01 X-1.14474 Y19.54173
G01 X-1.12518 Y19.54077
G01 X-1.10575 Y19.53886
G01 X-1.08637 Y19.53599
G01 X-1.06717 Y19.53216
G01 X-1.04997 Y19.52787
G01 X-1.04997 Y19.42289
G01 X-1.04454 Y19.42096
G01 X-1.03542 Y19.41717
G01 X-1.01772 Y19.40879
G01 X-1.00900 Y19.40414
G01 X-0.99849 Y19.39782
G01 X-0.98462 Y19.38776
G01 X-0.97266 Y19.37549
G01 X-0.96295 Y19.36134
G01 X-0.95582 Y19.34575
G01 X-0.95145 Y19.32916
G01 X-0.94997 Y19.31209
G01 X-0.94997 Y17.84786
G01 X-0.95145 Y17.83079
G01 X-0.95582 Y17.81420
G01 X-0.96295 Y17.79861
G01 X-0.97266 Y17.78446
G01 X-0.98462 Y17.77219
G01 X-0.99849 Y17.76213
G01 X-1.00900 Y17.75581
G01 X-1.01772 Y17.75116
G01 X-1.03542 Y17.74278
G01 X-1.04454 Y17.73899
G01 X-1.04997 Y17.73704
G01 X-1.06300 Y17.73239
G01 X-1.07243 Y17.72955
G01 X-1.09143 Y17.72480
G01 X-1.10103 Y17.72289
G01 X-1.12041 Y17.72002
G01 X-1.13011 Y17.71905
G01 X-1.14967 Y17.71809
G01 X-1.15462 Y17.71796
G01 X-4.75535 Y17.71796
G01 X-4.76028 Y17.71809
G01 X-4.77984 Y17.71905
G01 X-4.78954 Y17.72002
G01 X-4.80892 Y17.72289
G01 X-4.81852 Y17.72480
G01 X-4.83752 Y17.72955
G01 X-4.84694 Y17.73239
G01 X-4.86541 Y17.73899
G01 X-4.87453 Y17.74278
G01 X-4.89223 Y17.75116
G01 X-4.90094 Y17.75581
G01 X-4.91773 Y17.76589
G01 X-4.92574 Y17.77125
G01 X-4.94148 Y17.78291
G01 X-4.94910 Y17.78916
G01 X-4.96363 Y17.80232
G01 X-4.97064 Y17.80933
G01 X-4.98380 Y17.82386
G01 X-4.99000 Y17.83140
G01 X-5.00166 Y17.84712
G01 X-5.00709 Y17.85528
G01 X-5.01718 Y17.87209
G01 X-5.02185 Y17.88083
G01 X-5.03021 Y17.89853
G01 X-5.03391 Y17.90750
G01 X-5.04052 Y17.92594
G01 X-5.04336 Y17.93531
G01 X-5.04814 Y17.95434
G01 X-5.05007 Y17.96404
G01 X-5.05294 Y17.98342
G01 X-5.05390 Y17.99312
G01 X-5.05487 Y18.01268
G01 X-5.05500 Y18.01763
G01 X-5.05500 Y19.14234
G01 X-5.05487 Y19.14727
G01 X-5.05390 Y19.16683
G01 X-5.05294 Y19.17653
G01 X-5.05007 Y19.19591
G01 X-5.04814 Y19.20562
G01 X-5.04336 Y19.22464
G01 X-5.04052 Y19.23401
G01 X-5.03391 Y19.25245
G01 X-5.03021 Y19.26142
G01 X-5.02185 Y19.27912
G01 X-5.01718 Y19.28786
G01 X-5.00709 Y19.30468
G01 X-5.00166 Y19.31283
G01 X-4.99000 Y19.32855
G01 X-4.98380 Y19.33610
G01 X-4.97064 Y19.35062
G01 X-4.96363 Y19.35763
G01 X-4.94910 Y19.37079
G01 X-4.94148 Y19.37704
G01 X-4.92574 Y19.38870
G01 X-4.91773 Y19.39406
G01 X-4.90094 Y19.40414
G01 X-4.89223 Y19.40879
G01 X-4.87453 Y19.41717
G01 X-4.86541 Y19.42096
G01 X-4.84694 Y19.42756
G01 X-4.83752 Y19.43041
G01 X-4.81852 Y19.43516
G01 X-4.80892 Y19.43706
G01 X-4.78954 Y19.43993
G01 X-4.77984 Y19.44090
G01 X-4.76028 Y19.44186
G01 X-4.75535 Y19.44199
G01 X-1.15462 Y19.44199
G01 X-1.14967 Y19.44186
G01 X-1.13011 Y19.44090
G01 X-1.12041 Y19.43993
G01 X-1.10103 Y19.43706
G01 X-1.09143 Y19.43516
G01 X-1.07243 Y19.43041
G01 X-1.06300 Y19.42756
G01 X-1.04997 Y19.42289
G04 P0 ( dwell for no time -- G64 should not smooth over this point )
G00 Z5.00000 ( retract )

G00 X-1.04997 Y29.58289 ( rapid move to begin. )
G01 F60.00000
( Mill infeed pass 1/1 )
G01 Z-0.10000
G04 P0 ( dwell for no time -- G64 should not smooth over this point )
G01 F120.00000
G01 X-1.04997 Y29.58289
G01 X-1.06300 Y29.58756
G01 X-1.07243 Y29.59041
G01 X-1.09143 Y29.59516
G01 X-1.10103 Y29.59706
G01 X-1.12041 Y29.59993
G01 X-1.13011 Y29.60090
G01 X-1.14967 Y29.60186
G01 X-1.15462 Y29.60199
G01 X-4.75535 Y29.60199
G01 X-4.76028 Y29.60186
G01 X-4.77984 Y29.60090
G01 X-4.78954 Y29.59993
G01 X-4.80892 Y29.59706
G01 X-4.81852 Y29.59516
G01 X-4.83752 Y29.59041
G01 X-4.84694 Y29.58756
G01 X-4.86541 Y29.58096
G01 X-4.87453 Y29.57717
G01 X-4.89223 Y29.56879
G01 X-4.90094 Y29.56414
G01 X-4.91773 Y29.55406
G01 X-4.92574 Y29.54870
G01 X-4.94148 Y29.53704
G01 X-4.94910 Y29.53079
G01 X-4.96363 Y29.51763
G01 X-4.97064 Y29.51062
G01 X-4.98380 Y29.49610
G01 X-4.99000 Y29.48855
G01 X-5.00166 Y29.47283
G01 X-5.00709 Y29.46468
G01 X-5.01718 Y29.44786
G01 X-5.02185 Y29.43912
G01 X-5.03021 Y29.42142
G01 X-5.03391 Y29.41245
G01 X-5.04052 Y29.39401
G01 X-5.04336 Y29.38464
G01 X-5.04814 Y29.36562
G01 X-5.05007 Y29.35591
G01 X-5.05294 Y29.33653
G01 X-5.05390 Y29.32683
G01 X-5.05487 Y29.30727
G01 X-5.05500 Y29.30234
G01 X-5.05500 Y29.21497
G01 X-14.01596 Y29.21497
G01 X-14.02577 Y29.21449
G01 X-14.09895 Y29.20730
G01 X-14.11817 Y29.20346
G01 X-14.18851 Y29.18213
G01 X-14.19775 Y29.17882
G01 X-14.20662 Y29.17463
G01 X-14.27146 Y29.13996
G01 X-14.28774 Y29.12907
G01 X-14.34459 Y29.08243
G01 X-14.35185 Y29.07585
G01 X-14.74098 Y28.68672
G01 X-15.16610 Y29.11184
G01 X-15.17339 Y29.11845
G01 X-15.23021 Y29.16508
G01 X-15.24649 Y29.17595
G01 X-15.31134 Y29.21062
G01 X-15.32945 Y29.21812
G01 X-15.39978 Y29.23945
G01 X-15.41901 Y29.24329
G01 X-15.49219 Y29.25048
G01 X-15.50199 Y29.25096
G01 X-30.19198 Y29.25096
G01 X-30.20176 Y29.25048
G01 X-30.27494 Y29.24329
G01 X-30.29416 Y29.23945
G01 X-30.36450 Y29.21812
G01 X-30.38261 Y29.21062
G01 X-30.44745 Y29.17595
G01 X-30.46373 Y29.16508
G01 X-30.52058 Y29.11842
G01 X-30.52784 Y29.11184
G01 X-36.23085 Y23.40886
G01 X-36.23619 Y23.40309
G01 X-36.27439 Y23.35834
G01 X-36.28361 Y23.34566
G01 X-36.31437 Y23.29547
G01 X-36.32148 Y23.28150
G01 X-36.34401 Y23.22712
G01 X-36.34886 Y23.21221
G01 X-36.36260 Y23.15499
G01 X-36.36504 Y23.13949
G01 X-36.36967 Y23.08082
G01 X-36.36997 Y23.07297
G01 X-36.36997 Y21.83500
G01 X-37.89499 Y21.83500
G01 X-37.90545 Y21.83444
G01 X-38.11335 Y21.81260
G01 X-38.12369 Y21.81094
G01 X-38.13380 Y21.80825
G01 X-38.33263 Y21.74363
G01 X-38.34241 Y21.73987
G01 X-38.35173 Y21.73513
G01 X-38.53278 Y21.63060
G01 X-38.54154 Y21.62491
G01 X-38.54970 Y21.61831
G01 X-38.70504 Y21.47843
G01 X-38.71243 Y21.47104
G01 X-38.71904 Y21.46289
G01 X-38.84192 Y21.29377
G01 X-38.84761 Y21.28499
G01 X-38.85236 Y21.27566
G01 X-38.93740 Y21.08468
G01 X-38.94116 Y21.07490
G01 X-38.94385 Y21.06479
G01 X-38.98048 Y20.89248
G01 X-38.98731 Y20.86030
G01 X-38.98896 Y20.84996
G01 X-38.98950 Y20.83952
G01 X-38.98950 Y20.63045
G01 X-38.98896 Y20.62001
G01 X-38.98731 Y20.60968
G01 X-38.98048 Y20.57749
G01 X-38.96156 Y20.39741
G01 X-38.95627 Y20.36413
G01 X-38.91241 Y20.15766
G01 X-38.90039 Y20.11300
G01 X-38.88487 Y20.06520
G01 X-38.79994 Y19.94831
G01 X-38.78675 Y19.93203
G01 X-38.77195 Y19.91722
G01 X-38.61660 Y19.77734
G01 X-38.60032 Y19.76416
G01 X-38.58277 Y19.75276
G01 X-38.40172 Y19.64824
G01 X-38.38307 Y19.63874
G01 X-38.36354 Y19.63124
G01 X-38.16471 Y19.56663
G01 X-38.14449 Y19.56122
G01 X-38.12381 Y19.55794
G01 X-37.91589 Y19.53609
G01 X-37.89499 Y19.53498
G01 X-35.89499 Y19.53498
G01 X-35.87409 Y19.53609
G01 X-35.67663 Y19.55685
G01 X-35.63952 Y19.57696
G01 X-35.45852 Y19.68786
G01 X-35.42885 Y19.70823
G01 X-35.26367 Y19.83498
G01 X-35.26131 Y19.83698
G01 X-35.25720 Y19.83937
G01 X-35.24843 Y19.84506
G01 X-35.24028 Y19.85166
G01 X-35.08493 Y19.99154
G01 X-35.07752 Y19.99893
G01 X-35.07094 Y20.00709
G01 X-35.01615 Y20.08245
G01 X-34.94805 Y20.17620
G01 X-34.94236 Y20.18499
G01 X-34.93761 Y20.19431
G01 X-34.85257 Y20.38529
G01 X-34.84881 Y20.39507
G01 X-34.84612 Y20.40518
G01 X-34.80266 Y20.60968
G01 X-34.80101 Y20.62001
G01 X-34.80045 Y20.63045
G01 X-34.80045 Y20.83952
G01 X-34.80101 Y20.84996
G01 X-34.80266 Y20.86030
G01 X-34.84612 Y21.06479
G01 X-34.84881 Y21.07490
G01 X-34.85257 Y21.08468
G01 X-34.93761 Y21.27566
G01 X-34.94236 Y21.28499
G01 X-34.94805 Y21.29377
G01 X-35.07094 Y21.46289
G01 X-35.07752 Y21.47104
G01 X-35.08493 Y21.47843
G01 X-35.24028 Y21.61831
G01 X-35.24843 Y21.62491
G01 X-35.25720 Y21.63060
G01 X-35.41998 Y21.72458
G01 X-35.41998 Y22.87622
G01 X-31.97559 Y26.32061
G01 X-31.39142 Y26.90476
G01 X-29.99521 Y28.30097
G01 X-15.69871 Y28.30097
G01 X-15.21596 Y27.81822
G01 X-15.21596 Y26.63611
G01 X-15.21596 Y25.65386
G01 X-15.21596 Y24.77896
G01 X-15.21548 Y24.76918
G01 X-15.20829 Y24.69600
G01 X-15.20445 Y24.67678
G01 X-15.18312 Y24.60644
G01 X-15.17982 Y24.59720
G01 X-15.17563 Y24.58833
G01 X-15.14095 Y24.52349
G01 X-15.13006 Y24.50720
G01 X-15.08342 Y24.45036
G01 X-15.07685 Y24.44310
G01 X-13.95785 Y23.32410
G01 X-13.95058 Y23.31752
G01 X-13.89374 Y23.27089
G01 X-13.87746 Y23.25999
G01 X-13.81261 Y23.22532
G01 X-13.80375 Y23.22113
G01 X-13.79450 Y23.21782
G01 X-13.72417 Y23.19649
G01 X-13.70494 Y23.19265
G01 X-13.63176 Y23.18547
G01 X-13.62196 Y23.18498
G01 X-5.05500 Y23.18498
G01 X-5.05500 Y23.09763
G01 X-5.05487 Y23.09268
G01 X-5.05390 Y23.07312
G01 X-5.05294 Y23.06342
G01 X-5.05007 Y23.04404
G01 X-5.04814 Y23.03434
G01 X-5.04336 Y23.01531
G01 X-5.04052 Y23.00594
G01 X-5.03391 Y22.98750
G01 X-5.03021 Y22.97853
G01 X-5.02185 Y22.96083
G01 X-5.01718 Y22.95209
G01 X-5.00709 Y22.93528
G01 X-5.00166 Y22.92712
G01 X-4.99000 Y22.91140
G01 X-4.98380 Y22.90386
G01 X-4.97064 Y22.88933
G01 X-4.96363 Y22.88232
G01 X-4.94910 Y22.86916
G01 X-4.94148 Y22.86291
G01 X-4.92574 Y22.85125
G01 X-4.91773 Y22.84589
G01 X-4.90094 Y22.83581
G01 X-4.89223 Y22.83116
G01 X-4.87453 Y22.82278
G01 X-4.86541 Y22.81899
G01 X-4.84694 Y22.81239
G01 X-4.83752 Y22.80955
G01 X-4.81852 Y22.80480
G01 X-4.80892 Y22.80289
G01 X-4.78954 Y22.80002
G01 X-4.77984 Y22.79905
G01 X-4.76028 Y22.79809
G01 X-4.75535 Y22.79796
G01 X-1.15462 Y22.79796
G01 X-1.14967 Y22.79809
G01 X-1.13011 Y22.79905
G01 X-1.12041 Y22.80002
G01 X-1.10103 Y22.80289
G01 X-1.09143 Y22.80480
G01 X-1.07243 Y22.80955
G01 X-1.06300 Y22.81239
G01 X-1.04997 Y22.81706
G01 X-1.04454 Y22.81899
G01 X-1.03542 Y22.82278
G01 X-1.01772 Y22.83116
G01 X-1.00900 Y22.83581
G01 X-0.99849 Y22.84213
G01 X-0.98462 Y22.85219
G01 X-0.97266 Y22.86446
G01 X-0.96295 Y22.87861
G01 X-0.95582 Y22.89420
G01 X-0.95145 Y22.91079
G01 X-0.94997 Y22.92786
G01 X-0.94997 Y24.39209
G01 X-0.95145 Y24.40916
G01 X-0.95582 Y24.42575
G01 X-0.96295 Y24.44134
G01 X-0.97266 Y24.45549
G01 X-0.98462 Y24.46776
G01 X-0.99849 Y24.47782
G01 X-1.00900 Y24.48414
G01 X-1.01772 Y24.48879
G01 X-1.03542 Y24.49717
G01 X-1.04454 Y24.50096
G01 X-1.04997 Y24.50289
G01 X-1.04997 Y24.60787
G01 X-1.06717 Y24.61216
G01 X-1.08637 Y24.61599
G01 X-1.10575 Y24.61886
G01 X-1.12518 Y24.62077
G01 X-1.14474 Y24.62173
G01 X-1.15462 Y24.62199
G01 X-4.75535 Y24.62199
G01 X-4.76521 Y24.62173
G01 X-4.78477 Y24.62077
G01 X-4.80420 Y24.61886
G01 X-4.82358 Y24.61599
G01 X-4.84278 Y24.61216
G01 X-4.86178 Y24.60741
G01 X-4.88062 Y24.60172
G01 X-4.89909 Y24.59511
G01 X-4.91733 Y24.58755
G01 X-4.93503 Y24.57916
G01 X-4.95243 Y24.56987
G01 X-4.96922 Y24.55978
G01 X-4.98525 Y24.54906
G01 X-5.00100 Y24.53741
G01 X-5.01624 Y24.52491
G01 X-5.03076 Y24.51175
G01 X-5.04476 Y24.49776
G01 X-5.05792 Y24.48323
G01 X-5.07031 Y24.46811
G01 X-5.08197 Y24.45239
G01 X-5.09284 Y24.43611
G01 X-5.10293 Y24.41930
G01 X-5.11227 Y24.40182
G01 X-5.12063 Y24.38412
G01 X-5.12805 Y24.36616
G01 X-5.13465 Y24.34772
G01 X-5.14037 Y24.32897
G01 X-5.14514 Y24.30995
G01 X-5.14900 Y24.29057
G01 X-5.15187 Y24.27119
G01 X-5.15378 Y24.25176
G01 X-5.15461 Y24.23497
G01 X-5.13719 Y24.21315
G01 X-5.15461 Y24.23497
G01 X-13.38381 Y24.23497
G01 X-13.38696 Y24.22737
G01 X-13.38381 Y24.23497
G01 X-14.16598 Y25.01714
G01 X-14.17357 Y25.01399
G01 X-14.16598 Y25.01714
G01 X-14.16598 Y25.06750
G01 X-14.20070 Y25.17441
G01 X-14.20143 Y25.17690
G01 X-14.21307 Y25.22016
G01 X-14.21370 Y25.22272
G01 X-14.25813 Y25.43179
G01 X-14.25861 Y25.43436
G01 X-14.26372 Y25.46659
G01 X-14.26407 Y25.46920
G01 X-14.26598 Y25.48724
G01 X-14.26598 Y26.14271
G01 X-14.26407 Y26.16074
G01 X-14.26372 Y26.16336
G01 X-14.25861 Y26.19559
G01 X-14.25813 Y26.19816
G01 X-14.21370 Y26.40723
G01 X-14.21307 Y26.40979
G01 X-14.20143 Y26.45305
G01 X-14.20070 Y26.45554
G01 X-14.16598 Y26.56245
G01 X-14.16598 Y27.77682
G01 X-14.17357 Y27.77997
G01 X-14.16598 Y27.77682
G01 X-13.77781 Y28.16498
G01 X-13.78096 Y28.17258
G01 X-13.77781 Y28.16498
G01 X-5.15461 Y28.16498
G01 X-5.13719 Y28.18680
G01 X-5.15461 Y28.16498
G01 X-5.15378 Y28.14819
G01 X-5.15187 Y28.12876
G01 X-5.14900 Y28.10938
G01 X-5.14514 Y28.09000
G01 X-5.14037 Y28.07098
G01 X-5.13465 Y28.05223
G01 X-5.12805 Y28.03379
G01 X-5.12063 Y28.01583
G01 X-5.11227 Y27.99813
G01 X-5.10293 Y27.98065
G01 X-5.09284 Y27.96384
G01 X-5.08197 Y27.94756
G01 X-5.07031 Y27.93184
G01 X-5.05792 Y27.91672
G01 X-5.04476 Y27.90219
G01 X-5.03076 Y27.88820
G01 X-5.01624 Y27.87504
G01 X-5.00100 Y27.86254
G01 X-4.98525 Y27.85089
G01 X-4.96922 Y27.84017
G01 X-4.95243 Y27.83008
G01 X-4.93503 Y27.82079
G01 X-4.91733 Y27.81241
G01 X-4.89909 Y27.80484
G01 X-4.88062 Y27.79823
G01 X-4.86178 Y27.79254
G01 X-4.84278 Y27.78779
G01 X-4.82358 Y27.78396
G01 X-4.80420 Y27.78109
G01 X-4.78477 Y27.77918
G01 X-4.76521 Y27.77822
G01 X-4.75535 Y27.77796
G01 X-1.15462 Y27.77796
G01 X-1.14474 Y27.77822
G01 X-1.12518 Y27.77918
G01 X-1.10575 Y27.78109
G01 X-1.08637 Y27.78396
G01 X-1.06717 Y27.78779
G01 X-1.04997 Y27.79209
G01 X-1.04997 Y27.89706
G01 X-1.04454 Y27.89899
G01 X-1.03542 Y27.90278
G01 X-1.01772 Y27.91116
G01 X-1.00900 Y27.91581
G01 X-0.99849 Y27.92213
G01 X-0.98462 Y27.93219
G01 X-0.97266 Y27.94446
G01 X-0.96295 Y27.95861
G01 X-0.95582 Y27.97420
G01 X-0.95145 Y27.99079
G01 X-0.94997 Y28.00786
G01 X-0.94997 Y29.47209
G01 X-0.95145 Y29.48916
G01 X-0.95582 Y29.50575
G01 X-0.96295 Y29.52134
G01 X-0.97266 Y29.53549
G01 X-0.98462 Y29.54776
G01 X-0.99849 Y29.55782
G01 X-1.00900 Y29.56414
G01 X-1.01772 Y29.56879
G01 X-1.03542 Y29.57717
G01 X-1.04454 Y29.58096
G01 X-1.04997 Y29.58289
G01 X-1.04997 Y29.68787
G01 X-1.06717 Y29.69216
G01 X-1.08637 Y29.69599
G01 X-1.10575 Y29.69886
G01 X-1.12518 Y29.70077
G01 X-1.14474 Y29.70173
G01 X-1.15462 Y29.70199
G01 X-4.75535 Y29.70199
G01 X-4.76521 Y29.70173
G01 X-4.78477 Y29.70077
G01 X-4.80420 Y29.69886
G01 X-4.82358 Y29.69599
G01 X-4.84278 Y29.69216
G01 X-4.86178 Y29.68741
G01 X-4.88062 Y29.68172
G01 X-4.89909 Y29.67511
G01 X-4.91733 Y29.66755
G01 X-4.93503 Y29.65916
G01 X-4.95243 Y29.64987
G01 X-4.96922 Y29.63978
G01 X-4.98525 Y29.62906
G01 X-5.00100 Y29.61741
G01 X-5.01624 Y29.60491
G01 X-5.03076 Y29.59175
G01 X-5.04476 Y29.57776
G01 X-5.05792 Y29.56323
G01 X-5.07031 Y29.54811
G01 X-5.08197 Y29.53239
G01 X-5.09284 Y29.51611
G01 X-5.10293 Y29.49930
G01 X-5.11227 Y29.48182
G01 X-5.12063 Y29.46412
G01 X-5.12805 Y29.44616
G01 X-5.13465 Y29.42772
G01 X-5.14037 Y29.40897
G01 X-5.14514 Y29.38995
G01 X-5.14900 Y29.37057
G01 X-5.15187 Y29.35119
G01 X-5.15378 Y29.33176
G01 X-5.15461 Y29.31497
G01 X-5.13719 Y29.29315
G01 X-5.15461 Y29.31497
G01 X-14.01596 Y29.31497
G01 X-14.03557 Y29.31400
G01 X-14.10875 Y29.30681
G01 X-14.14718 Y29.29917
G01 X-14.21754 Y29.27781
G01 X-14.23603 Y29.27120
G01 X-14.25376 Y29.26282
G01 X-14.31860 Y29.22815
G01 X-14.35119 Y29.20638
G01 X-14.40801 Y29.15975
G01 X-14.42257 Y29.14657
G01 X-14.74098 Y28.82815
G01 X-14.74101 Y28.78873
G01 X-14.74098 Y28.82815
G01 X-15.09539 Y29.18256
G01 X-15.10994 Y29.19574
G01 X-15.16676 Y29.24237
G01 X-15.19937 Y29.26417
G01 X-15.26420 Y29.29881
G01 X-15.30042 Y29.31380
G01 X-15.37077 Y29.33516
G01 X-15.40923 Y29.34281
G01 X-15.48238 Y29.34999
G01 X-15.50199 Y29.35096
G01 X-30.19198 Y29.35096
G01 X-30.21156 Y29.34999
G01 X-30.28474 Y29.34281
G01 X-30.32317 Y29.33516
G01 X-30.39353 Y29.31380
G01 X-30.42975 Y29.29881
G01 X-30.49459 Y29.26414
G01 X-30.52718 Y29.24237
G01 X-30.58400 Y29.19574
G01 X-30.59856 Y29.18256
G01 X-36.30157 Y23.47957
G01 X-36.31221 Y23.46804
G01 X-36.35044 Y23.42329
G01 X-36.36888 Y23.39791
G01 X-36.39964 Y23.34772
G01 X-36.41389 Y23.31975
G01 X-36.43639 Y23.26540
G01 X-36.44609 Y23.23555
G01 X-36.45984 Y23.17833
G01 X-36.46474 Y23.14734
G01 X-36.46936 Y23.08867
G01 X-36.46997 Y23.07297
G01 X-36.46997 Y21.93500
G01 X-36.44096 Y21.90584
G01 X-36.46997 Y21.93500
G01 X-37.89499 Y21.93500
G01 X-37.91589 Y21.93388
G01 X-38.12381 Y21.91204
G01 X-38.14449 Y21.90876
G01 X-38.16471 Y21.90335
G01 X-38.36354 Y21.83873
G01 X-38.38307 Y21.83124
G01 X-38.40172 Y21.82174
G01 X-38.58277 Y21.71722
G01 X-38.60032 Y21.70581
G01 X-38.61660 Y21.69263
G01 X-38.77195 Y21.55275
G01 X-38.78675 Y21.53794
G01 X-38.79994 Y21.52166
G01 X-38.88487 Y21.40477
G01 X-38.90039 Y21.35694
G01 X-38.91238 Y21.31232
G01 X-38.95627 Y21.10581
G01 X-38.96156 Y21.07254
G01 X-38.98048 Y20.89248
G01 X-38.98731 Y20.86030
G01 X-38.98896 Y20.84996
G01 X-38.98950 Y20.83952
G01 X-38.98950 Y20.63045
G01 X-38.98896 Y20.62001
G01 X-38.98731 Y20.60968
G01 X-38.94385 Y20.40518
G01 X-38.94116 Y20.39507
G01 X-38.93740 Y20.38529
G01 X-38.85236 Y20.19431
G01 X-38.84761 Y20.18499
G01 X-38.84192 Y20.17620
G01 X-38.71904 Y20.00709
G01 X-38.71243 Y19.99893
G01 X-38.70504 Y19.99154
G01 X-38.54970 Y19.85166
G01 X-38.54154 Y19.84506
G01 X-38.53278 Y19.83937
G01 X-38.35173 Y19.73485
G01 X-38.34241 Y19.73010
G01 X-38.33263 Y19.72634
G01 X-38.13380 Y19.66172
G01 X-38.12369 Y19.65903
G01 X-38.11335 Y19.65738
G01 X-37.90545 Y19.63554
G01 X-37.89499 Y19.63498
G01 X-35.89499 Y19.63498
G01 X-35.88453 Y19.63554
G01 X-35.67663 Y19.65738
G01 X-35.66629 Y19.65903
G01 X-35.65618 Y19.66172
G01 X-35.45735 Y19.72634
G01 X-35.44757 Y19.73010
G01 X-35.43825 Y19.73485
G01 X-35.26131 Y19.83698
G01 X-35.25720 Y19.83937
G01 X-35.24843 Y19.84506
G01 X-35.24028 Y19.85166
G01 X-35.08493 Y19.99154
G01 X-35.07752 Y19.99893
G01 X-35.07094 Y20.00709
G01 X-35.01615 Y20.08245
G01 X-34.93896 Y20.17287
G01 X-34.91991 Y20.19771
G01 X-34.80086 Y20.37092
G01 X-34.77896 Y20.40673
G01 X-34.72077 Y20.51389
G01 X-34.70485 Y20.58887
G01 X-34.70157 Y20.60955
G01 X-34.70045 Y20.63045
G01 X-34.70045 Y20.83952
G01 X-34.70157 Y20.86043
G01 X-34.70485 Y20.88110
G01 X-34.74831 Y21.08560
G01 X-34.75372 Y21.10581
G01 X-34.76121 Y21.12535
G01 X-34.84625 Y21.31633
G01 X-34.85575 Y21.33500
G01 X-34.86715 Y21.35255
G01 X-34.99004 Y21.52166
G01 X-35.00322 Y21.53794
G01 X-35.01800 Y21.55275
G01 X-35.17338 Y21.69263
G01 X-35.18966 Y21.70581
G01 X-35.20721 Y21.71722
G01 X-35.31998 Y21.78232
G01 X-35.33319 Y21.77475
G01 X-35.31998 Y21.78232
G01 X-35.31998 Y22.83482
G01 X-35.32758 Y22.83797
G01 X-35.31998 Y22.83482
G01 X-32.17798 Y25.97677
G01 X-32.17110 Y25.99125
G01 X-32.16990 Y25.99361
G01 X-32.06586 Y26.18523
G01 X-32.06457 Y26.18749
G01 X-32.04488 Y26.21965
G01 X-32.04344 Y26.22188
G01 X-31.97559 Y26.32061
G01 X-31.39142 Y26.90476
G01 X-31.37707 Y26.91462
G01 X-31.37491 Y26.91601
G01 X-31.19157 Y27.02836
G01 X-31.18928 Y27.02968
G01 X-31.14925 Y27.05137
G01 X-31.14697 Y27.05254
G01 X-31.06140 Y27.09336
G01 X-29.95380 Y28.20097
G01 X-29.95695 Y28.20857
G01 X-29.95380 Y28.20097
G01 X-15.74014 Y28.20097
G01 X-15.73699 Y28.20857
G01 X-15.74014 Y28.20097
G01 X-15.31596 Y27.77679
G01 X-15.30837 Y27.77994
G01 X-15.31596 Y27.77679
G01 X-15.31596 Y27.09252
G01 X-15.25398 Y26.86120
G01 X-15.25327 Y26.85871
G01 X-15.24525 Y26.82059
G01 X-15.24476 Y26.81797
G01 X-15.21596 Y26.63611
G01 X-15.21596 Y25.65386
G01 X-15.24476 Y25.47197
G01 X-15.24525 Y25.46938
G01 X-15.25327 Y25.43126
G01 X-15.25398 Y25.42877
G01 X-15.31596 Y25.19745
G01 X-15.31596 Y24.77896
G01 X-15.31500 Y24.75938
G01 X-15.30781 Y24.68620
G01 X-15.30016 Y24.64777
G01 X-15.27880 Y24.57741
G01 X-15.27220 Y24.55892
G01 X-15.26381 Y24.54119
G01 X-15.22914 Y24.47634
G01 X-15.20738 Y24.44376
G01 X-15.16074 Y24.38694
G01 X-15.14756 Y24.37238
G01 X-14.02856 Y23.25338
G01 X-14.01401 Y23.24020
G01 X-13.95719 Y23.19357
G01 X-13.92460 Y23.17180
G01 X-13.85975 Y23.13713
G01 X-13.84202 Y23.12875
G01 X-13.82353 Y23.12214
G01 X-13.75318 Y23.10078
G01 X-13.71474 Y23.09314
G01 X-13.64157 Y23.08595
G01 X-13.62196 Y23.08498
G01 X-5.15461 Y23.08498
G01 X-5.13719 Y23.10680
G01 X-5.15461 Y23.08498
G01 X-5.15378 Y23.06819
G01 X-5.15187 Y23.04876
G01 X-5.14900 Y23.02938
G01 X-5.14514 Y23.01000
G01 X-5.14037 Y22.99098
G01 X-5.13465 Y22.97223
G01 X-5.12805 Y22.95379
G01 X-5.12063 Y22.93583
G01 X-5.11227 Y22.91813
G01 X-5.10293 Y22.90065
G01 X-5.09284 Y22.88384
G01 X-5.08197 Y22.86756
G01 X-5.07031 Y22.85184
G01 X-5.05792 Y22.83672
G01 X-5.04476 Y22.82219
G01 X-5.03076 Y22.80820
G01 X-5.01624 Y22.79504
G01 X-5.00100 Y22.78254
G01 X-4.98525 Y22.77089
G01 X-4.96922 Y22.76017
G01 X-4.95243 Y22.75008
G01 X-4.93503 Y22.74079
G01 X-4.91733 Y22.73241
G01 X-4.89909 Y22.72484
G01 X-4.88062 Y22.71823
G01 X-4.86178 Y22.71254
G01 X-4.84278 Y22.70779
G01 X-4.82358 Y22.70396
G01 X-4.80420 Y22.70109
G01 X-4.78477 Y22.69918
G01 X-4.76521 Y22.69822
G01 X-4.75535 Y22.69796
G01 X-1.15462 Y22.69796
G01 X-1.14474 Y22.69822
G01 X-1.12518 Y22.69918
G01 X-1.10575 Y22.70109
G01 X-1.08637 Y22.70396
G01 X-1.06717 Y22.70779
G01 X-1.04997 Y22.71209
G01 X-1.04997 Y22.81706
G01 X-1.04454 Y22.81899
G01 X-1.03542 Y22.82278
G01 X-1.01772 Y22.83116
G01 X-1.00900 Y22.83581
G01 X-0.99849 Y22.84213
G01 X-0.98462 Y22.85219
G01 X-0.97266 Y22.86446
G01 X-0.96295 Y22.87861
G01 X-0.95582 Y22.89420
G01 X-0.95145 Y22.91079
G01 X-0.94997 Y22.92786
G01 X-0.94997 Y24.39209
G01 X-0.95145 Y24.40916
G01 X-0.95582 Y24.42575
G01 X-0.96295 Y24.44134
G01 X-0.97266 Y24.45549
G01 X-0.98462 Y24.46776
G01 X-0.99849 Y24.47782
G01 X-1.00900 Y24.48414
G01 X-1.01772 Y24.48879
G01 X-1.03542 Y24.49717
G01 X-1.04454 Y24.50096
G01 X-1.04997 Y24.50289
G01 X-1.06300 Y24.50756
G01 X-1.07243 Y24.51041
G01 X-1.09143 Y24.51516
G01 X-1.10103 Y24.51706
G01 X-1.12041 Y24.51993
G01 X-1.13011 Y24.52090
G01 X-1.14967 Y24.52186
G01 X-1.15462 Y24.52199
G01 X-4.75535 Y24.52199
G01 X-4.76028 Y24.52186
G01 X-4.77984 Y24.52090
G01 X-4.78954 Y24.51993
G01 X-4.80892 Y24.51706
G01 X-4.81852 Y24.51516
G01 X-4.83752 Y24.51041
G01 X-4.84694 Y24.50756
G01 X-4.86541 Y24.50096
G01 X-4.87453 Y24.49717
G01 X-4.89223 Y24.48879
G01 X-4.90094 Y24.48414
G01 X-4.91773 Y24.47406
G01 X-4.92574 Y24.46870
G01 X-4.94148 Y24.45704
G01 X-4.94910 Y24.45079
G01 X-4.96363 Y24.43763
G01 X-4.97064 Y24.43062
G01 X-4.98380 Y24.41610
G01 X-4.99000 Y24.40855
G01 X-5.00166 Y24.39283
G01 X-5.00709 Y24.38468
G01 X-5.01718 Y24.36786
G01 X-5.02185 Y24.35912
G01 X-5.03021 Y24.34142
G01 X-5.03391 Y24.33245
G01 X-5.04052 Y24.31401
G01 X-5.04336 Y24.30464
G01 X-5.04814 Y24.28562
G01 X-5.05007 Y24.27591
G01 X-5.05294 Y24.25653
G01 X-5.05390 Y24.24683
G01 X-5.05487 Y24.22727
G01 X-5.05500 Y24.22234
G01 X-5.05500 Y24.13497
G01 X-13.42521 Y24.13497
G01 X-14.26598 Y24.97573
G01 X-14.26598 Y25.48724
G01 X-14.26598 Y26.14271
G01 X-14.26598 Y27.81822
G01 X-13.81924 Y28.26498
G01 X-5.05500 Y28.26498
G01 X-5.05500 Y28.17763
G01 X-5.05487 Y28.17268
G01 X-5.05390 Y28.15312
G01 X-5.05294 Y28.14342
G01 X-5.05007 Y28.12404
G01 X-5.04814 Y28.11434
G01 X-5.04336 Y28.09531
G01 X-5.04052 Y28.08594
G01 X-5.03391 Y28.06750
G01 X-5.03021 Y28.05853
G01 X-5.02185 Y28.04083
G01 X-5.01718 Y28.03209
G01 X-5.00709 Y28.01528
G01 X-5.00166 Y28.00712
G01 X-4.99000 Y27.99140
G01 X-4.98380 Y27.98386
G01 X-4.97064 Y27.96933
G01 X-4.96363 Y27.96232
G01 X-4.94910 Y27.94916
G01 X-4.94148 Y27.94291
G01 X-4.92574 Y27.93125
G01 X-4.91773 Y27.92589
G01 X-4.90094 Y27.91581
G01 X-4.89223 Y27.91116
G01 X-4.87453 Y27.90278
G01 X-4.86541 Y27.89899
G01 X-4.84694 Y27.89239
G01 X-4.83752 Y27.88955
G01 X-4.81852 Y27.88480
G01 X-4.80892 Y27.88289
G01 X-4.78954 Y27.88002
G01 X-4.77984 Y27.87905
G01 X-4.76028 Y27.87809
G01 X-4.75535 Y27.87796
G01 X-1.15462 Y27.87796
G01 X-1.14967 Y27.87809
G01 X-1.13011 Y27.87905
G01 X-1.12041 Y27.88002
G01 X-1.10103 Y27.88289
G01 X-1.09143 Y27.88480
G01 X-1.07243 Y27.88955
G01 X-1.06300 Y27.89239
G01 X-1.04997 Y27.89706
G01 X-1.04997 Y27.79209
G01 X-1.04997 Y27.14787
G01 X-1.04997 Y27.04289
G01 X-1.04454 Y27.04096
G01 X-1.03542 Y27.03717
G01 X-1.01772 Y27.02879
G01 X-1.00900 Y27.02414
G01 X-0.99849 Y27.01782
G01 X-0.98462 Y27.00776
G01 X-0.97266 Y26.99549
G01 X-0.96295 Y26.98134
G01 X-0.95582 Y26.96575
G01 X-0.95145 Y26.94916
G01 X-0.94997 Y26.93209
G01 X-0.94997 Y25.46786
G01 X-0.95145 Y25.45079
G01 X-0.95582 Y25.43420
G01 X-0.96295 Y25.41861
G01 X-0.97266 Y25.40446
G01 X-0.98462 Y25.39219
G01 X-0.99849 Y25.38213
G01 X-1.00900 Y25.37581
G01 X-1.01772 Y25.37116
G01 X-1.03542 Y25.36278
G01 X-1.04454 Y25.35899
G01 X-1.04997 Y25.35706
G01 X-1.06300 Y25.35239
G01 X-1.07243 Y25.34955
G01 X-1.09143 Y25.34480
G01 X-1.10103 Y25.34289
G01 X-1.12041 Y25.34002
G01 X-1.13011 Y25.33905
G01 X-1.14967 Y25.33809
G01 X-1.15462 Y25.33796
G01 X-4.75535 Y25.33796
G01 X-4.76028 Y25.33809
G01 X-4.77984 Y25.33905
G01 X-4.78954 Y25.34002
G01 X-4.80892 Y25.34289
G01 X-4.81852 Y25.34480
G01 X-4.83752 Y25.34955
G01 X-4.84694 Y25.35239
G01 X-4.86541 Y25.35899
G01 X-4.87453 Y25.36278
G01 X-4.89223 Y25.37116
G01 X-4.90094 Y25.37581
G01 X-4.91773 Y25.38589
G01 X-4.92574 Y25.39125
G01 X-4.94148 Y25.40291
G01 X-4.94910 Y25.40916
G01 X-4.96363 Y25.42232
G01 X-4.97064 Y25.42933
G01 X-4.98380 Y25.44386
G01 X-4.99000 Y25.45140
G01 X-5.00166 Y25.46712
G01 X-5.00709 Y25.47528
G01 X-5.01718 Y25.49209
G01 X-5.02185 Y25.50083
G01 X-5.03021 Y25.51853
G01 X-5.03391 Y25.52750
G01 X-5.04052 Y25.54594
G01 X-5.04336 Y25.55531
G01 X-5.04814 Y25.57434
G01 X-5.05007 Y25.58404
G01 X-5.05294 Y25.60342
G01 X-5.05390 Y25.61312
G01 X-5.05487 Y25.63268
G01 X-5.05500 Y25.63763
G01 X-5.05500 Y25.72498
G01 X-8.78323 Y25.72498
G01 X-9.02911 Y25.47911
G01 X-9.03640 Y25.47251
G01 X-9.09321 Y25.42587
G01 X-9.10952 Y25.41498
G01 X-9.17434 Y25.38033
G01 X-9.19245 Y25.37284
G01 X-9.26281 Y25.35150
G01 X-9.28201 Y25.34767
G01 X-9.35519 Y25.34048
G01 X-9.36499 Y25.33999
G01 X-10.12837 Y25.33999
G01 X-10.15760 Y25.27431
G01 X-10.16235 Y25.26499
G01 X-10.16807 Y25.25620
G01 X-10.29095 Y25.08709
G01 X-10.29753 Y25.07893
G01 X-10.30492 Y25.07154
G01 X-10.46029 Y24.93166
G01 X-10.46842 Y24.92506
G01 X-10.47721 Y24.91937
G01 X-10.65826 Y24.81485
G01 X-10.66758 Y24.81010
G01 X-10.67734 Y24.80634
G01 X-10.87617 Y24.74172
G01 X-10.88628 Y24.73903
G01 X-10.89661 Y24.73738
G01 X-11.10454 Y24.71554
G01 X-11.11498 Y24.71498
G01 X-13.11500 Y24.71498
G01 X-13.12544 Y24.71554
G01 X-13.33336 Y24.73738
G01 X-13.34370 Y24.73903
G01 X-13.35381 Y24.74172
G01 X-13.55262 Y24.80634
G01 X-13.56240 Y24.81010
G01 X-13.57172 Y24.81485
G01 X-13.75277 Y24.91937
G01 X-13.76156 Y24.92506
G01 X-13.76969 Y24.93166
G01 X-13.92506 Y25.07154
G01 X-13.93245 Y25.07893
G01 X-13.93903 Y25.08709
G01 X-14.06191 Y25.25620
G01 X-14.06763 Y25.26499
G01 X-14.07238 Y25.27431
G01 X-14.15739 Y25.46529
G01 X-14.16115 Y25.47507
G01 X-14.16387 Y25.48518
G01 X-14.16648 Y25.49758
G01 X-14.20733 Y25.68968
G01 X-14.20895 Y25.70001
G01 X-14.20951 Y25.71045
G01 X-14.20951 Y25.91952
G01 X-14.20895 Y25.92996
G01 X-14.20733 Y25.94030
G01 X-14.16651 Y26.13237
G01 X-14.16476 Y26.14891
G01 X-14.16003 Y26.17870
G01 X-14.11614 Y26.38518
G01 X-14.10519 Y26.42592
G01 X-14.07083 Y26.53161
G01 X-14.01993 Y26.60166
G01 X-14.00677 Y26.61794
G01 X-13.99196 Y26.63275
G01 X-13.83659 Y26.77263
G01 X-13.82033 Y26.78581
G01 X-13.80278 Y26.79722
G01 X-13.62173 Y26.90174
G01 X-13.60306 Y26.91124
G01 X-13.58353 Y26.91873
G01 X-13.38470 Y26.98335
G01 X-13.36448 Y26.98876
G01 X-13.34380 Y26.99204
G01 X-13.13590 Y27.01388
G01 X-13.11500 Y27.01500
G01 X-11.11498 Y27.01500
G01 X-11.09407 Y27.01388
G01 X-10.88618 Y26.99204
G01 X-10.86550 Y26.98876
G01 X-10.84528 Y26.98335
G01 X-10.64645 Y26.91873
G01 X-10.62689 Y26.91124
G01 X-10.60825 Y26.90174
G01 X-10.42720 Y26.79722
G01 X-10.40965 Y26.78581
G01 X-10.39336 Y26.77263
G01 X-10.23802 Y26.63275
G01 X-10.22321 Y26.61794
G01 X-10.21003 Y26.60166
G01 X-10.08717 Y26.43255
G01 X-10.07576 Y26.41500
G01 X-10.06626 Y26.39633
G01 X-10.06342 Y26.38998
G01 X-10.06931 Y26.37870
G01 X-10.06342 Y26.38998
G01 X-9.60315 Y26.38998
G01 X-9.60000 Y26.38239
G01 X-9.60315 Y26.38998
G01 X-9.38653 Y26.60657
G01 X-9.37201 Y26.61975
G01 X-9.31519 Y26.66638
G01 X-9.28257 Y26.68818
G01 X-9.21775 Y26.72282
G01 X-9.18153 Y26.73783
G01 X-9.11117 Y26.75917
G01 X-9.07272 Y26.76681
G01 X-8.99957 Y26.77400
G01 X-8.97996 Y26.77497
G01 X-5.15461 Y26.77497
G01 X-5.13719 Y26.75315
G01 X-5.15461 Y26.77497
G01 X-5.15378 Y26.79176
G01 X-5.15187 Y26.81119
G01 X-5.14900 Y26.83057
G01 X-5.14514 Y26.84995
G01 X-5.14037 Y26.86897
G01 X-5.13465 Y26.88772
G01 X-5.12805 Y26.90616
G01 X-5.12063 Y26.92412
G01 X-5.11227 Y26.94182
G01 X-5.10293 Y26.95930
G01 X-5.09284 Y26.97611
G01 X-5.08197 Y26.99239
G01 X-5.07031 Y27.00811
G01 X-5.05792 Y27.02323
G01 X-5.04476 Y27.03776
G01 X-5.03076 Y27.05175
G01 X-5.01624 Y27.06491
G01 X-5.00100 Y27.07741
G01 X-4.98525 Y27.08906
G01 X-4.96922 Y27.09978
G01 X-4.95243 Y27.10987
G01 X-4.93503 Y27.11916
G01 X-4.91733 Y27.12755
G01 X-4.89909 Y27.13511
G01 X-4.88062 Y27.14172
G01 X-4.86178 Y27.14741
G01 X-4.84278 Y27.15216
G01 X-4.82358 Y27.15599
G01 X-4.80420 Y27.15886
G01 X-4.78477 Y27.16077
G01 X-4.76521 Y27.16173
G01 X-4.75535 Y27.16199
G01 X-1.15462 Y27.16199
G01 X-1.14474 Y27.16173
G01 X-1.12518 Y27.16077
G01 X-1.10575 Y27.15886
G01 X-1.08637 Y27.15599
G01 X-1.06717 Y27.15216
G01 X-1.04997 Y27.14787
G01 X-1.04997 Y27.04289
G01 X-1.04454 Y27.04096
G01 X-1.03542 Y27.03717
G01 X-1.01772 Y27.02879
G01 X-1.00900 Y27.02414
G01 X-0.99849 Y27.01782
G01 X-0.98462 Y27.00776
G01 X-0.97266 Y26.99549
G01 X-0.96295 Y26.98134
G01 X-0.95582 Y26.96575
G01 X-0.95145 Y26.94916
G01 X-0.94997 Y26.93209
G01 X-0.94997 Y25.46786
G01 X-0.95145 Y25.45079
G01 X-0.95582 Y25.43420
G01 X-0.96295 Y25.41861
G01 X-0.97266 Y25.40446
G01 X-0.98462 Y25.39219
G01 X-0.99849 Y25.38213
G01 X-1.00900 Y25.37581
G01 X-1.01772 Y25.37116
G01 X-1.03542 Y25.36278
G01 X-1.04454 Y25.35899
G01 X-1.04997 Y25.35706
G01 X-1.04997 Y25.25209
G01 X-1.06717 Y25.24779
G01 X-1.08637 Y25.24396
G01 X-1.10575 Y25.24109
G01 X-1.12518 Y25.23918
G01 X-1.14474 Y25.23822
G01 X-1.15462 Y25.23796
G01 X-4.75535 Y25.23796
G01 X-4.76521 Y25.23822
G01 X-4.78477 Y25.23918
G01 X-4.80420 Y25.24109
G01 X-4.82358 Y25.24396
G01 X-4.84278 Y25.24779
G01 X-4.86178 Y25.25254
G01 X-4.88062 Y25.25823
G01 X-4.89909 Y25.26484
G01 X-4.91733 Y25.27241
G01 X-4.93503 Y25.28079
G01 X-4.95243 Y25.29008
G01 X-4.96922 Y25.30017
G01 X-4.98525 Y25.31089
G01 X-5.00100 Y25.32254
G01 X-5.01624 Y25.33504
G01 X-5.03076 Y25.34820
G01 X-5.04476 Y25.36219
G01 X-5.05792 Y25.37672
G01 X-5.07031 Y25.39184
G01 X-5.08197 Y25.40756
G01 X-5.09284 Y25.42384
G01 X-5.10293 Y25.44065
G01 X-5.11227 Y25.45813
G01 X-5.12063 Y25.47583
G01 X-5.12805 Y25.49379
G01 X-5.13465 Y25.51223
G01 X-5.14037 Y25.53098
G01 X-5.14514 Y25.55000
G01 X-5.14900 Y25.56938
G01 X-5.15187 Y25.58876
G01 X-5.15378 Y25.60819
G01 X-5.15461 Y25.62498
G01 X-5.13719 Y25.64680
G01 X-5.15461 Y25.62498
G01 X-8.74181 Y25.62498
G01 X-8.74470 Y25.63220
G01 X-8.74181 Y25.62498
G01 X-8.95842 Y25.40840
G01 X-8.97295 Y25.39521
G01 X-9.02977 Y25.34858
G01 X-9.06238 Y25.32679
G01 X-9.12720 Y25.29214
G01 X-9.16342 Y25.27713
G01 X-9.23378 Y25.25579
G01 X-9.27223 Y25.24815
G01 X-9.34539 Y25.24096
G01 X-9.36499 Y25.23999
G01 X-10.06342 Y25.23999
G01 X-10.06929 Y25.25127
G01 X-10.06342 Y25.23999
G01 X-10.06626 Y25.23364
G01 X-10.07576 Y25.21498
G01 X-10.08717 Y25.19742
G01 X-10.21003 Y25.02831
G01 X-10.22321 Y25.01203
G01 X-10.23802 Y24.99722
G01 X-10.39336 Y24.85734
G01 X-10.40965 Y24.84416
G01 X-10.42720 Y24.83276
G01 X-10.60825 Y24.72824
G01 X-10.62689 Y24.71874
G01 X-10.64645 Y24.71124
G01 X-10.84528 Y24.64663
G01 X-10.86550 Y24.64122
G01 X-10.88618 Y24.63794
G01 X-11.09407 Y24.61609
G01 X-11.11498 Y24.61498
G01 X-13.11500 Y24.61498
G01 X-13.13590 Y24.61609
G01 X-13.34380 Y24.63794
G01 X-13.36448 Y24.64122
G01 X-13.38470 Y24.64663
G01 X-13.58353 Y24.71124
G01 X-13.60306 Y24.71874
G01 X-13.62173 Y24.72824
G01 X-13.80278 Y24.83276
G01 X-13.82033 Y24.84416
G01 X-13.83659 Y24.85734
G01 X-13.99196 Y24.99722
G01 X-14.00677 Y25.01203
G01 X-14.01993 Y25.02831
G01 X-14.07085 Y25.09839
G01 X-14.10519 Y25.20403
G01 X-14.11614 Y25.24477
G01 X-14.16003 Y25.45122
G01 X-14.16476 Y25.48104
G01 X-14.16648 Y25.49758
G01 X-14.20733 Y25.68968
G01 X-14.20895 Y25.70001
G01 X-14.20951 Y25.71045
G01 X-14.20951 Y25.91952
G01 X-14.20895 Y25.92996
G01 X-14.20733 Y25.94030
G01 X-14.16387 Y26.14479
G01 X-14.16115 Y26.15490
G01 X-14.15739 Y26.16468
G01 X-14.07238 Y26.35566
G01 X-14.06763 Y26.36499
G01 X-14.06191 Y26.37377
G01 X-13.93903 Y26.54289
G01 X-13.93245 Y26.55104
G01 X-13.92506 Y26.55843
G01 X-13.76969 Y26.69831
G01 X-13.76156 Y26.70491
G01 X-13.75277 Y26.71060
G01 X-13.57172 Y26.81513
G01 X-13.56240 Y26.81987
G01 X-13.55262 Y26.82363
G01 X-13.35381 Y26.88825
G01 X-13.34370 Y26.89094
G01 X-13.33336 Y26.89260
G01 X-13.12544 Y26.91444
G01 X-13.11500 Y26.91500
G01 X-11.11498 Y26.91500
G01 X-11.10454 Y26.91444
G01 X-10.89661 Y26.89260
G01 X-10.88628 Y26.89094
G01 X-10.87617 Y26.88825
G01 X-10.67734 Y26.82363
G01 X-10.66758 Y26.81987
G01 X-10.65826 Y26.81513
G01 X-10.47721 Y26.71060
G01 X-10.46842 Y26.70491
G01 X-10.46029 Y26.69831
G01 X-10.30492 Y26.55843
G01 X-10.29753 Y26.55104
G01 X-10.29095 Y26.54289
G01 X-10.16807 Y26.37377
G01 X-10.16235 Y26.36499
G01 X-10.15760 Y26.35566
G01 X-10.12837 Y26.28998
G01 X-9.56172 Y26.28998
G01 X-9.31585 Y26.53585
G01 X-9.30856 Y26.54246
G01 X-9.25174 Y26.58909
G01 X-9.23543 Y26.59999
G01 X-9.17061 Y26.63463
G01 X-9.15250 Y26.64213
G01 X-9.08214 Y26.66346
G01 X-9.06294 Y26.66730
G01 X-8.98976 Y26.67449
G01 X-8.97996 Y26.67497
G01 X-5.05500 Y26.67497
G01 X-5.05500 Y26.76234
G01 X-5.05487 Y26.76727
G01 X-5.05390 Y26.78683
G01 X-5.05294 Y26.79653
G01 X-5.05007 Y26.81591
G01 X-5.04814 Y26.82562
G01 X-5.04336 Y26.84464
G01 X-5.04052 Y26.85401
G01 X-5.03391 Y26.87245
G01 X-5.03021 Y26.88142
G01 X-5.02185 Y26.89912
G01 X-5.01718 Y26.90786
G01 X-5.00709 Y26.92468
G01 X-5.00166 Y26.93283
G01 X-4.99000 Y26.94855
G01 X-4.98380 Y26.95610
G01 X-4.97064 Y26.97062
G01 X-4.96363 Y26.97763
G01 X-4.94910 Y26.99079
G01 X-4.94148 Y26.99704
G01 X-4.92574 Y27.00870
G01 X-4.91773 Y27.01406
G01 X-4.90094 Y27.02414
G01 X-4.89223 Y27.02879
G01 X-4.87453 Y27.03717
G01 X-4.86541 Y27.04096
G01 X-4.84694 Y27.04756
G01 X-4.83752 Y27.05041
G01 X-4.81852 Y27.05516
G01 X-4.80892 Y27.05706
G01 X-4.78954 Y27.05993
G01 X-4.77984 Y27.06090
G01 X-4.76028 Y27.06186
G01 X-4.75535 Y27.06199
G01 X-1.15462 Y27.06199
G01 X-1.14967 Y27.06186
G01 X-1.13011 Y27.06090
G01 X-1.12041 Y27.05993
G01 X-1.10103 Y27.05706
G01 X-1.09143 Y27.05516
G01 X-1.07243 Y27.05041
G01 X-1.06300 Y27.04756
G01 X-1.04997 Y27.04289
G04 P0 ( dwell for no time -- G64 should not smooth over this point )
G00 Z5.00000 ( retract )

G00 X-5.16764 Y15.55226 ( rapid move to begin. )
G01 F60.00000
( Mill infeed pass 1/1 )
G01 Z-0.10000
G04 P0 ( dwell for no time -- G64 should not smooth over this point )
G01 F120.00000
G01 X-5.16764 Y15.55226
G01 X-5.16147 Y15.61517
G01 X-5.16099 Y15.62498
G01 X-5.16099 Y19.50521
G01 X-4.40821 Y20.25799
G01 X-1.15460 Y20.25796
G01 X-1.14967 Y20.25809
G01 X-1.13011 Y20.25905
G01 X-1.12041 Y20.26002
G01 X-1.10103 Y20.26289
G01 X-1.09143 Y20.26480
G01 X-1.07243 Y20.26955
G01 X-1.06300 Y20.27239
G01 X-1.04997 Y20.27706
G01 X-1.04454 Y20.27899
G01 X-1.03542 Y20.28278
G01 X-1.01772 Y20.29116
G01 X-1.00900 Y20.29581
G01 X-0.99849 Y20.30213
G01 X-0.98462 Y20.31219
G01 X-0.97266 Y20.32446
G01 X-0.96295 Y20.33861
G01 X-0.95582 Y20.35420
G01 X-0.95145 Y20.37079
G01 X-0.94997 Y20.38786
G01 X-0.94997 Y21.85209
G01 X-0.95145 Y21.86916
G01 X-0.95582 Y21.88575
G01 X-0.96295 Y21.90134
G01 X-0.97266 Y21.91549
G01 X-0.98462 Y21.92776
G01 X-0.99849 Y21.93782
G01 X-1.00900 Y21.94414
G01 X-1.01772 Y21.94879
G01 X-1.03542 Y21.95717
G01 X-1.04454 Y21.96096
G01 X-1.04997 Y21.96289
G01 X-1.04997 Y22.06787
G01 X-1.06717 Y22.07216
G01 X-1.08637 Y22.07599
G01 X-1.10575 Y22.07886
G01 X-1.12518 Y22.08077
G01 X-1.14474 Y22.08173
G01 X-1.15462 Y22.08199
G01 X-4.75535 Y22.08199
G01 X-4.76521 Y22.08173
G01 X-4.78477 Y22.08077
G01 X-4.80420 Y22.07886
G01 X-4.82358 Y22.07599
G01 X-4.84278 Y22.07216
G01 X-4.86178 Y22.06741
G01 X-4.88062 Y22.06172
G01 X-4.89909 Y22.05511
G01 X-4.91733 Y22.04755
G01 X-4.93503 Y22.03916
G01 X-4.95243 Y22.02987
G01 X-4.96922 Y22.01978
G01 X-4.98525 Y22.00906
G01 X-5.00100 Y21.99741
G01 X-5.01624 Y21.98491
G01 X-5.03076 Y21.97175
G01 X-5.04476 Y21.95776
G01 X-5.05792 Y21.94323
G01 X-5.07031 Y21.92811
G01 X-5.08197 Y21.91239
G01 X-5.09284 Y21.89611
G01 X-5.10293 Y21.87930
G01 X-5.11227 Y21.86182
G01 X-5.12063 Y21.84412
G01 X-5.12805 Y21.82616
G01 X-5.13465 Y21.80772
G01 X-5.14037 Y21.78897
G01 X-5.14514 Y21.76995
G01 X-5.14900 Y21.75057
G01 X-5.15187 Y21.73119
G01 X-5.15378 Y21.71176
G01 X-5.15474 Y21.69220
G01 X-5.15500 Y21.68234
G01 X-5.15500 Y20.99614
G01 X-5.14748 Y20.99301
G01 X-5.15500 Y20.99614
G01 X-6.04257 Y20.10856
G01 X-6.05576 Y20.09401
G01 X-6.10239 Y20.03719
G01 X-6.12416 Y20.00460
G01 X-6.15883 Y19.93975
G01 X-6.16721 Y19.92202
G01 X-6.17382 Y19.90353
G01 X-6.19518 Y19.83317
G01 X-6.20282 Y19.79474
G01 X-6.21001 Y19.72157
G01 X-6.21098 Y19.70198
G01 X-6.21098 Y15.86315
G01 X-6.20341 Y15.86000
G01 X-6.21098 Y15.86315
G01 X-10.78513 Y11.28897
G01 X-10.78198 Y11.28137
G01 X-10.78513 Y11.28897
G01 X-14.78711 Y11.28897
G01 X-14.93938 Y11.22590
G01 X-14.95553 Y11.21874
G01 X-15.02447 Y11.18612
G01 X-15.03163 Y11.18231
G01 X-15.04195 Y11.18130
G01 X-15.06117 Y11.17746
G01 X-15.13151 Y11.15613
G01 X-15.14075 Y11.15282
G01 X-15.14962 Y11.14863
G01 X-15.21446 Y11.11396
G01 X-15.23074 Y11.10307
G01 X-15.28759 Y11.05643
G01 X-15.29485 Y11.04985
G01 X-18.86757 Y7.47714
G01 X-18.87361 Y7.47391
G01 X-18.87577 Y7.47282
G01 X-18.94638 Y7.43945
G01 X-18.94750 Y7.43894
G01 X-18.96472 Y7.43129
G01 X-18.96584 Y7.43084
G01 X-19.11857 Y7.36756
G01 X-19.60714 Y6.87897
G01 X-19.60399 Y6.87138
G01 X-19.60714 Y6.87897
G01 X-20.15491 Y6.87897
G01 X-20.19675 Y6.86777
G01 X-20.19926 Y6.86716
G01 X-20.24775 Y6.85685
G01 X-20.25034 Y6.85636
G01 X-20.45941 Y6.82324
G01 X-20.46195 Y6.82273
G01 X-20.50201 Y6.81870
G01 X-20.50462 Y6.81849
G01 X-20.71366 Y6.80752
G01 X-20.71498 Y6.80747
G01 X-20.73365 Y6.80699
G01 X-20.73495 Y6.80691
G01 X-22.73500 Y6.80696
G01 X-22.73629 Y6.80699
G01 X-22.75496 Y6.80747
G01 X-22.75628 Y6.80752
G01 X-22.96532 Y6.81849
G01 X-22.96794 Y6.81870
G01 X-23.00797 Y6.82291
G01 X-23.01054 Y6.82324
G01 X-23.21960 Y6.85636
G01 X-23.22219 Y6.85685
G01 X-23.27068 Y6.86716
G01 X-23.27320 Y6.86777
G01 X-23.31503 Y6.87900
G01 X-23.44282 Y6.87897
G01 X-23.44597 Y6.87138
G01 X-23.44282 Y6.87897
G01 X-26.16298 Y9.59913
G01 X-26.17057 Y9.59598
G01 X-26.16298 Y9.59913
G01 X-26.16298 Y21.14297
G01 X-26.16395 Y21.16256
G01 X-26.17113 Y21.23574
G01 X-26.17878 Y21.27417
G01 X-26.20014 Y21.34452
G01 X-26.21513 Y21.38074
G01 X-26.24980 Y21.44557
G01 X-26.27157 Y21.47818
G01 X-26.31820 Y21.53500
G01 X-26.33138 Y21.54955
G01 X-27.61238 Y22.83058
G01 X-27.62391 Y22.84122
G01 X-27.66867 Y22.87945
G01 X-27.69404 Y22.89789
G01 X-27.74423 Y22.92865
G01 X-27.77220 Y22.94290
G01 X-27.82655 Y22.96540
G01 X-27.85640 Y22.97510
G01 X-27.91362 Y22.98884
G01 X-27.94461 Y22.99375
G01 X-28.00329 Y22.99837
G01 X-28.01898 Y22.99898
G01 X-31.86198 Y22.99898
G01 X-31.88156 Y22.99801
G01 X-31.95474 Y22.99082
G01 X-31.99317 Y22.98318
G01 X-32.06353 Y22.96182
G01 X-32.08202 Y22.95521
G01 X-32.09975 Y22.94683
G01 X-32.16459 Y22.91216
G01 X-32.19718 Y22.89039
G01 X-32.25400 Y22.84376
G01 X-32.26856 Y22.83058
G01 X-34.63281 Y20.46629
G01 X-34.69174 Y20.35781
G01 X-34.69304 Y20.35557
G01 X-34.71630 Y20.31753
G01 X-34.71775 Y20.31529
G01 X-34.83817 Y20.14008
G01 X-34.83970 Y20.13797
G01 X-34.86042 Y20.11092
G01 X-34.86004 Y20.11062
G01 X-34.86042 Y20.11092
G01 X-34.86210 Y20.10886
G01 X-34.93975 Y20.01796
G01 X-35.19906 Y19.75865
G01 X-35.19977 Y19.75807
G01 X-35.20180 Y19.75641
G01 X-35.36908 Y19.62807
G01 X-35.37122 Y19.62649
G01 X-35.40287 Y19.60460
G01 X-35.40510 Y19.60333
G01 X-35.58841 Y19.49098
G01 X-35.59070 Y19.48966
G01 X-35.63164 Y19.46749
G01 X-36.07614 Y19.02296
G01 X-36.07299 Y19.01537
G01 X-36.07614 Y19.02296
G01 X-38.38881 Y19.02296
G01 X-38.39196 Y19.01537
G01 X-38.38881 Y19.02296
G01 X-38.97997 Y19.61415
G01 X-38.98757 Y19.61100
G01 X-38.97997 Y19.61415
G01 X-38.97995 Y20.03424
G01 X-38.99592 Y20.08336
G01 X-38.99666 Y20.08585
G01 X-39.00931 Y20.13294
G01 X-39.00994 Y20.13553
G01 X-39.05437 Y20.34458
G01 X-39.05483 Y20.34714
G01 X-39.06054 Y20.38301
G01 X-39.06087 Y20.38562
G01 X-39.07995 Y20.56718
G01 X-39.07995 Y20.90277
G01 X-39.06087 Y21.08433
G01 X-39.06054 Y21.08694
G01 X-39.05483 Y21.12281
G01 X-39.05437 Y21.12537
G01 X-39.00994 Y21.33441
G01 X-39.00931 Y21.33701
G01 X-38.99666 Y21.38410
G01 X-38.99592 Y21.38659
G01 X-38.97995 Y21.43571
G01 X-38.97995 Y25.11424
G01 X-38.99592 Y25.16336
G01 X-38.99666 Y25.16585
G01 X-39.00931 Y25.21294
G01 X-39.00994 Y25.21553
G01 X-39.01391 Y25.23428
G01 X-39.01858 Y25.25386
G01 X-39.03705 Y25.32369
G01 X-39.04804 Y25.35836
G01 X-39.06758 Y25.41071
G01 X-39.06793 Y25.41172
G01 X-39.07339 Y25.42740
G01 X-39.07375 Y25.42844
G01 X-39.08081 Y25.45026
G01 X-39.08500 Y25.46240
G01 X-39.11002 Y25.53098
G01 X-39.12518 Y25.56689
G01 X-39.15749 Y25.63403
G01 X-39.16775 Y25.65468
G01 X-39.16849 Y25.65620
G01 X-39.18147 Y25.68467
G01 X-41.36137 Y27.86458
G01 X-41.37593 Y27.87776
G01 X-41.43275 Y27.92439
G01 X-41.46534 Y27.94616
G01 X-41.53018 Y27.98083
G01 X-41.54791 Y27.98921
G01 X-41.56640 Y27.99582
G01 X-41.63676 Y28.01718
G01 X-41.67519 Y28.02483
G01 X-41.74837 Y28.03201
G01 X-41.76798 Y28.03298
G01 X-45.76198 Y28.03298
G01 X-45.78156 Y28.03201
G01 X-45.85474 Y28.02483
G01 X-45.89317 Y28.01718
G01 X-45.96352 Y27.99582
G01 X-45.99975 Y27.98083
G01 X-46.06457 Y27.94616
G01 X-46.09718 Y27.92439
G01 X-46.15400 Y27.87776
G01 X-46.16855 Y27.86458
G01 X-47.01816 Y27.01500
G01 X-47.01501 Y27.00740
G01 X-47.01816 Y27.01500
G01 X-50.40499 Y27.01500
G01 X-50.44401 Y27.01114
G01 X-50.48152 Y26.99976
G01 X-50.51609 Y26.98129
G01 X-50.54642 Y26.95640
G01 X-50.57129 Y26.92610
G01 X-50.58975 Y26.89153
G01 X-50.60113 Y26.85401
G01 X-50.60499 Y26.81500
G01 X-50.60499 Y24.81498
G01 X-50.60195 Y24.78025
G01 X-50.59293 Y24.74657
G01 X-50.57820 Y24.71498
G01 X-50.55821 Y24.68643
G01 X-50.53354 Y24.66179
G01 X-50.50499 Y24.64177
G01 X-50.47340 Y24.62704
G01 X-50.43972 Y24.61803
G01 X-50.40499 Y24.61498
G01 X-47.97998 Y24.61498
G01 X-47.95077 Y24.64424
G01 X-47.97998 Y24.61498
G01 X-47.97998 Y24.06499
G01 X-47.97937 Y24.04929
G01 X-47.97475 Y23.99062
G01 X-47.96985 Y23.95963
G01 X-47.95610 Y23.90241
G01 X-47.94640 Y23.87256
G01 X-47.93997 Y23.85704
G01 X-47.93947 Y23.85709
G01 X-47.93997 Y23.85704
G01 X-47.93997 Y9.23500
G01 X-47.91069 Y9.20569
G01 X-47.93997 Y9.23500
G01 X-49.36499 Y9.23500
G01 X-49.38590 Y9.23388
G01 X-49.59379 Y9.21204
G01 X-49.61447 Y9.20876
G01 X-49.63471 Y9.20335
G01 X-49.83352 Y9.13873
G01 X-49.85308 Y9.13124
G01 X-49.87172 Y9.12174
G01 X-50.05277 Y9.01722
G01 X-50.07032 Y9.00581
G01 X-50.08661 Y8.99263
G01 X-50.24195 Y8.85275
G01 X-50.25676 Y8.83794
G01 X-50.26994 Y8.82166
G01 X-50.39283 Y8.65255
G01 X-50.40421 Y8.63500
G01 X-50.41373 Y8.61633
G01 X-50.49875 Y8.42535
G01 X-50.50626 Y8.40581
G01 X-50.51167 Y8.38560
G01 X-50.55513 Y8.18110
G01 X-50.55841 Y8.16043
G01 X-50.55950 Y8.13952
G01 X-50.55950 Y7.93045
G01 X-50.55841 Y7.90955
G01 X-50.55513 Y7.88887
G01 X-50.51167 Y7.68438
G01 X-50.50626 Y7.66416
G01 X-50.49875 Y7.64463
G01 X-50.41373 Y7.45364
G01 X-50.40421 Y7.43498
G01 X-50.39283 Y7.41742
G01 X-50.26994 Y7.24831
G01 X-50.25676 Y7.23203
G01 X-50.24195 Y7.21722
G01 X-50.08661 Y7.07734
G01 X-50.07032 Y7.06416
G01 X-50.05277 Y7.05276
G01 X-49.87172 Y6.94824
G01 X-49.85308 Y6.93874
G01 X-49.83352 Y6.93124
G01 X-49.63471 Y6.86663
G01 X-49.61447 Y6.86122
G01 X-49.59379 Y6.85794
G01 X-49.38590 Y6.83609
G01 X-49.36499 Y6.83498
G01 X-47.36500 Y6.83498
G01 X-47.34409 Y6.83609
G01 X-47.13617 Y6.85794
G01 X-47.11549 Y6.86122
G01 X-47.09527 Y6.86663
G01 X-46.89644 Y6.93124
G01 X-46.87691 Y6.93874
G01 X-46.85824 Y6.94824
G01 X-46.67721 Y7.05276
G01 X-46.65964 Y7.06416
G01 X-46.64338 Y7.07734
G01 X-46.48801 Y7.21722
G01 X-46.47320 Y7.23203
G01 X-46.46004 Y7.24831
G01 X-46.33716 Y7.41742
G01 X-46.32575 Y7.43498
G01 X-46.31625 Y7.45364
G01 X-46.23122 Y7.64463
G01 X-46.22372 Y7.66416
G01 X-46.21831 Y7.68438
G01 X-46.17483 Y7.88887
G01 X-46.17155 Y7.90955
G01 X-46.17046 Y7.93045
G01 X-46.17046 Y8.13952
G01 X-46.17155 Y8.16043
G01 X-46.17483 Y8.18110
G01 X-46.21831 Y8.38560
G01 X-46.22372 Y8.40581
G01 X-46.23122 Y8.42535
G01 X-46.31625 Y8.61633
G01 X-46.32575 Y8.63500
G01 X-46.33716 Y8.65255
G01 X-46.46004 Y8.82166
G01 X-46.47320 Y8.83794
G01 X-46.48801 Y8.85275
G01 X-46.64338 Y8.99263
G01 X-46.65964 Y9.00581
G01 X-46.67721 Y9.01722
G01 X-46.78999 Y9.08232
G01 X-46.80320 Y9.07475
G01 X-46.78999 Y9.08232
G01 X-46.78999 Y24.02499
G01 X-46.79060 Y24.04066
G01 X-46.79522 Y24.09933
G01 X-46.80012 Y24.13032
G01 X-46.81387 Y24.18755
G01 X-46.82357 Y24.21739
G01 X-46.82999 Y24.23291
G01 X-46.83045 Y24.23286
G01 X-46.82999 Y24.23291
G01 X-46.82999 Y24.61498
G01 X-46.85905 Y24.64386
G01 X-46.82999 Y24.61498
G01 X-46.40498 Y24.61498
G01 X-46.37025 Y24.61803
G01 X-46.33657 Y24.62704
G01 X-46.30498 Y24.64177
G01 X-46.27643 Y24.66179
G01 X-46.25179 Y24.68643
G01 X-46.23177 Y24.71498
G01 X-46.21704 Y24.74657
G01 X-46.20803 Y24.78025
G01 X-46.20498 Y24.81498
G01 X-46.20498 Y26.20179
G01 X-46.21260 Y26.20494
G01 X-46.20498 Y26.20179
G01 X-46.10216 Y26.30464
G01 X-46.01387 Y26.43308
G01 X-46.01234 Y26.43517
G01 X-45.98440 Y26.47164
G01 X-45.98273 Y26.47367
G01 X-45.84656 Y26.63313
G01 X-45.84481 Y26.63506
G01 X-45.84508 Y26.63534
G01 X-45.84481 Y26.63506
G01 X-45.81636 Y26.66506
G01 X-45.81450 Y26.66692
G01 X-45.66279 Y26.81088
G01 X-45.66083 Y26.81264
G01 X-45.62824 Y26.84047
G01 X-45.62621 Y26.84210
G01 X-45.54625 Y26.90347
G01 X-45.54757 Y26.90583
G01 X-45.54625 Y26.90347
G01 X-45.54082 Y26.90710
G01 X-45.53495 Y26.90997
G01 X-45.52875 Y26.91208
G01 X-45.41963 Y26.94131
G01 X-45.41712 Y26.94192
G01 X-45.37828 Y26.95020
G01 X-45.37567 Y26.95068
G01 X-45.17176 Y26.98299
G01 X-42.63818 Y26.98297
G01 X-42.43430 Y26.95068
G01 X-42.43168 Y26.95020
G01 X-42.39282 Y26.94205
G01 X-42.39033 Y26.94134
G01 X-42.18129 Y26.88531
G01 X-42.17872 Y26.88457
G01 X-42.17390 Y26.88299
G01 X-42.00613 Y26.88299
G01 X-42.00298 Y26.89059
G01 X-42.00613 Y26.88299
G01 X-40.12996 Y25.00680
G01 X-40.12239 Y25.00995
G01 X-40.12996 Y25.00680
G01 X-40.12996 Y19.37600
G01 X-40.12899 Y19.35639
G01 X-40.12180 Y19.28324
G01 X-40.11942 Y19.27125
G01 X-40.11162 Y19.25667
G01 X-40.07418 Y19.19421
G01 X-40.05101 Y19.15949
G01 X-40.00822 Y19.10178
G01 X-39.98434 Y19.07270
G01 X-39.93593 Y19.01926
G01 X-39.92358 Y19.00633
G01 X-38.99636 Y18.07905
G01 X-38.98640 Y18.06947
G01 X-38.94403 Y18.03031
G01 X-38.92125 Y18.01085
G01 X-38.88754 Y17.98428
G01 X-38.86295 Y17.97836
G01 X-38.80629 Y17.96706
G01 X-38.77840 Y17.96264
G01 X-38.72176 Y17.95596
G01 X-38.69638 Y17.95395
G01 X-38.63844 Y17.95169
G01 X-38.62689 Y17.95146
G01 X-35.83850 Y17.95146
G01 X-35.82275 Y17.95185
G01 X-35.75153 Y17.95533
G01 X-35.71876 Y17.95858
G01 X-35.64808 Y17.96907
G01 X-35.61242 Y17.97618
G01 X-35.54122 Y17.99401
G01 X-35.49977 Y18.00661
G01 X-35.45095 Y18.02408
G01 X-35.44594 Y18.02820
G01 X-35.43139 Y18.04138
G01 X-31.62378 Y21.84899
G01 X-31.62693 Y21.85659
G01 X-31.62378 Y21.84899
G01 X-31.54768 Y21.84899
G01 X-31.42195 Y21.88267
G01 X-31.41943 Y21.88328
G01 X-31.37557 Y21.89263
G01 X-31.37295 Y21.89311
G01 X-31.16388 Y21.92621
G01 X-31.16132 Y21.92656
G01 X-31.12573 Y21.93030
G01 X-31.12312 Y21.93053
G01 X-30.91408 Y21.94147
G01 X-30.91278 Y21.94153
G01 X-30.89630 Y21.94196
G01 X-30.89500 Y21.94198
G01 X-28.89495 Y21.94201
G01 X-28.89366 Y21.94196
G01 X-28.87717 Y21.94153
G01 X-28.87588 Y21.94147
G01 X-28.66681 Y21.93063
G01 X-28.66422 Y21.93030
G01 X-28.62863 Y21.92656
G01 X-28.62607 Y21.92621
G01 X-28.41700 Y21.89311
G01 X-28.41439 Y21.89276
G01 X-28.37052 Y21.88328
G01 X-28.36800 Y21.88267
G01 X-28.26201 Y21.85428
G01 X-28.25581 Y21.85217
G01 X-28.25452 Y21.85463
G01 X-28.25581 Y21.85217
G01 X-28.24995 Y21.84927
G01 X-28.24451 Y21.84564
G01 X-28.16204 Y21.78237
G01 X-28.16000 Y21.78072
G01 X-28.12371 Y21.74973
G01 X-28.12175 Y21.74795
G01 X-27.97006 Y21.60401
G01 X-27.96983 Y21.60421
G01 X-27.97006 Y21.60401
G01 X-27.96821 Y21.60216
G01 X-27.93643 Y21.56868
G01 X-27.93471 Y21.56672
G01 X-27.79851 Y21.40729
G01 X-27.79686 Y21.40523
G01 X-27.76590 Y21.36487
G01 X-27.76437 Y21.36276
G01 X-27.74992 Y21.34176
G01 X-27.31297 Y20.90480
G01 X-27.30537 Y20.90795
G01 X-27.31297 Y20.90480
G01 X-27.31297 Y9.36096
G01 X-27.31200 Y9.34137
G01 X-27.30481 Y9.26820
G01 X-27.29717 Y9.22977
G01 X-27.27580 Y9.15941
G01 X-27.26920 Y9.14092
G01 X-27.26082 Y9.12319
G01 X-27.22615 Y9.05834
G01 X-27.20438 Y9.02575
G01 X-27.15775 Y8.96893
G01 X-27.14456 Y8.95438
G01 X-24.08757 Y5.89739
G01 X-24.07302 Y5.88420
G01 X-24.05094 Y5.86609
G01 X-24.02417 Y5.85652
G01 X-23.98122 Y5.84344
G01 X-23.91028 Y5.82566
G01 X-23.87325 Y5.81829
G01 X-23.80190 Y5.80770
G01 X-23.76842 Y5.80437
G01 X-23.69621 Y5.80084
G01 X-23.68046 Y5.80046
G01 X-19.36950 Y5.80046
G01 X-19.35377 Y5.80084
G01 X-19.28151 Y5.80437
G01 X-19.24803 Y5.80770
G01 X-19.17668 Y5.81829
G01 X-19.13958 Y5.82568
G01 X-19.06871 Y5.84344
G01 X-19.02576 Y5.85652
G01 X-18.99904 Y5.86607
G01 X-18.97694 Y5.88420
G01 X-18.96238 Y5.89739
G01 X-14.72081 Y10.13898
G01 X-14.72396 Y10.14658
G01 X-14.72081 Y10.13898
G01 X-14.32274 Y10.13898
G01 X-14.28673 Y10.15186
G01 X-14.28444 Y10.15262
G01 X-14.23981 Y10.16619
G01 X-14.23743 Y10.16685
G01 X-14.16389 Y10.18526
G01 X-14.16153 Y10.18580
G01 X-14.12277 Y10.19352
G01 X-14.12282 Y10.19390
G01 X-14.12277 Y10.19352
G01 X-14.12033 Y10.19395
G01 X-14.04682 Y10.20487
G01 X-14.04439 Y10.20518
G01 X-14.00865 Y10.20868
G01 X-14.00618 Y10.20888
G01 X-13.93268 Y10.21247
G01 X-13.93146 Y10.21252
G01 X-13.91421 Y10.21295
G01 X-13.91297 Y10.21297
G01 X-10.54744 Y10.21297
G01 X-10.54211 Y10.21310
G01 X-10.48145 Y10.24180
G01 X-10.47421 Y10.24564
G01 X-10.46400 Y10.24665
G01 X-10.44477 Y10.25049
G01 X-10.37444 Y10.27183
G01 X-10.36520 Y10.27513
G01 X-10.35633 Y10.27932
G01 X-10.29149 Y10.31399
G01 X-10.27520 Y10.32489
G01 X-10.21836 Y10.37152
G01 X-10.21109 Y10.37810
G01 X-5.30011 Y15.28909
G01 X-5.29353 Y15.29635
G01 X-5.24689 Y15.35320
G01 X-5.23600 Y15.36948
G01 X-5.20133 Y15.43432
G01 X-5.19713 Y15.44319
G01 X-5.19383 Y15.45244
G01 X-5.17250 Y15.52277
G01 X-5.16866 Y15.54200
G01 X-5.16764 Y15.55226
G01 X-5.16373 Y15.55957
G01 X-5.16056 Y15.56633
G01 X-5.15830 Y15.61223
G01 X-5.15799 Y15.62549
G01 X-5.15797 Y16.60295
G01 X-5.15789 Y16.61050
G01 X-5.15787 Y16.61111
G01 X-5.15738 Y16.63069
G01 X-5.15733 Y16.63191
G01 X-5.15660 Y16.64695
G01 X-5.15652 Y16.64817
G01 X-5.15510 Y16.66775
G01 X-5.15497 Y16.66899
G01 X-5.15345 Y16.68446
G01 X-5.15398 Y16.68451
G01 X-5.15345 Y16.68446
G01 X-5.15332 Y16.68568
G01 X-5.15091 Y16.70532
G01 X-5.15073 Y16.70653
G01 X-5.14839 Y16.72228
G01 X-5.14819 Y16.72348
G01 X-5.14478 Y16.74306
G01 X-5.14456 Y16.74428
G01 X-5.14133 Y16.76048
G01 X-5.14110 Y16.76168
G01 X-5.13671 Y16.78124
G01 X-5.13643 Y16.78246
G01 X-5.13206 Y16.79983
G01 X-5.13175 Y16.80102
G01 X-5.12632 Y16.82063
G01 X-5.12599 Y16.82183
G01 X-5.12048 Y16.83996
G01 X-5.12086 Y16.84009
G01 X-5.12048 Y16.83996
G01 X-5.12010 Y16.84113
G01 X-5.11364 Y16.86069
G01 X-5.11324 Y16.86186
G01 X-5.10630 Y16.88126
G01 X-5.10587 Y16.88238
G01 X-5.09833 Y16.90199
G01 X-5.09785 Y16.90316
G01 X-5.08908 Y16.92429
G01 X-5.08860 Y16.92543
G01 X-5.07991 Y16.94502
G01 X-5.07938 Y16.94616
G01 X-5.06856 Y16.96904
G01 X-5.06803 Y16.97014
G01 X-5.06099 Y16.98408
G01 X-5.06099 Y17.63587
G01 X-5.06803 Y17.64981
G01 X-5.06856 Y17.65091
G01 X-5.07938 Y17.67379
G01 X-5.07991 Y17.67494
G01 X-5.08860 Y17.69452
G01 X-5.08908 Y17.69566
G01 X-5.09785 Y17.71679
G01 X-5.09833 Y17.71796
G01 X-5.10587 Y17.73757
G01 X-5.10630 Y17.73869
G01 X-5.11324 Y17.75809
G01 X-5.11364 Y17.75926
G01 X-5.12010 Y17.77882
G01 X-5.12048 Y17.77999
G01 X-5.12599 Y17.79813
G01 X-5.12632 Y17.79932
G01 X-5.13175 Y17.81893
G01 X-5.13206 Y17.82012
G01 X-5.13275 Y17.81994
G01 X-5.13206 Y17.82012
G01 X-5.13643 Y17.83750
G01 X-5.13671 Y17.83871
G01 X-5.14110 Y17.85827
G01 X-5.14133 Y17.85947
G01 X-5.14456 Y17.87567
G01 X-5.14478 Y17.87689
G01 X-5.14819 Y17.89647
G01 X-5.14839 Y17.89767
G01 X-5.15073 Y17.91342
G01 X-5.15091 Y17.91463
G01 X-5.15332 Y17.93427
G01 X-5.15345 Y17.93549
G01 X-5.15497 Y17.95096
G01 X-5.15510 Y17.95220
G01 X-5.15652 Y17.97178
G01 X-5.15660 Y17.97300
G01 X-5.15733 Y17.98804
G01 X-5.15738 Y17.98926
G01 X-5.15787 Y18.00884
G01 X-5.15789 Y18.00945
G01 X-5.15797 Y18.01700
G01 X-5.15799 Y18.01763
G01 X-5.15799 Y19.14234
G01 X-5.15797 Y19.14295
G01 X-5.15789 Y19.15050
G01 X-5.15787 Y19.15111
G01 X-5.15738 Y19.17069
G01 X-5.15733 Y19.17191
G01 X-5.15660 Y19.18695
G01 X-5.15693 Y19.18697
G01 X-5.15660 Y19.18695
G01 X-5.15652 Y19.18817
G01 X-5.15510 Y19.20775
G01 X-5.15497 Y19.20899
G01 X-5.15345 Y19.22446
G01 X-5.15332 Y19.22568
G01 X-5.15091 Y19.24532
G01 X-5.15073 Y19.24653
G01 X-5.14839 Y19.26228
G01 X-5.14819 Y19.26348
G01 X-5.14478 Y19.28306
G01 X-5.14456 Y19.28428
G01 X-5.14133 Y19.30048
G01 X-5.14110 Y19.30168
G01 X-5.13671 Y19.32124
G01 X-5.13643 Y19.32246
G01 X-5.13206 Y19.33983
G01 X-5.13175 Y19.34102
G01 X-5.13221 Y19.34115
G01 X-5.13175 Y19.34102
G01 X-5.12632 Y19.36063
G01 X-5.12599 Y19.36183
G01 X-5.12048 Y19.37996
G01 X-5.12010 Y19.38113
G01 X-5.11364 Y19.40069
G01 X-5.11324 Y19.40186
G01 X-5.10630 Y19.42126
G01 X-5.10587 Y19.42238
G01 X-5.09833 Y19.44199
G01 X-5.09785 Y19.44316
G01 X-5.08908 Y19.46429
G01 X-5.08860 Y19.46543
G01 X-5.08443 Y19.47483
G01 X-5.08139 Y19.48062
G01 X-5.07763 Y19.48598
G01 X-5.08088 Y19.48837
G01 X-5.07763 Y19.48598
G01 X-5.07318 Y19.49078
G01 X-5.06582 Y19.49782
G01 X-5.06490 Y19.49866
G01 X-5.04860 Y19.51344
G01 X-5.04766 Y19.51425
G01 X-5.03277 Y19.52708
G01 X-5.03186 Y19.52784
G01 X-5.01494 Y19.54173
G01 X-5.01400 Y19.54250
G01 X-4.99843 Y19.55464
G01 X-4.99746 Y19.55537
G01 X-4.97895 Y19.56911
G01 X-4.97793 Y19.56985
G01 X-4.96170 Y19.58131
G01 X-4.96066 Y19.58199
G01 X-4.94070 Y19.59535
G01 X-4.93965 Y19.59601
G01 X-4.92269 Y19.60676
G01 X-4.92162 Y19.60742
G01 X-4.91103 Y19.61377
G01 X-4.36681 Y20.15796
G01 X-4.36996 Y20.16558
G01 X-4.36681 Y20.15796
G01 X-1.15460 Y20.15796
G01 X-1.14474 Y20.15822
G01 X-1.12518 Y20.15918
G01 X-1.10575 Y20.16109
G01 X-1.08637 Y20.16396
G01 X-1.06717 Y20.16779
G01 X-1.04997 Y20.17209
G01 X-1.04997 Y20.27706
G01 X-1.04454 Y20.27899
G01 X-1.03542 Y20.28278
G01 X-1.01772 Y20.29116
G01 X-1.00900 Y20.29581
G01 X-0.99849 Y20.30213
G01 X-0.98462 Y20.31219
G01 X-0.97266 Y20.32446
G01 X-0.96295 Y20.33861
G01 X-0.95582 Y20.35420
G01 X-0.95145 Y20.37079
G01 X-0.94997 Y20.38786
G01 X-0.94997 Y21.85209
G01 X-0.95145 Y21.86916
G01 X-0.95582 Y21.88575
G01 X-0.96295 Y21.90134
G01 X-0.97266 Y21.91549
G01 X-0.98462 Y21.92776
G01 X-0.99849 Y21.93782
G01 X-1.00900 Y21.94414
G01 X-1.01772 Y21.94879
G01 X-1.03542 Y21.95717
G01 X-1.04454 Y21.96096
G01 X-1.04997 Y21.96289
G01 X-1.06300 Y21.96756
G01 X-1.07243 Y21.97041
G01 X-1.09143 Y21.97516
G01 X-1.10103 Y21.97706
G01 X-1.12041 Y21.97993
G01 X-1.13011 Y21.98090
G01 X-1.14967 Y21.98186
G01 X-1.15462 Y21.98199
G01 X-4.75535 Y21.98199
G01 X-4.76028 Y21.98186
G01 X-4.77984 Y21.98090
G01 X-4.78954 Y21.97993
G01 X-4.80892 Y21.97706
G01 X-4.81852 Y21.97516
G01 X-4.83752 Y21.97041
G01 X-4.84694 Y21.96756
G01 X-4.86541 Y21.96096
G01 X-4.87453 Y21.95717
G01 X-4.89223 Y21.94879
G01 X-4.90094 Y21.94414
G01 X-4.91773 Y21.93406
G01 X-4.92574 Y21.92870
G01 X-4.94148 Y21.91704
G01 X-4.94910 Y21.91079
G01 X-4.96363 Y21.89763
G01 X-4.97064 Y21.89062
G01 X-4.98380 Y21.87610
G01 X-4.99000 Y21.86855
G01 X-5.00166 Y21.85283
G01 X-5.00709 Y21.84468
G01 X-5.01718 Y21.82786
G01 X-5.02185 Y21.81912
G01 X-5.03021 Y21.80142
G01 X-5.03391 Y21.79245
G01 X-5.04052 Y21.77401
G01 X-5.04336 Y21.76464
G01 X-5.04814 Y21.74562
G01 X-5.05007 Y21.73591
G01 X-5.05294 Y21.71653
G01 X-5.05390 Y21.70683
G01 X-5.05487 Y21.68727
G01 X-5.05500 Y21.68234
G01 X-5.05500 Y20.95474
G01 X-5.97186 Y20.03785
G01 X-5.97844 Y20.03058
G01 X-6.02507 Y19.97374
G01 X-6.03597 Y19.95746
G01 X-6.07064 Y19.89261
G01 X-6.07483 Y19.88374
G01 X-6.07813 Y19.87450
G01 X-6.09947 Y19.80417
G01 X-6.10330 Y19.78494
G01 X-6.11049 Y19.71176
G01 X-6.11098 Y19.70198
G01 X-6.11098 Y15.82173
G01 X-10.74373 Y11.18897
G01 X-14.95899 Y11.18897
G01 X-14.96877 Y11.18849
G01 X-15.04195 Y11.18130
G01 X-15.06117 Y11.17746
G01 X-15.13151 Y11.15613
G01 X-15.14075 Y11.15282
G01 X-15.14962 Y11.14863
G01 X-15.21446 Y11.11396
G01 X-15.23074 Y11.10307
G01 X-15.28759 Y11.05643
G01 X-15.29485 Y11.04985
G01 X-18.86757 Y7.47714
G01 X-19.56574 Y6.77897
G01 X-23.48422 Y6.77897
G01 X-26.26298 Y9.55773
G01 X-26.26298 Y21.14297
G01 X-26.26346 Y21.15275
G01 X-26.27065 Y21.22593
G01 X-26.27449 Y21.24516
G01 X-26.29582 Y21.31549
G01 X-26.30332 Y21.33360
G01 X-26.33799 Y21.39845
G01 X-26.34886 Y21.41473
G01 X-26.39549 Y21.47157
G01 X-26.40210 Y21.47884
G01 X-27.68309 Y22.75986
G01 X-27.68886 Y22.76520
G01 X-27.73361 Y22.80340
G01 X-27.74629 Y22.81262
G01 X-27.79648 Y22.84338
G01 X-27.81045 Y22.85049
G01 X-27.86483 Y22.87302
G01 X-27.87974 Y22.87787
G01 X-27.93697 Y22.89161
G01 X-27.95246 Y22.89405
G01 X-28.01113 Y22.89867
G01 X-28.01898 Y22.89898
G01 X-31.86198 Y22.89898
G01 X-31.87176 Y22.89850
G01 X-31.94493 Y22.89131
G01 X-31.96416 Y22.88747
G01 X-32.03449 Y22.86614
G01 X-32.04374 Y22.86283
G01 X-32.05261 Y22.85864
G01 X-32.11745 Y22.82397
G01 X-32.13373 Y22.81308
G01 X-32.19058 Y22.76644
G01 X-32.19784 Y22.75986
G01 X-34.93975 Y20.01796
G01 X-35.19906 Y19.75865
G01 X-36.03474 Y18.92296
G01 X-38.43021 Y18.92296
G01 X-39.07997 Y19.57275
G01 X-39.07995 Y20.56718
G01 X-39.07995 Y20.90277
G01 X-39.07997 Y25.24500
G01 X-39.08045 Y25.25478
G01 X-39.08764 Y25.32796
G01 X-39.09148 Y25.34718
G01 X-39.11281 Y25.41752
G01 X-39.11612 Y25.42676
G01 X-39.12031 Y25.43563
G01 X-39.15498 Y25.50047
G01 X-39.16588 Y25.51675
G01 X-39.21251 Y25.57360
G01 X-39.21909 Y25.58086
G01 X-41.43209 Y27.79386
G01 X-41.43935 Y27.80044
G01 X-41.49620 Y27.84708
G01 X-41.51248 Y27.85797
G01 X-41.57733 Y27.89264
G01 X-41.58619 Y27.89683
G01 X-41.59544 Y27.90014
G01 X-41.66577 Y27.92147
G01 X-41.68500 Y27.92531
G01 X-41.75817 Y27.93250
G01 X-41.76798 Y27.93298
G01 X-45.76198 Y27.93298
G01 X-45.77175 Y27.93250
G01 X-45.84493 Y27.92531
G01 X-45.86416 Y27.92147
G01 X-45.93449 Y27.90014
G01 X-45.95260 Y27.89264
G01 X-46.01745 Y27.85797
G01 X-46.03373 Y27.84710
G01 X-46.09058 Y27.80047
G01 X-46.09784 Y27.79386
G01 X-46.97673 Y26.91500
G01 X-50.40499 Y26.91500
G01 X-50.42450 Y26.91307
G01 X-50.44325 Y26.90738
G01 X-50.46054 Y26.89813
G01 X-50.47571 Y26.88569
G01 X-50.48813 Y26.87055
G01 X-50.49737 Y26.85325
G01 X-50.50306 Y26.83451
G01 X-50.50499 Y26.81500
G01 X-50.50499 Y24.81498
G01 X-50.50347 Y24.79763
G01 X-50.49895 Y24.78079
G01 X-50.49158 Y24.76499
G01 X-50.48160 Y24.75071
G01 X-50.46926 Y24.73837
G01 X-50.45498 Y24.72839
G01 X-50.43918 Y24.72102
G01 X-50.42234 Y24.71650
G01 X-50.40499 Y24.71498
G01 X-47.87998 Y24.71498
G01 X-47.87998 Y24.06499
G01 X-47.87968 Y24.05714
G01 X-47.87505 Y23.99847
G01 X-47.87261 Y23.98297
G01 X-47.85887 Y23.92575
G01 X-47.85402 Y23.91084
G01 X-47.83998 Y23.87693
G01 X-47.83998 Y9.13500
G01 X-49.36499 Y9.13500
G01 X-49.37543 Y9.13444
G01 X-49.58335 Y9.11260
G01 X-49.59369 Y9.11094
G01 X-49.60380 Y9.10825
G01 X-49.80263 Y9.04363
G01 X-49.81239 Y9.03987
G01 X-49.82173 Y9.03513
G01 X-50.00279 Y8.93060
G01 X-50.01155 Y8.92491
G01 X-50.01968 Y8.91831
G01 X-50.17505 Y8.77843
G01 X-50.18244 Y8.77104
G01 X-50.18904 Y8.76289
G01 X-50.31190 Y8.59377
G01 X-50.31762 Y8.58499
G01 X-50.32237 Y8.57566
G01 X-50.40741 Y8.38468
G01 X-50.41114 Y8.37490
G01 X-50.41386 Y8.36479
G01 X-50.45732 Y8.16030
G01 X-50.45897 Y8.14996
G01 X-50.45950 Y8.13952
G01 X-50.45950 Y7.93045
G01 X-50.45897 Y7.92001
G01 X-50.45732 Y7.90968
G01 X-50.41386 Y7.70518
G01 X-50.41114 Y7.69507
G01 X-50.40741 Y7.68529
G01 X-50.32237 Y7.49431
G01 X-50.31762 Y7.48499
G01 X-50.31190 Y7.47620
G01 X-50.18904 Y7.30709
G01 X-50.18244 Y7.29893
G01 X-50.17505 Y7.29154
G01 X-50.01968 Y7.15166
G01 X-50.01155 Y7.14506
G01 X-50.00279 Y7.13937
G01 X-49.82173 Y7.03485
G01 X-49.81239 Y7.03010
G01 X-49.80263 Y7.02634
G01 X-49.60380 Y6.96172
G01 X-49.59369 Y6.95903
G01 X-49.58335 Y6.95738
G01 X-49.37543 Y6.93554
G01 X-49.36499 Y6.93498
G01 X-47.36500 Y6.93498
G01 X-47.35453 Y6.93554
G01 X-47.14663 Y6.95738
G01 X-47.13629 Y6.95903
G01 X-47.12618 Y6.96172
G01 X-46.92735 Y7.02634
G01 X-46.91757 Y7.03010
G01 X-46.90825 Y7.03485
G01 X-46.72720 Y7.13937
G01 X-46.71841 Y7.14506
G01 X-46.71028 Y7.15166
G01 X-46.55494 Y7.29154
G01 X-46.54752 Y7.29893
G01 X-46.54094 Y7.30709
G01 X-46.41806 Y7.47620
G01 X-46.41237 Y7.48499
G01 X-46.40762 Y7.49431
G01 X-46.32258 Y7.68529
G01 X-46.31882 Y7.69507
G01 X-46.31613 Y7.70518
G01 X-46.27264 Y7.90968
G01 X-46.27102 Y7.92001
G01 X-46.27046 Y7.93045
G01 X-46.27046 Y8.13952
G01 X-46.27102 Y8.14996
G01 X-46.27264 Y8.16030
G01 X-46.31613 Y8.36479
G01 X-46.31882 Y8.37490
G01 X-46.32258 Y8.38468
G01 X-46.40762 Y8.57566
G01 X-46.41237 Y8.58499
G01 X-46.41806 Y8.59377
G01 X-46.54094 Y8.76289
G01 X-46.54752 Y8.77104
G01 X-46.55494 Y8.77843
G01 X-46.71028 Y8.91831
G01 X-46.71841 Y8.92491
G01 X-46.72720 Y8.93060
G01 X-46.88999 Y9.02458
G01 X-46.88999 Y24.02499
G01 X-46.89029 Y24.03281
G01 X-46.89492 Y24.09148
G01 X-46.89736 Y24.10698
G01 X-46.91110 Y24.16420
G01 X-46.91595 Y24.17911
G01 X-46.92999 Y24.21302
G01 X-46.92999 Y24.71498
G01 X-46.40498 Y24.71498
G01 X-46.38763 Y24.71650
G01 X-46.37079 Y24.72102
G01 X-46.35499 Y24.72839
G01 X-46.34071 Y24.73837
G01 X-46.32840 Y24.75071
G01 X-46.31839 Y24.76499
G01 X-46.31102 Y24.78079
G01 X-46.30650 Y24.79763
G01 X-46.30498 Y24.81498
G01 X-46.30498 Y26.24322
G01 X-45.56523 Y26.98297
G01 X-45.17176 Y26.98299
G01 X-42.63818 Y26.98297
G01 X-41.96473 Y26.98299
G01 X-40.02996 Y25.04822
G01 X-40.02996 Y19.37600
G01 X-40.02948 Y19.36619
G01 X-40.02229 Y19.29302
G01 X-40.01845 Y19.27379
G01 X-39.99712 Y19.20346
G01 X-39.98962 Y19.18535
G01 X-39.95495 Y19.12050
G01 X-39.94408 Y19.10422
G01 X-39.89745 Y19.04737
G01 X-39.89084 Y19.04011
G01 X-38.96285 Y18.11209
G01 X-38.95709 Y18.10676
G01 X-38.91233 Y18.06856
G01 X-38.89966 Y18.05934
G01 X-38.84947 Y18.02858
G01 X-38.83550 Y18.02147
G01 X-38.78112 Y17.99894
G01 X-38.76621 Y17.99409
G01 X-38.70898 Y17.98034
G01 X-38.69349 Y17.97791
G01 X-38.63481 Y17.97328
G01 X-38.62699 Y17.97298
G01 X-35.83799 Y17.97298
G01 X-35.82819 Y17.97346
G01 X-35.75501 Y17.98065
G01 X-35.73578 Y17.98448
G01 X-35.66545 Y18.00582
G01 X-35.65620 Y18.00912
G01 X-35.64734 Y18.01331
G01 X-35.58249 Y18.04798
G01 X-35.56621 Y18.05888
G01 X-35.50937 Y18.10552
G01 X-35.50210 Y18.11209
G01 X-31.66520 Y21.94899
G01 X-28.21573 Y21.94899
G01 X-27.21297 Y20.94623
G01 X-27.21297 Y9.36096
G01 X-27.21248 Y9.35118
G01 X-27.20529 Y9.27800
G01 X-27.20146 Y9.25877
G01 X-27.18012 Y9.18844
G01 X-27.17682 Y9.17919
G01 X-27.17263 Y9.17033
G01 X-27.13796 Y9.10548
G01 X-27.12706 Y9.08920
G01 X-27.08043 Y9.03236
G01 X-27.07385 Y9.02509
G01 X-24.01686 Y5.96810
G01 X-24.00959 Y5.96152
G01 X-23.95275 Y5.91489
G01 X-23.93647 Y5.90399
G01 X-23.87162 Y5.86932
G01 X-23.86276 Y5.86513
G01 X-23.85351 Y5.86183
G01 X-23.78318 Y5.84049
G01 X-23.76395 Y5.83666
G01 X-23.69077 Y5.82947
G01 X-23.68099 Y5.82898
G01 X-19.36899 Y5.82898
G01 X-19.35918 Y5.82947
G01 X-19.28601 Y5.83666
G01 X-19.26678 Y5.84049
G01 X-19.19645 Y5.86183
G01 X-19.18720 Y5.86513
G01 X-19.17834 Y5.86932
G01 X-19.11349 Y5.90399
G01 X-19.09721 Y5.91489
G01 X-19.04036 Y5.96152
G01 X-19.03310 Y5.96810
G01 X-14.76224 Y10.23898
G01 X-10.54698 Y10.23898
G01 X-10.53718 Y10.23947
G01 X-10.47421 Y10.24564
G04 P0 ( dwell for no time -- G64 should not smooth over this point )
G00 Z5.00000 ( retract )

G00 X-10.66484 Y9.03848 ( rapid move to begin. )
G01 F60.00000
( Mill infeed pass 1/1 )
G01 Z-0.10000
G04 P0 ( dwell for no time -- G64 should not smooth over this point )
G01 F120.00000
G01 X-10.66484 Y9.03848
G01 X-10.64264 Y9.03375
G01 X-10.43614 Y8.97843
G01 X-10.39303 Y8.96439
G01 X-10.33893 Y8.94361
G01 X-10.23802 Y8.85275
G01 X-10.22321 Y8.83794
G01 X-10.21003 Y8.82166
G01 X-10.08717 Y8.65255
G01 X-10.07576 Y8.63500
G01 X-10.06626 Y8.61633
G01 X-9.98122 Y8.42535
G01 X-9.97373 Y8.40581
G01 X-9.96830 Y8.38560
G01 X-9.92484 Y8.18110
G01 X-9.92156 Y8.16043
G01 X-9.92047 Y8.13952
G01 X-9.92047 Y7.93045
G01 X-10.02047 Y7.93045
G01 X-9.92047 Y7.93045
G01 X-9.92156 Y7.90955
G01 X-9.92484 Y7.88887
G01 X-9.96830 Y7.68438
G01 X-9.97373 Y7.66416
G01 X-9.98122 Y7.64463
G01 X-10.06626 Y7.45364
G01 X-10.07576 Y7.43498
G01 X-10.08717 Y7.41742
G01 X-10.21003 Y7.24831
G01 X-10.22321 Y7.23203
G01 X-10.23802 Y7.21722
G01 X-10.39336 Y7.07734
G01 X-10.40965 Y7.06416
G01 X-10.42720 Y7.05276
G01 X-10.60825 Y6.94824
G01 X-10.62689 Y6.93874
G01 X-10.64645 Y6.93124
G01 X-10.84528 Y6.86663
G01 X-10.86550 Y6.86122
G01 X-10.88618 Y6.85794
G01 X-11.09407 Y6.83609
G01 X-11.11498 Y6.83498
G01 X-13.11500 Y6.83498
G01 X-13.13590 Y6.83609
G01 X-13.34380 Y6.85794
G01 X-13.36448 Y6.86122
G01 X-13.38470 Y6.86663
G01 X-13.58353 Y6.93124
G01 X-13.60306 Y6.93874
G01 X-13.62173 Y6.94824
G01 X-13.80278 Y7.05276
G01 X-13.82033 Y7.06416
G01 X-13.83659 Y7.07734
G01 X-13.99196 Y7.21722
G01 X-14.00677 Y7.23203
G01 X-14.01993 Y7.24831
G01 X-14.14281 Y7.41742
G01 X-14.15422 Y7.43498
G01 X-14.16372 Y7.45364
G01 X-14.24875 Y7.64463
G01 X-14.25625 Y7.66416
G01 X-14.26168 Y7.68438
G01 X-14.30514 Y7.88887
G01 X-14.30842 Y7.90955
G01 X-14.30951 Y7.93045
G01 X-14.30951 Y8.13952
G01 X-14.30842 Y8.16043
G01 X-14.30514 Y8.18110
G01 X-14.28086 Y8.29527
G01 X-14.24261 Y8.36573
G01 X-14.21937 Y8.40373
G01 X-14.10042 Y8.57681
G01 X-14.07987 Y8.60360
G01 X-13.94538 Y8.76106
G01 X-13.92511 Y8.78240
G01 X-13.77532 Y8.92456
G01 X-13.75183 Y8.94462
G01 X-13.66161 Y9.01387
G01 X-13.58731 Y9.03375
G01 X-13.56516 Y9.03848
G01 X-13.56240 Y9.03987
G01 X-13.55262 Y9.04363
G01 X-13.35381 Y9.10825
G01 X-13.34370 Y9.11094
G01 X-13.33336 Y9.11260
G01 X-13.12544 Y9.13444
G01 X-13.11500 Y9.13500
G01 X-11.11498 Y9.13500
G01 X-11.10454 Y9.13444
G01 X-10.89661 Y9.11260
G01 X-10.88628 Y9.11094
G01 X-10.87617 Y9.10825
G01 X-10.67734 Y9.04363
G01 X-10.66758 Y9.03987
G01 X-10.66484 Y9.03848
G01 X-10.65826 Y9.03513
G01 X-10.47721 Y8.93060
G01 X-10.46842 Y8.92491
G01 X-10.46029 Y8.91831
G01 X-10.30492 Y8.77843
G01 X-10.29753 Y8.77104
G01 X-10.29095 Y8.76289
G01 X-10.16807 Y8.59377
G01 X-10.16235 Y8.58499
G01 X-10.15760 Y8.57566
G01 X-10.07259 Y8.38468
G01 X-10.06883 Y8.37490
G01 X-10.06611 Y8.36479
G01 X-10.02265 Y8.16030
G01 X-10.02100 Y8.14996
G01 X-10.02047 Y8.13952
G01 X-10.02047 Y7.93045
G01 X-10.02100 Y7.92001
G01 X-10.02265 Y7.90968
G01 X-10.06611 Y7.70518
G01 X-10.06883 Y7.69507
G01 X-10.07259 Y7.68529
G01 X-10.15760 Y7.49431
G01 X-10.16235 Y7.48499
G01 X-10.16807 Y7.47620
G01 X-10.29095 Y7.30709
G01 X-10.29753 Y7.29893
G01 X-10.30492 Y7.29154
G01 X-10.46029 Y7.15166
G01 X-10.46842 Y7.14506
G01 X-10.47721 Y7.13937
G01 X-10.65826 Y7.03485
G01 X-10.66758 Y7.03010
G01 X-10.67734 Y7.02634
G01 X-10.87617 Y6.96172
G01 X-10.88628 Y6.95903
G01 X-10.89661 Y6.95738
G01 X-11.10454 Y6.93554
G01 X-11.11498 Y6.93498
G01 X-13.11500 Y6.93498
G01 X-13.12544 Y6.93554
G01 X-13.33336 Y6.95738
G01 X-13.34370 Y6.95903
G01 X-13.35381 Y6.96172
G01 X-13.55262 Y7.02634
G01 X-13.56240 Y7.03010
G01 X-13.57172 Y7.03485
G01 X-13.75277 Y7.13937
G01 X-13.76156 Y7.14506
G01 X-13.76969 Y7.15166
G01 X-13.92506 Y7.29154
G01 X-13.93245 Y7.29893
G01 X-13.93903 Y7.30709
G01 X-14.06191 Y7.47620
G01 X-14.06763 Y7.48499
G01 X-14.07238 Y7.49431
G01 X-14.15739 Y7.68529
G01 X-14.16115 Y7.69507
G01 X-14.16387 Y7.70518
G01 X-14.20733 Y7.90968
G01 X-14.20895 Y7.92001
G01 X-14.20951 Y7.93045
G01 X-14.20951 Y8.13952
G01 X-14.20895 Y8.14996
G01 X-14.20733 Y8.16030
G01 X-14.16387 Y8.36479
G01 X-14.16115 Y8.37490
G01 X-14.15739 Y8.38468
G01 X-14.07238 Y8.57566
G01 X-14.06763 Y8.58499
G01 X-14.06191 Y8.59377
G01 X-13.93903 Y8.76289
G01 X-13.93245 Y8.77104
G01 X-13.92506 Y8.77843
G01 X-13.76969 Y8.91831
G01 X-13.76156 Y8.92491
G01 X-13.75277 Y8.93060
G01 X-13.57172 Y9.03513
G01 X-13.56516 Y9.03848
G04 P0 ( dwell for no time -- G64 should not smooth over this point )
G00 Z5.00000 ( retract )

G00 X-18.01436 Y4.72096 ( rapid move to begin. )
G01 F60.00000
( Mill infeed pass 1/1 )
G01 Z-0.10000
G04 P0 ( dwell for no time -- G64 should not smooth over this point )
G01 F120.00000
G01 X-18.01436 Y4.72096
G01 X-12.44373 Y4.72096
G01 X-5.86886 Y11.29585
G01 X-5.86310 Y11.30119
G01 X-5.81834 Y11.33939
G01 X-5.80567 Y11.34861
G01 X-5.75548 Y11.37937
G01 X-5.74151 Y11.38648
G01 X-5.68713 Y11.40901
G01 X-5.67222 Y11.41386
G01 X-5.61499 Y11.42760
G01 X-5.59950 Y11.43004
G01 X-5.54082 Y11.43466
G01 X-5.53297 Y11.43497
G01 X-5.05500 Y11.43497
G01 X-5.05500 Y11.52234
G01 X-5.05487 Y11.52727
G01 X-5.05390 Y11.54683
G01 X-5.05294 Y11.55653
G01 X-5.05007 Y11.57591
G01 X-5.04814 Y11.58562
G01 X-5.04336 Y11.60464
G01 X-5.04052 Y11.61401
G01 X-5.03391 Y11.63245
G01 X-5.03021 Y11.64142
G01 X-5.02185 Y11.65912
G01 X-5.01718 Y11.66786
G01 X-5.00709 Y11.68468
G01 X-5.00166 Y11.69283
G01 X-4.99000 Y11.70855
G01 X-4.98380 Y11.71610
G01 X-4.97064 Y11.73062
G01 X-4.96363 Y11.73763
G01 X-4.94910 Y11.75079
G01 X-4.94148 Y11.75704
G01 X-4.92574 Y11.76870
G01 X-4.91773 Y11.77406
G01 X-4.90094 Y11.78414
G01 X-4.89223 Y11.78879
G01 X-4.87453 Y11.79717
G01 X-4.86541 Y11.80096
G01 X-4.84694 Y11.80756
G01 X-4.83752 Y11.81041
G01 X-4.81852 Y11.81516
G01 X-4.80892 Y11.81706
G01 X-4.78954 Y11.81993
G01 X-4.77984 Y11.82090
G01 X-4.76028 Y11.82186
G01 X-4.75535 Y11.82199
G01 X-1.15462 Y11.82199
G01 X-1.14967 Y11.82186
G01 X-1.13011 Y11.82090
G01 X-1.12041 Y11.81993
G01 X-1.10103 Y11.81706
G01 X-1.09143 Y11.81516
G01 X-1.07243 Y11.81041
G01 X-1.06300 Y11.80756
G01 X-1.04997 Y11.80289
G01 X-1.04454 Y11.80096
G01 X-1.03542 Y11.79717
G01 X-1.01772 Y11.78879
G01 X-1.00900 Y11.78414
G01 X-0.99849 Y11.77782
G01 X-0.98462 Y11.76776
G01 X-0.97266 Y11.75549
G01 X-0.96295 Y11.74134
G01 X-0.95582 Y11.72575
G01 X-0.95145 Y11.70916
G01 X-0.94997 Y11.69209
G01 X-0.94997 Y10.22786
G01 X-0.95145 Y10.21079
G01 X-0.95582 Y10.19420
G01 X-0.96295 Y10.17861
G01 X-0.97266 Y10.16446
G01 X-0.98462 Y10.15219
G01 X-0.99849 Y10.14213
G01 X-1.00900 Y10.13581
G01 X-1.01772 Y10.13116
G01 X-1.03542 Y10.12278
G01 X-1.04454 Y10.11899
G01 X-1.04997 Y10.11704
G01 X-1.06300 Y10.11239
G01 X-1.07243 Y10.10955
G01 X-1.09143 Y10.10480
G01 X-1.10103 Y10.10289
G01 X-1.12041 Y10.10002
G01 X-1.13011 Y10.09905
G01 X-1.14967 Y10.09809
G01 X-1.15462 Y10.09796
G01 X-4.75535 Y10.09796
G01 X-4.76028 Y10.09809
G01 X-4.77984 Y10.09905
G01 X-4.78954 Y10.10002
G01 X-4.80892 Y10.10289
G01 X-4.81852 Y10.10480
G01 X-4.83752 Y10.10955
G01 X-4.84694 Y10.11239
G01 X-4.86541 Y10.11899
G01 X-4.87453 Y10.12278
G01 X-4.89223 Y10.13116
G01 X-4.90094 Y10.13581
G01 X-4.91773 Y10.14589
G01 X-4.92574 Y10.15125
G01 X-4.94148 Y10.16291
G01 X-4.94910 Y10.16916
G01 X-4.96363 Y10.18232
G01 X-4.97064 Y10.18933
G01 X-4.98380 Y10.20386
G01 X-4.99000 Y10.21140
G01 X-5.00166 Y10.22712
G01 X-5.00709 Y10.23528
G01 X-5.01718 Y10.25209
G01 X-5.02185 Y10.26083
G01 X-5.03021 Y10.27853
G01 X-5.03391 Y10.28750
G01 X-5.04052 Y10.30594
G01 X-5.04336 Y10.31531
G01 X-5.04814 Y10.33434
G01 X-5.05007 Y10.34404
G01 X-5.05294 Y10.36342
G01 X-5.05390 Y10.37312
G01 X-5.05487 Y10.39268
G01 X-5.05500 Y10.39763
G01 X-5.05500 Y10.48498
G01 X-5.33622 Y10.48498
G01 X-11.91109 Y3.91009
G01 X-11.91686 Y3.90476
G01 X-11.96161 Y3.86656
G01 X-11.96349 Y3.86518
G01 X-11.97429 Y3.85734
G01 X-12.02448 Y3.82658
G01 X-12.03845 Y3.81946
G01 X-12.09283 Y3.79693
G01 X-12.10774 Y3.79208
G01 X-12.16496 Y3.77834
G01 X-12.18046 Y3.77590
G01 X-12.23913 Y3.77128
G01 X-12.24698 Y3.77098
G01 X-35.76700 Y3.77098
G01 X-35.77482 Y3.77128
G01 X-35.83350 Y3.77590
G01 X-35.84899 Y3.77834
G01 X-35.90622 Y3.79208
G01 X-35.92113 Y3.79693
G01 X-35.97551 Y3.81946
G01 X-35.98948 Y3.82658
G01 X-36.03967 Y3.85734
G01 X-36.05234 Y3.86656
G01 X-36.09710 Y3.90476
G01 X-36.10286 Y3.91009
G01 X-39.48785 Y7.29510
G01 X-39.49442 Y7.30236
G01 X-39.54108 Y7.35921
G01 X-39.55196 Y7.37549
G01 X-39.58663 Y7.44034
G01 X-39.59412 Y7.45845
G01 X-39.61546 Y7.52878
G01 X-39.61929 Y7.54801
G01 X-39.62648 Y7.62118
G01 X-39.62696 Y7.63099
G01 X-39.62696 Y8.61999
G01 X-39.62648 Y8.62977
G01 X-39.61929 Y8.70294
G01 X-39.61546 Y8.72217
G01 X-39.59412 Y8.79250
G01 X-39.59082 Y8.80175
G01 X-39.58663 Y8.81061
G01 X-39.55196 Y8.87546
G01 X-39.54106 Y8.89174
G01 X-39.53324 Y8.90132
G01 X-39.49442 Y8.94859
G01 X-39.48785 Y8.95585
G01 X-35.98285 Y12.46085
G01 X-35.97558 Y12.46743
G01 X-35.91874 Y12.51406
G01 X-35.90246 Y12.52496
G01 X-35.83761 Y12.55963
G01 X-35.82875 Y12.56382
G01 X-35.81950 Y12.56712
G01 X-35.74917 Y12.58846
G01 X-35.72994 Y12.59229
G01 X-35.65676 Y12.59948
G01 X-35.64698 Y12.59996
G01 X-32.63998 Y12.59996
G01 X-32.63998 Y14.89305
G01 X-32.75908 Y14.97956
G01 X-32.76721 Y14.98617
G01 X-32.77460 Y14.99356
G01 X-32.88651 Y15.11784
G01 X-32.89309 Y15.12597
G01 X-32.89881 Y15.13476
G01 X-32.98242 Y15.27959
G01 X-32.98717 Y15.28894
G01 X-32.99093 Y15.29869
G01 X-33.04262 Y15.45774
G01 X-33.04531 Y15.46788
G01 X-33.04696 Y15.47822
G01 X-33.06444 Y15.64454
G01 X-33.06500 Y15.65500
G01 X-33.06444 Y15.66544
G01 X-33.04696 Y15.83176
G01 X-33.04531 Y15.84210
G01 X-33.04262 Y15.85223
G01 X-32.99093 Y16.01129
G01 X-32.98717 Y16.02104
G01 X-32.98242 Y16.03039
G01 X-32.89881 Y16.17522
G01 X-32.89309 Y16.18401
G01 X-32.88651 Y16.19213
G01 X-32.77460 Y16.31642
G01 X-32.76721 Y16.32381
G01 X-32.75908 Y16.33041
G01 X-32.62377 Y16.42871
G01 X-32.61499 Y16.43440
G01 X-32.60566 Y16.43917
G01 X-32.45288 Y16.50720
G01 X-32.44310 Y16.51093
G01 X-32.43300 Y16.51365
G01 X-32.26939 Y16.54842
G01 X-32.25906 Y16.55005
G01 X-32.24862 Y16.55060
G01 X-32.08136 Y16.55060
G01 X-32.07092 Y16.55005
G01 X-32.06058 Y16.54842
G01 X-31.89698 Y16.51365
G01 X-31.88687 Y16.51093
G01 X-31.87709 Y16.50720
G01 X-31.72431 Y16.43917
G01 X-31.71499 Y16.43440
G01 X-31.70620 Y16.42871
G01 X-31.57089 Y16.33041
G01 X-31.56277 Y16.32381
G01 X-31.55537 Y16.31642
G01 X-31.44346 Y16.19213
G01 X-31.43688 Y16.18401
G01 X-31.43117 Y16.17522
G01 X-31.34755 Y16.03039
G01 X-31.34280 Y16.02104
G01 X-31.33904 Y16.01129
G01 X-31.28735 Y15.85223
G01 X-31.28466 Y15.84210
G01 X-31.28301 Y15.83176
G01 X-31.26554 Y15.66544
G01 X-31.26498 Y15.65500
G01 X-31.26554 Y15.64454
G01 X-31.28301 Y15.47822
G01 X-31.28466 Y15.46788
G01 X-31.28735 Y15.45774
G01 X-31.33904 Y15.29869
G01 X-31.34280 Y15.28894
G01 X-31.34755 Y15.27959
G01 X-31.43117 Y15.13476
G01 X-31.43688 Y15.12597
G01 X-31.44346 Y15.11784
G01 X-31.55537 Y14.99356
G01 X-31.56277 Y14.98617
G01 X-31.57089 Y14.97956
G01 X-31.68999 Y14.89305
G01 X-31.68999 Y12.32173
G01 X-29.28911 Y9.92085
G01 X-29.28253 Y9.91358
G01 X-29.23590 Y9.85674
G01 X-29.22500 Y9.84046
G01 X-29.19033 Y9.77561
G01 X-29.18614 Y9.76675
G01 X-29.18284 Y9.75750
G01 X-29.16150 Y9.68717
G01 X-29.15767 Y9.66794
G01 X-29.15048 Y9.59476
G01 X-29.14999 Y9.58498
G01 X-29.14999 Y8.79692
G01 X-29.03089 Y8.71041
G01 X-29.02277 Y8.70381
G01 X-29.01537 Y8.69642
G01 X-28.90346 Y8.57213
G01 X-28.89688 Y8.56401
G01 X-28.89117 Y8.55522
G01 X-28.80755 Y8.41039
G01 X-28.80280 Y8.40104
G01 X-28.79904 Y8.39129
G01 X-28.79572 Y8.38100
G01 X-28.74735 Y8.23223
G01 X-28.74466 Y8.22210
G01 X-28.74301 Y8.21176
G01 X-28.72554 Y8.04544
G01 X-28.72498 Y8.03500
G01 X-28.72554 Y8.02454
G01 X-28.74301 Y7.85822
G01 X-28.74466 Y7.84788
G01 X-28.74735 Y7.83774
G01 X-28.79569 Y7.68900
G01 X-28.79846 Y7.67155
G01 X-28.80483 Y7.64163
G01 X-28.84913 Y7.47640
G01 X-28.85447 Y7.45900
G01 X-28.85632 Y7.45695
G01 X-28.97047 Y7.33665
G01 X-29.00013 Y7.30851
G01 X-29.02320 Y7.28882
G01 X-29.13841 Y7.25138
G01 X-29.17082 Y7.24267
G01 X-29.23158 Y7.22977
G01 X-29.18431 Y7.25080
G01 X-29.17499 Y7.25558
G01 X-29.16620 Y7.26127
G01 X-29.03089 Y7.35956
G01 X-29.02277 Y7.36617
G01 X-29.01537 Y7.37356
G01 X-28.90346 Y7.49784
G01 X-28.89688 Y7.50597
G01 X-28.89117 Y7.51476
G01 X-28.80755 Y7.65959
G01 X-28.80280 Y7.66894
G01 X-28.79904 Y7.67869
G01 X-28.79569 Y7.68900
G01 X-28.79904 Y7.67869
G01 X-28.80280 Y7.66894
G01 X-28.80755 Y7.65959
G01 X-28.89117 Y7.51476
G01 X-28.89688 Y7.50597
G01 X-28.90346 Y7.49784
G01 X-29.01537 Y7.37356
G01 X-29.02277 Y7.36617
G01 X-29.03089 Y7.35956
G01 X-29.16620 Y7.26127
G01 X-29.17499 Y7.25558
G01 X-29.18431 Y7.25080
G01 X-29.23158 Y7.22977
G01 X-29.33709 Y7.18278
G01 X-29.34687 Y7.17905
G01 X-29.35698 Y7.17633
G01 X-29.52058 Y7.14156
G01 X-29.53092 Y7.13993
G01 X-29.54136 Y7.13937
G01 X-29.70862 Y7.13937
G01 X-29.71906 Y7.13993
G01 X-29.72939 Y7.14156
G01 X-29.89300 Y7.17633
G01 X-29.90310 Y7.17905
G01 X-29.91288 Y7.18278
G01 X-30.01840 Y7.22977
G01 X-30.06566 Y7.25080
G01 X-30.07499 Y7.25558
G01 X-30.08377 Y7.26127
G01 X-30.21908 Y7.35956
G01 X-30.22721 Y7.36617
G01 X-30.23460 Y7.37356
G01 X-30.34651 Y7.49784
G01 X-30.35309 Y7.50597
G01 X-30.35881 Y7.51476
G01 X-30.44242 Y7.65959
G01 X-30.44717 Y7.66894
G01 X-30.45093 Y7.67869
G01 X-30.50262 Y7.83774
G01 X-30.50531 Y7.84788
G01 X-30.50696 Y7.85822
G01 X-30.52444 Y8.02454
G01 X-30.52500 Y8.03500
G01 X-30.52444 Y8.04544
G01 X-30.50696 Y8.21176
G01 X-30.50531 Y8.22210
G01 X-30.50262 Y8.23223
G01 X-30.45093 Y8.39129
G01 X-30.44717 Y8.40104
G01 X-30.44242 Y8.41039
G01 X-30.35881 Y8.55522
G01 X-30.35309 Y8.56401
G01 X-30.34651 Y8.57213
G01 X-30.23460 Y8.69642
G01 X-30.22721 Y8.70381
G01 X-30.21908 Y8.71041
G01 X-30.09998 Y8.79692
G01 X-30.09998 Y9.38821
G01 X-32.36172 Y11.64998
G01 X-35.45021 Y11.64998
G01 X-38.67698 Y8.42321
G01 X-38.67698 Y7.82774
G01 X-35.57023 Y4.72096
G01 X-34.72057 Y4.72096
G01 X-18.01436 Y4.72096
G01 X-18.01055 Y4.72213
G01 X-18.00823 Y4.72289
G01 X-17.93473 Y4.74921
G01 X-17.93358 Y4.74964
G01 X-17.91603 Y4.75639
G01 X-17.91491 Y4.75685
G01 X-17.76010 Y4.82096
G01 X-12.48513 Y4.82096
G01 X-12.48198 Y4.81337
G01 X-12.48513 Y4.82096
G01 X-5.93958 Y11.36657
G01 X-5.92804 Y11.37721
G01 X-5.88329 Y11.41544
G01 X-5.85792 Y11.43388
G01 X-5.80772 Y11.46464
G01 X-5.77976 Y11.47888
G01 X-5.72540 Y11.50139
G01 X-5.69556 Y11.51109
G01 X-5.63833 Y11.52483
G01 X-5.60734 Y11.52974
G01 X-5.54867 Y11.53436
G01 X-5.53297 Y11.53497
G01 X-5.15461 Y11.53497
G01 X-5.13742 Y11.51371
G01 X-5.15461 Y11.53497
G01 X-5.15378 Y11.55176
G01 X-5.15187 Y11.57119
G01 X-5.14900 Y11.59057
G01 X-5.14514 Y11.60995
G01 X-5.14037 Y11.62897
G01 X-5.13465 Y11.64772
G01 X-5.12805 Y11.66616
G01 X-5.12063 Y11.68412
G01 X-5.11227 Y11.70182
G01 X-5.10293 Y11.71930
G01 X-5.09284 Y11.73611
G01 X-5.08197 Y11.75239
G01 X-5.07031 Y11.76811
G01 X-5.05792 Y11.78323
G01 X-5.04476 Y11.79776
G01 X-5.03076 Y11.81175
G01 X-5.01624 Y11.82491
G01 X-5.00100 Y11.83741
G01 X-4.98525 Y11.84906
G01 X-4.96922 Y11.85978
G01 X-4.95243 Y11.86987
G01 X-4.93503 Y11.87916
G01 X-4.91733 Y11.88755
G01 X-4.89909 Y11.89511
G01 X-4.88062 Y11.90172
G01 X-4.86178 Y11.90741
G01 X-4.84278 Y11.91216
G01 X-4.82358 Y11.91599
G01 X-4.80420 Y11.91886
G01 X-4.78477 Y11.92077
G01 X-4.76521 Y11.92173
G01 X-4.75535 Y11.92199
G01 X-1.15462 Y11.92199
G01 X-1.14474 Y11.92173
G01 X-1.12518 Y11.92077
G01 X-1.10575 Y11.91886
G01 X-1.08637 Y11.91599
G01 X-1.06717 Y11.91216
G01 X-1.04997 Y11.90787
G01 X-1.04997 Y11.80289
G01 X-1.04454 Y11.80096
G01 X-1.03542 Y11.79717
G01 X-1.01772 Y11.78879
G01 X-1.00900 Y11.78414
G01 X-0.99849 Y11.77782
G01 X-0.98462 Y11.76776
G01 X-0.97266 Y11.75549
G01 X-0.96295 Y11.74134
G01 X-0.95582 Y11.72575
G01 X-0.95145 Y11.70916
G01 X-0.94997 Y11.69209
G01 X-0.94997 Y10.22786
G01 X-0.95145 Y10.21079
G01 X-0.95582 Y10.19420
G01 X-0.96295 Y10.17861
G01 X-0.97266 Y10.16446
G01 X-0.98462 Y10.15219
G01 X-0.99849 Y10.14213
G01 X-1.00900 Y10.13581
G01 X-1.01772 Y10.13116
G01 X-1.03542 Y10.12278
G01 X-1.04454 Y10.11899
G01 X-1.04997 Y10.11704
G01 X-1.04997 Y10.01209
G01 X-1.06717 Y10.00779
G01 X-1.08637 Y10.00396
G01 X-1.10575 Y10.00109
G01 X-1.12518 Y9.99918
G01 X-1.14474 Y9.99822
G01 X-1.15462 Y9.99796
G01 X-4.75535 Y9.99796
G01 X-4.76521 Y9.99822
G01 X-4.78477 Y9.99918
G01 X-4.80420 Y10.00109
G01 X-4.82358 Y10.00396
G01 X-4.84278 Y10.00779
G01 X-4.86178 Y10.01254
G01 X-4.88062 Y10.01823
G01 X-4.89909 Y10.02484
G01 X-4.91733 Y10.03241
G01 X-4.93503 Y10.04079
G01 X-4.95243 Y10.05008
G01 X-4.96922 Y10.06017
G01 X-4.98525 Y10.07089
G01 X-5.00100 Y10.08254
G01 X-5.01624 Y10.09504
G01 X-5.03076 Y10.10820
G01 X-5.04476 Y10.12219
G01 X-5.05792 Y10.13672
G01 X-5.07031 Y10.15184
G01 X-5.08197 Y10.16756
G01 X-5.09284 Y10.18384
G01 X-5.10293 Y10.20065
G01 X-5.11227 Y10.21813
G01 X-5.12063 Y10.23583
G01 X-5.12805 Y10.25379
G01 X-5.13465 Y10.27223
G01 X-5.14037 Y10.29098
G01 X-5.14514 Y10.31000
G01 X-5.14900 Y10.32938
G01 X-5.15187 Y10.34876
G01 X-5.15378 Y10.36819
G01 X-5.15461 Y10.38498
G01 X-5.13719 Y10.40680
G01 X-5.15461 Y10.38498
G01 X-5.29482 Y10.38498
G01 X-5.29797 Y10.39258
G01 X-5.29482 Y10.38498
G01 X-11.71747 Y3.96231
G01 X-11.87175 Y3.89841
G01 X-11.88493 Y3.89325
G01 X-11.94233 Y3.87207
G01 X-11.96349 Y3.86518
G01 X-11.93291 Y3.76996
G01 X-11.13573 Y3.76996
G01 X-8.68986 Y6.21585
G01 X-8.68410 Y6.22119
G01 X-8.63934 Y6.25939
G01 X-8.62667 Y6.26861
G01 X-8.57648 Y6.29937
G01 X-8.56251 Y6.30648
G01 X-8.50813 Y6.32901
G01 X-8.49322 Y6.33386
G01 X-8.43599 Y6.34760
G01 X-8.42050 Y6.35004
G01 X-8.36182 Y6.35466
G01 X-8.35397 Y6.35497
G01 X-5.05500 Y6.35497
G01 X-5.05500 Y6.44234
G01 X-5.05487 Y6.44727
G01 X-5.05390 Y6.46683
G01 X-5.05294 Y6.47653
G01 X-5.05007 Y6.49591
G01 X-5.04814 Y6.50562
G01 X-5.04336 Y6.52464
G01 X-5.04052 Y6.53401
G01 X-5.03391 Y6.55245
G01 X-5.03021 Y6.56142
G01 X-5.02185 Y6.57912
G01 X-5.01718 Y6.58786
G01 X-5.00709 Y6.60468
G01 X-5.00166 Y6.61283
G01 X-4.99000 Y6.62855
G01 X-4.98380 Y6.63610
G01 X-4.97064 Y6.65062
G01 X-4.96363 Y6.65763
G01 X-4.94910 Y6.67079
G01 X-4.94148 Y6.67704
G01 X-4.92574 Y6.68870
G01 X-4.91773 Y6.69406
G01 X-4.90094 Y6.70414
G01 X-4.89223 Y6.70879
G01 X-4.87453 Y6.71717
G01 X-4.86541 Y6.72096
G01 X-4.84694 Y6.72756
G01 X-4.83752 Y6.73041
G01 X-4.81852 Y6.73516
G01 X-4.80892 Y6.73706
G01 X-4.78954 Y6.73993
G01 X-4.77984 Y6.74090
G01 X-4.76028 Y6.74186
G01 X-4.75535 Y6.74199
G01 X-1.15462 Y6.74199
G01 X-1.14967 Y6.74186
G01 X-1.13011 Y6.74090
G01 X-1.12041 Y6.73993
G01 X-1.10103 Y6.73706
G01 X-1.09143 Y6.73516
G01 X-1.07243 Y6.73041
G01 X-1.06300 Y6.72756
G01 X-1.04997 Y6.72289
G01 X-1.04454 Y6.72096
G01 X-1.03542 Y6.71717
G01 X-1.01772 Y6.70879
G01 X-1.00900 Y6.70414
G01 X-0.99849 Y6.69782
G01 X-0.98462 Y6.68776
G01 X-0.97266 Y6.67549
G01 X-0.96295 Y6.66134
G01 X-0.95582 Y6.64575
G01 X-0.95145 Y6.62916
G01 X-0.94997 Y6.61209
G01 X-0.94997 Y5.14786
G01 X-0.95145 Y5.13079
G01 X-0.95582 Y5.11420
G01 X-0.96295 Y5.09861
G01 X-0.97266 Y5.08446
G01 X-0.98462 Y5.07219
G01 X-0.99849 Y5.06213
G01 X-1.00900 Y5.05581
G01 X-1.01772 Y5.05116
G01 X-1.03542 Y5.04278
G01 X-1.04454 Y5.03899
G01 X-1.04997 Y5.03706
G01 X-1.06300 Y5.03239
G01 X-1.07243 Y5.02955
G01 X-1.09143 Y5.02480
G01 X-1.10103 Y5.02289
G01 X-1.12041 Y5.02002
G01 X-1.13011 Y5.01905
G01 X-1.14967 Y5.01809
G01 X-1.15462 Y5.01796
G01 X-4.75535 Y5.01796
G01 X-4.76028 Y5.01809
G01 X-4.77984 Y5.01905
G01 X-4.78954 Y5.02002
G01 X-4.80892 Y5.02289
G01 X-4.81852 Y5.02480
G01 X-4.83752 Y5.02955
G01 X-4.84694 Y5.03239
G01 X-4.86541 Y5.03899
G01 X-4.87453 Y5.04278
G01 X-4.89223 Y5.05116
G01 X-4.90094 Y5.05581
G01 X-4.91773 Y5.06589
G01 X-4.92574 Y5.07125
G01 X-4.94148 Y5.08291
G01 X-4.94910 Y5.08916
G01 X-4.96363 Y5.10232
G01 X-4.97064 Y5.10933
G01 X-4.98380 Y5.12386
G01 X-4.99000 Y5.13140
G01 X-5.00166 Y5.14712
G01 X-5.00709 Y5.15528
G01 X-5.01718 Y5.17209
G01 X-5.02185 Y5.18083
G01 X-5.03021 Y5.19853
G01 X-5.03391 Y5.20750
G01 X-5.04052 Y5.22594
G01 X-5.04336 Y5.23531
G01 X-5.04814 Y5.25434
G01 X-5.05007 Y5.26404
G01 X-5.05294 Y5.28342
G01 X-5.05390 Y5.29312
G01 X-5.05487 Y5.31268
G01 X-5.05500 Y5.31763
G01 X-5.05500 Y5.40498
G01 X-8.15722 Y5.40498
G01 X-10.60309 Y2.95909
G01 X-10.60886 Y2.95376
G01 X-10.65361 Y2.91555
G01 X-10.66629 Y2.90633
G01 X-10.71648 Y2.87557
G01 X-10.73045 Y2.86846
G01 X-10.78483 Y2.84593
G01 X-10.79974 Y2.84108
G01 X-10.85697 Y2.82734
G01 X-10.87246 Y2.82490
G01 X-10.93113 Y2.82028
G01 X-10.93898 Y2.81997
G01 X-36.15999 Y2.81997
G01 X-36.16781 Y2.82028
G01 X-36.22649 Y2.82490
G01 X-36.24198 Y2.82734
G01 X-36.29921 Y2.84108
G01 X-36.31412 Y2.84593
G01 X-36.36850 Y2.86846
G01 X-36.38247 Y2.87557
G01 X-36.43266 Y2.90633
G01 X-36.44533 Y2.91555
G01 X-36.49009 Y2.95376
G01 X-36.49585 Y2.95909
G01 X-40.43885 Y6.90211
G01 X-40.44543 Y6.90937
G01 X-40.49209 Y6.96622
G01 X-40.50296 Y6.98250
G01 X-40.53763 Y7.04735
G01 X-40.54512 Y7.06546
G01 X-40.56646 Y7.13579
G01 X-40.57029 Y7.15502
G01 X-40.57748 Y7.22819
G01 X-40.57796 Y7.23800
G01 X-40.57796 Y16.40400
G01 X-40.57748 Y16.41377
G01 X-40.57029 Y16.48695
G01 X-40.56646 Y16.50618
G01 X-40.54512 Y16.57651
G01 X-40.54182 Y16.58576
G01 X-40.53763 Y16.59462
G01 X-40.50296 Y16.65947
G01 X-40.49206 Y16.67575
G01 X-40.44543 Y16.73260
G01 X-40.43885 Y16.73986
G01 X-39.82371 Y17.35500
G01 X-45.24084 Y22.77211
G01 X-45.24742 Y22.77937
G01 X-45.29406 Y22.83622
G01 X-45.30495 Y22.85250
G01 X-45.33962 Y22.91734
G01 X-45.34382 Y22.92621
G01 X-45.34712 Y22.93545
G01 X-45.36845 Y23.00579
G01 X-45.37229 Y23.02501
G01 X-45.37948 Y23.09819
G01 X-45.37996 Y23.10797
G01 X-45.37996 Y24.82537
G01 X-45.54277 Y24.91937
G01 X-45.55156 Y24.92506
G01 X-45.55969 Y24.93166
G01 X-45.71504 Y25.07154
G01 X-45.72245 Y25.07893
G01 X-45.72903 Y25.08709
G01 X-45.85192 Y25.25620
G01 X-45.85761 Y25.26499
G01 X-45.86236 Y25.27431
G01 X-45.94740 Y25.46529
G01 X-45.95115 Y25.47507
G01 X-45.95385 Y25.48518
G01 X-45.99733 Y25.68968
G01 X-45.99896 Y25.70001
G01 X-45.99952 Y25.71045
G01 X-45.99952 Y25.91952
G01 X-45.99896 Y25.92996
G01 X-45.99733 Y25.94030
G01 X-45.95385 Y26.14479
G01 X-45.95115 Y26.15490
G01 X-45.94740 Y26.16468
G01 X-45.86236 Y26.35566
G01 X-45.85761 Y26.36499
G01 X-45.85192 Y26.37377
G01 X-45.72903 Y26.54289
G01 X-45.72245 Y26.55104
G01 X-45.71504 Y26.55843
G01 X-45.55969 Y26.69831
G01 X-45.55156 Y26.70491
G01 X-45.54277 Y26.71060
G01 X-45.36172 Y26.81513
G01 X-45.35240 Y26.81987
G01 X-45.34262 Y26.82363
G01 X-45.15626 Y26.88419
G01 X-45.14379 Y26.88825
G01 X-45.13368 Y26.89094
G01 X-45.12334 Y26.89260
G01 X-44.91544 Y26.91444
G01 X-44.90498 Y26.91500
G01 X-42.90498 Y26.91500
G01 X-42.89454 Y26.91444
G01 X-42.68662 Y26.89260
G01 X-42.67628 Y26.89094
G01 X-42.66617 Y26.88825
G01 X-42.65360 Y26.88416
G01 X-42.46734 Y26.82363
G01 X-42.45759 Y26.81987
G01 X-42.44824 Y26.81513
G01 X-42.26719 Y26.71060
G01 X-42.25843 Y26.70491
G01 X-42.25030 Y26.69831
G01 X-42.09493 Y26.55843
G01 X-42.08754 Y26.55104
G01 X-42.08093 Y26.54289
G01 X-41.95807 Y26.37377
G01 X-41.95236 Y26.36499
G01 X-41.94761 Y26.35566
G01 X-41.86257 Y26.16468
G01 X-41.85883 Y26.15490
G01 X-41.85612 Y26.14479
G01 X-41.81266 Y25.94030
G01 X-41.81101 Y25.92996
G01 X-41.81047 Y25.91952
G01 X-41.81047 Y25.71045
G01 X-41.81101 Y25.70001
G01 X-41.81266 Y25.68968
G01 X-41.85612 Y25.48518
G01 X-41.85883 Y25.47507
G01 X-41.86257 Y25.46529
G01 X-41.94761 Y25.27431
G01 X-41.95236 Y25.26499
G01 X-41.95807 Y25.25620
G01 X-42.08093 Y25.08709
G01 X-42.08754 Y25.07893
G01 X-42.09493 Y25.07154
G01 X-42.25030 Y24.93166
G01 X-42.25843 Y24.92506
G01 X-42.26719 Y24.91937
G01 X-42.44824 Y24.81485
G01 X-42.45759 Y24.81010
G01 X-42.46734 Y24.80634
G01 X-42.66617 Y24.74172
G01 X-42.67628 Y24.73903
G01 X-42.68662 Y24.73738
G01 X-42.89454 Y24.71554
G01 X-42.90498 Y24.71498
G01 X-44.42997 Y24.71498
G01 X-44.42997 Y23.30474
G01 X-38.95521 Y17.82998
G01 X-31.32500 Y17.82998
G01 X-31.31519 Y17.82949
G01 X-31.24201 Y17.82231
G01 X-31.22279 Y17.81847
G01 X-31.15245 Y17.79713
G01 X-31.14321 Y17.79383
G01 X-31.13434 Y17.78964
G01 X-31.06950 Y17.75497
G01 X-31.05322 Y17.74407
G01 X-30.99637 Y17.69744
G01 X-30.98911 Y17.69086
G01 X-29.82612 Y16.52787
G01 X-29.72939 Y16.54842
G01 X-29.71906 Y16.55005
G01 X-29.70862 Y16.55060
G01 X-29.54136 Y16.55060
G01 X-29.53092 Y16.55005
G01 X-29.52058 Y16.54842
G01 X-29.35698 Y16.51365
G01 X-29.34687 Y16.51093
G01 X-29.33709 Y16.50720
G01 X-29.18431 Y16.43917
G01 X-29.17499 Y16.43440
G01 X-29.16620 Y16.42871
G01 X-29.11217 Y16.38947
G01 X-29.03089 Y16.33041
G01 X-29.02277 Y16.32381
G01 X-29.01537 Y16.31642
G01 X-28.90346 Y16.19213
G01 X-28.89688 Y16.18401
G01 X-28.89117 Y16.17522
G01 X-28.88296 Y16.16102
G01 X-28.80933 Y16.06506
G01 X-28.80486 Y16.04834
G01 X-28.79843 Y16.01827
G01 X-28.79569 Y16.00100
G01 X-28.79904 Y16.01129
G01 X-28.80280 Y16.02104
G01 X-28.80755 Y16.03039
