( pcb2gcode 2.4.0 )
( Software-independent Gcode )

G94 ( Millimeters per minute feed rate. )
G21 ( Units == Millimeters. )

G90 ( Absolute coordinates. )
G00 S10000 ( RPM spindle speed. )
G64 P0.01000 ( set maximum deviation from commanded toolpath )
G01 F120.00000 ( Feedrate. )


G00 Z10.00000 (Retract to tool change height)
T0
M5      (Spindle stop.)
G04 P1.00000 (Wait for spindle to stop)
(MSG, Change tool bit to mill diameter 0.20000mm)
M6      (Tool change.)
M0      (Temporary machine stop.)
M3 ( Spindle on clockwise. )
G04 P1.00000 (Wait for spindle to get up to speed)
G04 P0 ( dwell for no time -- G64 should not smooth over this point )
G00 Z5.00000 ( retract )

G00 X1.04997 Y10.11704 ( rapid move to begin. )
G01 F60.00000
( Mill infeed pass 1/1 )
G01 Z-0.10000
G04 P0 ( dwell for no time -- G64 should not smooth over this point )
G01 F120.00000
G01 X1.04997 Y10.11704
G01 X1.04997 Y10.01209
G01 X1.06717 Y10.00779
G01 X1.08637 Y10.00396
G01 X1.10575 Y10.00109
G01 X1.12518 Y9.99918
G01 X1.14474 Y9.99822
G01 X1.15462 Y9.99796
G01 X4.75535 Y9.99796
G01 X4.76521 Y9.99822
G01 X4.78477 Y9.99918
G01 X4.80420 Y10.00109
G01 X4.82358 Y10.00396
G01 X4.84278 Y10.00779
G01 X4.86178 Y10.01254
G01 X4.88062 Y10.01823
G01 X4.89909 Y10.02484
G01 X4.91733 Y10.03241
G01 X4.93503 Y10.04079
G01 X4.95243 Y10.05008
G01 X4.96922 Y10.06017
G01 X4.98525 Y10.07089
G01 X5.00100 Y10.08254
G01 X5.01624 Y10.09504
G01 X5.03076 Y10.10820
G01 X5.04476 Y10.12219
G01 X5.05792 Y10.13672
G01 X5.07031 Y10.15184
G01 X5.08197 Y10.16756
G01 X5.09284 Y10.18384
G01 X5.10293 Y10.20065
G01 X5.11227 Y10.21813
G01 X5.12063 Y10.23583
G01 X5.12805 Y10.25379
G01 X5.13465 Y10.27223
G01 X5.14037 Y10.29098
G01 X5.14514 Y10.31000
G01 X5.14900 Y10.32938
G01 X5.15187 Y10.34876
G01 X5.15378 Y10.36819
G01 X5.15461 Y10.38498
G01 X5.13719 Y10.40680
G01 X5.15461 Y10.38498
G01 X6.20181 Y10.38498
G01 X6.20493 Y10.39255
G01 X6.20181 Y10.38498
G01 X8.95839 Y7.62840
G01 X8.97295 Y7.61521
G01 X9.02977 Y7.56858
G01 X9.06235 Y7.54681
G01 X9.12720 Y7.51214
G01 X9.16342 Y7.49716
G01 X9.23378 Y7.47579
G01 X9.27221 Y7.46815
G01 X9.34539 Y7.46096
G01 X9.36497 Y7.45999
G01 X10.06342 Y7.45999
G01 X10.06921 Y7.47097
G01 X10.06342 Y7.45999
G01 X10.06626 Y7.45364
G01 X10.07576 Y7.43498
G01 X10.08717 Y7.41742
G01 X10.21003 Y7.24831
G01 X10.22321 Y7.23203
G01 X10.23802 Y7.21722
G01 X10.39336 Y7.07734
G01 X10.40965 Y7.06416
G01 X10.42720 Y7.05276
G01 X10.60825 Y6.94824
G01 X10.62689 Y6.93874
G01 X10.64645 Y6.93124
G01 X10.84528 Y6.86663
G01 X10.86550 Y6.86122
G01 X10.88618 Y6.85794
G01 X11.09407 Y6.83609
G01 X11.11498 Y6.83498
G01 X13.11500 Y6.83498
G01 X13.13590 Y6.83609
G01 X13.34380 Y6.85794
G01 X13.36448 Y6.86122
G01 X13.38470 Y6.86663
G01 X13.58353 Y6.93124
G01 X13.60306 Y6.93874
G01 X13.62173 Y6.94824
G01 X13.80278 Y7.05276
G01 X13.82033 Y7.06416
G01 X13.83659 Y7.07734
G01 X13.99196 Y7.21722
G01 X14.00677 Y7.23203
G01 X14.01993 Y7.24831
G01 X14.14281 Y7.41742
G01 X14.15422 Y7.43498
G01 X14.16372 Y7.45364
G01 X14.24875 Y7.64463
G01 X14.25625 Y7.66416
G01 X14.26168 Y7.68438
G01 X14.30514 Y7.88887
G01 X14.30842 Y7.90955
G01 X14.30951 Y7.93045
G01 X14.30951 Y8.13952
G01 X14.30842 Y8.16043
G01 X14.30514 Y8.18110
G01 X14.26168 Y8.38560
G01 X14.25625 Y8.40581
G01 X14.24875 Y8.42535
G01 X14.16372 Y8.61633
G01 X14.15422 Y8.63500
G01 X14.14281 Y8.65255
G01 X14.01993 Y8.82166
G01 X14.00677 Y8.83794
G01 X13.99196 Y8.85275
G01 X13.83659 Y8.99263
G01 X13.82033 Y9.00581
G01 X13.80278 Y9.01722
G01 X13.62173 Y9.12174
G01 X13.60306 Y9.13124
G01 X13.58353 Y9.13873
G01 X13.38470 Y9.20335
G01 X13.36448 Y9.20876
G01 X13.34380 Y9.21204
G01 X13.13590 Y9.23388
G01 X13.11500 Y9.23500
G01 X11.11498 Y9.23500
G01 X11.09407 Y9.23388
G01 X10.88618 Y9.21204
G01 X10.86550 Y9.20876
G01 X10.84528 Y9.20335
G01 X10.64645 Y9.13873
G01 X10.62689 Y9.13124
G01 X10.60825 Y9.12174
G01 X10.42720 Y9.01722
G01 X10.40965 Y9.00581
G01 X10.39336 Y8.99263
G01 X10.23802 Y8.85275
G01 X10.22321 Y8.83794
G01 X10.21003 Y8.82166
G01 X10.08717 Y8.65255
G01 X10.07576 Y8.63500
G01 X10.06626 Y8.61633
G01 X10.06342 Y8.60998
G01 X10.06931 Y8.59870
G01 X10.06342 Y8.60998
G01 X9.60315 Y8.60998
G01 X9.60002 Y8.60241
G01 X9.60315 Y8.60998
G01 X6.84656 Y11.36657
G01 X6.83201 Y11.37975
G01 X6.77519 Y11.42638
G01 X6.74260 Y11.44815
G01 X6.67775 Y11.48282
G01 X6.64153 Y11.49781
G01 X6.57117 Y11.51917
G01 X6.53274 Y11.52681
G01 X6.45957 Y11.53400
G01 X6.43998 Y11.53497
G01 X5.15461 Y11.53497
G01 X5.13615 Y11.51241
G01 X5.15461 Y11.53497
G01 X5.15378 Y11.55176
G01 X5.15187 Y11.57119
G01 X5.14900 Y11.59057
G01 X5.14514 Y11.60995
G01 X5.14037 Y11.62897
G01 X5.13465 Y11.64772
G01 X5.12805 Y11.66616
G01 X5.12063 Y11.68412
G01 X5.11227 Y11.70182
G01 X5.10293 Y11.71930
G01 X5.09284 Y11.73611
G01 X5.08197 Y11.75239
G01 X5.07031 Y11.76811
G01 X5.05792 Y11.78323
G01 X5.04476 Y11.79776
G01 X5.03076 Y11.81175
G01 X5.01624 Y11.82491
G01 X5.00100 Y11.83741
G01 X4.98525 Y11.84906
G01 X4.96922 Y11.85978
G01 X4.95243 Y11.86987
G01 X4.93503 Y11.87916
G01 X4.91733 Y11.88755
G01 X4.89909 Y11.89511
G01 X4.88062 Y11.90172
G01 X4.86178 Y11.90741
G01 X4.84278 Y11.91216
G01 X4.82358 Y11.91599
G01 X4.80420 Y11.91886
G01 X4.78477 Y11.92077
G01 X4.76521 Y11.92173
G01 X4.75535 Y11.92199
G01 X1.15462 Y11.92199
G01 X1.14474 Y11.92173
G01 X1.12518 Y11.92077
G01 X1.10575 Y11.91886
G01 X1.08637 Y11.91599
G01 X1.06717 Y11.91216
G01 X1.04997 Y11.90787
G01 X1.04997 Y11.80289
G01 X1.04454 Y11.80096
G01 X1.03542 Y11.79717
G01 X1.01772 Y11.78879
G01 X1.00900 Y11.78414
G01 X0.99849 Y11.77782
G01 X0.98462 Y11.76776
G01 X0.97266 Y11.75549
G01 X0.96295 Y11.74134
G01 X0.95582 Y11.72575
G01 X0.95145 Y11.70916
G01 X0.94997 Y11.69209
G01 X0.94997 Y10.22786
G01 X0.95145 Y10.21079
G01 X0.95582 Y10.19420
G01 X0.96295 Y10.17861
G01 X0.97266 Y10.16446
G01 X0.98462 Y10.15219
G01 X0.99849 Y10.14213
G01 X1.00900 Y10.13581
G01 X1.01772 Y10.13116
G01 X1.03542 Y10.12278
G01 X1.04454 Y10.11899
G01 X1.04997 Y10.11704
G01 X1.06300 Y10.11239
G01 X1.07243 Y10.10955
G01 X1.09143 Y10.10480
G01 X1.10103 Y10.10289
G01 X1.12041 Y10.10002
G01 X1.13011 Y10.09905
G01 X1.14967 Y10.09809
G01 X1.15462 Y10.09796
G01 X4.75535 Y10.09796
G01 X4.76028 Y10.09809
G01 X4.77984 Y10.09905
G01 X4.78954 Y10.10002
G01 X4.80892 Y10.10289
G01 X4.81852 Y10.10480
G01 X4.83752 Y10.10955
G01 X4.84694 Y10.11239
G01 X4.86541 Y10.11899
G01 X4.87453 Y10.12278
G01 X4.89223 Y10.13116
G01 X4.90094 Y10.13581
G01 X4.91773 Y10.14589
G01 X4.92574 Y10.15125
G01 X4.94148 Y10.16291
G01 X4.94910 Y10.16916
G01 X4.96363 Y10.18232
G01 X4.97064 Y10.18933
G01 X4.98380 Y10.20386
G01 X4.99000 Y10.21140
G01 X5.00166 Y10.22712
G01 X5.00709 Y10.23528
G01 X5.01718 Y10.25209
G01 X5.02185 Y10.26083
G01 X5.03021 Y10.27853
G01 X5.03391 Y10.28750
G01 X5.04052 Y10.30594
G01 X5.04336 Y10.31531
G01 X5.04814 Y10.33434
G01 X5.05007 Y10.34404
G01 X5.05294 Y10.36342
G01 X5.05390 Y10.37312
G01 X5.05487 Y10.39268
G01 X5.05500 Y10.39763
G01 X5.05500 Y10.48498
G01 X6.24321 Y10.48498
G01 X9.02911 Y7.69911
G01 X9.03637 Y7.69253
G01 X9.09321 Y7.64587
G01 X9.10950 Y7.63500
G01 X9.17434 Y7.60033
G01 X9.19245 Y7.59284
G01 X9.26279 Y7.57150
G01 X9.28201 Y7.56767
G01 X9.35519 Y7.56048
G01 X9.36497 Y7.55999
G01 X10.12837 Y7.55999
G01 X10.15760 Y7.49431
G01 X10.16235 Y7.48499
G01 X10.16807 Y7.47620
G01 X10.29095 Y7.30709
G01 X10.29753 Y7.29893
G01 X10.30492 Y7.29154
G01 X10.46029 Y7.15166
G01 X10.46842 Y7.14506
G01 X10.47721 Y7.13937
G01 X10.65826 Y7.03485
G01 X10.66758 Y7.03010
G01 X10.67734 Y7.02634
G01 X10.87617 Y6.96172
G01 X10.88628 Y6.95903
G01 X10.89661 Y6.95738
G01 X11.10454 Y6.93554
G01 X11.11498 Y6.93498
G01 X13.11500 Y6.93498
G01 X13.12544 Y6.93554
G01 X13.33336 Y6.95738
G01 X13.34370 Y6.95903
G01 X13.35381 Y6.96172
G01 X13.55262 Y7.02634
G01 X13.56240 Y7.03010
G01 X13.57172 Y7.03485
G01 X13.75277 Y7.13937
G01 X13.76156 Y7.14506
G01 X13.76969 Y7.15166
G01 X13.92506 Y7.29154
G01 X13.93245 Y7.29893
G01 X13.93903 Y7.30709
G01 X14.06191 Y7.47620
G01 X14.06763 Y7.48499
G01 X14.07238 Y7.49431
G01 X14.15739 Y7.68529
G01 X14.16115 Y7.69507
G01 X14.16387 Y7.70518
G01 X14.20733 Y7.90968
G01 X14.20895 Y7.92001
G01 X14.20951 Y7.93045
G01 X14.20951 Y8.13952
G01 X14.20895 Y8.14996
G01 X14.20733 Y8.16030
G01 X14.16387 Y8.36479
G01 X14.16115 Y8.37490
G01 X14.15739 Y8.38468
G01 X14.07238 Y8.57566
G01 X14.06763 Y8.58499
G01 X14.06191 Y8.59377
G01 X13.93903 Y8.76289
G01 X13.93245 Y8.77104
G01 X13.92506 Y8.77843
G01 X13.76969 Y8.91831
G01 X13.76156 Y8.92491
G01 X13.75277 Y8.93060
G01 X13.57172 Y9.03513
G01 X13.56240 Y9.03987
G01 X13.55262 Y9.04363
G01 X13.35381 Y9.10825
G01 X13.34370 Y9.11094
G01 X13.33336 Y9.11260
G01 X13.12544 Y9.13444
G01 X13.11500 Y9.13500
G01 X11.11498 Y9.13500
G01 X11.10454 Y9.13444
G01 X10.89661 Y9.11260
G01 X10.88628 Y9.11094
G01 X10.87617 Y9.10825
G01 X10.67734 Y9.04363
G01 X10.66758 Y9.03987
G01 X10.65826 Y9.03513
G01 X10.47721 Y8.93060
G01 X10.46842 Y8.92491
G01 X10.46029 Y8.91831
G01 X10.30492 Y8.77843
G01 X10.29753 Y8.77104
G01 X10.29095 Y8.76289
G01 X10.16807 Y8.59377
G01 X10.16235 Y8.58499
G01 X10.15760 Y8.57566
G01 X10.12837 Y8.50998
G01 X9.56174 Y8.50998
G01 X6.77585 Y11.29585
G01 X6.76858 Y11.30243
G01 X6.71174 Y11.34909
G01 X6.69545 Y11.35996
G01 X6.63061 Y11.39463
G01 X6.61250 Y11.40213
G01 X6.54217 Y11.42346
G01 X6.52294 Y11.42730
G01 X6.44976 Y11.43449
G01 X6.43998 Y11.43497
G01 X5.05500 Y11.43497
G01 X5.05500 Y11.52234
G01 X5.05487 Y11.52727
G01 X5.05390 Y11.54683
G01 X5.05294 Y11.55653
G01 X5.05007 Y11.57591
G01 X5.04814 Y11.58562
G01 X5.04336 Y11.60464
G01 X5.04052 Y11.61401
G01 X5.03391 Y11.63245
G01 X5.03021 Y11.64142
G01 X5.02185 Y11.65912
G01 X5.01718 Y11.66786
G01 X5.00709 Y11.68468
G01 X5.00166 Y11.69283
G01 X4.99000 Y11.70855
G01 X4.98380 Y11.71610
G01 X4.97064 Y11.73062
G01 X4.96363 Y11.73763
G01 X4.94910 Y11.75079
G01 X4.94148 Y11.75704
G01 X4.92574 Y11.76870
G01 X4.91773 Y11.77406
G01 X4.90094 Y11.78414
G01 X4.89223 Y11.78879
G01 X4.87453 Y11.79717
G01 X4.86541 Y11.80096
G01 X4.84694 Y11.80756
G01 X4.83752 Y11.81041
G01 X4.81852 Y11.81516
G01 X4.80892 Y11.81706
G01 X4.78954 Y11.81993
G01 X4.77984 Y11.82090
G01 X4.76028 Y11.82186
G01 X4.75535 Y11.82199
G01 X1.15462 Y11.82199
G01 X1.14967 Y11.82186
G01 X1.13011 Y11.82090
G01 X1.12041 Y11.81993
G01 X1.10103 Y11.81706
G01 X1.09143 Y11.81516
G01 X1.07243 Y11.81041
G01 X1.06300 Y11.80756
G01 X1.04997 Y11.80289
G04 P0 ( dwell for no time -- G64 should not smooth over this point )
G00 Z5.00000 ( retract )

G00 X10.68521 Y14.12620 ( rapid move to begin. )
G01 F60.00000
( Mill infeed pass 1/1 )
G01 Z-0.10000
G04 P0 ( dwell for no time -- G64 should not smooth over this point )
G01 F120.00000
G01 X10.68521 Y14.12620
G01 X10.67043 Y14.12386
G01 X10.64048 Y14.11746
G01 X10.43398 Y14.06214
G01 X10.38996 Y14.04779
G01 X10.34782 Y14.03161
G01 X10.23802 Y13.93275
G01 X10.22321 Y13.91794
G01 X10.21003 Y13.90166
G01 X10.08717 Y13.73255
G01 X10.07576 Y13.71500
G01 X10.06626 Y13.69633
G01 X9.98122 Y13.50535
G01 X9.97373 Y13.48581
G01 X9.96830 Y13.46560
G01 X9.92484 Y13.26110
G01 X9.92156 Y13.24043
G01 X9.92047 Y13.21952
G01 X9.92047 Y13.01045
G01 X10.02047 Y13.01045
G01 X9.92047 Y13.01045
G01 X9.92156 Y12.98955
G01 X9.92484 Y12.96887
G01 X9.96830 Y12.76438
G01 X9.97373 Y12.74416
G01 X9.98122 Y12.72463
G01 X10.06626 Y12.53364
G01 X10.07576 Y12.51498
G01 X10.08717 Y12.49742
G01 X10.21003 Y12.32831
G01 X10.22321 Y12.31203
G01 X10.23802 Y12.29722
G01 X10.39336 Y12.15734
G01 X10.40965 Y12.14416
G01 X10.42720 Y12.13276
G01 X10.60825 Y12.02824
G01 X10.62689 Y12.01874
G01 X10.64645 Y12.01124
G01 X10.84528 Y11.94663
G01 X10.86550 Y11.94122
G01 X10.88618 Y11.93794
G01 X11.09407 Y11.91609
G01 X11.11498 Y11.91498
G01 X13.11500 Y11.91498
G01 X13.13590 Y11.91609
G01 X13.34380 Y11.93794
G01 X13.36448 Y11.94122
G01 X13.38470 Y11.94663
G01 X13.58353 Y12.01124
G01 X13.60306 Y12.01874
G01 X13.62173 Y12.02824
G01 X13.80278 Y12.13276
G01 X13.82033 Y12.14416
G01 X13.83659 Y12.15734
G01 X13.99196 Y12.29722
G01 X14.00677 Y12.31203
G01 X14.01993 Y12.32831
G01 X14.14281 Y12.49742
G01 X14.15422 Y12.51498
G01 X14.16372 Y12.53364
G01 X14.24875 Y12.72463
G01 X14.25625 Y12.74416
G01 X14.26168 Y12.76438
G01 X14.30514 Y12.96887
G01 X14.30842 Y12.98955
G01 X14.30951 Y13.01045
G01 X14.30951 Y13.21952
G01 X14.30842 Y13.24043
G01 X14.30514 Y13.26110
G01 X14.26168 Y13.46560
G01 X14.25625 Y13.48581
G01 X14.24875 Y13.50535
G01 X14.16372 Y13.69633
G01 X14.15422 Y13.71500
G01 X14.14281 Y13.73255
G01 X14.01993 Y13.90166
G01 X14.00677 Y13.91794
G01 X13.99196 Y13.93275
G01 X13.88218 Y14.03161
G01 X13.83999 Y14.04779
G01 X13.79597 Y14.06214
G01 X13.58947 Y14.11746
G01 X13.55953 Y14.12386
G01 X13.54479 Y14.12620
G01 X13.35381 Y14.18825
G01 X13.34370 Y14.19094
G01 X13.33336 Y14.19260
G01 X13.12544 Y14.21444
G01 X13.11500 Y14.21500
G01 X11.11498 Y14.21500
G01 X11.10454 Y14.21444
G01 X10.89661 Y14.19260
G01 X10.88628 Y14.19094
G01 X10.87617 Y14.18825
G01 X10.68521 Y14.12620
G01 X10.67734 Y14.12363
G01 X10.66758 Y14.11987
G01 X10.65826 Y14.11513
G01 X10.47721 Y14.01060
G01 X10.46842 Y14.00491
G01 X10.46029 Y13.99831
G01 X10.30492 Y13.85843
G01 X10.29753 Y13.85104
G01 X10.29095 Y13.84289
G01 X10.16807 Y13.67377
G01 X10.16235 Y13.66499
G01 X10.15760 Y13.65566
G01 X10.07259 Y13.46468
G01 X10.06883 Y13.45490
G01 X10.06611 Y13.44479
G01 X10.02265 Y13.24030
G01 X10.02100 Y13.22996
G01 X10.02047 Y13.21952
G01 X10.02047 Y13.01045
G01 X10.02100 Y13.00001
G01 X10.02265 Y12.98968
G01 X10.06611 Y12.78518
G01 X10.06883 Y12.77507
G01 X10.07259 Y12.76529
G01 X10.15760 Y12.57431
G01 X10.16235 Y12.56499
G01 X10.16807 Y12.55620
G01 X10.29095 Y12.38709
G01 X10.29753 Y12.37893
G01 X10.30492 Y12.37154
G01 X10.46029 Y12.23166
G01 X10.46842 Y12.22506
G01 X10.47721 Y12.21937
G01 X10.65826 Y12.11485
G01 X10.66758 Y12.11010
G01 X10.67734 Y12.10634
G01 X10.87617 Y12.04172
G01 X10.88628 Y12.03903
G01 X10.89661 Y12.03738
G01 X11.10454 Y12.01554
G01 X11.11498 Y12.01498
G01 X13.11500 Y12.01498
G01 X13.12544 Y12.01554
G01 X13.33336 Y12.03738
G01 X13.34370 Y12.03903
G01 X13.35381 Y12.04172
G01 X13.55262 Y12.10634
G01 X13.56240 Y12.11010
G01 X13.57172 Y12.11485
G01 X13.75277 Y12.21937
G01 X13.76156 Y12.22506
G01 X13.76969 Y12.23166
G01 X13.92506 Y12.37154
G01 X13.93245 Y12.37893
G01 X13.93903 Y12.38709
G01 X14.06191 Y12.55620
G01 X14.06763 Y12.56499
G01 X14.07238 Y12.57431
G01 X14.15739 Y12.76529
G01 X14.16115 Y12.77507
G01 X14.16387 Y12.78518
G01 X14.20733 Y12.98968
G01 X14.20895 Y13.00001
G01 X14.20951 Y13.01045
G01 X14.20951 Y13.21952
G01 X14.20895 Y13.22996
G01 X14.20733 Y13.24030
G01 X14.16387 Y13.44479
G01 X14.16115 Y13.45490
G01 X14.15739 Y13.46468
G01 X14.07238 Y13.65566
G01 X14.06763 Y13.66499
G01 X14.06191 Y13.67377
G01 X13.93903 Y13.84289
G01 X13.93245 Y13.85104
G01 X13.92506 Y13.85843
G01 X13.76969 Y13.99831
G01 X13.76156 Y14.00491
G01 X13.75277 Y14.01060
G01 X13.57172 Y14.11513
G01 X13.56240 Y14.11987
G01 X13.55262 Y14.12363
G01 X13.54479 Y14.12620
G01 X13.90118 Y14.13141
G01 X20.28964 Y14.22498
G01 X23.18031 Y14.22498
G01 X28.04322 Y14.22498
G01 X28.85109 Y13.41711
G01 X28.85835 Y13.41053
G01 X28.91520 Y13.36389
G01 X28.93148 Y13.35300
G01 X28.99632 Y13.31833
G01 X29.00519 Y13.31414
G01 X29.01443 Y13.31083
G01 X29.08477 Y13.28950
G01 X29.10400 Y13.28566
G01 X29.17717 Y13.27847
G01 X29.18698 Y13.27799
G01 X30.26300 Y13.27799
G01 X30.27278 Y13.27847
G01 X30.34595 Y13.28566
G01 X30.36518 Y13.28950
G01 X30.43551 Y13.31083
G01 X30.44476 Y13.31414
G01 X30.45362 Y13.31833
G01 X30.51847 Y13.35300
G01 X30.53475 Y13.36389
G01 X30.59160 Y13.41053
G01 X30.59886 Y13.41711
G01 X31.96386 Y14.78210
G01 X32.06058 Y14.76156
G01 X32.07092 Y14.75993
G01 X32.08136 Y14.75937
G01 X32.24862 Y14.75937
G01 X32.25906 Y14.75993
G01 X32.26939 Y14.76156
G01 X32.43300 Y14.79633
G01 X32.44310 Y14.79905
G01 X32.45288 Y14.80278
G01 X32.60566 Y14.87080
G01 X32.61499 Y14.87558
G01 X32.62377 Y14.88127
G01 X32.75908 Y14.97956
G01 X32.76721 Y14.98617
G01 X32.77460 Y14.99356
G01 X32.88651 Y15.11784
G01 X32.89309 Y15.12597
G01 X32.89881 Y15.13476
G01 X32.98242 Y15.27959
G01 X32.98717 Y15.28894
G01 X32.99093 Y15.29869
G01 X33.04262 Y15.45774
G01 X33.04531 Y15.46788
G01 X33.04696 Y15.47822
G01 X33.06444 Y15.64454
G01 X33.06500 Y15.65500
G01 X33.06444 Y15.66544
G01 X33.04696 Y15.83176
G01 X33.04531 Y15.84210
G01 X33.04262 Y15.85223
G01 X32.99093 Y16.01129
G01 X32.98717 Y16.02104
G01 X32.98242 Y16.03039
G01 X32.89881 Y16.17522
G01 X32.89309 Y16.18401
G01 X32.88651 Y16.19213
G01 X32.77460 Y16.31642
G01 X32.76721 Y16.32381
G01 X32.75908 Y16.33041
G01 X32.62377 Y16.42871
G01 X32.61499 Y16.43440
G01 X32.60566 Y16.43917
G01 X32.45288 Y16.50720
G01 X32.44310 Y16.51093
G01 X32.43300 Y16.51365
G01 X32.26939 Y16.54842
G01 X32.25906 Y16.55005
G01 X32.24862 Y16.55060
G01 X32.08136 Y16.55060
G01 X32.07092 Y16.55005
G01 X32.06058 Y16.54842
G01 X31.89698 Y16.51365
G01 X31.88687 Y16.51093
G01 X31.87709 Y16.50720
G01 X31.72431 Y16.43917
G01 X31.71499 Y16.43440
G01 X31.70620 Y16.42871
G01 X31.57089 Y16.33041
G01 X31.56277 Y16.32381
G01 X31.55537 Y16.31642
G01 X31.44346 Y16.19213
G01 X31.43688 Y16.18401
G01 X31.43117 Y16.17522
G01 X31.34755 Y16.03039
G01 X31.34280 Y16.02104
G01 X31.33904 Y16.01129
G01 X31.28735 Y15.85223
G01 X31.28466 Y15.84210
G01 X31.28301 Y15.83176
G01 X31.26554 Y15.66544
G01 X31.26498 Y15.65500
G01 X31.26554 Y15.64454
G01 X31.28301 Y15.47822
G01 X31.28466 Y15.46788
G01 X31.28735 Y15.45774
G01 X31.28949 Y15.45124
G01 X30.06622 Y14.22798
G01 X29.38370 Y14.22798
G01 X28.57585 Y15.03585
G01 X28.56859 Y15.04243
G01 X28.51174 Y15.08906
G01 X28.49546 Y15.09996
G01 X28.43062 Y15.13463
G01 X28.42175 Y15.13882
G01 X28.41251 Y15.14212
G01 X28.34217 Y15.16346
G01 X28.32295 Y15.16729
G01 X28.24977 Y15.17448
G01 X28.23999 Y15.17497
G01 X5.00623 Y15.17497
G01 X4.15500 Y15.17497
G01 X4.14519 Y15.17448
G01 X4.07202 Y15.16729
G01 X4.05279 Y15.16346
G01 X3.98246 Y15.14212
G01 X3.97321 Y15.13882
G01 X3.96435 Y15.13463
G01 X3.89950 Y15.09996
G01 X3.88322 Y15.08906
G01 X3.87580 Y15.08299
G01 X3.82637 Y15.04243
G01 X3.81911 Y15.03585
G01 X3.14525 Y14.36196
G01 X1.15462 Y14.36199
G01 X1.14967 Y14.36186
G01 X1.13011 Y14.36090
G01 X1.12041 Y14.35993
G01 X1.10103 Y14.35706
G01 X1.09143 Y14.35516
G01 X1.07243 Y14.35041
G01 X1.06300 Y14.34756
G01 X1.04997 Y14.34289
G01 X1.04454 Y14.34096
G01 X1.03542 Y14.33717
G01 X1.01772 Y14.32879
G01 X1.00900 Y14.32414
G01 X0.99849 Y14.31782
G01 X0.98462 Y14.30776
G01 X0.97266 Y14.29549
G01 X0.96295 Y14.28134
G01 X0.95582 Y14.26575
G01 X0.95145 Y14.24916
G01 X0.94997 Y14.23209
G01 X0.94997 Y12.76786
G01 X0.95145 Y12.75079
G01 X0.95582 Y12.73420
G01 X0.96295 Y12.71861
G01 X0.97266 Y12.70446
G01 X0.98462 Y12.69219
G01 X0.99849 Y12.68213
G01 X1.00900 Y12.67581
G01 X1.01772 Y12.67116
G01 X1.03542 Y12.66278
G01 X1.04454 Y12.65899
G01 X1.04997 Y12.65706
G01 X1.06300 Y12.65239
G01 X1.07243 Y12.64955
G01 X1.09143 Y12.64480
G01 X1.10103 Y12.64289
G01 X1.12041 Y12.64002
G01 X1.13011 Y12.63905
G01 X1.14967 Y12.63809
G01 X1.15462 Y12.63796
G01 X4.75535 Y12.63796
G01 X4.76028 Y12.63809
G01 X4.77984 Y12.63905
G01 X4.78954 Y12.64002
G01 X4.80892 Y12.64289
G01 X4.81852 Y12.64480
G01 X4.83752 Y12.64955
G01 X4.84694 Y12.65239
G01 X4.86541 Y12.65899
G01 X4.87453 Y12.66278
G01 X4.89223 Y12.67116
G01 X4.90094 Y12.67581
G01 X4.91773 Y12.68589
G01 X4.92574 Y12.69125
G01 X4.94148 Y12.70291
G01 X4.94910 Y12.70916
G01 X4.96363 Y12.72232
G01 X4.97064 Y12.72933
G01 X4.98380 Y12.74386
G01 X4.99000 Y12.75140
G01 X5.00166 Y12.76712
G01 X5.00709 Y12.77528
G01 X5.01718 Y12.79209
G01 X5.02185 Y12.80083
G01 X5.03021 Y12.81853
G01 X5.03391 Y12.82750
G01 X5.04052 Y12.84594
G01 X5.04336 Y12.85531
G01 X5.04814 Y12.87434
G01 X5.05007 Y12.88404
G01 X5.05294 Y12.90342
G01 X5.05390 Y12.91312
G01 X5.05487 Y12.93268
G01 X5.05500 Y12.93763
G01 X5.05500 Y14.06234
G01 X5.05487 Y14.06727
G01 X5.05390 Y14.08683
G01 X5.05294 Y14.09653
G01 X5.05007 Y14.11591
G01 X5.04814 Y14.12562
G01 X5.04336 Y14.14464
G01 X5.04052 Y14.15401
G01 X5.03391 Y14.17245
G01 X5.03021 Y14.18142
G01 X5.02185 Y14.19912
G01 X5.01718 Y14.20786
G01 X5.00709 Y14.22468
G01 X5.00689 Y14.22498
G01 X10.66964 Y14.22498
G01 X13.56031 Y14.22498
G01 X20.28964 Y14.22498
G01 X20.27346 Y14.22241
G01 X20.27087 Y14.22193
G01 X20.23838 Y14.21500
G01 X20.23586 Y14.21441
G01 X20.02682 Y14.15838
G01 X20.02426 Y14.15762
G01 X19.97775 Y14.14248
G01 X19.97531 Y14.14162
G01 X19.93198 Y14.12498
G01 X13.91797 Y14.12498
G01 X13.90118 Y14.13141
G01 X13.87464 Y14.14162
G01 X13.87220 Y14.14248
G01 X13.82569 Y14.15762
G01 X13.82313 Y14.15838
G01 X13.61408 Y14.21441
G01 X13.61157 Y14.21500
G01 X13.57908 Y14.22193
G01 X13.57649 Y14.22241
G01 X13.56031 Y14.22498
G01 X10.66964 Y14.22498
G01 X10.65346 Y14.22241
G01 X10.65087 Y14.22193
G01 X10.61838 Y14.21500
G01 X10.61587 Y14.21441
G01 X10.40683 Y14.15838
G01 X10.40426 Y14.15762
G01 X10.35775 Y14.14248
G01 X10.35532 Y14.14162
G01 X10.31198 Y14.12498
G01 X5.14981 Y14.12498
G01 X5.12058 Y14.15424
G01 X5.14981 Y14.12498
G01 X5.15187 Y14.11119
G01 X5.15378 Y14.09176
G01 X5.15474 Y14.07220
G01 X5.15500 Y14.06234
G01 X5.15500 Y12.93763
G01 X5.15474 Y12.92775
G01 X5.15378 Y12.90819
G01 X5.15187 Y12.88876
G01 X5.14900 Y12.86938
G01 X5.14514 Y12.85000
G01 X5.14037 Y12.83098
G01 X5.13465 Y12.81223
G01 X5.12805 Y12.79379
G01 X5.12063 Y12.77583
G01 X5.11227 Y12.75813
G01 X5.10293 Y12.74065
G01 X5.09284 Y12.72384
G01 X5.08197 Y12.70756
G01 X5.07031 Y12.69184
G01 X5.05792 Y12.67672
G01 X5.04476 Y12.66219
G01 X5.03076 Y12.64820
G01 X5.01624 Y12.63504
G01 X5.00100 Y12.62254
G01 X4.98525 Y12.61089
G01 X4.96922 Y12.60017
G01 X4.95243 Y12.59008
G01 X4.93503 Y12.58079
G01 X4.91733 Y12.57241
G01 X4.89909 Y12.56484
G01 X4.88062 Y12.55823
G01 X4.86178 Y12.55254
G01 X4.84278 Y12.54779
G01 X4.82358 Y12.54396
G01 X4.80420 Y12.54109
G01 X4.78477 Y12.53918
G01 X4.76521 Y12.53822
G01 X4.75535 Y12.53796
G01 X1.15462 Y12.53796
G01 X1.14474 Y12.53822
G01 X1.12518 Y12.53918
G01 X1.10575 Y12.54109
G01 X1.08637 Y12.54396
G01 X1.06717 Y12.54779
G01 X1.04997 Y12.55209
G01 X1.04997 Y12.65706
G01 X1.04454 Y12.65899
G01 X1.03542 Y12.66278
G01 X1.01772 Y12.67116
G01 X1.00900 Y12.67581
G01 X0.99849 Y12.68213
G01 X0.98462 Y12.69219
G01 X0.97266 Y12.70446
G01 X0.96295 Y12.71861
G01 X0.95582 Y12.73420
G01 X0.95145 Y12.75079
G01 X0.94997 Y12.76786
G01 X0.94997 Y14.23209
G01 X0.95145 Y14.24916
G01 X0.95582 Y14.26575
G01 X0.96295 Y14.28134
G01 X0.97266 Y14.29549
G01 X0.98462 Y14.30776
G01 X0.99849 Y14.31782
G01 X1.00900 Y14.32414
G01 X1.01772 Y14.32879
G01 X1.03542 Y14.33717
G01 X1.04454 Y14.34096
G01 X1.04997 Y14.34289
G01 X1.04997 Y14.44787
G01 X1.06717 Y14.45216
G01 X1.08637 Y14.45599
G01 X1.10575 Y14.45886
G01 X1.12518 Y14.46077
G01 X1.14474 Y14.46173
G01 X1.15462 Y14.46199
G01 X3.10382 Y14.46196
G01 X3.10697 Y14.45437
G01 X3.10382 Y14.46196
G01 X3.62741 Y14.98558
G01 X3.77885 Y15.04832
G01 X3.79523 Y15.05465
G01 X3.86709 Y15.08035
G01 X3.87580 Y15.08299
G01 X3.88322 Y15.08906
G01 X3.89950 Y15.09996
G01 X3.96435 Y15.13463
G01 X3.97321 Y15.13882
G01 X3.98246 Y15.14212
G01 X4.05279 Y15.16346
G01 X4.07202 Y15.16729
G01 X4.14519 Y15.17448
G01 X4.15500 Y15.17497
G01 X5.00623 Y15.17497
G01 X5.01530 Y15.17847
G01 X5.01646 Y15.17895
G01 X5.03163 Y15.18523
G01 X5.03277 Y15.18571
G01 X5.05235 Y15.19440
G01 X5.05350 Y15.19493
G01 X5.07001 Y15.20275
G01 X5.07110 Y15.20329
G01 X5.09068 Y15.21314
G01 X5.09178 Y15.21370
G01 X5.11014 Y15.22353
G01 X5.11121 Y15.22411
G01 X5.13079 Y15.23521
G01 X5.13188 Y15.23585
G01 X5.15271 Y15.24832
G01 X5.15373 Y15.24898
G01 X5.17331 Y15.26138
G01 X5.17435 Y15.26206
G01 X5.19365 Y15.27497
G01 X28.23999 Y15.27497
G01 X28.25957 Y15.27400
G01 X28.33275 Y15.26681
G01 X28.37118 Y15.25917
G01 X28.44154 Y15.23781
G01 X28.46003 Y15.23120
G01 X28.47776 Y15.22282
G01 X28.54260 Y15.18815
G01 X28.57519 Y15.16638
G01 X28.63201 Y15.11975
G01 X28.64657 Y15.10656
G01 X28.71972 Y15.03341
G01 X28.72249 Y15.02980
G01 X28.72411 Y15.02777
G01 X28.75772 Y14.98843
G01 X28.75947 Y14.98647
G01 X28.87466 Y14.86509
G01 X28.87649 Y14.86323
G01 X28.91309 Y14.82851
G01 X28.91504 Y14.82676
G01 X28.99259 Y14.76051
G01 X29.42513 Y14.32798
G01 X29.42205 Y14.32051
G01 X29.42513 Y14.32798
G01 X30.02482 Y14.32798
G01 X30.02797 Y14.32038
G01 X30.02482 Y14.32798
G01 X31.18177 Y15.48492
G01 X31.19177 Y15.48134
G01 X31.18177 Y15.48492
G01 X31.16609 Y15.63407
G01 X31.16498 Y15.65500
G01 X31.16609 Y15.67590
G01 X31.18357 Y15.84222
G01 X31.18685 Y15.86290
G01 X31.19226 Y15.88312
G01 X31.24395 Y16.04217
G01 X31.25144 Y16.06173
G01 X31.26094 Y16.08037
G01 X31.34458 Y16.22520
G01 X31.35596 Y16.24278
G01 X31.36914 Y16.25904
G01 X31.48105 Y16.38332
G01 X31.49586 Y16.39813
G01 X31.51212 Y16.41131
G01 X31.64742 Y16.50961
G01 X31.66498 Y16.52101
G01 X31.68364 Y16.53051
G01 X31.83643 Y16.59853
G01 X31.85596 Y16.60605
G01 X31.87620 Y16.61146
G01 X32.03978 Y16.64624
G01 X32.06045 Y16.64951
G01 X32.08136 Y16.65060
G01 X32.24862 Y16.65060
G01 X32.26952 Y16.64951
G01 X32.29020 Y16.64624
G01 X32.45377 Y16.61146
G01 X32.47402 Y16.60605
G01 X32.49355 Y16.59853
G01 X32.64633 Y16.53051
G01 X32.66500 Y16.52101
G01 X32.68255 Y16.50961
G01 X32.81786 Y16.41131
G01 X32.83411 Y16.39813
G01 X32.84892 Y16.38332
G01 X32.96083 Y16.25904
G01 X32.97402 Y16.24278
G01 X32.98539 Y16.22520
G01 X33.06904 Y16.08037
G01 X33.07854 Y16.06173
G01 X33.08603 Y16.04217
G01 X33.13772 Y15.88312
G01 X33.14313 Y15.86290
G01 X33.14641 Y15.84222
G01 X33.16388 Y15.67590
G01 X33.16500 Y15.65500
G01 X33.16388 Y15.63407
G01 X33.14641 Y15.46775
G01 X33.14313 Y15.44708
G01 X33.13772 Y15.42686
G01 X33.08603 Y15.26780
G01 X33.07854 Y15.24824
G01 X33.06904 Y15.22960
G01 X32.98539 Y15.08477
G01 X32.97402 Y15.06719
G01 X32.96083 Y15.05094
G01 X32.84892 Y14.92666
G01 X32.83411 Y14.91185
G01 X32.81786 Y14.89866
G01 X32.68255 Y14.80037
G01 X32.66500 Y14.78896
G01 X32.64633 Y14.77946
G01 X32.49355 Y14.71144
G01 X32.47402 Y14.70392
G01 X32.45377 Y14.69851
G01 X32.29020 Y14.66374
G01 X32.26952 Y14.66046
G01 X32.24862 Y14.65937
G01 X32.08136 Y14.65937
G01 X32.06045 Y14.66046
G01 X32.03978 Y14.66374
G01 X31.99619 Y14.67301
G01 X31.99284 Y14.68167
G01 X31.99619 Y14.67301
G01 X30.66958 Y13.34639
G01 X30.65502 Y13.33321
G01 X30.59820 Y13.28658
G01 X30.56561 Y13.26481
G01 X30.50077 Y13.23014
G01 X30.48304 Y13.22176
G01 X30.46455 Y13.21515
G01 X30.39419 Y13.19379
G01 X30.35576 Y13.18615
G01 X30.28258 Y13.17896
G01 X30.26300 Y13.17799
G01 X29.18698 Y13.17799
G01 X29.16737 Y13.17896
G01 X29.09419 Y13.18615
G01 X29.05576 Y13.19379
G01 X28.98540 Y13.21515
G01 X28.96691 Y13.22176
G01 X28.94918 Y13.23014
G01 X28.88434 Y13.26481
G01 X28.85175 Y13.28658
G01 X28.79493 Y13.33321
G01 X28.78037 Y13.34639
G01 X28.00181 Y14.12498
G01 X28.00496 Y14.13257
G01 X28.00181 Y14.12498
G01 X23.53797 Y14.12498
G01 X23.49463 Y14.14162
G01 X23.49220 Y14.14248
G01 X23.44569 Y14.15762
G01 X23.44312 Y14.15838
G01 X23.23408 Y14.21441
G01 X23.23157 Y14.21500
G01 X23.19908 Y14.22193
G01 X23.19649 Y14.22241
G01 X23.18031 Y14.22498
G01 X23.16479 Y14.12617
G01 X23.17264 Y14.12363
G01 X23.18239 Y14.11987
G01 X23.19171 Y14.11513
G01 X23.37276 Y14.01060
G01 X23.38155 Y14.00491
G01 X23.38968 Y13.99831
G01 X23.54505 Y13.85843
G01 X23.55244 Y13.85104
G01 X23.55902 Y13.84289
G01 X23.68191 Y13.67377
G01 X23.68762 Y13.66499
G01 X23.69237 Y13.65566
G01 X23.77739 Y13.46468
G01 X23.78115 Y13.45490
G01 X23.78386 Y13.44479
G01 X23.82732 Y13.24030
G01 X23.82897 Y13.22996
G01 X23.82951 Y13.21952
G01 X23.82951 Y13.01045
G01 X23.82897 Y13.00001
G01 X23.82732 Y12.98968
G01 X23.78386 Y12.78518
G01 X23.78115 Y12.77507
G01 X23.77739 Y12.76529
G01 X23.69237 Y12.57431
G01 X23.68762 Y12.56499
G01 X23.68191 Y12.55620
G01 X23.55902 Y12.38709
G01 X23.55244 Y12.37893
G01 X23.54505 Y12.37154
G01 X23.38968 Y12.23166
G01 X23.38155 Y12.22506
G01 X23.37276 Y12.21937
G01 X23.19171 Y12.11485
G01 X23.18239 Y12.11010
G01 X23.17264 Y12.10634
G01 X22.97381 Y12.04172
G01 X22.96370 Y12.03903
G01 X22.95336 Y12.03738
G01 X22.74544 Y12.01554
G01 X22.73500 Y12.01498
G01 X20.73497 Y12.01498
G01 X20.72454 Y12.01554
G01 X20.51661 Y12.03738
G01 X20.50627 Y12.03903
G01 X20.49616 Y12.04172
G01 X20.29736 Y12.10634
G01 X20.28758 Y12.11010
G01 X20.27826 Y12.11485
G01 X20.09721 Y12.21937
G01 X20.08842 Y12.22506
G01 X20.08029 Y12.23166
G01 X19.92492 Y12.37154
G01 X19.91753 Y12.37893
G01 X19.91095 Y12.38709
G01 X19.78806 Y12.55620
G01 X19.78235 Y12.56499
G01 X19.77760 Y12.57431
G01 X19.69258 Y12.76529
G01 X19.68882 Y12.77507
G01 X19.68611 Y12.78518
G01 X19.64265 Y12.98968
G01 X19.64102 Y13.00001
G01 X19.64046 Y13.01045
G01 X19.54046 Y13.01045
G01 X19.64046 Y13.01045
G01 X19.64046 Y13.21952
G01 X19.64102 Y13.22996
G01 X19.64265 Y13.24030
G01 X19.68611 Y13.44479
G01 X19.68882 Y13.45490
G01 X19.69258 Y13.46468
G01 X19.77760 Y13.65566
G01 X19.78235 Y13.66499
G01 X19.78806 Y13.67377
G01 X19.91095 Y13.84289
G01 X19.91753 Y13.85104
G01 X19.92492 Y13.85843
G01 X20.08029 Y13.99831
G01 X20.08842 Y14.00491
G01 X20.09721 Y14.01060
G01 X20.27826 Y14.11513
G01 X20.28758 Y14.11987
G01 X20.29736 Y14.12363
G01 X20.49616 Y14.18825
G01 X20.50627 Y14.19094
G01 X20.51661 Y14.19260
G01 X20.72454 Y14.21444
G01 X20.73497 Y14.21500
G01 X22.73500 Y14.21500
G01 X22.74544 Y14.21444
G01 X22.95336 Y14.19260
G01 X22.96370 Y14.19094
G01 X22.97381 Y14.18825
G01 X23.16479 Y14.12617
G01 X23.17952 Y14.12386
G01 X23.20944 Y14.11749
G01 X23.41597 Y14.06214
G01 X23.45999 Y14.04779
G01 X23.50218 Y14.03161
G01 X23.61196 Y13.93275
G01 X23.62676 Y13.91794
G01 X23.63995 Y13.90166
G01 X23.76281 Y13.73255
G01 X23.77421 Y13.71500
G01 X23.78371 Y13.69633
G01 X23.86875 Y13.50535
G01 X23.87624 Y13.48581
G01 X23.88168 Y13.46560
G01 X23.92514 Y13.26110
G01 X23.92842 Y13.24043
G01 X23.92951 Y13.21952
G01 X23.92951 Y13.01045
G01 X23.92842 Y12.98955
G01 X23.92514 Y12.96887
G01 X23.88168 Y12.76438
G01 X23.87624 Y12.74416
G01 X23.86875 Y12.72463
G01 X23.78371 Y12.53364
G01 X23.77421 Y12.51498
G01 X23.76281 Y12.49742
G01 X23.63995 Y12.32831
G01 X23.62676 Y12.31203
G01 X23.61196 Y12.29722
G01 X23.45661 Y12.15734
G01 X23.44033 Y12.14416
G01 X23.42278 Y12.13276
G01 X23.24173 Y12.02824
G01 X23.22308 Y12.01874
G01 X23.20352 Y12.01124
G01 X23.00469 Y11.94663
G01 X22.98447 Y11.94122
G01 X22.96380 Y11.93794
G01 X22.75590 Y11.91609
G01 X22.73500 Y11.91498
G01 X20.73497 Y11.91498
G01 X20.71407 Y11.91609
G01 X20.50617 Y11.93794
G01 X20.48550 Y11.94122
G01 X20.46528 Y11.94663
G01 X20.26645 Y12.01124
G01 X20.24691 Y12.01874
G01 X20.22824 Y12.02824
G01 X20.04719 Y12.13276
G01 X20.02964 Y12.14416
G01 X20.01339 Y12.15734
G01 X19.85801 Y12.29722
G01 X19.84321 Y12.31203
G01 X19.83005 Y12.32831
G01 X19.70716 Y12.49742
G01 X19.69576 Y12.51498
G01 X19.68626 Y12.53364
G01 X19.60122 Y12.72463
G01 X19.59373 Y12.74416
G01 X19.58829 Y12.76438
G01 X19.54483 Y12.96887
G01 X19.54156 Y12.98955
G01 X19.54046 Y13.01045
G01 X19.54046 Y13.21952
G01 X19.54156 Y13.24043
G01 X19.54483 Y13.26110
G01 X19.58829 Y13.46560
G01 X19.59373 Y13.48581
G01 X19.60122 Y13.50535
G01 X19.68626 Y13.69633
G01 X19.69576 Y13.71500
G01 X19.70716 Y13.73255
G01 X19.83005 Y13.90166
G01 X19.84321 Y13.91794
G01 X19.85801 Y13.93275
G01 X19.96782 Y14.03161
G01 X20.00998 Y14.04779
G01 X20.05398 Y14.06214
G01 X20.26050 Y14.11749
G01 X20.29042 Y14.12386
G01 X20.30521 Y14.12620
G01 X20.49616 Y14.18825
G04 P0 ( dwell for no time -- G64 should not smooth over this point )
G00 Z5.00000 ( retract )

G00 X19.54046 Y7.93045 ( rapid move to begin. )
G01 F60.00000
( Mill infeed pass 1/1 )
G01 Z-0.10000
G04 P0 ( dwell for no time -- G64 should not smooth over this point )
G01 F120.00000
G01 X19.54046 Y7.93045
G01 X19.54156 Y7.90955
G01 X19.54483 Y7.88887
G01 X19.58829 Y7.68438
G01 X19.59373 Y7.66416
G01 X19.60122 Y7.64463
G01 X19.68626 Y7.45364
G01 X19.69576 Y7.43498
G01 X19.70716 Y7.41742
G01 X19.83005 Y7.24831
G01 X19.84321 Y7.23203
G01 X19.85801 Y7.21722
G01 X20.01339 Y7.07734
G01 X20.02964 Y7.06416
G01 X20.04719 Y7.05276
G01 X20.22824 Y6.94824
G01 X20.24691 Y6.93874
G01 X20.26645 Y6.93124
G01 X20.46528 Y6.86663
G01 X20.48550 Y6.86122
G01 X20.50617 Y6.85794
G01 X20.71407 Y6.83609
G01 X20.73497 Y6.83498
G01 X22.73500 Y6.83498
G01 X22.75590 Y6.83609
G01 X22.96380 Y6.85794
G01 X22.98447 Y6.86122
G01 X23.00469 Y6.86663
G01 X23.20352 Y6.93124
G01 X23.22308 Y6.93874
G01 X23.24173 Y6.94824
G01 X23.42278 Y7.05276
G01 X23.44033 Y7.06416
G01 X23.45661 Y7.07734
G01 X23.61196 Y7.21722
G01 X23.62676 Y7.23203
G01 X23.63995 Y7.24831
G01 X23.76281 Y7.41742
G01 X23.77421 Y7.43498
G01 X23.78371 Y7.45364
G01 X23.78656 Y7.45999
G01 X23.78069 Y7.47125
G01 X23.78656 Y7.45999
G01 X24.48498 Y7.45999
G01 X24.50456 Y7.46096
G01 X24.57774 Y7.46815
G01 X24.61617 Y7.47579
G01 X24.68653 Y7.49716
G01 X24.72275 Y7.51214
G01 X24.78760 Y7.54681
G01 X24.82018 Y7.56858
G01 X24.87700 Y7.61521
G01 X24.89156 Y7.62840
G01 X28.37613 Y11.11297
G01 X28.37298 Y11.12057
G01 X28.37613 Y11.11297
G01 X30.73798 Y11.11297
G01 X30.75756 Y11.11394
G01 X30.83074 Y11.12113
G01 X30.86917 Y11.12877
G01 X30.93953 Y11.15013
G01 X30.95802 Y11.15674
G01 X30.97575 Y11.16512
G01 X31.04059 Y11.19979
G01 X31.07318 Y11.22156
G01 X31.13000 Y11.26819
G01 X31.14456 Y11.28137
G01 X34.53619 Y14.67301
G01 X34.53284 Y14.68165
G01 X34.53619 Y14.67301
G01 X34.57978 Y14.66374
G01 X34.60045 Y14.66046
G01 X34.62136 Y14.65937
G01 X34.78862 Y14.65937
G01 X34.80952 Y14.66046
G01 X34.83020 Y14.66374
G01 X34.99377 Y14.69851
G01 X35.01402 Y14.70392
G01 X35.03355 Y14.71144
G01 X35.18633 Y14.77946
G01 X35.20500 Y14.78896
G01 X35.22255 Y14.80037
G01 X35.35786 Y14.89866
G01 X35.37411 Y14.91185
G01 X35.38892 Y14.92666
G01 X35.50083 Y15.05094
G01 X35.51402 Y15.06719
G01 X35.52539 Y15.08477
G01 X35.60904 Y15.22960
G01 X35.61854 Y15.24824
G01 X35.62603 Y15.26780
G01 X35.67772 Y15.42686
G01 X35.68313 Y15.44708
G01 X35.68641 Y15.46775
G01 X35.70388 Y15.63407
G01 X35.70500 Y15.65500
G01 X35.70388 Y15.67590
G01 X35.68641 Y15.84222
G01 X35.68313 Y15.86290
G01 X35.67772 Y15.88312
G01 X35.62603 Y16.04217
G01 X35.61854 Y16.06173
G01 X35.60904 Y16.08037
G01 X35.52539 Y16.22520
G01 X35.51402 Y16.24278
G01 X35.50083 Y16.25904
G01 X35.38892 Y16.38332
G01 X35.37411 Y16.39813
G01 X35.35786 Y16.41131
G01 X35.22255 Y16.50961
G01 X35.20500 Y16.52101
G01 X35.18633 Y16.53051
G01 X35.03355 Y16.59853
G01 X35.01402 Y16.60605
G01 X34.99377 Y16.61146
G01 X34.83020 Y16.64624
G01 X34.80952 Y16.64951
G01 X34.78862 Y16.65060
G01 X34.62136 Y16.65060
G01 X34.60045 Y16.64951
G01 X34.57978 Y16.64624
G01 X34.41620 Y16.61146
G01 X34.39596 Y16.60605
G01 X34.37643 Y16.59853
G01 X34.22364 Y16.53051
G01 X34.20498 Y16.52101
G01 X34.18742 Y16.50961
G01 X34.05212 Y16.41131
G01 X34.03586 Y16.39813
G01 X34.02105 Y16.38332
G01 X33.90914 Y16.25904
G01 X33.89596 Y16.24278
G01 X33.88458 Y16.22520
G01 X33.80094 Y16.08037
G01 X33.79144 Y16.06173
G01 X33.78395 Y16.04217
G01 X33.73226 Y15.88312
G01 X33.72685 Y15.86290
G01 X33.72357 Y15.84222
G01 X33.70609 Y15.67590
G01 X33.70498 Y15.65500
G01 X33.70609 Y15.63407
G01 X33.72177 Y15.48492
G01 X33.73177 Y15.48134
G01 X33.72177 Y15.48492
G01 X30.49980 Y12.26296
G01 X30.50295 Y12.25536
G01 X30.49980 Y12.26296
G01 X28.13798 Y12.26296
G01 X28.11837 Y12.26199
G01 X28.04520 Y12.25480
G01 X28.00677 Y12.24716
G01 X27.93641 Y12.22580
G01 X27.90019 Y12.21081
G01 X27.83534 Y12.17614
G01 X27.80275 Y12.15437
G01 X27.74593 Y12.10774
G01 X27.73138 Y12.09456
G01 X24.24680 Y8.60998
G01 X24.24995 Y8.60239
G01 X24.24680 Y8.60998
G01 X23.78656 Y8.60998
G01 X23.78066 Y8.59870
G01 X23.78656 Y8.60998
G01 X23.78371 Y8.61633
G01 X23.77421 Y8.63500
G01 X23.76281 Y8.65255
G01 X23.63995 Y8.82166
G01 X23.62676 Y8.83794
G01 X23.61196 Y8.85275
G01 X23.45661 Y8.99263
G01 X23.44033 Y9.00581
G01 X23.42278 Y9.01722
G01 X23.24173 Y9.12174
G01 X23.22308 Y9.13124
G01 X23.20352 Y9.13873
G01 X23.00469 Y9.20335
G01 X22.98447 Y9.20876
G01 X22.96380 Y9.21204
G01 X22.75590 Y9.23388
G01 X22.73500 Y9.23500
G01 X20.73497 Y9.23500
G01 X20.71407 Y9.23388
G01 X20.50617 Y9.21204
G01 X20.48550 Y9.20876
G01 X20.46528 Y9.20335
G01 X20.26645 Y9.13873
G01 X20.24691 Y9.13124
G01 X20.22824 Y9.12174
G01 X20.04719 Y9.01722
G01 X20.02964 Y9.00581
G01 X20.01339 Y8.99263
G01 X19.85801 Y8.85275
G01 X19.84321 Y8.83794
G01 X19.83005 Y8.82166
G01 X19.70716 Y8.65255
G01 X19.69576 Y8.63500
G01 X19.68626 Y8.61633
G01 X19.60122 Y8.42535
G01 X19.59373 Y8.40581
G01 X19.58829 Y8.38560
G01 X19.54483 Y8.18110
G01 X19.54156 Y8.16043
G01 X19.54046 Y8.13952
G01 X19.54046 Y7.93045
G01 X19.64046 Y7.93045
G01 X19.64046 Y8.13952
G01 X19.64102 Y8.14996
G01 X19.64265 Y8.16030
G01 X19.68611 Y8.36479
G01 X19.68882 Y8.37490
G01 X19.69258 Y8.38468
G01 X19.77760 Y8.57566
G01 X19.78235 Y8.58499
G01 X19.78806 Y8.59377
G01 X19.91095 Y8.76289
G01 X19.91753 Y8.77104
G01 X19.92492 Y8.77843
G01 X20.08029 Y8.91831
G01 X20.08842 Y8.92491
G01 X20.09721 Y8.93060
G01 X20.27826 Y9.03513
G01 X20.28758 Y9.03987
G01 X20.29736 Y9.04363
G01 X20.49616 Y9.10825
G01 X20.50627 Y9.11094
G01 X20.51661 Y9.11260
G01 X20.72454 Y9.13444
G01 X20.73497 Y9.13500
G01 X22.73500 Y9.13500
G01 X22.74544 Y9.13444
G01 X22.95336 Y9.11260
G01 X22.96370 Y9.11094
G01 X22.97381 Y9.10825
G01 X23.17264 Y9.04363
G01 X23.18239 Y9.03987
G01 X23.19171 Y9.03513
G01 X23.37276 Y8.93060
G01 X23.38155 Y8.92491
G01 X23.38968 Y8.91831
G01 X23.54505 Y8.77843
G01 X23.55244 Y8.77104
G01 X23.55902 Y8.76289
G01 X23.68191 Y8.59377
G01 X23.68762 Y8.58499
G01 X23.69237 Y8.57566
G01 X23.72161 Y8.50998
G01 X24.28821 Y8.50998
G01 X27.80209 Y12.02384
G01 X27.80936 Y12.03042
G01 X27.86620 Y12.07708
G01 X27.88248 Y12.08795
G01 X27.94733 Y12.12262
G01 X27.96544 Y12.13012
G01 X28.03577 Y12.15145
G01 X28.05500 Y12.15529
G01 X28.12818 Y12.16247
G01 X28.13798 Y12.16296
G01 X30.54120 Y12.16296
G01 X33.82949 Y15.45124
G01 X33.82735 Y15.45774
G01 X33.82466 Y15.46788
G01 X33.82301 Y15.47822
G01 X33.80554 Y15.64454
G01 X33.80498 Y15.65500
G01 X33.80554 Y15.66544
G01 X33.82301 Y15.83176
G01 X33.82466 Y15.84210
G01 X33.82735 Y15.85223
G01 X33.87904 Y16.01129
G01 X33.88280 Y16.02104
G01 X33.88755 Y16.03039
G01 X33.97117 Y16.17522
G01 X33.97688 Y16.18401
G01 X33.98346 Y16.19213
G01 X34.09537 Y16.31642
G01 X34.10277 Y16.32381
G01 X34.11089 Y16.33041
G01 X34.24620 Y16.42871
G01 X34.25499 Y16.43440
G01 X34.26431 Y16.43917
G01 X34.41709 Y16.50720
G01 X34.42687 Y16.51093
G01 X34.43698 Y16.51365
G01 X34.60058 Y16.54842
G01 X34.61092 Y16.55005
G01 X34.62136 Y16.55060
G01 X34.78862 Y16.55060
G01 X34.79906 Y16.55005
G01 X34.80939 Y16.54842
G01 X34.97300 Y16.51365
G01 X34.98310 Y16.51093
G01 X34.99288 Y16.50720
G01 X35.14566 Y16.43917
G01 X35.15499 Y16.43440
G01 X35.16377 Y16.42871
G01 X35.29908 Y16.33041
G01 X35.30721 Y16.32381
G01 X35.31460 Y16.31642
G01 X35.42651 Y16.19213
G01 X35.43309 Y16.18401
G01 X35.43881 Y16.17522
G01 X35.52242 Y16.03039
G01 X35.52717 Y16.02104
G01 X35.53093 Y16.01129
G01 X35.58262 Y15.85223
G01 X35.58531 Y15.84210
G01 X35.58696 Y15.83176
G01 X35.60444 Y15.66544
G01 X35.60500 Y15.65500
G01 X35.60444 Y15.64454
G01 X35.58696 Y15.47822
G01 X35.58531 Y15.46788
G01 X35.58262 Y15.45774
G01 X35.53093 Y15.29869
G01 X35.52717 Y15.28894
G01 X35.52242 Y15.27959
G01 X35.43881 Y15.13476
G01 X35.43309 Y15.12597
G01 X35.42651 Y15.11784
G01 X35.31460 Y14.99356
G01 X35.30721 Y14.98617
G01 X35.29908 Y14.97956
G01 X35.16377 Y14.88127
G01 X35.15499 Y14.87558
G01 X35.14566 Y14.87080
G01 X34.99288 Y14.80278
G01 X34.98310 Y14.79905
G01 X34.97300 Y14.79633
G01 X34.80939 Y14.76156
G01 X34.79906 Y14.75993
G01 X34.78862 Y14.75937
G01 X34.62136 Y14.75937
G01 X34.61092 Y14.75993
G01 X34.60058 Y14.76156
G01 X34.50386 Y14.78210
G01 X31.07384 Y11.35209
G01 X31.06658 Y11.34551
G01 X31.00973 Y11.29887
G01 X30.99345 Y11.28798
G01 X30.92860 Y11.25331
G01 X30.91974 Y11.24912
G01 X30.91049 Y11.24581
G01 X30.84016 Y11.22448
G01 X30.82093 Y11.22064
G01 X30.74776 Y11.21345
G01 X30.73798 Y11.21297
G01 X28.33473 Y11.21297
G01 X24.82084 Y7.69911
G01 X24.81358 Y7.69253
G01 X24.75673 Y7.64587
G01 X24.74045 Y7.63500
G01 X24.67561 Y7.60033
G01 X24.65750 Y7.59284
G01 X24.58716 Y7.57150
G01 X24.56794 Y7.56767
G01 X24.49476 Y7.56048
G01 X24.48498 Y7.55999
G01 X23.72161 Y7.55999
G01 X23.69237 Y7.49431
G01 X23.68762 Y7.48499
G01 X23.68191 Y7.47620
G01 X23.55902 Y7.30709
G01 X23.55244 Y7.29893
G01 X23.54505 Y7.29154
G01 X23.38968 Y7.15166
G01 X23.38155 Y7.14506
G01 X23.37276 Y7.13937
G01 X23.19171 Y7.03485
G01 X23.18239 Y7.03010
G01 X23.17264 Y7.02634
G01 X22.97381 Y6.96172
G01 X22.96370 Y6.95903
G01 X22.95336 Y6.95738
G01 X22.74544 Y6.93554
G01 X22.73500 Y6.93498
G01 X20.73497 Y6.93498
G01 X20.72454 Y6.93554
G01 X20.51661 Y6.95738
G01 X20.50627 Y6.95903
G01 X20.49616 Y6.96172
G01 X20.29736 Y7.02634
G01 X20.28758 Y7.03010
G01 X20.27826 Y7.03485
G01 X20.09721 Y7.13937
G01 X20.08842 Y7.14506
G01 X20.08029 Y7.15166
G01 X19.92492 Y7.29154
G01 X19.91753 Y7.29893
G01 X19.91095 Y7.30709
G01 X19.78806 Y7.47620
G01 X19.78235 Y7.48499
G01 X19.77760 Y7.49431
G01 X19.69258 Y7.68529
G01 X19.68882 Y7.69507
G01 X19.68611 Y7.70518
G01 X19.64265 Y7.90968
G01 X19.64102 Y7.92001
G01 X19.64046 Y7.93045
G04 P0 ( dwell for no time -- G64 should not smooth over this point )
G00 Z5.00000 ( retract )

G00 X28.62498 Y8.03500 ( rapid move to begin. )
G01 F60.00000
( Mill infeed pass 1/1 )
G01 Z-0.10000
G04 P0 ( dwell for no time -- G64 should not smooth over this point )
G01 F120.00000
G01 X28.62498 Y8.03500
G01 X28.62609 Y8.05590
G01 X28.64357 Y8.22222
G01 X28.64685 Y8.24290
G01 X28.65226 Y8.26312
G01 X28.70395 Y8.42217
G01 X28.71144 Y8.44173
G01 X28.72094 Y8.46037
G01 X28.80458 Y8.60520
G01 X28.81596 Y8.62278
G01 X28.82914 Y8.63904
G01 X28.94105 Y8.76332
G01 X28.95586 Y8.77813
G01 X28.97212 Y8.79131
G01 X29.10742 Y8.88961
G01 X29.12498 Y8.90101
G01 X29.14364 Y8.91051
G01 X29.14733 Y8.91216
G01 X29.29889 Y8.94437
G01 X29.34077 Y8.95103
G01 X29.50539 Y8.96832
G01 X29.54268 Y8.97028
G01 X29.70727 Y8.97028
G01 X29.74456 Y8.96832
G01 X29.90918 Y8.95103
G01 X29.95106 Y8.94437
G01 X30.10267 Y8.91214
G01 X30.10633 Y8.91051
G01 X30.12500 Y8.90101
G01 X30.14255 Y8.88961
G01 X30.27786 Y8.79131
G01 X30.29411 Y8.77813
G01 X30.30892 Y8.76332
G01 X30.42083 Y8.63904
G01 X30.43402 Y8.62278
G01 X30.44539 Y8.60520
G01 X30.52904 Y8.46037
G01 X30.53854 Y8.44173
G01 X30.54603 Y8.42217
G01 X30.59772 Y8.26312
G01 X30.60313 Y8.24290
G01 X30.60641 Y8.22222
G01 X30.62388 Y8.05590
G01 X30.62500 Y8.03500
G01 X30.62388 Y8.01407
G01 X30.60821 Y7.86492
G01 X30.59820 Y7.86134
G01 X30.60821 Y7.86492
G01 X31.61313 Y6.85997
G01 X31.60998 Y6.85238
G01 X31.61313 Y6.85997
G01 X41.63994 Y6.85997
G01 X41.64746 Y6.85433
G01 X41.65345 Y6.85050
G01 X41.65990 Y6.84752
G01 X41.75365 Y6.81237
G01 X41.75927 Y6.81064
G01 X41.75901 Y6.80975
G01 X41.75927 Y6.81064
G01 X41.76501 Y6.80958
G01 X41.85876 Y6.79784
G01 X41.86496 Y6.79726
G01 X45.86497 Y6.79746
G01 X45.87120 Y6.79784
G01 X45.96495 Y6.80958
G01 X45.97069 Y6.81064
G01 X45.97094 Y6.80975
G01 X45.97069 Y6.81064
G01 X45.97630 Y6.81237
G01 X46.07005 Y6.84752
G01 X46.07650 Y6.85050
G01 X46.08250 Y6.85433
G01 X46.09002 Y6.85997
G01 X46.78999 Y6.85997
G01 X46.81928 Y6.83068
G01 X46.78999 Y6.85997
G01 X46.78999 Y6.98766
G01 X46.80320 Y6.99523
G01 X46.78999 Y6.98766
G01 X46.67721 Y7.05276
G01 X46.65964 Y7.06416
G01 X46.64338 Y7.07734
G01 X46.48801 Y7.21722
G01 X46.47320 Y7.23203
G01 X46.46004 Y7.24831
G01 X46.33716 Y7.41742
G01 X46.32575 Y7.43498
G01 X46.31625 Y7.45364
G01 X46.23122 Y7.64463
G01 X46.22372 Y7.66416
G01 X46.21831 Y7.68438
G01 X46.17483 Y7.88887
G01 X46.17155 Y7.90955
G01 X46.17046 Y7.93045
G01 X46.17046 Y8.13952
G01 X46.17155 Y8.16043
G01 X46.17483 Y8.18110
G01 X46.21831 Y8.38560
G01 X46.22372 Y8.40581
G01 X46.23122 Y8.42535
G01 X46.31625 Y8.61633
G01 X46.32575 Y8.63500
G01 X46.33716 Y8.65255
G01 X46.46004 Y8.82166
G01 X46.47320 Y8.83794
G01 X46.48801 Y8.85275
G01 X46.64338 Y8.99263
G01 X46.65964 Y9.00581
G01 X46.67721 Y9.01722
G01 X46.85824 Y9.12174
G01 X46.87691 Y9.13124
G01 X46.89644 Y9.13873
G01 X47.09527 Y9.20335
G01 X47.11549 Y9.20876
G01 X47.13617 Y9.21204
G01 X47.34409 Y9.23388
G01 X47.36500 Y9.23500
G01 X49.36499 Y9.23500
G01 X49.38590 Y9.23388
G01 X49.59379 Y9.21204
G01 X49.61447 Y9.20876
G01 X49.63471 Y9.20335
G01 X49.83352 Y9.13873
G01 X49.85308 Y9.13124
G01 X49.87172 Y9.12174
G01 X50.05277 Y9.01722
G01 X50.07032 Y9.00581
G01 X50.08661 Y8.99263
G01 X50.24195 Y8.85275
G01 X50.25676 Y8.83794
G01 X50.26994 Y8.82166
G01 X50.39283 Y8.65255
G01 X50.40421 Y8.63500
G01 X50.41373 Y8.61633
G01 X50.49875 Y8.42535
G01 X50.50626 Y8.40581
G01 X50.51167 Y8.38560
G01 X50.55513 Y8.18110
G01 X50.55841 Y8.16043
G01 X50.55950 Y8.13952
G01 X50.55950 Y7.93045
G01 X50.55841 Y7.90955
G01 X50.55513 Y7.88887
G01 X50.51167 Y7.68438
G01 X50.50626 Y7.66416
G01 X50.49875 Y7.64463
G01 X50.41373 Y7.45364
G01 X50.40421 Y7.43498
G01 X50.39283 Y7.41742
G01 X50.26994 Y7.24831
G01 X50.25676 Y7.23203
G01 X50.24195 Y7.21722
G01 X50.08661 Y7.07734
G01 X50.07032 Y7.06416
G01 X50.05277 Y7.05276
G01 X49.87172 Y6.94824
G01 X49.85308 Y6.93874
G01 X49.83352 Y6.93124
G01 X49.63471 Y6.86663
G01 X49.61447 Y6.86122
G01 X49.59379 Y6.85794
G01 X49.38590 Y6.83609
G01 X49.36499 Y6.83498
G01 X47.93997 Y6.83498
G01 X47.91079 Y6.86421
G01 X47.93997 Y6.83498
G01 X47.93997 Y6.28499
G01 X47.93901 Y6.26538
G01 X47.93182 Y6.19220
G01 X47.92418 Y6.15377
G01 X47.90281 Y6.08342
G01 X47.89621 Y6.06493
G01 X47.88783 Y6.04720
G01 X47.85316 Y5.98235
G01 X47.83139 Y5.94976
G01 X47.78476 Y5.89294
G01 X47.77157 Y5.87839
G01 X47.75702 Y5.86521
G01 X47.70020 Y5.81857
G01 X47.66761 Y5.79680
G01 X47.60276 Y5.76213
G01 X47.58504 Y5.75375
G01 X47.56654 Y5.74715
G01 X47.49619 Y5.72578
G01 X47.45776 Y5.71814
G01 X47.38458 Y5.71095
G01 X47.36500 Y5.70999
G01 X31.37498 Y5.70999
G01 X31.35929 Y5.71060
G01 X31.30061 Y5.71522
G01 X31.26962 Y5.72012
G01 X31.21240 Y5.73386
G01 X31.18255 Y5.74356
G01 X31.12820 Y5.76607
G01 X31.10023 Y5.78032
G01 X31.05004 Y5.81108
G01 X31.02467 Y5.82952
G01 X30.97991 Y5.86775
G01 X30.96838 Y5.87839
G01 X29.79378 Y7.05301
G01 X29.79714 Y7.06167
G01 X29.79378 Y7.05301
G01 X29.75020 Y7.04374
G01 X29.72952 Y7.04046
G01 X29.70862 Y7.03937
G01 X29.54136 Y7.03937
G01 X29.52045 Y7.04046
G01 X29.49978 Y7.04374
G01 X29.33620 Y7.07851
G01 X29.31596 Y7.08392
G01 X29.29643 Y7.09144
G01 X29.14364 Y7.15946
G01 X29.12498 Y7.16896
G01 X29.10742 Y7.18037
G01 X28.97212 Y7.27866
G01 X28.95586 Y7.29185
G01 X28.94105 Y7.30666
G01 X28.82914 Y7.43094
G01 X28.81596 Y7.44719
G01 X28.80458 Y7.46477
G01 X28.72094 Y7.60960
G01 X28.71144 Y7.62824
G01 X28.70395 Y7.64780
G01 X28.65226 Y7.80686
G01 X28.64685 Y7.82708
G01 X28.64357 Y7.84775
G01 X28.62609 Y8.01407
G01 X28.62498 Y8.03500
G01 X28.72498 Y8.03500
G01 X28.72554 Y8.02454
G01 X28.74301 Y7.85822
G01 X28.74466 Y7.84788
G01 X28.74735 Y7.83774
G01 X28.79904 Y7.67869
G01 X28.80280 Y7.66894
G01 X28.80755 Y7.65959
G01 X28.89117 Y7.51476
G01 X28.89688 Y7.50597
G01 X28.90346 Y7.49784
G01 X29.01537 Y7.37356
G01 X29.02277 Y7.36617
G01 X29.03089 Y7.35956
G01 X29.16620 Y7.26127
G01 X29.17499 Y7.25558
G01 X29.18431 Y7.25080
G01 X29.33709 Y7.18278
G01 X29.34687 Y7.17905
G01 X29.35698 Y7.17633
G01 X29.52058 Y7.14156
G01 X29.53092 Y7.13993
G01 X29.54136 Y7.13937
G01 X29.70862 Y7.13937
G01 X29.71906 Y7.13993
G01 X29.72939 Y7.14156
G01 X29.82612 Y7.16210
G01 X31.03909 Y5.94910
G01 X31.04486 Y5.94377
G01 X31.08961 Y5.90557
G01 X31.10229 Y5.89635
G01 X31.15248 Y5.86559
G01 X31.16645 Y5.85847
G01 X31.22083 Y5.83594
G01 X31.23574 Y5.83109
G01 X31.29297 Y5.81735
G01 X31.30846 Y5.81491
G01 X31.36714 Y5.81029
G01 X31.37498 Y5.80999
G01 X47.36500 Y5.80999
G01 X47.37477 Y5.81047
G01 X47.44795 Y5.81766
G01 X47.46718 Y5.82149
G01 X47.53751 Y5.84283
G01 X47.54676 Y5.84613
G01 X47.55562 Y5.85032
G01 X47.62047 Y5.88499
G01 X47.63675 Y5.89589
G01 X47.69359 Y5.94252
G01 X47.70086 Y5.94910
G01 X47.70744 Y5.95637
G01 X47.75407 Y6.01321
G01 X47.76497 Y6.02949
G01 X47.79964 Y6.09434
G01 X47.80383 Y6.10320
G01 X47.80713 Y6.11245
G01 X47.82847 Y6.18278
G01 X47.83230 Y6.20201
G01 X47.83949 Y6.27519
G01 X47.83998 Y6.28499
G01 X47.83998 Y6.93498
G01 X49.36499 Y6.93498
G01 X49.37543 Y6.93554
G01 X49.58335 Y6.95738
G01 X49.59369 Y6.95903
G01 X49.60380 Y6.96172
G01 X49.80263 Y7.02634
G01 X49.81239 Y7.03010
G01 X49.82173 Y7.03485
G01 X50.00279 Y7.13937
G01 X50.01155 Y7.14506
G01 X50.01968 Y7.15166
G01 X50.17505 Y7.29154
G01 X50.18244 Y7.29893
G01 X50.18904 Y7.30709
G01 X50.31190 Y7.47620
G01 X50.31762 Y7.48499
G01 X50.32237 Y7.49431
G01 X50.40741 Y7.68529
G01 X50.41114 Y7.69507
G01 X50.41386 Y7.70518
G01 X50.45732 Y7.90968
G01 X50.45897 Y7.92001
G01 X50.45950 Y7.93045
G01 X50.45950 Y8.13952
G01 X50.45897 Y8.14996
G01 X50.45732 Y8.16030
G01 X50.41386 Y8.36479
G01 X50.41114 Y8.37490
G01 X50.40741 Y8.38468
G01 X50.32237 Y8.57566
G01 X50.31762 Y8.58499
G01 X50.31190 Y8.59377
G01 X50.18904 Y8.76289
G01 X50.18244 Y8.77104
G01 X50.17505 Y8.77843
G01 X50.01968 Y8.91831
G01 X50.01155 Y8.92491
G01 X50.00279 Y8.93060
G01 X49.82173 Y9.03513
G01 X49.81239 Y9.03987
G01 X49.80263 Y9.04363
G01 X49.60380 Y9.10825
G01 X49.59369 Y9.11094
G01 X49.58335 Y9.11260
G01 X49.37543 Y9.13444
G01 X49.36499 Y9.13500
G01 X47.36500 Y9.13500
G01 X47.35453 Y9.13444
G01 X47.14663 Y9.11260
G01 X47.13629 Y9.11094
G01 X47.12618 Y9.10825
G01 X46.92735 Y9.04363
G01 X46.91757 Y9.03987
G01 X46.90825 Y9.03513
G01 X46.72720 Y8.93060
G01 X46.71841 Y8.92491
G01 X46.71028 Y8.91831
G01 X46.55494 Y8.77843
G01 X46.54752 Y8.77104
G01 X46.54094 Y8.76289
G01 X46.41806 Y8.59377
G01 X46.41237 Y8.58499
G01 X46.40762 Y8.57566
G01 X46.32258 Y8.38468
G01 X46.31882 Y8.37490
G01 X46.31613 Y8.36479
G01 X46.27264 Y8.16030
G01 X46.27102 Y8.14996
G01 X46.27046 Y8.13952
G01 X46.27046 Y7.93045
G01 X46.27102 Y7.92001
G01 X46.27264 Y7.90968
G01 X46.31613 Y7.70518
G01 X46.31882 Y7.69507
G01 X46.32258 Y7.68529
G01 X46.40762 Y7.49431
G01 X46.41237 Y7.48499
G01 X46.41806 Y7.47620
G01 X46.54094 Y7.30709
G01 X46.54752 Y7.29893
G01 X46.55494 Y7.29154
G01 X46.71028 Y7.15166
G01 X46.71841 Y7.14506
G01 X46.72720 Y7.13937
G01 X46.88999 Y7.04539
G01 X46.88999 Y6.75997
G01 X31.57173 Y6.75997
G01 X30.50049 Y7.83122
G01 X30.50262 Y7.83774
G01 X30.50531 Y7.84788
G01 X30.50696 Y7.85822
G01 X30.52444 Y8.02454
G01 X30.52500 Y8.03500
G01 X30.52444 Y8.04544
G01 X30.50696 Y8.21176
G01 X30.50531 Y8.22210
G01 X30.50262 Y8.23223
G01 X30.45093 Y8.39129
G01 X30.44717 Y8.40104
G01 X30.44242 Y8.41039
G01 X30.35881 Y8.55522
G01 X30.35309 Y8.56401
G01 X30.34651 Y8.57213
G01 X30.23460 Y8.69642
G01 X30.22721 Y8.70381
G01 X30.21908 Y8.71041
G01 X30.08377 Y8.80871
G01 X30.07499 Y8.81440
G01 X30.06566 Y8.81917
G01 X29.91288 Y8.88720
G01 X29.90310 Y8.89093
G01 X29.89300 Y8.89365
G01 X29.72939 Y8.92842
G01 X29.71906 Y8.93005
G01 X29.70862 Y8.93060
G01 X29.54136 Y8.93060
G01 X29.53092 Y8.93005
G01 X29.52058 Y8.92842
G01 X29.35698 Y8.89365
G01 X29.34687 Y8.89093
G01 X29.33709 Y8.88720
G01 X29.18431 Y8.81917
G01 X29.17499 Y8.81440
G01 X29.16620 Y8.80871
G01 X29.03089 Y8.71041
G01 X29.02277 Y8.70381
G01 X29.01537 Y8.69642
G01 X28.90346 Y8.57213
G01 X28.89688 Y8.56401
G01 X28.89117 Y8.55522
G01 X28.80755 Y8.41039
G01 X28.80280 Y8.40104
G01 X28.79904 Y8.39129
G01 X28.74735 Y8.23223
G01 X28.74466 Y8.22210
G01 X28.74301 Y8.21176
G01 X28.72554 Y8.04544
G01 X28.72498 Y8.03500
G04 P0 ( dwell for no time -- G64 should not smooth over this point )
G00 Z5.00000 ( retract )

G00 X31.16498 Y8.03500 ( rapid move to begin. )
G01 F60.00000
( Mill infeed pass 1/1 )
G01 Z-0.10000
G04 P0 ( dwell for no time -- G64 should not smooth over this point )
G01 F120.00000
G01 X31.16498 Y8.03500
G01 X31.16609 Y8.05590
G01 X31.18357 Y8.22222
G01 X31.18685 Y8.24290
G01 X31.19226 Y8.26312
G01 X31.24395 Y8.42217
G01 X31.25144 Y8.44173
G01 X31.26094 Y8.46037
G01 X31.34458 Y8.60520
G01 X31.35596 Y8.62278
G01 X31.36914 Y8.63904
G01 X31.48105 Y8.76332
G01 X31.49586 Y8.77813
G01 X31.51212 Y8.79131
G01 X31.64742 Y8.88961
G01 X31.66498 Y8.90101
G01 X31.68364 Y8.91051
G01 X31.68730 Y8.91214
G01 X31.83889 Y8.94437
G01 X31.88077 Y8.95103
G01 X32.04539 Y8.96832
G01 X32.08265 Y8.97028
G01 X32.24730 Y8.97028
G01 X32.28456 Y8.96832
G01 X32.44918 Y8.95103
G01 X32.49106 Y8.94437
G01 X32.64270 Y8.91214
G01 X32.64633 Y8.91051
G01 X32.66500 Y8.90101
G01 X32.68255 Y8.88961
G01 X32.81786 Y8.79131
G01 X32.83411 Y8.77813
G01 X32.84892 Y8.76332
G01 X32.96083 Y8.63904
G01 X32.97402 Y8.62278
G01 X32.98539 Y8.60520
G01 X33.06904 Y8.46037
G01 X33.07854 Y8.44173
G01 X33.08603 Y8.42217
G01 X33.13772 Y8.26312
G01 X33.14313 Y8.24290
G01 X33.14641 Y8.22222
G01 X33.16388 Y8.05590
G01 X33.16500 Y8.03500
G01 X33.16388 Y8.01407
G01 X33.14641 Y7.84775
G01 X33.14313 Y7.82708
G01 X33.13772 Y7.80686
G01 X33.08603 Y7.64780
G01 X33.07854 Y7.62824
G01 X33.06904 Y7.60960
G01 X32.98539 Y7.46477
G01 X32.97402 Y7.44719
G01 X32.96083 Y7.43094
G01 X32.84892 Y7.30666
G01 X32.83411 Y7.29185
G01 X32.81786 Y7.27866
G01 X32.68255 Y7.18037
G01 X32.66500 Y7.16896
G01 X32.64633 Y7.15946
G01 X32.49355 Y7.09144
G01 X32.47402 Y7.08392
G01 X32.45377 Y7.07851
G01 X32.29020 Y7.04374
G01 X32.26952 Y7.04046
G01 X32.24862 Y7.03937
G01 X32.08136 Y7.03937
G01 X32.06045 Y7.04046
G01 X32.03978 Y7.04374
G01 X31.87620 Y7.07851
G01 X31.85596 Y7.08392
G01 X31.83643 Y7.09144
G01 X31.68364 Y7.15946
G01 X31.66498 Y7.16896
G01 X31.64742 Y7.18037
G01 X31.51212 Y7.27866
G01 X31.49586 Y7.29185
G01 X31.48105 Y7.30666
G01 X31.36914 Y7.43094
G01 X31.35596 Y7.44719
G01 X31.34458 Y7.46477
G01 X31.26094 Y7.60960
G01 X31.25144 Y7.62824
G01 X31.24395 Y7.64780
G01 X31.19226 Y7.80686
G01 X31.18685 Y7.82708
G01 X31.18357 Y7.84775
G01 X31.16609 Y8.01407
G01 X31.16498 Y8.03500
G01 X31.26498 Y8.03500
G01 X31.26554 Y8.02454
G01 X31.28301 Y7.85822
G01 X31.28466 Y7.84788
G01 X31.28735 Y7.83774
G01 X31.33904 Y7.67869
G01 X31.34280 Y7.66894
G01 X31.34755 Y7.65959
G01 X31.43117 Y7.51476
G01 X31.43688 Y7.50597
G01 X31.44346 Y7.49784
G01 X31.55537 Y7.37356
G01 X31.56277 Y7.36617
G01 X31.57089 Y7.35956
G01 X31.70620 Y7.26127
G01 X31.71499 Y7.25558
G01 X31.72431 Y7.25080
G01 X31.87709 Y7.18278
G01 X31.88687 Y7.17905
G01 X31.89698 Y7.17633
G01 X32.06058 Y7.14156
G01 X32.07092 Y7.13993
G01 X32.08136 Y7.13937
G01 X32.24862 Y7.13937
G01 X32.25906 Y7.13993
G01 X32.26939 Y7.14156
G01 X32.43300 Y7.17633
G01 X32.44310 Y7.17905
G01 X32.45288 Y7.18278
G01 X32.60566 Y7.25080
G01 X32.61499 Y7.25558
G01 X32.62377 Y7.26127
G01 X32.75908 Y7.35956
G01 X32.76721 Y7.36617
G01 X32.77460 Y7.37356
G01 X32.88651 Y7.49784
G01 X32.89309 Y7.50597
G01 X32.89881 Y7.51476
G01 X32.98242 Y7.65959
G01 X32.98717 Y7.66894
G01 X32.99093 Y7.67869
G01 X33.04262 Y7.83774
G01 X33.04531 Y7.84788
G01 X33.04696 Y7.85822
G01 X33.06444 Y8.02454
G01 X33.06500 Y8.03500
G01 X33.06444 Y8.04544
G01 X33.04696 Y8.21176
G01 X33.04531 Y8.22210
G01 X33.04262 Y8.23223
G01 X32.99093 Y8.39129
G01 X32.98717 Y8.40104
G01 X32.98242 Y8.41039
G01 X32.89881 Y8.55522
G01 X32.89309 Y8.56401
G01 X32.88651 Y8.57213
G01 X32.77460 Y8.69642
G01 X32.76721 Y8.70381
G01 X32.75908 Y8.71041
G01 X32.62377 Y8.80871
G01 X32.61499 Y8.81440
G01 X32.60566 Y8.81917
G01 X32.45288 Y8.88720
G01 X32.44310 Y8.89093
G01 X32.43300 Y8.89365
G01 X32.26939 Y8.92842
G01 X32.25906 Y8.93005
G01 X32.24862 Y8.93060
G01 X32.08136 Y8.93060
G01 X32.07092 Y8.93005
G01 X32.06058 Y8.92842
G01 X31.89698 Y8.89365
G01 X31.88687 Y8.89093
G01 X31.87709 Y8.88720
G01 X31.72431 Y8.81917
G01 X31.71499 Y8.81440
G01 X31.70620 Y8.80871
G01 X31.57089 Y8.71041
G01 X31.56277 Y8.70381
G01 X31.55537 Y8.69642
G01 X31.44346 Y8.57213
G01 X31.43688 Y8.56401
G01 X31.43117 Y8.55522
G01 X31.34755 Y8.41039
G01 X31.34280 Y8.40104
G01 X31.33904 Y8.39129
G01 X31.28735 Y8.23223
G01 X31.28466 Y8.22210
G01 X31.28301 Y8.21176
G01 X31.26554 Y8.04544
G01 X31.26498 Y8.03500
G04 P0 ( dwell for no time -- G64 should not smooth over this point )
G00 Z5.00000 ( retract )

G00 X36.24498 Y8.03500 ( rapid move to begin. )
G01 F60.00000
( Mill infeed pass 1/1 )
G01 Z-0.10000
G04 P0 ( dwell for no time -- G64 should not smooth over this point )
G01 F120.00000
G01 X36.24498 Y8.03500
G01 X36.24609 Y8.05590
G01 X36.26357 Y8.22222
G01 X36.26685 Y8.24290
G01 X36.27226 Y8.26312
G01 X36.32395 Y8.42217
G01 X36.33144 Y8.44173
G01 X36.34094 Y8.46037
G01 X36.42458 Y8.60520
G01 X36.43596 Y8.62278
G01 X36.44914 Y8.63904
G01 X36.56105 Y8.76332
G01 X36.57586 Y8.77813
G01 X36.59212 Y8.79131
G01 X36.72742 Y8.88961
G01 X36.74498 Y8.90101
G01 X36.76364 Y8.91051
G01 X36.91643 Y8.97853
G01 X36.93596 Y8.98605
G01 X36.95620 Y8.99146
G01 X37.11978 Y9.02624
G01 X37.14045 Y9.02951
G01 X37.16136 Y9.03060
G01 X37.32862 Y9.03060
G01 X37.34952 Y9.02951
G01 X37.37020 Y9.02624
G01 X37.53377 Y8.99146
G01 X37.55402 Y8.98605
G01 X37.57355 Y8.97853
G01 X37.72633 Y8.91051
G01 X37.74500 Y8.90101
G01 X37.76255 Y8.88961
G01 X37.89786 Y8.79131
G01 X37.91411 Y8.77813
G01 X37.92892 Y8.76332
G01 X38.04083 Y8.63904
G01 X38.05402 Y8.62278
G01 X38.06230 Y8.60998
G01 X38.05831 Y8.60112
G01 X38.06230 Y8.60998
G01 X41.66498 Y8.60998
G01 X41.69373 Y8.58100
G01 X41.66498 Y8.60998
G01 X41.66498 Y9.03500
G01 X41.66884 Y9.07401
G01 X41.68022 Y9.11153
G01 X41.69869 Y9.14610
G01 X41.72355 Y9.17640
G01 X41.75388 Y9.20129
G01 X41.78845 Y9.21976
G01 X41.82597 Y9.23114
G01 X41.86498 Y9.23500
G01 X45.86500 Y9.23500
G01 X45.90401 Y9.23114
G01 X45.94153 Y9.21976
G01 X45.97610 Y9.20129
G01 X46.00640 Y9.17640
G01 X46.03129 Y9.14610
G01 X46.04976 Y9.11153
G01 X46.06114 Y9.07401
G01 X46.06500 Y9.03500
G01 X46.06500 Y7.03498
G01 X46.06114 Y6.99596
G01 X46.04976 Y6.95845
G01 X46.04651 Y6.95235
G01 X46.02822 Y6.93863
G01 X45.94668 Y6.90805
G01 X45.86187 Y6.89746
G01 X41.86808 Y6.89746
G01 X41.78327 Y6.90805
G01 X41.70173 Y6.93863
G01 X41.68350 Y6.95233
G01 X41.68022 Y6.95845
G01 X41.66884 Y6.99596
G01 X41.66498 Y7.03498
G01 X41.66498 Y7.45999
G01 X41.69427 Y7.48928
G01 X41.66498 Y7.45999
G01 X38.06230 Y7.45999
G01 X38.05831 Y7.46886
G01 X38.06230 Y7.45999
G01 X38.05402 Y7.44719
G01 X38.04083 Y7.43094
G01 X37.92892 Y7.30666
G01 X37.91411 Y7.29185
G01 X37.89786 Y7.27866
G01 X37.76255 Y7.18037
G01 X37.74500 Y7.16896
G01 X37.72633 Y7.15946
G01 X37.57355 Y7.09144
G01 X37.55402 Y7.08392
G01 X37.53377 Y7.07851
G01 X37.37020 Y7.04374
G01 X37.34952 Y7.04046
G01 X37.32862 Y7.03937
G01 X37.16136 Y7.03937
G01 X37.14045 Y7.04046
G01 X37.11978 Y7.04374
G01 X36.95620 Y7.07851
G01 X36.93596 Y7.08392
G01 X36.91643 Y7.09144
G01 X36.76364 Y7.15946
G01 X36.74498 Y7.16896
G01 X36.72742 Y7.18037
G01 X36.59212 Y7.27866
G01 X36.57586 Y7.29185
G01 X36.56105 Y7.30666
G01 X36.44914 Y7.43094
G01 X36.43596 Y7.44719
G01 X36.42458 Y7.46477
G01 X36.34094 Y7.60960
G01 X36.33144 Y7.62824
G01 X36.32395 Y7.64780
G01 X36.27226 Y7.80686
G01 X36.26685 Y7.82708
G01 X36.26357 Y7.84775
G01 X36.24609 Y8.01407
G01 X36.24498 Y8.03500
G01 X36.34498 Y8.03500
G01 X36.34554 Y8.02454
G01 X36.36301 Y7.85822
G01 X36.36466 Y7.84788
G01 X36.36735 Y7.83774
G01 X36.41904 Y7.67869
G01 X36.42280 Y7.66894
G01 X36.42755 Y7.65959
G01 X36.51117 Y7.51476
G01 X36.51688 Y7.50597
G01 X36.52346 Y7.49784
G01 X36.63537 Y7.37356
G01 X36.64277 Y7.36617
G01 X36.65089 Y7.35956
G01 X36.78620 Y7.26127
G01 X36.79499 Y7.25558
G01 X36.80431 Y7.25080
G01 X36.95709 Y7.18278
G01 X36.96687 Y7.17905
G01 X36.97698 Y7.17633
G01 X37.14058 Y7.14156
G01 X37.15092 Y7.13993
G01 X37.16136 Y7.13937
G01 X37.32862 Y7.13937
G01 X37.33906 Y7.13993
G01 X37.34939 Y7.14156
G01 X37.51300 Y7.17633
G01 X37.52310 Y7.17905
G01 X37.53288 Y7.18278
G01 X37.68566 Y7.25080
G01 X37.69499 Y7.25558
G01 X37.70377 Y7.26127
G01 X37.83908 Y7.35956
G01 X37.84721 Y7.36617
G01 X37.85460 Y7.37356
G01 X37.96651 Y7.49784
G01 X37.97309 Y7.50597
G01 X37.97881 Y7.51476
G01 X38.00492 Y7.55999
G01 X41.76498 Y7.55999
G01 X41.76498 Y7.03498
G01 X41.76691 Y7.01547
G01 X41.77260 Y6.99672
G01 X41.78185 Y6.97943
G01 X41.79427 Y6.96429
G01 X41.80943 Y6.95184
G01 X41.82673 Y6.94260
G01 X41.84547 Y6.93691
G01 X41.86498 Y6.93498
G01 X45.86500 Y6.93498
G01 X45.88451 Y6.93691
G01 X45.90325 Y6.94260
G01 X45.92055 Y6.95184
G01 X45.93569 Y6.96429
G01 X45.94813 Y6.97943
G01 X45.95738 Y6.99672
G01 X45.96307 Y7.01547
G01 X45.96500 Y7.03498
G01 X45.96500 Y9.03500
G01 X45.96307 Y9.05451
G01 X45.95738 Y9.07325
G01 X45.94813 Y9.09055
G01 X45.93569 Y9.10569
G01 X45.92055 Y9.11813
G01 X45.90325 Y9.12738
G01 X45.88451 Y9.13307
G01 X45.86500 Y9.13500
G01 X41.86498 Y9.13500
G01 X41.84547 Y9.13307
G01 X41.82673 Y9.12738
G01 X41.80943 Y9.11813
G01 X41.79427 Y9.10569
G01 X41.78185 Y9.09055
G01 X41.77260 Y9.07325
G01 X41.76691 Y9.05451
G01 X41.76498 Y9.03500
G01 X41.76498 Y8.50998
G01 X38.00492 Y8.50998
G01 X37.97881 Y8.55522
G01 X37.97309 Y8.56401
G01 X37.96651 Y8.57213
G01 X37.85460 Y8.69642
G01 X37.84721 Y8.70381
G01 X37.83908 Y8.71041
G01 X37.70377 Y8.80871
G01 X37.69499 Y8.81440
G01 X37.68566 Y8.81917
G01 X37.53288 Y8.88720
G01 X37.52310 Y8.89093
G01 X37.51300 Y8.89365
G01 X37.34939 Y8.92842
G01 X37.33906 Y8.93005
G01 X37.32862 Y8.93060
G01 X37.16136 Y8.93060
G01 X37.15092 Y8.93005
G01 X37.14058 Y8.92842
G01 X36.97698 Y8.89365
G01 X36.96687 Y8.89093
G01 X36.95709 Y8.88720
G01 X36.80431 Y8.81917
G01 X36.79499 Y8.81440
G01 X36.78620 Y8.80871
G01 X36.65089 Y8.71041
G01 X36.64277 Y8.70381
G01 X36.63537 Y8.69642
G01 X36.52346 Y8.57213
G01 X36.51688 Y8.56401
G01 X36.51117 Y8.55522
G01 X36.42755 Y8.41039
G01 X36.42280 Y8.40104
G01 X36.41904 Y8.39129
G01 X36.36735 Y8.23223
G01 X36.36466 Y8.22210
G01 X36.36301 Y8.21176
G01 X36.34554 Y8.04544
G01 X36.34498 Y8.03500
G04 P0 ( dwell for no time -- G64 should not smooth over this point )
G00 Z5.00000 ( retract )

G00 X52.00855 Y16.94568 ( rapid move to begin. )
G01 F60.00000
( Mill infeed pass 1/1 )
G01 Z-0.10000
G04 P0 ( dwell for no time -- G64 should not smooth over this point )
G01 F120.00000
G01 X52.00855 Y16.94568
G01 X52.00855 Y17.08451
G01 X52.00093 Y17.08766
G01 X52.00855 Y17.08451
G01 X52.01464 Y17.09670
G01 X52.02689 Y17.10283
G01 X52.02374 Y17.11042
G01 X52.02689 Y17.10283
G01 X52.07593 Y17.10283
G01 X52.07908 Y17.11045
G01 X52.07593 Y17.10283
G01 X52.08815 Y17.09670
G01 X52.09427 Y17.08449
G01 X52.10189 Y17.08764
G01 X52.09427 Y17.08449
G01 X52.09427 Y16.94568
G01 X52.12356 Y16.91639
G01 X52.09427 Y16.94568
G01 X52.00855 Y16.94568
G01 X51.97926 Y16.91639
G01 X51.90855 Y16.84568
G01 X51.90855 Y17.10811
G01 X51.93545 Y17.16188
G01 X51.94949 Y17.17593
G01 X52.00329 Y17.20283
G01 X52.09953 Y17.20283
G01 X52.15330 Y17.17593
G01 X52.16737 Y17.16188
G01 X52.19427 Y17.10808
G01 X52.19427 Y16.84568
G01 X51.90855 Y16.84568
G04 P0 ( dwell for no time -- G64 should not smooth over this point )
G00 Z5.00000 ( retract )

G00 X52.44911 Y13.88139 ( rapid move to begin. )
G01 F60.00000
( Mill infeed pass 1/1 )
G01 Z-0.10000
G04 P0 ( dwell for no time -- G64 should not smooth over this point )
G01 F120.00000
G01 X52.44911 Y13.88139
G01 X52.47997 Y13.87111
G01 X52.47997 Y13.89168
G01 X52.44911 Y13.88139
G04 P0 ( dwell for no time -- G64 should not smooth over this point )
G00 Z5.00000 ( retract )

G00 X52.00855 Y11.08854 ( rapid move to begin. )
G01 F60.00000
( Mill infeed pass 1/1 )
G01 Z-0.10000
G04 P0 ( dwell for no time -- G64 should not smooth over this point )
G01 F120.00000
G01 X52.00855 Y11.08854
G01 X52.00855 Y11.22737
G01 X52.00093 Y11.23052
G01 X52.00855 Y11.22737
G01 X52.01464 Y11.23957
G01 X52.02689 Y11.24569
G01 X52.02374 Y11.25328
G01 X52.02689 Y11.24569
G01 X52.07593 Y11.24569
G01 X52.07908 Y11.25331
G01 X52.07593 Y11.24569
G01 X52.08815 Y11.23957
G01 X52.09427 Y11.22735
G01 X52.10189 Y11.23050
G01 X52.09427 Y11.22735
G01 X52.09427 Y11.08854
G01 X52.12356 Y11.05925
G01 X52.09427 Y11.08854
G01 X52.00855 Y11.08854
G01 X51.97926 Y11.05925
G01 X51.90855 Y10.98854
G01 X51.90855 Y11.25097
G01 X51.93545 Y11.30474
G01 X51.94949 Y11.31879
G01 X52.00329 Y11.34569
G01 X52.09953 Y11.34569
G01 X52.15330 Y11.31879
G01 X52.16737 Y11.30474
G01 X52.19427 Y11.25094
G01 X52.19427 Y10.98854
G01 X51.90855 Y10.98854
G04 P0 ( dwell for no time -- G64 should not smooth over this point )
G00 Z5.00000 ( retract )

G00 X51.90855 Y9.48854 ( rapid move to begin. )
G01 F60.00000
( Mill infeed pass 1/1 )
G01 Z-0.10000
G04 P0 ( dwell for no time -- G64 should not smooth over this point )
G01 F120.00000
G01 X51.90855 Y9.48854
G01 X52.19427 Y9.48854
G01 X52.19427 Y9.75095
G01 X52.16737 Y9.80475
G01 X52.15330 Y9.81879
G01 X52.09953 Y9.84569
G01 X52.00329 Y9.84569
G01 X51.94949 Y9.81879
G01 X51.93545 Y9.80475
G01 X51.90855 Y9.75095
G01 X51.90855 Y9.48854
G01 X51.97926 Y9.55925
G01 X52.00855 Y9.58854
G01 X52.09427 Y9.58854
G01 X52.12356 Y9.55925
G01 X52.09427 Y9.58854
G01 X52.09427 Y9.72733
G01 X52.10187 Y9.73048
G01 X52.09427 Y9.72733
G01 X52.08815 Y9.73957
G01 X52.07593 Y9.74569
G01 X52.07908 Y9.75331
G01 X52.07593 Y9.74569
G01 X52.02689 Y9.74569
G01 X52.02374 Y9.75331
G01 X52.02689 Y9.74569
G01 X52.01467 Y9.73957
G01 X52.00855 Y9.72735
G01 X52.00093 Y9.73050
G01 X52.00855 Y9.72735
G01 X52.00855 Y9.58854
G04 P0 ( dwell for no time -- G64 should not smooth over this point )
G00 Z5.00000 ( retract )

G00 X54.70003 Y8.23109 ( rapid move to begin. )
G01 F60.00000
( Mill infeed pass 1/1 )
G01 Z-0.10000
G04 P0 ( dwell for no time -- G64 should not smooth over this point )
G01 F120.00000
G01 X54.70003 Y8.23109
G01 X54.88050 Y8.19240
G01 X54.88167 Y8.19228
G01 X54.89767 Y8.18923
G01 X54.89881 Y8.18903
G01 X54.92708 Y8.18438
G01 X54.92947 Y8.18402
G01 X54.96412 Y8.18001
G01 X54.96645 Y8.17978
G01 X54.99561 Y8.17777
G01 X54.99800 Y8.17767
G01 X54.99797 Y8.17729
G01 X54.99800 Y8.17767
G01 X55.03684 Y8.17686
G01 X55.03915 Y8.17686
G01 X55.06925 Y8.17765
G01 X55.07166 Y8.17775
G01 X55.11674 Y8.18108
G01 X55.11903 Y8.18130
G01 X55.15010 Y8.18504
G01 X55.15251 Y8.18539
G01 X55.15309 Y8.18550
G01 X55.81923 Y7.96345
G01 X55.83714 Y7.95651
G01 X55.86345 Y7.94483
G01 X55.89686 Y7.92596
G01 X55.92045 Y7.90947
G01 X55.94966 Y7.88458
G01 X55.96965 Y7.86388
G01 X55.99355 Y7.83388
G01 X56.00925 Y7.80975
G01 X56.02698 Y7.77572
G01 X56.03777 Y7.74902
G01 X56.04867 Y7.71224
G01 X56.05418 Y7.68400
G01 X56.05787 Y7.64580
G01 X56.05787 Y7.61702
G01 X56.05418 Y7.57882
G01 X56.04867 Y7.55057
G01 X56.03777 Y7.51379
G01 X56.02698 Y7.48710
G01 X56.00925 Y7.45306
G01 X55.99355 Y7.42893
G01 X55.96965 Y7.39893
G01 X55.94966 Y7.37823
G01 X55.92045 Y7.35334
G01 X55.89686 Y7.33686
G01 X55.86345 Y7.31798
G01 X55.83714 Y7.30630
G01 X55.81923 Y7.29937
G01 X54.31924 Y6.79937
G01 X54.30034 Y6.79408
G01 X54.27166 Y6.78756
G01 X54.23275 Y6.78265
G01 X54.20336 Y6.78187
G01 X54.18375 Y6.78230
G01 X54.16427 Y6.78463
G01 X54.13526 Y6.78959
G01 X54.09747 Y6.79995
G01 X54.06999 Y6.81044
G01 X54.03493 Y6.82799
G01 X54.01004 Y6.84366
G01 X53.99396 Y6.85492
G01 X53.97908 Y6.86769
G01 X53.95772 Y6.88791
G01 X53.93204 Y6.91753
G01 X53.91505 Y6.94153
G01 X53.90448 Y6.95807
G01 X53.89561 Y6.97559
G01 X53.88363 Y7.00244
G01 X53.87123 Y7.03962
G01 X53.86470 Y7.06830
G01 X53.85980 Y7.10721
G01 X53.85901 Y7.13660
G01 X53.85944 Y7.15621
G01 X53.86178 Y7.17569
G01 X53.86673 Y7.20470
G01 X53.87710 Y7.24249
G01 X53.88759 Y7.26998
G01 X53.90514 Y7.30503
G01 X53.92081 Y7.32992
G01 X53.93206 Y7.34600
G01 X53.94484 Y7.36088
G01 X53.96506 Y7.38225
G01 X53.99467 Y7.40792
G01 X54.01868 Y7.42492
G01 X54.03521 Y7.43548
G01 X54.05274 Y7.44435
G01 X54.07959 Y7.45634
G01 X54.09787 Y7.46345
G01 X54.60176 Y7.63139
G01 X54.81634 Y7.63139
G01 X54.60176 Y7.63139
G01 X54.09787 Y7.79936
G01 X54.07959 Y7.80648
G01 X54.05274 Y7.81847
G01 X54.03521 Y7.82733
G01 X54.01868 Y7.83790
G01 X53.99467 Y7.85489
G01 X53.96506 Y7.88057
G01 X53.94484 Y7.90193
G01 X53.93206 Y7.91681
G01 X53.92081 Y7.93289
G01 X53.90514 Y7.95778
G01 X53.88759 Y7.99284
G01 X53.87710 Y8.02032
G01 X53.86673 Y8.05811
G01 X53.86178 Y8.08712
G01 X53.85944 Y8.10660
G01 X53.85901 Y8.12621
G01 X53.85980 Y8.15560
G01 X53.86470 Y8.19451
G01 X53.87123 Y8.22319
G01 X53.88363 Y8.26037
G01 X53.89561 Y8.28722
G01 X53.90448 Y8.30475
G01 X53.91505 Y8.32128
G01 X53.92221 Y8.33144
G01 X53.95144 Y8.33121
G01 X53.95205 Y8.33121
G01 X53.99752 Y8.33147
G01 X54.03559 Y8.33132
G01 X54.03587 Y8.33132
G01 X54.05878 Y8.33137
G01 X54.06331 Y8.33454
G01 X54.08820 Y8.35019
G01 X54.10572 Y8.35898
G01 X54.13321 Y8.36947
G01 X54.15210 Y8.37465
G01 X54.18109 Y8.37960
G01 X54.19084 Y8.38077
G01 X54.19970 Y8.38097
G01 X54.20054 Y8.38095
G01 X54.22995 Y8.37909
G01 X54.24931 Y8.37691
G01 X54.26234 Y8.37478
G01 X54.26285 Y8.37470
G01 X54.27816 Y8.37122
G01 X54.28761 Y8.36858
G01 X54.70003 Y8.23109
G01 X55.78761 Y7.86858
G01 X55.79658 Y7.86510
G01 X55.82286 Y7.85342
G01 X55.83958 Y7.84399
G01 X55.86317 Y7.82751
G01 X55.87775 Y7.81506
G01 X55.89777 Y7.79436
G01 X55.90973 Y7.77937
G01 X55.92540 Y7.75524
G01 X55.93427 Y7.73823
G01 X55.94506 Y7.71153
G01 X55.95053 Y7.69314
G01 X55.95601 Y7.66490
G01 X55.95787 Y7.64580
G01 X55.95787 Y7.61702
G01 X55.95601 Y7.59792
G01 X55.95053 Y7.56967
G01 X55.94506 Y7.55128
G01 X55.93427 Y7.52459
G01 X55.92540 Y7.50757
G01 X55.90973 Y7.48344
G01 X55.89777 Y7.46845
G01 X55.87775 Y7.44775
G01 X55.86317 Y7.43531
G01 X55.83958 Y7.41882
G01 X55.82286 Y7.40940
G01 X55.79658 Y7.39771
G01 X55.78761 Y7.39423
G01 X54.28761 Y6.89424
G01 X54.27816 Y6.89159
G01 X54.24949 Y6.88507
G01 X54.23003 Y6.88263
G01 X54.20064 Y6.88181
G01 X54.19084 Y6.88204
G01 X54.18109 Y6.88321
G01 X54.15210 Y6.88816
G01 X54.13321 Y6.89335
G01 X54.10572 Y6.90384
G01 X54.08820 Y6.91262
G01 X54.06331 Y6.92827
G01 X54.05528 Y6.93391
G01 X54.04784 Y6.94031
G01 X54.02648 Y6.96053
G01 X54.01362 Y6.97534
G01 X53.99663 Y6.99932
G01 X53.99137 Y7.00760
G01 X53.98693 Y7.01636
G01 X53.97494 Y7.04321
G01 X53.96874 Y7.06180
G01 X53.96221 Y7.09048
G01 X53.95977 Y7.10993
G01 X53.95896 Y7.13932
G01 X53.85901 Y7.13660
G01 X53.95896 Y7.13932
G01 X53.95919 Y7.14912
G01 X53.96036 Y7.15888
G01 X53.96531 Y7.18786
G01 X53.97049 Y7.20676
G01 X53.98098 Y7.23424
G01 X53.98977 Y7.25177
G01 X54.00542 Y7.27666
G01 X54.01106 Y7.28468
G01 X54.01746 Y7.29213
G01 X54.03768 Y7.31349
G01 X54.05248 Y7.32634
G01 X54.07646 Y7.34333
G01 X54.08474 Y7.34859
G01 X54.09351 Y7.35304
G01 X54.12035 Y7.36502
G01 X54.12950 Y7.36858
G01 X54.91799 Y7.63142
G01 X54.12950 Y7.89423
G01 X54.12035 Y7.89779
G01 X54.09351 Y7.90978
G01 X54.08474 Y7.91422
G01 X54.07646 Y7.91948
G01 X54.05248 Y7.93647
G01 X54.03768 Y7.94933
G01 X54.01746 Y7.97069
G01 X54.01106 Y7.97813
G01 X54.00542 Y7.98616
G01 X53.98977 Y8.01105
G01 X53.98098 Y8.02857
G01 X53.97049 Y8.05606
G01 X53.96531 Y8.07495
G01 X53.96036 Y8.10394
G01 X53.95919 Y8.11369
G01 X53.95896 Y8.12349
G01 X53.95977 Y8.15288
G01 X53.96221 Y8.17234
G01 X53.96874 Y8.20101
G01 X53.97494 Y8.21961
G01 X53.98693 Y8.24646
G01 X53.99137 Y8.25522
G01 X53.99663 Y8.26350
G01 X54.01362 Y8.28748
G01 X54.02648 Y8.30228
G01 X54.04784 Y8.32250
G01 X54.05528 Y8.32890
G01 X54.05878 Y8.33137
G01 X54.06331 Y8.33454
G01 X54.08820 Y8.35019
G01 X54.10572 Y8.35898
G01 X54.13321 Y8.36947
G01 X54.15210 Y8.37465
G01 X54.18109 Y8.37960
G01 X54.19084 Y8.38077
G01 X54.19970 Y8.38097
G01 X54.20054 Y8.38095
G01 X54.22995 Y8.37909
G01 X54.24931 Y8.37691
G01 X54.26234 Y8.37478
G01 X54.26285 Y8.37470
G01 X54.72066 Y8.32893
G01 X54.90067 Y8.29045
G01 X54.91588 Y8.28755
G01 X54.94222 Y8.28323
G01 X54.97458 Y8.27948
G01 X55.00130 Y8.27762
G01 X55.03778 Y8.27686
G01 X55.06551 Y8.27757
G01 X55.10829 Y8.28072
G01 X55.13686 Y8.28417
G01 X55.15070 Y8.29484
G01 X55.17141 Y8.31412
G01 X55.19645 Y8.34234
G01 X55.21316 Y8.36517
G01 X55.23244 Y8.39761
G01 X55.24413 Y8.42222
G01 X55.24273 Y8.51247
G01 X55.24413 Y8.42222
G01 X55.25068 Y8.40835
G01 X55.26455 Y8.38242
G01 X55.28632 Y8.34981
G01 X55.30496 Y8.32707
G01 X55.31814 Y8.31255
G01 X55.33270 Y8.29936
G01 X55.35540 Y8.28069
G01 X55.38802 Y8.25890
G01 X55.41395 Y8.24503
G01 X55.43168 Y8.23665
G01 X55.45017 Y8.23002
G01 X55.47829 Y8.22149
G01 X55.51674 Y8.21384
G01 X55.54600 Y8.21095
G01 X55.56561 Y8.20998
G01 X55.58522 Y8.21095
G01 X55.61448 Y8.21382
G01 X55.65294 Y8.22146
G01 X55.68108 Y8.23000
G01 X55.69955 Y8.23660
G01 X55.71730 Y8.24498
G01 X55.74324 Y8.25885
G01 X55.77585 Y8.28062
G01 X55.79858 Y8.29926
G01 X55.81311 Y8.31244
G01 X55.88456 Y8.38387
G01 X55.89548 Y8.39571
G01 X55.91110 Y8.41407
G01 X55.92993 Y8.44016
G01 X55.94240 Y8.46078
G01 X55.95017 Y8.47488
G01 X56.02159 Y8.61773
G01 X56.02797 Y8.63180
G01 X56.03671 Y8.65326
G01 X56.04611 Y8.68267
G01 X56.05141 Y8.70520
G01 X56.05616 Y8.73574
G01 X56.05797 Y8.75882
G01 X56.05855 Y8.77427
G01 X56.05855 Y9.13142
G01 X56.05797 Y9.14683
G01 X56.05616 Y9.16992
G01 X56.05141 Y9.20045
G01 X56.04611 Y9.22298
G01 X56.03671 Y9.25240
G01 X56.02797 Y9.27386
G01 X56.02159 Y9.28793
G01 X55.95017 Y9.43078
G01 X55.94240 Y9.44488
G01 X55.92993 Y9.46550
G01 X55.91110 Y9.49159
G01 X55.89548 Y9.50995
G01 X55.88456 Y9.52179
G01 X55.81311 Y9.59321
G01 X55.81288 Y9.59342
G01 X55.75802 Y9.59931
G01 X55.75756 Y9.59936
G01 X55.74938 Y9.60033
G01 X55.74895 Y9.60038
G01 X55.73153 Y9.60256
G01 X55.71464 Y9.60436
G01 X55.71309 Y9.60454
G01 X55.67763 Y9.60944
G01 X55.67537 Y9.60980
G01 X55.64527 Y9.61536
G01 X55.64291 Y9.61587
G01 X55.60938 Y9.62374
G01 X55.60696 Y9.62438
G01 X55.57824 Y9.63266
G01 X55.57811 Y9.63213
G01 X55.57824 Y9.63266
G01 X55.57593 Y9.63340
G01 X55.54606 Y9.64361
G01 X55.54448 Y9.64417
G01 X55.53178 Y9.64899
G01 X55.51789 Y9.65392
G01 X55.51728 Y9.65415
G01 X55.50971 Y9.65694
G01 X55.50910 Y9.65717
G01 X55.48680 Y9.66573
G01 X55.46500 Y9.67396
G01 X55.44151 Y9.68249
G01 X55.44075 Y9.68277
G01 X55.42937 Y9.68712
G01 X55.42856 Y9.68745
G01 X55.41779 Y9.69177
G01 X55.40552 Y9.69641
G01 X55.40145 Y9.69786
G01 X55.40029 Y9.69829
G01 X55.38248 Y9.70518
G01 X55.38134 Y9.70563
G01 X55.28032 Y9.74747
G01 X55.27920 Y9.74795
G01 X55.25396 Y9.75913
G01 X55.25261 Y9.75974
G01 X55.23717 Y9.76713
G01 X55.06569 Y9.76713
G01 X55.05022 Y9.76654
G01 X55.02713 Y9.76474
G01 X54.99663 Y9.75999
G01 X54.97407 Y9.75466
G01 X54.94463 Y9.74526
G01 X54.92320 Y9.73652
G01 X54.90910 Y9.73015
G01 X54.76625 Y9.65870
G01 X54.75218 Y9.65095
G01 X54.73158 Y9.63848
G01 X54.70552 Y9.61968
G01 X54.68715 Y9.60406
G01 X54.67534 Y9.59316
G01 X54.60392 Y9.52174
G01 X54.59302 Y9.50993
G01 X54.57740 Y9.49156
G01 X54.55861 Y9.46548
G01 X54.54611 Y9.44485
G01 X54.54441 Y9.44175
G01 X54.53183 Y9.36073
G01 X54.54441 Y9.44175
G01 X54.53851 Y9.46113
G01 X54.52353 Y9.49735
G01 X54.50966 Y9.52329
G01 X54.49958 Y9.54013
G01 X54.48787 Y9.55590
G01 X54.46922 Y9.57863
G01 X54.44151 Y9.60635
G01 X54.41878 Y9.62499
G01 X54.40300 Y9.63670
G01 X54.38616 Y9.64678
G01 X54.36023 Y9.66065
G01 X54.32401 Y9.67564
G01 X54.29587 Y9.68420
G01 X54.27684 Y9.68895
G01 X54.25741 Y9.69184
G01 X54.22815 Y9.69471
G01 X54.18896 Y9.69471
G01 X54.15970 Y9.69184
G01 X54.14027 Y9.68895
G01 X54.12124 Y9.68420
G01 X54.09310 Y9.67564
G01 X54.05688 Y9.66065
G01 X54.03095 Y9.64678
G01 X54.01411 Y9.63670
G01 X53.99833 Y9.62499
G01 X53.97560 Y9.60635
G01 X53.94789 Y9.57863
G01 X53.92924 Y9.55590
G01 X53.91753 Y9.54013
G01 X53.90745 Y9.52329
G01 X53.89358 Y9.49735
G01 X53.87860 Y9.46113
G01 X53.87004 Y9.43299
G01 X53.86529 Y9.41397
G01 X53.86239 Y9.39454
G01 X53.85952 Y9.36527
G01 X53.85856 Y9.34569
G01 X53.85856 Y8.63142
G01 X53.95856 Y8.63142
G01 X53.85856 Y8.63142
G01 X53.85939 Y8.61305
G01 X53.86193 Y8.58562
G01 X53.86864 Y8.54950
G01 X53.87616 Y8.52301
G01 X53.88934 Y8.48872
G01 X53.90158 Y8.46406
G01 X53.92081 Y8.43276
G01 X53.92183 Y8.43144
G01 X53.95188 Y8.43121
G01 X53.99716 Y8.43147
G01 X53.99762 Y8.43147
G01 X54.03587 Y8.43132
G01 X54.05927 Y8.43134
G01 X54.06455 Y8.42735
G01 X54.08789 Y8.41275
G01 X54.10430 Y8.40447
G01 X54.12990 Y8.39436
G01 X54.14756 Y8.38923
G01 X54.17458 Y8.38397
G01 X54.18368 Y8.38265
G01 X54.20054 Y8.38095
G01 X54.18368 Y8.38265
G01 X54.17458 Y8.38397
G01 X54.14756 Y8.38923
G01 X54.12990 Y8.39436
G01 X54.10430 Y8.40447
G01 X54.08789 Y8.41275
G01 X54.06455 Y8.42735
G01 X54.05927 Y8.43134
G01 X54.04994 Y8.43848
G01 X54.02968 Y8.45712
G01 X54.01736 Y8.47074
G01 X54.00082 Y8.49278
G01 X53.99119 Y8.50841
G01 X53.97898 Y8.53309
G01 X53.97237 Y8.55024
G01 X53.96485 Y8.57673
G01 X53.96150 Y8.59479
G01 X53.95899 Y8.62222
G01 X53.95856 Y8.63142
G01 X53.95856 Y9.34569
G01 X53.95904 Y9.35547
G01 X53.96191 Y9.38476
G01 X53.96336 Y9.39446
G01 X53.96574 Y9.40396
G01 X53.97428 Y9.43210
G01 X53.98177 Y9.45021
G01 X53.99564 Y9.47615
G01 X54.00069 Y9.48458
G01 X54.00654 Y9.49245
G01 X54.02518 Y9.51519
G01 X54.03905 Y9.52905
G01 X54.06178 Y9.54770
G01 X54.06966 Y9.55354
G01 X54.07809 Y9.55859
G01 X54.10402 Y9.57246
G01 X54.12213 Y9.57996
G01 X54.15027 Y9.58849
G01 X54.15977 Y9.59088
G01 X54.16948 Y9.59232
G01 X54.19876 Y9.59520
G01 X54.21835 Y9.59520
G01 X54.24763 Y9.59232
G01 X54.25734 Y9.59088
G01 X54.26684 Y9.58849
G01 X54.29498 Y9.57996
G01 X54.31309 Y9.57246
G01 X54.33902 Y9.55859
G01 X54.34746 Y9.55354
G01 X54.35533 Y9.54770
G01 X54.37806 Y9.52905
G01 X54.39193 Y9.51519
G01 X54.41057 Y9.49245
G01 X54.41642 Y9.48458
G01 X54.42147 Y9.47615
G01 X54.43534 Y9.45021
G01 X54.44283 Y9.43210
G01 X54.45137 Y9.40396
G01 X54.45375 Y9.39446
G01 X54.45520 Y9.38476
G01 X54.45807 Y9.35547
G01 X54.45855 Y9.34569
G01 X54.45855 Y8.85766
G01 X54.52998 Y8.85052
G01 X54.52998 Y9.13142
G01 X54.53028 Y9.13911
G01 X54.53206 Y9.16220
G01 X54.53445 Y9.17747
G01 X54.53976 Y9.20000
G01 X54.54446 Y9.21473
G01 X54.55320 Y9.23617
G01 X54.55637 Y9.24320
G01 X54.62779 Y9.38605
G01 X54.63168 Y9.39309
G01 X54.64415 Y9.41371
G01 X54.65355 Y9.42677
G01 X54.66917 Y9.44513
G01 X54.67463 Y9.45102
G01 X54.74606 Y9.52245
G01 X54.75195 Y9.52791
G01 X54.77031 Y9.54353
G01 X54.78334 Y9.55290
G01 X54.80394 Y9.56538
G01 X54.81101 Y9.56926
G01 X54.95385 Y9.64071
G01 X54.96089 Y9.64391
G01 X54.98233 Y9.65265
G01 X54.99706 Y9.65735
G01 X55.01959 Y9.66266
G01 X55.03486 Y9.66505
G01 X55.05794 Y9.66682
G01 X55.06569 Y9.66713
G01 X55.42284 Y9.66713
G01 X55.43056 Y9.66682
G01 X55.45365 Y9.66505
G01 X55.46892 Y9.66266
G01 X55.49145 Y9.65735
G01 X55.50618 Y9.65265
G01 X55.52762 Y9.64391
G01 X55.53465 Y9.64071
G01 X55.67750 Y9.56926
G01 X55.68454 Y9.56540
G01 X55.70516 Y9.55293
G01 X55.71817 Y9.54353
G01 X55.73650 Y9.52794
G01 X55.74242 Y9.52247
G01 X55.81387 Y9.45105
G01 X55.81933 Y9.44516
G01 X55.83496 Y9.42679
G01 X55.84435 Y9.41374
G01 X55.85685 Y9.39311
G01 X55.86074 Y9.38605
G01 X55.93216 Y9.24320
G01 X55.93534 Y9.23617
G01 X55.94407 Y9.21473
G01 X55.94877 Y9.20000
G01 X55.95408 Y9.17747
G01 X55.95647 Y9.16220
G01 X55.95825 Y9.13911
G01 X55.95855 Y9.13142
G01 X55.95855 Y8.77427
G01 X55.95825 Y8.76655
G01 X55.95647 Y8.74346
G01 X55.95408 Y8.72819
G01 X55.94877 Y8.70566
G01 X55.94407 Y8.69093
G01 X55.93534 Y8.66949
G01 X55.93216 Y8.66246
G01 X55.86074 Y8.51961
G01 X55.85685 Y8.51255
G01 X55.84435 Y8.49192
G01 X55.83496 Y8.47887
G01 X55.81933 Y8.46050
G01 X55.81387 Y8.45461
G01 X55.74242 Y8.38318
G01 X55.73516 Y8.37658
G01 X55.71243 Y8.35794
G01 X55.69612 Y8.34704
G01 X55.67019 Y8.33320
G01 X55.66130 Y8.32901
G01 X55.65208 Y8.32568
G01 X55.62393 Y8.31717
G01 X55.60470 Y8.31333
G01 X55.57544 Y8.31046
G01 X55.56564 Y8.30998
G01 X55.55583 Y8.31046
G01 X55.52657 Y8.31336
G01 X55.50735 Y8.31717
G01 X55.47920 Y8.32573
G01 X55.46996 Y8.32903
G01 X55.46109 Y8.33322
G01 X55.43516 Y8.34709
G01 X55.42675 Y8.35214
G01 X55.41888 Y8.35799
G01 X55.39614 Y8.37666
G01 X55.38228 Y8.39050
G01 X55.36363 Y8.41323
G01 X55.35274 Y8.42954
G01 X55.33889 Y8.45547
G01 X55.33470 Y8.46436
G01 X55.33137 Y8.47358
G01 X55.32287 Y8.50173
G01 X55.31903 Y8.52095
G01 X55.31616 Y8.55021
G01 X55.31568 Y8.56002
G01 X55.31616 Y8.56982
G01 X55.31906 Y8.59908
G01 X55.32287 Y8.61831
G01 X55.33143 Y8.64645
G01 X55.33473 Y8.65570
G01 X55.33892 Y8.66456
G01 X55.35279 Y8.69050
G01 X55.35784 Y8.69891
G01 X55.36368 Y8.70678
G01 X55.38235 Y8.72951
G01 X55.38893 Y8.73678
G01 X55.43168 Y8.77952
G01 X55.45855 Y8.83327
G01 X55.45855 Y9.07239
G01 X55.43168 Y9.12613
G01 X55.41758 Y9.14020
G01 X55.36379 Y9.16713
G01 X55.12472 Y9.16713
G01 X55.07092 Y9.14023
G01 X55.05688 Y9.12616
G01 X55.02998 Y9.07239
G01 X55.02998 Y8.83327
G01 X55.05688 Y8.77950
G01 X55.09960 Y8.73675
G01 X55.10595 Y8.72977
G01 X55.12398 Y8.70797
G01 X55.13458 Y8.69235
G01 X55.14819 Y8.66756
G01 X55.15568 Y8.65024
G01 X55.16440 Y8.62331
G01 X55.16848 Y8.60490
G01 X55.17199 Y8.57683
G01 X55.17255 Y8.55799
G01 X55.17072 Y8.52974
G01 X55.16772 Y8.51112
G01 X55.16064 Y8.48372
G01 X55.15421 Y8.46599
G01 X55.14209 Y8.44043
G01 X55.13244 Y8.42420
G01 X55.11573 Y8.40137
G01 X55.10321 Y8.38727
G01 X55.08251 Y8.36797
G01 X55.06757 Y8.35646
G01 X55.04362 Y8.34140
G01 X55.02678 Y8.33292
G01 X55.00041 Y8.32260
G01 X54.98228 Y8.31742
G01 X54.95446 Y8.31227
G01 X54.93567 Y8.31059
G01 X54.90737 Y8.31072
G01 X54.89795 Y8.31123
G01 X54.72066 Y8.32893
G04 P0 ( dwell for no time -- G64 should not smooth over this point )
G00 Z5.00000 ( retract )

G00 X55.24372 Y8.62532 ( rapid move to begin. )
G01 F60.00000
( Mill infeed pass 1/1 )
G01 Z-0.10000
G04 P0 ( dwell for no time -- G64 should not smooth over this point )
G01 F120.00000
G01 X55.24372 Y8.62532
G01 X55.24385 Y8.69718
G01 X55.25073 Y8.71171
G01 X55.26460 Y8.73764
G01 X55.28639 Y8.77025
G01 X55.30506 Y8.79296
G01 X55.31824 Y8.80752
G01 X55.34949 Y8.83876
G01 X55.35855 Y8.85687
G01 X55.36389 Y8.85524
G01 X55.35855 Y8.85687
G01 X55.35855 Y9.04879
G01 X55.35246 Y9.06098
G01 X55.37986 Y9.08923
G01 X55.35246 Y9.06098
G01 X55.34019 Y9.06713
G01 X55.14832 Y9.06713
G01 X55.13610 Y9.06101
G01 X55.10869 Y9.08925
G01 X55.13610 Y9.06101
G01 X55.12998 Y9.04879
G01 X55.12998 Y8.85687
G01 X55.12470 Y8.85527
G01 X55.12998 Y8.85687
G01 X55.13905 Y8.83873
G01 X55.17031 Y8.80746
G01 X55.18301 Y8.79349
G01 X55.20105 Y8.77170
G01 X55.22226 Y8.74049
G01 X55.23587 Y8.71567
G01 X55.24385 Y8.69718
G04 P0 ( dwell for no time -- G64 should not smooth over this point )
G00 Z5.00000 ( retract )

G00 X55.45855 Y11.13141 ( rapid move to begin. )
G01 F60.00000
( Mill infeed pass 1/1 )
G01 Z-0.10000
G04 P0 ( dwell for no time -- G64 should not smooth over this point )
G01 F120.00000
G01 X55.45855 Y11.13141
G01 X55.35296 Y11.13141
G01 X55.35246 Y11.13243
G01 X55.30067 Y11.15831
G01 X55.30089 Y11.15895
G01 X55.30067 Y11.15831
G01 X55.09404 Y11.20997
G01 X55.09414 Y11.21071
G01 X55.09404 Y11.20997
G01 X54.82307 Y11.20997
G01 X54.82297 Y11.21071
G01 X54.82307 Y11.20997
G01 X54.61642 Y11.15831
G01 X54.61619 Y11.15895
G01 X54.61642 Y11.15831
G01 X54.56468 Y11.13245
G01 X54.56414 Y11.13141
G01 X54.45855 Y11.13141
G01 X54.45855 Y11.14381
G01 X54.48545 Y11.19760
G01 X54.49950 Y11.21165
G01 X54.58152 Y11.25267
G01 X54.81075 Y11.30997
G01 X55.10636 Y11.30997
G01 X55.33557 Y11.25267
G01 X55.41761 Y11.21165
G01 X55.43168 Y11.19760
G01 X55.45855 Y11.14381
G01 X55.45855 Y11.13141
G01 X55.45855 Y11.11899
G01 X55.43168 Y11.06525
G01 X55.41758 Y11.05117
G01 X55.33554 Y11.01013
G01 X55.10636 Y10.95283
G01 X54.81075 Y10.95283
G01 X54.58152 Y11.01013
G01 X54.49950 Y11.05115
G01 X54.48545 Y11.06522
G01 X54.45855 Y11.11899
G01 X54.45855 Y11.13141
G01 X54.56414 Y11.13141
G01 X54.56468 Y11.13037
G01 X54.61644 Y11.10449
G01 X54.61621 Y11.10385
G01 X54.61644 Y11.10449
G01 X54.82307 Y11.05282
G01 X54.82297 Y11.05209
G01 X54.82307 Y11.05282
G01 X55.09404 Y11.05282
G01 X55.09414 Y11.05209
G01 X55.09404 Y11.05282
G01 X55.30064 Y11.10446
G01 X55.30087 Y11.10385
G01 X55.30064 Y11.10446
G01 X55.35246 Y11.13040
G01 X55.35296 Y11.13141
G04 P0 ( dwell for no time -- G64 should not smooth over this point )
G00 Z5.00000 ( retract )

G00 X55.35296 Y15.13140 ( rapid move to begin. )
G01 F60.00000
( Mill infeed pass 1/1 )
G01 Z-0.10000
G04 P0 ( dwell for no time -- G64 should not smooth over this point )
G01 F120.00000
G01 X55.35296 Y15.13140
G01 X55.35246 Y15.13039
G01 X55.30067 Y15.10451
G01 X55.30089 Y15.10387
G01 X55.30067 Y15.10451
G01 X55.09404 Y15.05284
G01 X55.09414 Y15.05211
G01 X55.09404 Y15.05284
G01 X54.82307 Y15.05284
G01 X54.82297 Y15.05211
G01 X54.82307 Y15.05284
G01 X54.61642 Y15.10451
G01 X54.61619 Y15.10387
G01 X54.61642 Y15.10451
G01 X54.56465 Y15.13036
G01 X54.56414 Y15.13140
G01 X54.45855 Y15.13140
G01 X54.45855 Y15.11898
G01 X54.48545 Y15.06521
G01 X54.49950 Y15.05117
G01 X54.58152 Y15.01014
G01 X54.81075 Y14.95284
G01 X55.10636 Y14.95284
G01 X55.33557 Y15.01014
G01 X55.41761 Y15.05117
G01 X55.43168 Y15.06524
G01 X55.45855 Y15.11898
G01 X55.45855 Y15.13140
G01 X55.45855 Y15.14383
G01 X55.43168 Y15.19757
G01 X55.41761 Y15.21164
G01 X55.33557 Y15.25266
G01 X55.10636 Y15.30997
G01 X54.81075 Y15.30997
G01 X54.58152 Y15.25266
G01 X54.49950 Y15.21164
G01 X54.48545 Y15.19760
G01 X54.45855 Y15.14383
G01 X54.45855 Y15.13140
G01 X54.56414 Y15.13140
G01 X54.56465 Y15.13245
G01 X54.61642 Y15.15830
G01 X54.61619 Y15.15894
G01 X54.61642 Y15.15830
G01 X54.82307 Y15.20997
G01 X54.82297 Y15.21070
G01 X54.82307 Y15.20997
G01 X55.09404 Y15.20997
G01 X55.09414 Y15.21070
G01 X55.09404 Y15.20997
G01 X55.30067 Y15.15830
G01 X55.30089 Y15.15894
G01 X55.30067 Y15.15830
G01 X55.35246 Y15.13242
G01 X55.35296 Y15.13140
G01 X55.45855 Y15.13140
G04 P0 ( dwell for no time -- G64 should not smooth over this point )
G00 Z5.00000 ( retract )

G00 X54.71619 Y17.22571 ( rapid move to begin. )
G01 F60.00000
( Mill infeed pass 1/1 )
G01 Z-0.10000
G04 P0 ( dwell for no time -- G64 should not smooth over this point )
G01 F120.00000
G01 X54.71619 Y17.22571
G01 X54.72086 Y17.22416
G01 X54.76310 Y17.22515
G01 X54.76551 Y17.22525
G01 X54.80107 Y17.22782
G01 X54.80346 Y17.22805
G01 X54.83577 Y17.23196
G01 X54.83826 Y17.23231
G01 X54.88197 Y17.23986
G01 X54.88433 Y17.24032
G01 X54.91779 Y17.24773
G01 X54.92025 Y17.24834
G01 X54.94446 Y17.25502
G01 X54.96208 Y17.24915
G01 X54.97654 Y17.24369
G01 X54.99787 Y17.23470
G01 X55.02533 Y17.22055
G01 X55.04502 Y17.20836
G01 X55.06996 Y17.19015
G01 X55.08756 Y17.17509
G01 X55.09889 Y17.16460
G01 X55.35855 Y16.90493
G01 X55.40824 Y16.77374
G01 X55.35855 Y16.90493
G01 X55.35855 Y16.98855
G01 X55.35952 Y17.00813
G01 X55.36239 Y17.03740
G01 X55.36528 Y17.05683
G01 X55.37003 Y17.07585
G01 X55.37859 Y17.10399
G01 X55.39358 Y17.14021
G01 X55.40745 Y17.16615
G01 X55.41753 Y17.18299
G01 X55.42924 Y17.19876
G01 X55.44788 Y17.22149
G01 X55.45065 Y17.22424
G01 X55.62680 Y17.22424
G01 X55.65027 Y17.23135
G01 X55.65977 Y17.23374
G01 X55.66947 Y17.23518
G01 X55.69876 Y17.23806
G01 X55.71834 Y17.23806
G01 X55.74763 Y17.23518
G01 X55.75733 Y17.23374
G01 X55.76683 Y17.23135
G01 X55.79025 Y17.22426
G01 X55.79498 Y17.22282
G01 X55.81309 Y17.21532
G01 X55.83902 Y17.20145
G01 X55.84745 Y17.19640
G01 X55.85533 Y17.19056
G01 X55.87806 Y17.17191
G01 X55.89193 Y17.15805
G01 X55.91057 Y17.13531
G01 X55.91641 Y17.12744
G01 X55.92147 Y17.11901
G01 X55.93534 Y17.09307
G01 X55.94283 Y17.07496
G01 X55.95136 Y17.04682
G01 X55.95375 Y17.03732
G01 X55.95520 Y17.02762
G01 X55.95807 Y16.99833
G01 X55.95855 Y16.98855
G01 X55.95855 Y16.05998
G01 X55.95807 Y16.05017
G01 X55.95520 Y16.02089
G01 X55.95375 Y16.01118
G01 X55.95136 Y16.00168
G01 X55.94283 Y15.97354
G01 X55.93534 Y15.95543
G01 X55.92147 Y15.92950
G01 X55.91641 Y15.92107
G01 X55.91057 Y15.91319
G01 X55.89193 Y15.89046
G01 X55.87806 Y15.87659
G01 X55.85533 Y15.85795
G01 X55.84745 Y15.85210
G01 X55.83902 Y15.84705
G01 X55.81309 Y15.83318
G01 X55.79498 Y15.82569
G01 X55.76683 Y15.81715
G01 X55.75733 Y15.81477
G01 X55.74763 Y15.81332
G01 X55.71834 Y15.81045
G01 X55.69876 Y15.81045
G01 X55.66947 Y15.81332
G01 X55.65977 Y15.81477
G01 X55.65027 Y15.81715
G01 X55.62213 Y15.82569
G01 X55.60402 Y15.83318
G01 X55.57809 Y15.84705
G01 X55.56965 Y15.85210
G01 X55.56178 Y15.85795
G01 X55.53905 Y15.87659
G01 X55.53178 Y15.88319
G01 X54.71636 Y16.69861
G01 X54.59655 Y16.73854
G01 X54.55327 Y16.73854
G01 X54.49950 Y16.71164
G01 X54.48545 Y16.69759
G01 X54.45855 Y16.64382
G01 X54.45855 Y16.40471
G01 X54.48545 Y16.35093
G01 X54.52818 Y16.30819
G01 X54.53478 Y16.30092
G01 X54.55342 Y16.27819
G01 X54.55927 Y16.27032
G01 X54.56432 Y16.26188
G01 X54.57819 Y16.23595
G01 X54.58568 Y16.21784
G01 X54.59422 Y16.18970
G01 X54.59660 Y16.18020
G01 X54.59805 Y16.17049
G01 X54.60092 Y16.14121
G01 X54.60092 Y16.12162
G01 X54.59805 Y16.09234
G01 X54.59660 Y16.08263
G01 X54.59422 Y16.07313
G01 X54.58568 Y16.04499
G01 X54.57819 Y16.02688
G01 X54.56432 Y16.00095
G01 X54.55927 Y15.99252
G01 X54.55342 Y15.98464
G01 X54.53478 Y15.96191
G01 X54.52091 Y15.94804
G01 X54.49818 Y15.92940
G01 X54.49030 Y15.92355
G01 X54.48187 Y15.91850
G01 X54.45594 Y15.90463
G01 X54.43783 Y15.89714
G01 X54.40969 Y15.88860
G01 X54.40019 Y15.88622
G01 X54.39048 Y15.88477
G01 X54.36120 Y15.88190
G01 X54.34161 Y15.88190
G01 X54.31233 Y15.88477
G01 X54.30262 Y15.88622
G01 X54.29312 Y15.88860
G01 X54.26498 Y15.89714
G01 X54.24687 Y15.90463
G01 X54.22094 Y15.91850
G01 X54.21250 Y15.92355
G01 X54.20463 Y15.92940
G01 X54.18190 Y15.94804
G01 X54.17463 Y15.95464
G01 X54.10321 Y16.02607
G01 X54.09775 Y16.03196
G01 X54.08213 Y16.05033
G01 X54.07273 Y16.06338
G01 X54.06026 Y16.08401
G01 X54.05637 Y16.09104
G01 X53.98495 Y16.23389
G01 X53.98177 Y16.24093
G01 X53.97303 Y16.26236
G01 X53.96833 Y16.27710
G01 X53.96303 Y16.29963
G01 X53.96064 Y16.31489
G01 X53.95886 Y16.33798
G01 X53.95856 Y16.34570
G01 X53.95856 Y16.70285
G01 X53.95886 Y16.71055
G01 X53.96064 Y16.73364
G01 X53.96303 Y16.74890
G01 X53.96833 Y16.77143
G01 X53.97303 Y16.78616
G01 X53.98177 Y16.80760
G01 X53.98495 Y16.81464
G01 X54.05637 Y16.95749
G01 X54.06026 Y16.96452
G01 X54.07273 Y16.98515
G01 X54.08213 Y16.99820
G01 X54.09775 Y17.01657
G01 X54.10321 Y17.02246
G01 X54.17463 Y17.09388
G01 X54.18053 Y17.09935
G01 X54.19889 Y17.11497
G01 X54.21195 Y17.12436
G01 X54.23257 Y17.13684
G01 X54.23961 Y17.14072
G01 X54.38246 Y17.21215
G01 X54.38949 Y17.21532
G01 X54.41093 Y17.22406
G01 X54.42566 Y17.22876
G01 X54.44819 Y17.23407
G01 X54.46346 Y17.23645
G01 X54.48655 Y17.23823
G01 X54.49427 Y17.23854
G01 X54.50572 Y17.23854
G01 X54.63714 Y17.23854
G01 X54.64517 Y17.23821
G01 X54.66920 Y17.23628
G01 X54.68505 Y17.23371
G01 X54.70847 Y17.22795
G01 X54.71619 Y17.22571
G01 X54.93046 Y17.15429
G01 X54.93770 Y17.15157
G01 X54.95904 Y17.14255
G01 X54.97275 Y17.13549
G01 X54.99246 Y17.12330
G01 X55.00491 Y17.11420
G01 X55.02251 Y17.09914
G01 X55.02818 Y17.09388
G01 X55.45855 Y16.66351
G01 X55.45855 Y16.98855
G01 X55.45904 Y16.99833
G01 X55.46191 Y17.02762
G01 X55.46335 Y17.03732
G01 X55.46574 Y17.04682
G01 X55.47428 Y17.07496
G01 X55.48177 Y17.09307
G01 X55.49564 Y17.11901
G01 X55.50069 Y17.12744
G01 X55.50653 Y17.13531
G01 X55.52518 Y17.15805
G01 X55.53905 Y17.17191
G01 X55.56178 Y17.19056
G01 X55.56965 Y17.19640
G01 X55.57809 Y17.20145
G01 X55.60402 Y17.21532
G01 X55.62213 Y17.22282
G01 X55.62680 Y17.22424
G01 X55.65027 Y17.23135
G01 X55.65977 Y17.23374
G01 X55.66947 Y17.23518
G01 X55.69876 Y17.23806
G01 X55.71834 Y17.23806
G01 X55.74763 Y17.23518
G01 X55.75733 Y17.23374
G01 X55.76683 Y17.23135
G01 X55.79025 Y17.22426
G01 X55.96645 Y17.22426
G01 X55.96922 Y17.22149
G01 X55.98786 Y17.19876
G01 X55.99957 Y17.18299
G01 X56.00966 Y17.16615
G01 X56.02352 Y17.14021
G01 X56.03851 Y17.10399
G01 X56.04707 Y17.07585
G01 X56.05182 Y17.05683
G01 X56.05472 Y17.03740
G01 X56.05759 Y17.00813
G01 X56.05855 Y16.98855
G01 X56.05855 Y16.05998
G01 X56.05759 Y16.04037
G01 X56.05472 Y16.01111
G01 X56.05182 Y15.99168
G01 X56.04707 Y15.97265
G01 X56.03851 Y15.94451
G01 X56.02352 Y15.90829
G01 X56.00966 Y15.88236
G01 X55.99957 Y15.86552
G01 X55.98786 Y15.84974
G01 X55.96922 Y15.82701
G01 X55.94151 Y15.79930
G01 X55.91878 Y15.78065
G01 X55.90300 Y15.76894
G01 X55.88616 Y15.75886
G01 X55.86023 Y15.74499
G01 X55.85294 Y15.74197
G01 X55.85215 Y15.74212
G01 X55.84641 Y15.74347
G01 X55.84575 Y15.74362
G01 X55.83130 Y15.74685
G01 X55.83061 Y15.74700
G01 X55.81220 Y15.75081
G01 X55.80437 Y15.75251
G01 X55.74433 Y15.76610
G01 X55.74377 Y15.76623
G01 X55.72891 Y15.76940
G01 X55.70364 Y15.77570
G01 X55.67684 Y15.78342
G01 X55.64621 Y15.79391
G01 X55.62109 Y15.80392
G01 X55.59312 Y15.81670
G01 X55.58878 Y15.81893
G01 X55.58814 Y15.81926
G01 X55.57961 Y15.82353
G01 X55.57902 Y15.82381
G01 X55.56427 Y15.83092
G01 X55.54867 Y15.83859
G01 X55.53711 Y15.84453
G01 X55.52553 Y15.85063
G01 X55.52475 Y15.85104
G01 X55.51044 Y15.85823
G01 X55.49515 Y15.86640
G01 X55.29226 Y15.98129
G01 X54.66234 Y16.61121
G01 X54.66379 Y16.61355
G01 X54.66234 Y16.61121
G01 X54.58032 Y16.63854
G01 X54.57758 Y16.65289
G01 X54.58032 Y16.63854
G01 X54.57687 Y16.63854
G01 X54.56465 Y16.63244
G01 X54.55855 Y16.62023
G01 X54.54921 Y16.62457
G01 X54.55855 Y16.62023
G01 X54.55855 Y16.42830
G01 X54.55304 Y16.42640
G01 X54.55855 Y16.42830
G01 X54.56762 Y16.41017
G01 X54.59889 Y16.37890
G01 X54.61207 Y16.36437
G01 X54.63072 Y16.34164
G01 X54.64243 Y16.32586
G01 X54.65251 Y16.30902
G01 X54.66638 Y16.28309
G01 X54.68136 Y16.24687
G01 X54.68992 Y16.21873
G01 X54.69467 Y16.19970
G01 X54.69757 Y16.18027
G01 X54.70044 Y16.15101
G01 X54.70044 Y16.11182
G01 X54.69757 Y16.08256
G01 X54.69467 Y16.06313
G01 X54.68992 Y16.04410
G01 X54.68136 Y16.01596
G01 X54.66897 Y15.98604
G01 X54.66877 Y15.98589
G01 X54.65622 Y15.97639
G01 X54.61850 Y15.94979
G01 X54.59452 Y15.93463
G01 X54.56038 Y15.91527
G01 X54.53577 Y15.90288
G01 X54.50336 Y15.88850
G01 X54.47801 Y15.87875
G01 X54.44677 Y15.86841
G01 X54.42033 Y15.86110
G01 X54.40308 Y15.85680
G01 X54.38827 Y15.85358
G01 X54.37854 Y15.85162
G01 X54.37715 Y15.85132
G01 X54.34240 Y15.84326
G01 X54.33227 Y15.84113
G01 X54.32338 Y15.83935
G01 X54.29465 Y15.83404
G01 X54.25419 Y15.82863
G01 X54.22515 Y15.82620
G01 X54.18413 Y15.82480
G01 X54.17380 Y15.83031
G01 X54.15696 Y15.84039
G01 X54.14118 Y15.85210
G01 X54.11845 Y15.87075
G01 X54.10392 Y15.88393
G01 X54.03250 Y15.95536
G01 X54.02160 Y15.96717
G01 X54.00598 Y15.98553
G01 X53.98718 Y16.01162
G01 X53.97468 Y16.03224
G01 X53.96694 Y16.04631
G01 X53.89551 Y16.18916
G01 X53.88914 Y16.20323
G01 X53.88040 Y16.22470
G01 X53.87100 Y16.25411
G01 X53.86569 Y16.27664
G01 X53.86094 Y16.30717
G01 X53.85914 Y16.33026
G01 X53.85856 Y16.34570
G01 X53.95856 Y16.34570
G01 X53.85856 Y16.34570
G01 X53.85856 Y16.70285
G01 X53.85914 Y16.71827
G01 X53.86094 Y16.74136
G01 X53.86569 Y16.77189
G01 X53.87100 Y16.79442
G01 X53.88040 Y16.82383
G01 X53.88914 Y16.84529
G01 X53.89551 Y16.85937
G01 X53.96694 Y17.00222
G01 X53.97468 Y17.01629
G01 X53.98718 Y17.03691
G01 X54.00598 Y17.06300
G01 X54.02160 Y17.08136
G01 X54.03250 Y17.09317
G01 X54.10392 Y17.16460
G01 X54.11573 Y17.17549
G01 X54.13410 Y17.19112
G01 X54.16018 Y17.20991
G01 X54.18081 Y17.22241
G01 X54.19488 Y17.23016
G01 X54.30882 Y17.28713
G01 X54.33021 Y17.28141
G01 X54.33140 Y17.28113
G01 X54.35502 Y17.27544
G01 X54.35614 Y17.27516
G01 X54.35949 Y17.27445
G01 X54.38776 Y17.26737
G01 X54.39155 Y17.26627
G01 X54.39305 Y17.26587
G01 X54.41835 Y17.25947
G01 X54.41992 Y17.25911
G01 X54.42802 Y17.25733
G01 X54.44588 Y17.25294
G01 X54.45647 Y17.24999
G01 X54.45739 Y17.24976
G01 X54.46981 Y17.24656
G01 X54.47092 Y17.24631
G01 X54.48952 Y17.24199
G01 X54.49038 Y17.24181
G01 X54.50572 Y17.23854
G01 X54.54895 Y17.32637
G01 X54.52658 Y17.33633
G01 X54.52211 Y17.33833
G01 X54.51334 Y17.34278
G01 X54.50509 Y17.34806
G01 X54.48108 Y17.36506
G01 X54.46628 Y17.37788
G01 X54.44603 Y17.39924
G01 X54.43966 Y17.40669
G01 X54.43402 Y17.41471
G01 X54.41835 Y17.43960
G01 X54.41355 Y17.44816
G01 X54.36023 Y17.55474
G01 X54.26356 Y17.65141
G01 X54.06988 Y17.78052
G01 X54.06254 Y17.78593
G01 X54.04128 Y17.80308
G01 X54.02820 Y17.81578
G01 X54.01042 Y17.83650
G01 X53.99986 Y17.85134
G01 X53.98611 Y17.87496
G01 X53.97844 Y17.89147
G01 X53.96920 Y17.91720
G01 X53.96465 Y17.93483
G01 X53.96023 Y17.96180
G01 X53.95896 Y17.97996
G01 X53.85896 Y17.98200
G01 X53.95896 Y17.97996
G01 X53.95952 Y18.00729
G01 X53.96153 Y18.02538
G01 X53.96704 Y18.05215
G01 X53.97232 Y18.06957
G01 X53.98258 Y18.09490
G01 X53.99094 Y18.11108
G01 X54.00562 Y18.13412
G01 X54.01677 Y18.14852
G01 X54.03539 Y18.16851
G01 X54.04898 Y18.18065
G01 X54.07093 Y18.19693
G01 X54.08647 Y18.20640
G01 X54.11101 Y18.21844
G01 X54.12802 Y18.22495
G01 X54.15434 Y18.23234
G01 X54.17225 Y18.23564
G01 X54.19945 Y18.23813
G01 X54.20854 Y18.23854
G01 X55.45855 Y18.23854
G01 X55.45855 Y18.41712
G01 X55.45904 Y18.42690
G01 X55.46191 Y18.45619
G01 X55.46335 Y18.46589
G01 X55.46574 Y18.47539
G01 X55.47428 Y18.50353
G01 X55.48177 Y18.52164
G01 X55.49564 Y18.54758
G01 X55.50069 Y18.55601
G01 X55.50653 Y18.56388
G01 X55.52518 Y18.58662
G01 X55.53905 Y18.60049
G01 X55.56178 Y18.61913
G01 X55.56965 Y18.62497
G01 X55.57809 Y18.63003
G01 X55.60402 Y18.64389
G01 X55.62213 Y18.65139
G01 X55.65027 Y18.65992
G01 X55.65977 Y18.66231
G01 X55.66947 Y18.66376
G01 X55.69876 Y18.66663
G01 X55.71834 Y18.66663
G01 X55.74763 Y18.66376
G01 X55.75733 Y18.66231
G01 X55.76683 Y18.65992
G01 X55.79498 Y18.65139
G01 X55.81309 Y18.64389
G01 X55.83902 Y18.63003
G01 X55.84745 Y18.62497
G01 X55.85533 Y18.61913
G01 X55.87806 Y18.60049
G01 X55.89193 Y18.58662
G01 X55.91057 Y18.56388
G01 X55.91641 Y18.55601
G01 X55.92147 Y18.54758
G01 X55.93534 Y18.52164
G01 X55.94283 Y18.50353
G01 X55.95136 Y18.47539
G01 X55.95375 Y18.46589
G01 X55.95520 Y18.45619
G01 X55.95807 Y18.42690
G01 X55.95855 Y18.41712
G01 X55.95855 Y17.56000
G01 X55.95807 Y17.55020
G01 X55.95520 Y17.52091
G01 X55.95375 Y17.51121
G01 X55.95136 Y17.50171
G01 X55.94283 Y17.47356
G01 X55.93534 Y17.45545
G01 X55.92147 Y17.42952
G01 X55.91641 Y17.42109
G01 X55.91057 Y17.41321
G01 X55.89193 Y17.39048
G01 X55.87806 Y17.37661
G01 X55.85533 Y17.35797
G01 X55.84745 Y17.35213
G01 X55.83902 Y17.34707
G01 X55.81309 Y17.33320
G01 X55.79498 Y17.32571
G01 X55.79018 Y17.32426
G01 X55.76683 Y17.31718
G01 X55.75733 Y17.31479
G01 X55.74763 Y17.31334
G01 X55.71834 Y17.31047
G01 X55.69876 Y17.31047
G01 X55.66947 Y17.31334
G01 X55.65977 Y17.31479
G01 X55.65027 Y17.31718
G01 X55.62688 Y17.32424
G01 X55.62213 Y17.32571
G01 X55.60402 Y17.33320
G01 X55.57809 Y17.34707
G01 X55.56965 Y17.35213
G01 X55.56178 Y17.35797
G01 X55.53905 Y17.37661
G01 X55.52518 Y17.39048
G01 X55.50653 Y17.41321
G01 X55.50069 Y17.42109
G01 X55.49564 Y17.42952
G01 X55.48177 Y17.45545
G01 X55.47428 Y17.47356
G01 X55.46574 Y17.50171
G01 X55.46335 Y17.51121
G01 X55.46191 Y17.52091
G01 X55.45904 Y17.55020
G01 X55.45855 Y17.56000
G01 X55.45855 Y17.73854
G01 X54.82736 Y17.73854
G01 X54.86071 Y17.67181
G01 X54.86468 Y17.66284
G01 X54.87519 Y17.63539
G01 X54.88037 Y17.61646
G01 X54.88533 Y17.58748
G01 X54.88672 Y17.56792
G01 X54.88591 Y17.53854
G01 X54.88347 Y17.51908
G01 X54.87694 Y17.49040
G01 X54.87430 Y17.48096
G01 X54.87075 Y17.47181
G01 X54.85878 Y17.44496
G01 X54.85434 Y17.43620
G01 X54.84905 Y17.42795
G01 X54.83206 Y17.40394
G01 X54.81923 Y17.38913
G01 X54.79787 Y17.36889
G01 X54.79043 Y17.36252
G01 X54.78240 Y17.35688
G01 X54.75751 Y17.34120
G01 X54.74895 Y17.33640
G01 X54.73999 Y17.33244
G01 X54.71832 Y17.32416
G01 X54.71253 Y17.32193
G01 X54.69361 Y17.31674
G01 X54.66462 Y17.31179
G01 X54.64507 Y17.31039
G01 X54.61568 Y17.31121
G01 X54.59622 Y17.31365
G01 X54.56755 Y17.32017
G01 X54.55810 Y17.32281
G01 X54.54895 Y17.32637
G01 X54.52658 Y17.33633
G01 X54.51149 Y17.33955
G01 X54.49417 Y17.34357
G01 X54.48291 Y17.34644
G01 X54.47179 Y17.34951
G01 X54.47047 Y17.34987
G01 X54.45132 Y17.35459
G01 X54.44999 Y17.35490
G01 X54.44210 Y17.35662
G01 X54.41830 Y17.36264
G01 X54.41441 Y17.36376
G01 X54.41278 Y17.36419
G01 X54.38291 Y17.37166
G01 X54.38136 Y17.37204
G01 X54.37771 Y17.37283
G01 X54.35535 Y17.37821
G01 X54.33549 Y17.38352
G01 X54.33374 Y17.38631
G01 X54.32411 Y17.40341
G01 X54.27804 Y17.49548
G01 X54.27903 Y17.49622
G01 X54.27804 Y17.49548
G01 X54.19986 Y17.57369
G01 X54.20016 Y17.57405
G01 X54.19986 Y17.57369
G01 X54.01441 Y17.69731
G01 X53.99970 Y17.70811
G01 X53.97847 Y17.72528
G01 X53.95231 Y17.75065
G01 X53.93453 Y17.77138
G01 X53.91342 Y17.80107
G01 X53.89968 Y17.82469
G01 X53.88431 Y17.85771
G01 X53.87509 Y17.88344
G01 X53.86595 Y17.91870
G01 X53.86155 Y17.94567
G01 X53.85896 Y17.98200
G01 X53.85952 Y18.00933
G01 X53.86359 Y18.04552
G01 X53.86910 Y18.07229
G01 X53.87964 Y18.10714
G01 X53.88992 Y18.13247
G01 X53.90661 Y18.16485
G01 X53.92132 Y18.18789
G01 X53.94362 Y18.21669
G01 X53.96224 Y18.23668
G01 X53.98939 Y18.26096
G01 X54.01134 Y18.27725
G01 X54.04243 Y18.29619
G01 X54.06696 Y18.30823
G01 X54.10100 Y18.32124
G01 X54.12731 Y18.32860
G01 X54.16313 Y18.33521
G01 X54.19033 Y18.33770
G01 X54.20854 Y18.33854
G01 X55.35855 Y18.33854
G01 X55.38169 Y18.31296
G01 X55.35855 Y18.33854
G01 X55.35855 Y18.41712
G01 X55.35952 Y18.43671
G01 X55.36239 Y18.46597
G01 X55.36528 Y18.48540
G01 X55.37003 Y18.50442
G01 X55.37859 Y18.53257
G01 X55.39358 Y18.56879
G01 X55.40745 Y18.59472
G01 X55.41753 Y18.61156
G01 X55.42924 Y18.62733
G01 X55.44788 Y18.65007
G01 X55.47560 Y18.67778
G01 X55.49833 Y18.69642
G01 X55.51410 Y18.70813
G01 X55.53094 Y18.71821
G01 X55.55688 Y18.73208
G01 X55.59310 Y18.74707
G01 X55.62124 Y18.75563
G01 X55.64026 Y18.76038
G01 X55.65970 Y18.76327
G01 X55.68896 Y18.76614
