( pcb2gcode 2.4.0 )
( Software-independent Gcode )

G94 ( Millimeters per minute feed rate. )
G21 ( Units == Millimeters. )

G90 ( Absolute coordinates. )
G00 S10000 ( RPM spindle speed. )
G64 P0.01000 ( set maximum deviation from commanded toolpath )
G01 F120.00000 ( Feedrate. )


G00 Z10.00000 (Retract to tool change height)
T0
M5      (Spindle stop.)
G04 P1.00000 (Wait for spindle to stop)
(MSG, Change tool bit to cutter diameter 1.00000mm)
M6      (Tool change.)
M0      (Temporary machine stop.)
M3 ( Spindle on clockwise. )
G04 P1.00000 (Wait for spindle to get up to speed)
G04 P0 ( dwell for no time -- G64 should not smooth over this point )
G00 Z5.00000 ( retract )

G00 X0.54998 Y4.22500 ( rapid move to begin. )
G01 Z-1.00000 F60.00000 ( plunge. )
G04 P0 ( dwell for no time -- G64 should not smooth over this point )
G01 F120.00000
G01 X0.54998 Y16.49250
G00 Z-0.60000
G01 X0.54998 Y17.99250
G01 Z-1.00000 F60.00000
G01 F120.00000
G01 X0.54998 Y30.26000
G01 X0.55960 Y30.35754
G01 X0.58805 Y30.45134
G01 X0.63425 Y30.53777
G01 X0.69643 Y30.61354
G01 X0.77220 Y30.67572
G01 X0.85864 Y30.72192
G01 X0.95244 Y30.75037
G01 X1.05000 Y30.76000
G01 X6.26498 Y30.76000
G01 X6.26498 Y33.43500
G01 X6.27460 Y33.53254
G01 X6.30305 Y33.62634
G01 X6.34925 Y33.71277
G01 X6.41143 Y33.78854
G01 X6.48720 Y33.85072
G01 X6.57364 Y33.89692
G01 X6.66744 Y33.92537
G01 X6.76500 Y33.93500
G01 X57.56500 Y33.93500
G01 X57.66254 Y33.92537
G01 X57.75634 Y33.89692
G01 X57.84277 Y33.85072
G01 X57.91854 Y33.78854
G01 X57.98072 Y33.71277
G01 X58.02692 Y33.62634
G01 X58.05537 Y33.53254
G01 X58.06500 Y33.43500
G01 X58.06500 Y17.99250
G00 Z-0.60000
G01 X58.06500 Y16.49250
G01 Z-1.00000 F60.00000
G01 F120.00000
G01 X58.06500 Y1.05000
G01 X58.05537 Y0.95244
G01 X58.02692 Y0.85864
G01 X57.98072 Y0.77220
G01 X57.91854 Y0.69643
G01 X57.84277 Y0.63425
G01 X57.75634 Y0.58805
G01 X57.66254 Y0.55960
G01 X57.56500 Y0.54998
G01 X6.76500 Y0.54998
G01 X6.66744 Y0.55960
G01 X6.57364 Y0.58805
G01 X6.48720 Y0.63425
G01 X6.41143 Y0.69643
G01 X6.34925 Y0.77220
G01 X6.30305 Y0.85864
G01 X6.27460 Y0.95244
G01 X6.26498 Y1.05000
G01 X6.26498 Y3.72498
G01 X1.05000 Y3.72498
G01 X0.95244 Y3.73460
G01 X0.85864 Y3.76305
G01 X0.77220 Y3.80925
G01 X0.69643 Y3.87143
G01 X0.63425 Y3.94720
G01 X0.58805 Y4.03364
G01 X0.55960 Y4.12744
G01 X0.54998 Y4.22500
G01 Z-2.00000 F60.00000 ( plunge. )
G04 P0 ( dwell for no time -- G64 should not smooth over this point )
G01 F120.00000
G01 X0.54998 Y16.49250
G00 Z-0.60000
G01 X0.54998 Y17.99250
G01 Z-2.00000 F60.00000
G01 F120.00000
G01 X0.54998 Y30.26000
G01 X0.55960 Y30.35754
G01 X0.58805 Y30.45134
G01 X0.63425 Y30.53777
G01 X0.69643 Y30.61354
G01 X0.77220 Y30.67572
G01 X0.85864 Y30.72192
G01 X0.95244 Y30.75037
G01 X1.05000 Y30.76000
G01 X6.26498 Y30.76000
G01 X6.26498 Y33.43500
G01 X6.27460 Y33.53254
G01 X6.30305 Y33.62634
G01 X6.34925 Y33.71277
G01 X6.41143 Y33.78854
G01 X6.48720 Y33.85072
G01 X6.57364 Y33.89692
G01 X6.66744 Y33.92537
G01 X6.76500 Y33.93500
G01 X57.56500 Y33.93500
G01 X57.66254 Y33.92537
G01 X57.75634 Y33.89692
G01 X57.84277 Y33.85072
G01 X57.91854 Y33.78854
G01 X57.98072 Y33.71277
G01 X58.02692 Y33.62634
G01 X58.05537 Y33.53254
G01 X58.06500 Y33.43500
G01 X58.06500 Y17.99250
G00 Z-0.60000
G01 X58.06500 Y16.49250
G01 Z-2.00000 F60.00000
G01 F120.00000
G01 X58.06500 Y1.05000
G01 X58.05537 Y0.95244
G01 X58.02692 Y0.85864
G01 X57.98072 Y0.77220
G01 X57.91854 Y0.69643
G01 X57.84277 Y0.63425
G01 X57.75634 Y0.58805
G01 X57.66254 Y0.55960
G01 X57.56500 Y0.54998
G01 X6.76500 Y0.54998
G01 X6.66744 Y0.55960
G01 X6.57364 Y0.58805
G01 X6.48720 Y0.63425
G01 X6.41143 Y0.69643
G01 X6.34925 Y0.77220
G01 X6.30305 Y0.85864
G01 X6.27460 Y0.95244
G01 X6.26498 Y1.05000
G01 X6.26498 Y3.72498
G01 X1.05000 Y3.72498
G01 X0.95244 Y3.73460
G01 X0.85864 Y3.76305
G01 X0.77220 Y3.80925
G01 X0.69643 Y3.87143
G01 X0.63425 Y3.94720
G01 X0.58805 Y4.03364
G01 X0.55960 Y4.12744
G01 X0.54998 Y4.22500

G04 P0 ( dwell for no time -- G64 should not smooth over this point )
G00 Z10.000000 ( retract )

M5 ( Spindle off. )
G04 P1.000000
M9 ( Coolant off. )
M2 ( Program end. )

