(G-CODE GENERATED BY FLATCAM v8.994 - www.flatcam.org - Version Date: 2020/11/7)

(Name: io-board-F_Cu.gbr_iso_combined_cnc)
(Type: G-code from Geometry)
(Units: MM)

(Created on Tuesday, 04 May 2021 at 11:00)

(This preprocessor is the default preprocessor used by FlatCAM.)
(It is made to work with MACH3 compatible motion controllers.)

(TOOL DIAMETER: 0.9 mm)
(Feedrate_XY: 80.0 mm/min)
(Feedrate_Z: 60.0 mm/min)
(Feedrate rapids 1500.0 mm/min)

(Z_Cut: -0.05 mm)
(Z_Move: 2.0 mm)
(Z Start: None mm)
(Z End: 15.0 mm)
(X,Y End: None mm)
(Steps per circle: 64)
(Preprocessor Geometry: default)

(X range:    4.0954 ...  169.7235  mm)
(Y range:    4.4314 ...  102.2345  mm)

(Spindle Speed: 0.0 RPM)
G21
G90
G94

G01 F80.00

M5
G00 Z15.0000
G00 X0.0000 Y0.0000
T1
M6    
(MSG, Change to Tool Dia = 0.9000)
M0
G00 Z15.0000
S2000
M03
G01 F80.00
G00 X13.4609 Y24.6596
G01 F60.00
G01 Z-0.0500
G01 F80.00
G01 X13.4656 Y24.6287
G01 X13.4699 Y24.6071
G01 X13.4773 Y24.5767
G01 X13.4832 Y24.5554
G01 X13.4866 Y24.5449
G01 X13.4970 Y24.5154
G01 X13.5049 Y24.4948
G01 X13.5139 Y24.4746
G01 X13.5273 Y24.4465
G01 X13.5378 Y24.4270
G01 X13.5595 Y24.3907
G01 X13.5718 Y24.3724
G01 X13.5903 Y24.3472
G01 X13.6039 Y24.3298
G01 X13.6183 Y24.3130
G01 X13.6394 Y24.2900
G01 X13.6550 Y24.2744
G01 X13.6780 Y24.2533
G01 X13.6948 Y24.2389
G01 X13.7034 Y24.2320
G01 X13.7284 Y24.2132
G01 X13.7465 Y24.2005
G01 X13.7651 Y24.1887
G01 X13.7920 Y24.1728
G01 X13.8017 Y24.1674
G01 X13.8214 Y24.1575
G01 X13.8497 Y24.1443
G01 X13.8701 Y24.1358
G01 X13.9099 Y24.1216
G01 X13.9310 Y24.1152
G01 X13.9613 Y24.1074
G01 X13.9829 Y24.1026
G01 X14.0046 Y24.0988
G01 X14.0355 Y24.0944
G01 X14.0575 Y24.0922
G01 X14.0887 Y24.0905
G01 X14.1108 Y24.0900
G01 X15.1102 Y24.0901
G01 X15.1525 Y24.0922
G01 X15.1745 Y24.0944
G01 X15.2163 Y24.1006
G01 X15.2379 Y24.1049
G01 X15.2487 Y24.1074
G01 X15.2790 Y24.1152
G01 X15.2896 Y24.1182
G01 X15.3001 Y24.1216
G01 X15.3296 Y24.1320
G01 X15.3399 Y24.1358
G01 X15.3603 Y24.1443
G01 X15.3985 Y24.1623
G01 X15.4180 Y24.1728
G01 X15.4276 Y24.1783
G01 X15.4543 Y24.1945
G01 X15.4635 Y24.2005
G01 X15.4816 Y24.2132
G01 X15.5066 Y24.2320
G01 X15.5152 Y24.2389
G01 X15.5237 Y24.2460
G01 X15.5469 Y24.2668
G01 X15.5629 Y24.2821
G01 X15.5706 Y24.2900
G01 X15.5990 Y24.3213
G01 X15.6130 Y24.3384
G01 X15.6197 Y24.3472
G01 X15.6382 Y24.3724
G01 X15.6445 Y24.3815
G01 X15.6505 Y24.3907
G01 X15.6667 Y24.4174
G01 X15.6722 Y24.4270
G01 X15.6827 Y24.4465
G01 X15.7007 Y24.4847
G01 X15.7092 Y24.5051
G01 X15.7234 Y24.5449
G01 X15.7298 Y24.5660
G01 X15.7401 Y24.6071
G01 X15.7444 Y24.6287
G01 X15.7506 Y24.6705
G01 X15.7528 Y24.6925
G01 X15.7549 Y24.7348
G01 X15.7550 Y28.3342
G01 X15.7545 Y28.3563
G01 X15.7528 Y28.3875
G01 X15.7506 Y28.4095
G01 X15.7462 Y28.4404
G01 X15.7424 Y28.4621
G01 X15.7401 Y28.4729
G01 X15.7327 Y28.5033
G01 X15.7268 Y28.5246
G01 X15.7234 Y28.5351
G01 X15.7130 Y28.5646
G01 X15.7092 Y28.5749
G01 X15.7007 Y28.5953
G01 X15.6875 Y28.6236
G01 X15.6776 Y28.6433
G01 X15.6722 Y28.6530
G01 X15.6563 Y28.6799
G01 X15.6445 Y28.6985
G01 X15.6382 Y28.7076
G01 X15.6197 Y28.7328
G01 X15.6061 Y28.7502
G01 X15.5990 Y28.7587
G01 X15.5782 Y28.7819
G01 X15.5629 Y28.7979
G01 X15.5550 Y28.8056
G01 X15.5320 Y28.8267
G01 X15.5152 Y28.8411
G01 X15.4978 Y28.8547
G01 X15.4726 Y28.8732
G01 X15.4543 Y28.8855
G01 X15.4449 Y28.8913
G01 X15.4180 Y28.9072
G01 X15.4083 Y28.9126
G01 X15.3886 Y28.9225
G01 X15.3603 Y28.9357
G01 X15.3399 Y28.9442
G01 X15.3001 Y28.9584
G01 X15.2790 Y28.9648
G01 X15.2379 Y28.9751
G01 X15.2163 Y28.9794
G01 X15.1745 Y28.9856
G01 X15.1525 Y28.9878
G01 X15.1102 Y28.9899
G01 X14.1108 Y28.9900
G01 X14.0998 Y28.9899
G01 X14.0685 Y28.9885
G01 X14.0465 Y28.9868
G01 X14.0246 Y28.9841
G01 X13.9937 Y28.9794
G01 X13.9829 Y28.9774
G01 X13.9613 Y28.9726
G01 X13.9310 Y28.9648
G01 X13.9204 Y28.9618
G01 X13.9099 Y28.9584
G01 X13.8804 Y28.9480
G01 X13.8598 Y28.9401
G01 X13.8497 Y28.9357
G01 X13.8214 Y28.9225
G01 X13.8017 Y28.9126
G01 X13.7920 Y28.9072
G01 X13.7651 Y28.8913
G01 X13.7557 Y28.8855
G01 X13.7374 Y28.8732
G01 X13.7034 Y28.8480
G01 X13.6863 Y28.8340
G01 X13.6780 Y28.8267
G01 X13.6550 Y28.8056
G01 X13.6471 Y28.7979
G01 X13.6394 Y28.7900
G01 X13.6183 Y28.7670
G01 X13.6039 Y28.7502
G01 X13.5970 Y28.7416
G01 X13.5718 Y28.7076
G01 X13.5595 Y28.6893
G01 X13.5537 Y28.6799
G01 X13.5378 Y28.6530
G01 X13.5324 Y28.6433
G01 X13.5225 Y28.6236
G01 X13.5093 Y28.5953
G01 X13.5008 Y28.5749
G01 X13.4866 Y28.5351
G01 X13.4802 Y28.5140
G01 X13.4699 Y28.4729
G01 X13.4656 Y28.4513
G01 X13.4594 Y28.4095
G01 X13.4572 Y28.3875
G01 X13.4551 Y28.3452
G01 X13.4550 Y24.7458
G01 X13.4555 Y24.7237
G01 X13.4572 Y24.6925
G01 X13.4594 Y24.6705
G01 X13.4609 Y24.6596
G00 Z2.0000
G00 X18.5432 Y25.1054
G01 F60.00
G01 Z-0.0500
G01 F80.00
G01 X18.5533 Y25.0374
G01 X18.5571 Y25.0156
G01 X18.5619 Y24.9941
G01 X18.5786 Y24.9275
G01 X18.5845 Y24.9062
G01 X18.5914 Y24.8852
G01 X18.6146 Y24.8205
G01 X18.6225 Y24.7999
G01 X18.6315 Y24.7797
G01 X18.6609 Y24.7176
G01 X18.6708 Y24.6979
G01 X18.6761 Y24.6882
G01 X18.7170 Y24.6198
G01 X18.7288 Y24.6011
G01 X18.7415 Y24.5830
G01 X18.7824 Y24.5279
G01 X18.7960 Y24.5104
G01 X18.8105 Y24.4937
G01 X18.8566 Y24.4428
G01 X18.8718 Y24.4268
G01 X18.8878 Y24.4116
G01 X18.9387 Y24.3655
G01 X18.9554 Y24.3510
G01 X18.9729 Y24.3374
G01 X19.0280 Y24.2965
G01 X19.0461 Y24.2838
G01 X19.0648 Y24.2720
G01 X19.1332 Y24.2311
G01 X19.1527 Y24.2207
G01 X19.1626 Y24.2159
G01 X19.2247 Y24.1865
G01 X19.2449 Y24.1775
G01 X19.2655 Y24.1696
G01 X19.3302 Y24.1464
G01 X19.3512 Y24.1395
G01 X19.3725 Y24.1336
G01 X19.4391 Y24.1169
G01 X19.4606 Y24.1121
G01 X19.4824 Y24.1083
G01 X19.5504 Y24.0982
G01 X19.5723 Y24.0955
G01 X19.5943 Y24.0939
G01 X19.6740 Y24.0901
G01 X19.6850 Y24.0900
G01 X19.7071 Y24.0905
G01 X19.7757 Y24.0939
G01 X19.7977 Y24.0955
G01 X19.8196 Y24.0982
G01 X19.8876 Y24.1083
G01 X19.9094 Y24.1121
G01 X19.9309 Y24.1169
G01 X19.9975 Y24.1336
G01 X20.0188 Y24.1395
G01 X20.0398 Y24.1464
G01 X20.1045 Y24.1696
G01 X20.1251 Y24.1775
G01 X20.1453 Y24.1865
G01 X20.2173 Y24.2207
G01 X20.2271 Y24.2258
G01 X20.2463 Y24.2367
G01 X20.3052 Y24.2720
G01 X20.3239 Y24.2838
G01 X20.3420 Y24.2965
G01 X20.3971 Y24.3374
G01 X20.4146 Y24.3510
G01 X20.4313 Y24.3655
G01 X20.4822 Y24.4116
G01 X20.4982 Y24.4268
G01 X20.5134 Y24.4428
G01 X20.5595 Y24.4937
G01 X20.5740 Y24.5104
G01 X20.5809 Y24.5191
G01 X20.6285 Y24.5830
G01 X20.6412 Y24.6011
G01 X20.6530 Y24.6198
G01 X20.6883 Y24.6787
G01 X20.6992 Y24.6979
G01 X20.7091 Y24.7176
G01 X20.7385 Y24.7797
G01 X20.7475 Y24.7999
G01 X20.7554 Y24.8205
G01 X20.7786 Y24.8852
G01 X20.7855 Y24.9062
G01 X20.7914 Y24.9275
G01 X20.8081 Y24.9941
G01 X20.8129 Y25.0156
G01 X20.8167 Y25.0374
G01 X20.8268 Y25.1054
G01 X20.8295 Y25.1273
G01 X20.8311 Y25.1493
G01 X20.8349 Y25.2290
G01 X20.8350 Y27.8400
G01 X20.8345 Y27.8621
G01 X20.8311 Y27.9307
G01 X20.8295 Y27.9527
G01 X20.8268 Y27.9746
G01 X20.8167 Y28.0426
G01 X20.8129 Y28.0644
G01 X20.8081 Y28.0859
G01 X20.7914 Y28.1525
G01 X20.7855 Y28.1738
G01 X20.7786 Y28.1948
G01 X20.7554 Y28.2595
G01 X20.7475 Y28.2801
G01 X20.7385 Y28.3003
G01 X20.7091 Y28.3624
G01 X20.6992 Y28.3821
G01 X20.6883 Y28.4013
G01 X20.6530 Y28.4602
G01 X20.6412 Y28.4789
G01 X20.6285 Y28.4970
G01 X20.5876 Y28.5521
G01 X20.5740 Y28.5696
G01 X20.5595 Y28.5863
G01 X20.5134 Y28.6372
G01 X20.4982 Y28.6532
G01 X20.4822 Y28.6684
G01 X20.4313 Y28.7145
G01 X20.4146 Y28.7290
G01 X20.3971 Y28.7426
G01 X20.3420 Y28.7835
G01 X20.3239 Y28.7962
G01 X20.3052 Y28.8080
G01 X20.2463 Y28.8433
G01 X20.2271 Y28.8542
G01 X20.2074 Y28.8641
G01 X20.1453 Y28.8935
G01 X20.1251 Y28.9025
G01 X20.1045 Y28.9104
G01 X20.0398 Y28.9336
G01 X20.0188 Y28.9405
G01 X19.9975 Y28.9464
G01 X19.9309 Y28.9631
G01 X19.9094 Y28.9679
G01 X19.8876 Y28.9717
G01 X19.8196 Y28.9818
G01 X19.7977 Y28.9845
G01 X19.7757 Y28.9861
G01 X19.7071 Y28.9895
G01 X19.6850 Y28.9900
G01 X19.6629 Y28.9895
G01 X19.5943 Y28.9861
G01 X19.5723 Y28.9845
G01 X19.5504 Y28.9818
G01 X19.4824 Y28.9717
G01 X19.4606 Y28.9679
G01 X19.4391 Y28.9631
G01 X19.3725 Y28.9464
G01 X19.3512 Y28.9405
G01 X19.3302 Y28.9336
G01 X19.2655 Y28.9104
G01 X19.2449 Y28.9025
G01 X19.2247 Y28.8935
G01 X19.1626 Y28.8641
G01 X19.1429 Y28.8542
G01 X19.1237 Y28.8433
G01 X19.0648 Y28.8080
G01 X19.0461 Y28.7962
G01 X19.0280 Y28.7835
G01 X18.9729 Y28.7426
G01 X18.9554 Y28.7290
G01 X18.9387 Y28.7145
G01 X18.8878 Y28.6684
G01 X18.8718 Y28.6532
G01 X18.8566 Y28.6372
G01 X18.8105 Y28.5863
G01 X18.7960 Y28.5696
G01 X18.7824 Y28.5521
G01 X18.7415 Y28.4970
G01 X18.7288 Y28.4789
G01 X18.7170 Y28.4602
G01 X18.6817 Y28.4013
G01 X18.6708 Y28.3821
G01 X18.6609 Y28.3624
G01 X18.6315 Y28.3003
G01 X18.6225 Y28.2801
G01 X18.6146 Y28.2595
G01 X18.5914 Y28.1948
G01 X18.5845 Y28.1738
G01 X18.5786 Y28.1525
G01 X18.5619 Y28.0859
G01 X18.5571 Y28.0644
G01 X18.5533 Y28.0426
G01 X18.5432 Y27.9746
G01 X18.5405 Y27.9527
G01 X18.5389 Y27.9307
G01 X18.5351 Y27.8510
G01 X18.5350 Y25.2400
G01 X18.5355 Y25.2179
G01 X18.5389 Y25.1493
G01 X18.5405 Y25.1273
G01 X18.5432 Y25.1054
G00 Z2.0000
G00 X21.0832 Y25.1054
G01 F60.00
G01 Z-0.0500
G01 F80.00
G01 X21.0933 Y25.0374
G01 X21.0971 Y25.0156
G01 X21.1019 Y24.9941
G01 X21.1186 Y24.9275
G01 X21.1245 Y24.9062
G01 X21.1314 Y24.8852
G01 X21.1546 Y24.8205
G01 X21.1625 Y24.7999
G01 X21.1715 Y24.7797
G01 X21.2009 Y24.7176
G01 X21.2057 Y24.7077
G01 X21.2161 Y24.6882
G01 X21.2570 Y24.6198
G01 X21.2688 Y24.6011
G01 X21.2815 Y24.5830
G01 X21.3224 Y24.5279
G01 X21.3360 Y24.5104
G01 X21.3505 Y24.4937
G01 X21.3966 Y24.4428
G01 X21.4118 Y24.4268
G01 X21.4278 Y24.4116
G01 X21.4787 Y24.3655
G01 X21.4954 Y24.3510
G01 X21.5129 Y24.3374
G01 X21.5680 Y24.2965
G01 X21.5861 Y24.2838
G01 X21.6048 Y24.2720
G01 X21.6732 Y24.2311
G01 X21.6927 Y24.2207
G01 X21.7026 Y24.2159
G01 X21.7647 Y24.1865
G01 X21.7849 Y24.1775
G01 X21.8055 Y24.1696
G01 X21.8702 Y24.1464
G01 X21.8912 Y24.1395
G01 X21.9125 Y24.1336
G01 X21.9791 Y24.1169
G01 X22.0006 Y24.1121
G01 X22.0224 Y24.1083
G01 X22.0904 Y24.0982
G01 X22.1123 Y24.0955
G01 X22.1343 Y24.0939
G01 X22.2140 Y24.0901
G01 X22.2250 Y24.0900
G01 X22.2471 Y24.0905
G01 X22.3157 Y24.0939
G01 X22.3377 Y24.0955
G01 X22.3596 Y24.0982
G01 X22.4276 Y24.1083
G01 X22.4494 Y24.1121
G01 X22.4709 Y24.1169
G01 X22.5375 Y24.1336
G01 X22.5588 Y24.1395
G01 X22.5798 Y24.1464
G01 X22.6445 Y24.1696
G01 X22.6651 Y24.1775
G01 X22.6853 Y24.1865
G01 X22.7573 Y24.2207
G01 X22.7671 Y24.2258
G01 X22.7863 Y24.2367
G01 X22.8452 Y24.2720
G01 X22.8639 Y24.2838
G01 X22.8820 Y24.2965
G01 X22.9371 Y24.3374
G01 X22.9546 Y24.3510
G01 X22.9713 Y24.3655
G01 X23.0222 Y24.4116
G01 X23.0382 Y24.4268
G01 X23.0534 Y24.4428
G01 X23.0995 Y24.4937
G01 X23.1140 Y24.5104
G01 X23.1209 Y24.5191
G01 X23.1685 Y24.5830
G01 X23.1812 Y24.6011
G01 X23.1930 Y24.6198
G01 X23.2283 Y24.6787
G01 X23.2392 Y24.6979
G01 X23.2491 Y24.7176
G01 X23.2785 Y24.7797
G01 X23.2875 Y24.7999
G01 X23.2954 Y24.8205
G01 X23.3186 Y24.8852
G01 X23.3255 Y24.9062
G01 X23.3314 Y24.9275
G01 X23.3481 Y24.9941
G01 X23.3529 Y25.0156
G01 X23.3567 Y25.0374
G01 X23.3668 Y25.1054
G01 X23.3695 Y25.1273
G01 X23.3711 Y25.1493
G01 X23.3749 Y25.2290
G01 X23.3750 Y27.8400
G01 X23.3745 Y27.8621
G01 X23.3711 Y27.9307
G01 X23.3695 Y27.9527
G01 X23.3668 Y27.9746
G01 X23.3567 Y28.0426
G01 X23.3529 Y28.0644
G01 X23.3481 Y28.0859
G01 X23.3314 Y28.1525
G01 X23.3255 Y28.1738
G01 X23.3186 Y28.1948
G01 X23.2954 Y28.2595
G01 X23.2875 Y28.2801
G01 X23.2785 Y28.3003
G01 X23.2491 Y28.3624
G01 X23.2392 Y28.3821
G01 X23.2283 Y28.4013
G01 X23.1930 Y28.4602
G01 X23.1812 Y28.4789
G01 X23.1685 Y28.4970
G01 X23.1276 Y28.5521
G01 X23.1140 Y28.5696
G01 X23.0995 Y28.5863
G01 X23.0534 Y28.6372
G01 X23.0382 Y28.6532
G01 X23.0222 Y28.6684
G01 X22.9713 Y28.7145
G01 X22.9546 Y28.7290
G01 X22.9371 Y28.7426
G01 X22.8820 Y28.7835
G01 X22.8639 Y28.7962
G01 X22.8452 Y28.8080
G01 X22.7863 Y28.8433
G01 X22.7671 Y28.8542
G01 X22.7474 Y28.8641
G01 X22.6853 Y28.8935
G01 X22.6651 Y28.9025
G01 X22.6445 Y28.9104
G01 X22.5798 Y28.9336
G01 X22.5588 Y28.9405
G01 X22.5375 Y28.9464
G01 X22.4709 Y28.9631
G01 X22.4494 Y28.9679
G01 X22.4276 Y28.9717
G01 X22.3596 Y28.9818
G01 X22.3377 Y28.9845
G01 X22.3157 Y28.9861
G01 X22.2471 Y28.9895
G01 X22.2250 Y28.9900
G01 X22.2029 Y28.9895
G01 X22.1343 Y28.9861
G01 X22.1123 Y28.9845
G01 X22.0904 Y28.9818
G01 X22.0224 Y28.9717
G01 X22.0006 Y28.9679
G01 X21.9791 Y28.9631
G01 X21.9125 Y28.9464
G01 X21.8912 Y28.9405
G01 X21.8702 Y28.9336
G01 X21.8055 Y28.9104
G01 X21.7849 Y28.9025
G01 X21.7647 Y28.8935
G01 X21.7026 Y28.8641
G01 X21.6829 Y28.8542
G01 X21.6637 Y28.8433
G01 X21.6048 Y28.8080
G01 X21.5861 Y28.7962
G01 X21.5680 Y28.7835
G01 X21.5129 Y28.7426
G01 X21.4954 Y28.7290
G01 X21.4787 Y28.7145
G01 X21.4278 Y28.6684
G01 X21.4118 Y28.6532
G01 X21.3966 Y28.6372
G01 X21.3505 Y28.5863
G01 X21.3360 Y28.5696
G01 X21.3224 Y28.5521
G01 X21.2815 Y28.4970
G01 X21.2688 Y28.4789
G01 X21.2570 Y28.4602
G01 X21.2217 Y28.4013
G01 X21.2108 Y28.3821
G01 X21.2009 Y28.3624
G01 X21.1715 Y28.3003
G01 X21.1625 Y28.2801
G01 X21.1546 Y28.2595
G01 X21.1314 Y28.1948
G01 X21.1245 Y28.1738
G01 X21.1186 Y28.1525
G01 X21.1019 Y28.0859
G01 X21.0971 Y28.0644
G01 X21.0933 Y28.0426
G01 X21.0832 Y27.9746
G01 X21.0805 Y27.9527
G01 X21.0789 Y27.9307
G01 X21.0751 Y27.8510
G01 X21.0750 Y25.2400
G01 X21.0755 Y25.2179
G01 X21.0789 Y25.1493
G01 X21.0805 Y25.1273
G01 X21.0832 Y25.1054
G00 Z2.0000
G00 X23.6232 Y25.1054
G01 F60.00
G01 Z-0.0500
G01 F80.00
G01 X23.6333 Y25.0374
G01 X23.6371 Y25.0156
G01 X23.6419 Y24.9941
G01 X23.6586 Y24.9275
G01 X23.6645 Y24.9062
G01 X23.6714 Y24.8852
G01 X23.6946 Y24.8205
G01 X23.7025 Y24.7999
G01 X23.7115 Y24.7797
G01 X23.7432 Y24.7128
G01 X23.7432 Y21.4775
G01 X23.7438 Y21.4554
G01 X23.7472 Y21.3884
G01 X23.7481 Y21.3773
G01 X23.7508 Y21.3554
G01 X23.7608 Y21.2890
G01 X23.7651 Y21.2674
G01 X23.7813 Y21.2022
G01 X23.7872 Y21.1809
G01 X23.7941 Y21.1599
G01 X23.8130 Y21.1071
G01 X23.8210 Y21.0865
G01 X23.8253 Y21.0763
G01 X23.8539 Y21.0156
G01 X23.8639 Y20.9958
G01 X23.8748 Y20.9766
G01 X23.9094 Y20.9191
G01 X23.9154 Y20.9098
G01 X23.9281 Y20.8918
G01 X23.9616 Y20.8467
G01 X23.9751 Y20.8293
G01 X23.9896 Y20.8126
G01 X24.0273 Y20.7710
G01 X24.0425 Y20.7550
G01 X32.8721 Y11.9256
G01 X32.9218 Y11.8804
G01 X32.9385 Y11.8659
G01 X32.9559 Y11.8524
G01 X33.0010 Y11.8189
G01 X33.0099 Y11.8125
G01 X33.0283 Y11.8002
G01 X33.0858 Y11.7656
G01 X33.1050 Y11.7547
G01 X33.1248 Y11.7447
G01 X33.1755 Y11.7207
G01 X33.1957 Y11.7118
G01 X33.2163 Y11.7038
G01 X33.2691 Y11.6849
G01 X33.2901 Y11.6780
G01 X33.3114 Y11.6721
G01 X33.3766 Y11.6559
G01 X33.3982 Y11.6516
G01 X33.4646 Y11.6416
G01 X33.4865 Y11.6389
G01 X33.5086 Y11.6373
G01 X33.5646 Y11.6346
G01 X33.5867 Y11.6340
G01 X83.0726 Y11.6340
G01 X83.0947 Y11.6346
G01 X83.1507 Y11.6373
G01 X83.1728 Y11.6389
G01 X83.1947 Y11.6416
G01 X83.2611 Y11.6516
G01 X83.2719 Y11.6536
G01 X83.2935 Y11.6585
G01 X83.3479 Y11.6721
G01 X83.3692 Y11.6780
G01 X83.3902 Y11.6849
G01 X83.4430 Y11.7038
G01 X83.4636 Y11.7118
G01 X83.4838 Y11.7207
G01 X83.5345 Y11.7447
G01 X83.5543 Y11.7547
G01 X83.5735 Y11.7656
G01 X83.6216 Y11.7944
G01 X83.6403 Y11.8062
G01 X83.6494 Y11.8125
G01 X83.7034 Y11.8524
G01 X83.7208 Y11.8659
G01 X83.7375 Y11.8804
G01 X83.7791 Y11.9181
G01 X83.7951 Y11.9333
G01 X85.3072 Y13.4454
G01 X85.3342 Y13.4458
G01 X85.4322 Y13.4507
G01 X85.4542 Y13.4523
G01 X85.4761 Y13.4550
G01 X85.5732 Y13.4694
G01 X85.5950 Y13.4732
G01 X85.6058 Y13.4754
G01 X85.7117 Y13.5018
G01 X85.7330 Y13.5077
G01 X85.7540 Y13.5147
G01 X85.8464 Y13.5477
G01 X85.8670 Y13.5557
G01 X85.8872 Y13.5646
G01 X85.9759 Y13.6066
G01 X85.9956 Y13.6165
G01 X86.0148 Y13.6274
G01 X86.0990 Y13.6779
G01 X86.1177 Y13.6897
G01 X86.1357 Y13.7024
G01 X86.2146 Y13.7608
G01 X86.2320 Y13.7744
G01 X86.2487 Y13.7889
G01 X86.3214 Y13.8548
G01 X86.3374 Y13.8700
G01 X86.3526 Y13.8860
G01 X86.4185 Y13.9587
G01 X86.4330 Y13.9754
G01 X86.4466 Y13.9928
G01 X86.5050 Y14.0717
G01 X86.5177 Y14.0897
G01 X86.5295 Y14.1084
G01 X86.5800 Y14.1926
G01 X86.5856 Y14.2021
G01 X86.5960 Y14.2216
G01 X86.6428 Y14.3202
G01 X86.6517 Y14.3404
G01 X86.6597 Y14.3610
G01 X86.6927 Y14.4534
G01 X86.6997 Y14.4744
G01 X86.7056 Y14.4957
G01 X86.7294 Y14.5909
G01 X86.7342 Y14.6124
G01 X86.7363 Y14.6233
G01 X86.7524 Y14.7313
G01 X86.7539 Y14.7422
G01 X86.7561 Y14.7642
G01 X86.7620 Y14.8843
G01 X86.7621 Y14.8953
G01 X86.7616 Y14.9174
G01 X86.7561 Y15.0264
G01 X86.7551 Y15.0374
G01 X86.7524 Y15.0593
G01 X86.7380 Y15.1564
G01 X86.7342 Y15.1782
G01 X86.7294 Y15.1997
G01 X86.7056 Y15.2949
G01 X86.6997 Y15.3162
G01 X86.6927 Y15.3372
G01 X86.6597 Y15.4296
G01 X86.6517 Y15.4502
G01 X86.6428 Y15.4704
G01 X86.6008 Y15.5591
G01 X86.5909 Y15.5788
G01 X86.5800 Y15.5980
G01 X86.5295 Y15.6822
G01 X86.5177 Y15.7009
G01 X86.5050 Y15.7189
G01 X86.4466 Y15.7978
G01 X86.4330 Y15.8152
G01 X86.4185 Y15.8319
G01 X86.3526 Y15.9046
G01 X86.3374 Y15.9206
G01 X86.3214 Y15.9358
G01 X86.2487 Y16.0017
G01 X86.2320 Y16.0162
G01 X86.2146 Y16.0298
G01 X86.1268 Y16.0947
G01 X86.1177 Y16.1009
G01 X86.0990 Y16.1127
G01 X86.0148 Y16.1632
G01 X85.9956 Y16.1741
G01 X85.9759 Y16.1840
G01 X85.8872 Y16.2260
G01 X85.8670 Y16.2349
G01 X85.8464 Y16.2429
G01 X85.7540 Y16.2759
G01 X85.7330 Y16.2829
G01 X85.7117 Y16.2888
G01 X85.6165 Y16.3126
G01 X85.5950 Y16.3174
G01 X85.5732 Y16.3212
G01 X85.4761 Y16.3356
G01 X85.4542 Y16.3383
G01 X85.4322 Y16.3399
G01 X85.3342 Y16.3448
G01 X85.3121 Y16.3453
G01 X85.3011 Y16.3452
G01 X85.1920 Y16.3399
G01 X85.1700 Y16.3383
G01 X85.1481 Y16.3356
G01 X85.0510 Y16.3212
G01 X85.0292 Y16.3174
G01 X85.0077 Y16.3126
G01 X84.9125 Y16.2888
G01 X84.8912 Y16.2829
G01 X84.8702 Y16.2759
G01 X84.7778 Y16.2429
G01 X84.7572 Y16.2349
G01 X84.7370 Y16.2260
G01 X84.6483 Y16.1840
G01 X84.6286 Y16.1741
G01 X84.6094 Y16.1632
G01 X84.5252 Y16.1127
G01 X84.5065 Y16.1009
G01 X84.4885 Y16.0882
G01 X84.4096 Y16.0298
G01 X84.3922 Y16.0162
G01 X84.3755 Y16.0017
G01 X84.3028 Y15.9358
G01 X84.2868 Y15.9206
G01 X84.2716 Y15.9046
G01 X84.2057 Y15.8319
G01 X84.1912 Y15.8152
G01 X84.1776 Y15.7978
G01 X84.1192 Y15.7189
G01 X84.1065 Y15.7009
G01 X84.0947 Y15.6822
G01 X84.0442 Y15.5980
G01 X84.0333 Y15.5788
G01 X84.0234 Y15.5591
G01 X83.9814 Y15.4704
G01 X83.9725 Y15.4502
G01 X83.9645 Y15.4296
G01 X83.9315 Y15.3372
G01 X83.9245 Y15.3162
G01 X83.9186 Y15.2949
G01 X83.8948 Y15.1997
G01 X83.8900 Y15.1782
G01 X83.8862 Y15.1564
G01 X83.8718 Y15.0593
G01 X83.8691 Y15.0374
G01 X83.8675 Y15.0154
G01 X83.8626 Y14.9174
G01 X83.8622 Y14.8904
G01 X82.6494 Y13.6776
G01 X34.0099 Y13.6776
G01 X25.7868 Y21.9007
G01 X25.7868 Y24.7128
G01 X25.8231 Y24.7898
G01 X25.8275 Y24.7999
G01 X25.8354 Y24.8205
G01 X25.8586 Y24.8852
G01 X25.8655 Y24.9062
G01 X25.8714 Y24.9275
G01 X25.8881 Y24.9941
G01 X25.8906 Y25.0048
G01 X25.8949 Y25.0265
G01 X25.9082 Y25.1163
G01 X25.9095 Y25.1273
G01 X25.9111 Y25.1493
G01 X25.9149 Y25.2290
G01 X25.9150 Y27.8400
G01 X25.9145 Y27.8621
G01 X25.9104 Y27.9417
G01 X25.9095 Y27.9527
G01 X25.9068 Y27.9746
G01 X25.8967 Y28.0426
G01 X25.8949 Y28.0535
G01 X25.8906 Y28.0752
G01 X25.8714 Y28.1525
G01 X25.8655 Y28.1738
G01 X25.8586 Y28.1948
G01 X25.8354 Y28.2595
G01 X25.8275 Y28.2801
G01 X25.8185 Y28.3003
G01 X25.7891 Y28.3624
G01 X25.7792 Y28.3821
G01 X25.7683 Y28.4013
G01 X25.7330 Y28.4602
G01 X25.7212 Y28.4789
G01 X25.7085 Y28.4970
G01 X25.6676 Y28.5521
G01 X25.6540 Y28.5696
G01 X25.6395 Y28.5863
G01 X25.5934 Y28.6372
G01 X25.5782 Y28.6532
G01 X25.5622 Y28.6684
G01 X25.5113 Y28.7145
G01 X25.4946 Y28.7290
G01 X25.4771 Y28.7426
G01 X25.4220 Y28.7835
G01 X25.4039 Y28.7962
G01 X25.3852 Y28.8080
G01 X25.3263 Y28.8433
G01 X25.3071 Y28.8542
G01 X25.2874 Y28.8641
G01 X25.2253 Y28.8935
G01 X25.2051 Y28.9025
G01 X25.1845 Y28.9104
G01 X25.1198 Y28.9336
G01 X25.0988 Y28.9405
G01 X25.0775 Y28.9464
G01 X25.0109 Y28.9631
G01 X24.9894 Y28.9679
G01 X24.9676 Y28.9717
G01 X24.8996 Y28.9818
G01 X24.8777 Y28.9845
G01 X24.8557 Y28.9861
G01 X24.7871 Y28.9895
G01 X24.7650 Y28.9900
G01 X24.7429 Y28.9895
G01 X24.6743 Y28.9861
G01 X24.6523 Y28.9845
G01 X24.6304 Y28.9818
G01 X24.5624 Y28.9717
G01 X24.5406 Y28.9679
G01 X24.5191 Y28.9631
G01 X24.4525 Y28.9464
G01 X24.4312 Y28.9405
G01 X24.4102 Y28.9336
G01 X24.3455 Y28.9104
G01 X24.3249 Y28.9025
G01 X24.3047 Y28.8935
G01 X24.2426 Y28.8641
G01 X24.2229 Y28.8542
G01 X24.2037 Y28.8433
G01 X24.1448 Y28.8080
G01 X24.1261 Y28.7962
G01 X24.1080 Y28.7835
G01 X24.0529 Y28.7426
G01 X24.0354 Y28.7290
G01 X24.0187 Y28.7145
G01 X23.9678 Y28.6684
G01 X23.9518 Y28.6532
G01 X23.9366 Y28.6372
G01 X23.8905 Y28.5863
G01 X23.8760 Y28.5696
G01 X23.8624 Y28.5521
G01 X23.8215 Y28.4970
G01 X23.8088 Y28.4789
G01 X23.7970 Y28.4602
G01 X23.7617 Y28.4013
G01 X23.7508 Y28.3821
G01 X23.7409 Y28.3624
G01 X23.7115 Y28.3003
G01 X23.7025 Y28.2801
G01 X23.6946 Y28.2595
G01 X23.6714 Y28.1948
G01 X23.6645 Y28.1738
G01 X23.6586 Y28.1525
G01 X23.6419 Y28.0859
G01 X23.6371 Y28.0644
G01 X23.6333 Y28.0426
G01 X23.6232 Y27.9746
G01 X23.6205 Y27.9527
G01 X23.6189 Y27.9307
G01 X23.6151 Y27.8510
G01 X23.6150 Y25.2400
G01 X23.6155 Y25.2179
G01 X23.6189 Y25.1493
G01 X23.6205 Y25.1273
G01 X23.6232 Y25.1054
G00 Z2.0000
G00 X26.1632 Y25.1054
G01 F60.00
G01 Z-0.0500
G01 F80.00
G01 X26.1733 Y25.0374
G01 X26.1771 Y25.0156
G01 X26.1819 Y24.9941
G01 X26.1986 Y24.9275
G01 X26.2045 Y24.9062
G01 X26.2114 Y24.8852
G01 X26.2346 Y24.8205
G01 X26.2425 Y24.7999
G01 X26.2515 Y24.7797
G01 X26.2832 Y24.7128
G01 X26.2832 Y21.8607
G01 X26.2838 Y21.8386
G01 X26.2872 Y21.7716
G01 X26.2894 Y21.7496
G01 X26.2908 Y21.7386
G01 X26.3008 Y21.6722
G01 X26.3051 Y21.6506
G01 X26.3213 Y21.5854
G01 X26.3272 Y21.5641
G01 X26.3341 Y21.5431
G01 X26.3530 Y21.4903
G01 X26.3610 Y21.4697
G01 X26.3653 Y21.4595
G01 X26.3939 Y21.3988
G01 X26.4039 Y21.3790
G01 X26.4148 Y21.3598
G01 X26.4436 Y21.3117
G01 X26.4494 Y21.3023
G01 X26.4617 Y21.2839
G01 X26.5016 Y21.2299
G01 X26.5151 Y21.2125
G01 X26.5296 Y21.1958
G01 X26.5673 Y21.1542
G01 X26.5825 Y21.1382
G01 X33.6950 Y14.0259
G01 X33.7447 Y13.9807
G01 X33.7614 Y13.9662
G01 X33.7788 Y13.9527
G01 X33.8239 Y13.9192
G01 X33.8419 Y13.9065
G01 X33.8512 Y13.9005
G01 X33.9087 Y13.8659
G01 X33.9279 Y13.8550
G01 X33.9477 Y13.8450
G01 X33.9984 Y13.8210
G01 X34.0186 Y13.8121
G01 X34.0392 Y13.8041
G01 X34.0920 Y13.7852
G01 X34.1025 Y13.7816
G01 X34.1236 Y13.7752
G01 X34.1887 Y13.7588
G01 X34.2103 Y13.7539
G01 X34.2320 Y13.7502
G01 X34.2875 Y13.7419
G01 X34.3094 Y13.7392
G01 X34.3315 Y13.7376
G01 X34.3875 Y13.7349
G01 X34.4096 Y13.7343
G01 X81.4130 Y13.7343
G01 X81.4351 Y13.7349
G01 X81.4911 Y13.7376
G01 X81.5132 Y13.7392
G01 X81.5351 Y13.7419
G01 X81.5906 Y13.7502
G01 X81.6123 Y13.7539
G01 X81.6339 Y13.7588
G01 X81.6883 Y13.7724
G01 X81.7096 Y13.7783
G01 X81.7306 Y13.7852
G01 X81.7938 Y13.8080
G01 X81.8142 Y13.8164
G01 X81.8242 Y13.8210
G01 X81.8849 Y13.8499
G01 X81.9043 Y13.8603
G01 X81.9620 Y13.8947
G01 X81.9807 Y13.9065
G01 X81.9987 Y13.9192
G01 X82.0526 Y13.9593
G01 X82.0697 Y13.9734
G01 X82.1195 Y14.0184
G01 X82.1355 Y14.0336
G01 X84.4749 Y16.3730
G01 X88.0530 Y16.3730
G01 X97.3763 Y7.0497
G01 X97.3923 Y7.0345
G01 X97.4421 Y6.9895
G01 X97.4506 Y6.9823
G01 X97.4680 Y6.9688
G01 X97.5131 Y6.9353
G01 X97.5311 Y6.9226
G01 X97.5498 Y6.9108
G01 X97.5979 Y6.8820
G01 X97.6171 Y6.8711
G01 X97.6269 Y6.8660
G01 X97.6876 Y6.8371
G01 X97.7078 Y6.8282
G01 X97.7284 Y6.8202
G01 X97.7812 Y6.8013
G01 X97.7917 Y6.7977
G01 X97.8128 Y6.7913
G01 X97.8779 Y6.7749
G01 X97.8995 Y6.7700
G01 X97.9212 Y6.7663
G01 X97.9767 Y6.7580
G01 X97.9877 Y6.7566
G01 X98.0097 Y6.7544
G01 X98.0767 Y6.7510
G01 X98.0988 Y6.7504
G01 X121.2398 Y6.7505
G01 X121.3069 Y6.7537
G01 X121.3290 Y6.7553
G01 X121.3509 Y6.7580
G01 X121.4064 Y6.7663
G01 X121.4281 Y6.7700
G01 X121.4497 Y6.7749
G01 X121.5041 Y6.7885
G01 X121.5254 Y6.7944
G01 X121.5464 Y6.8013
G01 X121.5992 Y6.8202
G01 X121.6198 Y6.8282
G01 X121.6400 Y6.8371
G01 X121.6907 Y6.8611
G01 X121.7105 Y6.8711
G01 X121.7297 Y6.8820
G01 X121.7778 Y6.9108
G01 X121.7965 Y6.9226
G01 X121.8145 Y6.9353
G01 X121.8596 Y6.9688
G01 X121.8770 Y6.9823
G01 X121.8937 Y6.9968
G01 X121.9434 Y7.0420
G01 X137.2475 Y22.3459
G01 X137.2627 Y22.3619
G01 X137.3004 Y22.4035
G01 X137.3149 Y22.4202
G01 X137.3218 Y22.4288
G01 X137.3619 Y22.4827
G01 X137.3746 Y22.5007
G01 X137.3864 Y22.5194
G01 X137.4152 Y22.5675
G01 X137.4208 Y22.5771
G01 X137.4312 Y22.5965
G01 X137.4601 Y22.6572
G01 X137.4690 Y22.6774
G01 X137.4770 Y22.6980
G01 X137.4959 Y22.7508
G01 X137.5028 Y22.7718
G01 X137.5087 Y22.7931
G01 X137.5223 Y22.8475
G01 X137.5272 Y22.8691
G01 X137.5309 Y22.8908
G01 X137.5406 Y22.9573
G01 X137.5428 Y22.9793
G01 X137.5462 Y23.0463
G01 X137.5468 Y23.0684
G01 X137.5468 Y24.7128
G01 X137.5831 Y24.7898
G01 X137.5875 Y24.7999
G01 X137.5954 Y24.8205
G01 X137.6186 Y24.8852
G01 X137.6255 Y24.9062
G01 X137.6314 Y24.9275
G01 X137.6481 Y24.9941
G01 X137.6506 Y25.0048
G01 X137.6549 Y25.0265
G01 X137.6682 Y25.1163
G01 X137.6704 Y25.1383
G01 X137.6711 Y25.1493
G01 X137.6749 Y25.2290
G01 X137.6749 Y27.8510
G01 X137.6711 Y27.9307
G01 X137.6695 Y27.9527
G01 X137.6668 Y27.9746
G01 X137.6567 Y28.0426
G01 X137.6529 Y28.0644
G01 X137.6481 Y28.0859
G01 X137.6314 Y28.1525
G01 X137.6255 Y28.1738
G01 X137.6186 Y28.1948
G01 X137.5954 Y28.2595
G01 X137.5875 Y28.2801
G01 X137.5785 Y28.3003
G01 X137.5491 Y28.3624
G01 X137.5392 Y28.3821
G01 X137.5283 Y28.4013
G01 X137.4930 Y28.4602
G01 X137.4812 Y28.4789
G01 X137.4749 Y28.4880
G01 X137.4276 Y28.5521
G01 X137.4140 Y28.5696
G01 X137.3995 Y28.5863
G01 X137.3534 Y28.6372
G01 X137.3382 Y28.6532
G01 X137.3222 Y28.6684
G01 X137.2713 Y28.7145
G01 X137.2630 Y28.7219
G01 X137.2459 Y28.7359
G01 X137.1820 Y28.7835
G01 X137.1639 Y28.7962
G01 X137.1452 Y28.8080
G01 X137.0768 Y28.8489
G01 X137.0573 Y28.8593
G01 X137.0474 Y28.8641
G01 X136.9853 Y28.8935
G01 X136.9651 Y28.9025
G01 X136.9445 Y28.9104
G01 X136.8798 Y28.9336
G01 X136.8588 Y28.9405
G01 X136.8375 Y28.9464
G01 X136.7602 Y28.9656
G01 X136.7494 Y28.9679
G01 X136.7276 Y28.9717
G01 X136.6596 Y28.9818
G01 X136.6377 Y28.9845
G01 X136.6157 Y28.9861
G01 X136.5471 Y28.9895
G01 X136.5250 Y28.9900
G01 X136.5029 Y28.9895
G01 X136.4343 Y28.9861
G01 X136.4123 Y28.9845
G01 X136.3904 Y28.9818
G01 X136.3224 Y28.9717
G01 X136.3006 Y28.9679
G01 X136.2791 Y28.9631
G01 X136.2125 Y28.9464
G01 X136.1912 Y28.9405
G01 X136.1702 Y28.9336
G01 X136.1055 Y28.9104
G01 X136.0952 Y28.9066
G01 X136.0748 Y28.8981
G01 X136.0026 Y28.8641
G01 X135.9829 Y28.8542
G01 X135.9637 Y28.8433
G01 X135.8954 Y28.8022
G01 X135.8770 Y28.7899
G01 X135.8680 Y28.7835
G01 X135.8129 Y28.7426
G01 X135.8041 Y28.7359
G01 X135.7870 Y28.7219
G01 X135.7278 Y28.6684
G01 X135.7118 Y28.6532
G01 X135.6966 Y28.6372
G01 X135.6505 Y28.5863
G01 X135.6431 Y28.5780
G01 X135.6291 Y28.5609
G01 X135.5815 Y28.4970
G01 X135.5688 Y28.4789
G01 X135.5570 Y28.4602
G01 X135.5217 Y28.4013
G01 X135.5108 Y28.3821
G01 X135.5057 Y28.3723
G01 X135.4715 Y28.3003
G01 X135.4669 Y28.2902
G01 X135.4584 Y28.2698
G01 X135.4314 Y28.1948
G01 X135.4245 Y28.1738
G01 X135.4186 Y28.1525
G01 X135.4019 Y28.0859
G01 X135.3971 Y28.0644
G01 X135.3933 Y28.0426
G01 X135.3832 Y27.9746
G01 X135.3805 Y27.9527
G01 X135.3789 Y27.9307
G01 X135.3751 Y27.8510
G01 X135.3751 Y25.2290
G01 X135.3789 Y25.1493
G01 X135.3796 Y25.1383
G01 X135.3818 Y25.1163
G01 X135.3951 Y25.0265
G01 X135.3971 Y25.0156
G01 X135.4019 Y24.9941
G01 X135.4186 Y24.9275
G01 X135.4245 Y24.9062
G01 X135.4314 Y24.8852
G01 X135.4546 Y24.8205
G01 X135.4584 Y24.8102
G01 X135.4669 Y24.7898
G01 X135.5032 Y24.7128
G01 X135.5032 Y23.4916
G01 X120.8056 Y8.7940
G01 X98.5220 Y8.7940
G01 X89.1987 Y18.1173
G01 X89.1827 Y18.1325
G01 X89.1411 Y18.1702
G01 X89.1329 Y18.1775
G01 X89.1158 Y18.1916
G01 X89.0619 Y18.2317
G01 X89.0439 Y18.2444
G01 X89.0252 Y18.2562
G01 X88.9771 Y18.2850
G01 X88.9675 Y18.2906
G01 X88.9481 Y18.3010
G01 X88.8874 Y18.3299
G01 X88.8672 Y18.3388
G01 X88.8466 Y18.3468
G01 X88.7938 Y18.3657
G01 X88.7728 Y18.3726
G01 X88.7515 Y18.3785
G01 X88.6971 Y18.3921
G01 X88.6755 Y18.3970
G01 X88.6538 Y18.4007
G01 X88.5873 Y18.4104
G01 X88.5653 Y18.4126
G01 X88.4983 Y18.4160
G01 X88.4762 Y18.4166
G01 X86.3342 Y18.4166
G01 X86.3218 Y18.5001
G01 X86.3180 Y18.5219
G01 X86.3132 Y18.5434
G01 X86.2894 Y18.6386
G01 X86.2835 Y18.6599
G01 X86.2765 Y18.6809
G01 X86.2435 Y18.7733
G01 X86.2355 Y18.7939
G01 X86.2266 Y18.8141
G01 X86.1846 Y18.9028
G01 X86.1747 Y18.9225
G01 X86.1638 Y18.9417
G01 X86.1133 Y19.0259
G01 X86.1015 Y19.0446
G01 X86.0888 Y19.0626
G01 X86.0304 Y19.1415
G01 X86.0168 Y19.1589
G01 X86.0023 Y19.1756
G01 X85.9364 Y19.2483
G01 X85.9212 Y19.2643
G01 X85.9052 Y19.2795
G01 X85.8325 Y19.3454
G01 X85.8242 Y19.3528
G01 X85.8071 Y19.3668
G01 X85.7106 Y19.4384
G01 X85.6922 Y19.4507
G01 X85.6828 Y19.4564
G01 X85.5986 Y19.5069
G01 X85.5794 Y19.5178
G01 X85.5696 Y19.5229
G01 X85.4710 Y19.5697
G01 X85.4508 Y19.5786
G01 X85.4302 Y19.5866
G01 X85.3378 Y19.6196
G01 X85.3168 Y19.6266
G01 X85.2955 Y19.6325
G01 X85.2003 Y19.6563
G01 X85.1788 Y19.6611
G01 X85.1570 Y19.6649
G01 X85.0599 Y19.6793
G01 X85.0380 Y19.6820
G01 X85.0160 Y19.6836
G01 X84.9083 Y19.6888
G01 X85.8101 Y19.6888
G01 X85.8457 Y19.6407
G01 X85.8593 Y19.6233
G01 X85.8738 Y19.6066
G01 X85.9472 Y19.5258
G01 X85.9628 Y19.5102
G01 X85.9709 Y19.5027
G01 X86.0519 Y19.4294
G01 X86.0603 Y19.4223
G01 X86.0777 Y19.4087
G01 X86.1566 Y19.3503
G01 X86.1746 Y19.3376
G01 X86.1933 Y19.3258
G01 X86.2775 Y19.2753
G01 X86.2870 Y19.2697
G01 X86.3065 Y19.2593
G01 X86.4152 Y19.2079
G01 X86.4253 Y19.2036
G01 X86.4459 Y19.1956
G01 X86.5383 Y19.1626
G01 X86.5593 Y19.1556
G01 X86.5806 Y19.1497
G01 X86.6758 Y19.1259
G01 X86.6973 Y19.1211
G01 X86.7191 Y19.1173
G01 X86.8162 Y19.1029
G01 X86.8381 Y19.1002
G01 X86.8601 Y19.0986
G01 X86.9581 Y19.0937
G01 X86.9802 Y19.0932
G01 X87.0023 Y19.0937
G01 X87.1003 Y19.0986
G01 X87.1223 Y19.1002
G01 X87.1442 Y19.1029
G01 X87.2413 Y19.1173
G01 X87.2631 Y19.1211
G01 X87.2846 Y19.1259
G01 X87.3798 Y19.1497
G01 X87.4011 Y19.1556
G01 X87.4221 Y19.1626
G01 X87.5145 Y19.1956
G01 X87.5351 Y19.2036
G01 X87.5553 Y19.2125
G01 X87.6440 Y19.2545
G01 X87.6637 Y19.2644
G01 X87.6829 Y19.2753
G01 X87.7671 Y19.3258
G01 X87.7858 Y19.3376
G01 X87.8038 Y19.3503
G01 X87.8827 Y19.4087
G01 X87.9001 Y19.4223
G01 X87.9168 Y19.4368
G01 X87.9895 Y19.5027
G01 X88.0089 Y19.5214
G01 X101.7527 Y19.5214
G01 X107.5607 Y13.7134
G01 X107.5767 Y13.6982
G01 X107.6183 Y13.6605
G01 X107.6350 Y13.6460
G01 X107.6524 Y13.6325
G01 X107.6975 Y13.5990
G01 X107.7155 Y13.5863
G01 X107.7342 Y13.5745
G01 X107.7919 Y13.5401
G01 X107.8113 Y13.5297
G01 X107.8820 Y13.4962
G01 X107.9024 Y13.4878
G01 X107.9128 Y13.4839
G01 X107.9656 Y13.4650
G01 X107.9866 Y13.4581
G01 X108.0079 Y13.4522
G01 X108.0623 Y13.4386
G01 X108.0731 Y13.4360
G01 X108.0947 Y13.4317
G01 X108.1721 Y13.4203
G01 X108.1830 Y13.4190
G01 X108.2051 Y13.4174
G01 X108.2722 Y13.4142
G01 X113.7816 Y13.4141
G01 X113.8010 Y13.3954
G01 X113.8737 Y13.3295
G01 X113.8904 Y13.3150
G01 X113.9078 Y13.3014
G01 X113.9867 Y13.2430
G01 X114.0047 Y13.2303
G01 X114.0234 Y13.2185
G01 X114.1076 Y13.1680
G01 X114.1268 Y13.1571
G01 X114.1465 Y13.1472
G01 X114.2352 Y13.1052
G01 X114.2554 Y13.0963
G01 X114.2760 Y13.0883
G01 X114.3684 Y13.0553
G01 X114.3894 Y13.0483
G01 X114.4107 Y13.0424
G01 X114.5059 Y13.0186
G01 X114.5274 Y13.0138
G01 X114.5492 Y13.0100
G01 X114.6463 Y12.9956
G01 X114.6682 Y12.9929
G01 X114.6902 Y12.9913
G01 X114.7979 Y12.9861
G01 X102.6101 Y12.9861
G01 X102.5807 Y13.0479
G01 X102.5703 Y13.0674
G01 X102.5142 Y13.1611
G01 X102.5085 Y13.1705
G01 X102.4962 Y13.1889
G01 X102.4313 Y13.2767
G01 X102.4177 Y13.2941
G01 X102.4032 Y13.3108
G01 X102.3298 Y13.3916
G01 X102.3142 Y13.4072
G01 X102.3061 Y13.4147
G01 X102.2334 Y13.4806
G01 X102.2167 Y13.4951
G01 X102.1993 Y13.5087
G01 X102.1204 Y13.5671
G01 X102.1024 Y13.5798
G01 X102.0837 Y13.5916
G01 X101.9900 Y13.6477
G01 X101.9705 Y13.6581
G01 X101.9606 Y13.6629
G01 X101.8719 Y13.7049
G01 X101.8517 Y13.7138
G01 X101.8311 Y13.7218
G01 X101.7387 Y13.7548
G01 X101.7177 Y13.7618
G01 X101.6964 Y13.7677
G01 X101.6012 Y13.7915
G01 X101.5797 Y13.7963
G01 X101.5579 Y13.8001
G01 X101.4608 Y13.8145
G01 X101.4389 Y13.8172
G01 X101.4169 Y13.8188
G01 X101.3189 Y13.8237
G01 X101.2968 Y13.8242
G01 X101.2858 Y13.8241
G01 X101.1767 Y13.8188
G01 X101.1547 Y13.8172
G01 X101.1328 Y13.8145
G01 X101.0357 Y13.8001
G01 X101.0139 Y13.7963
G01 X100.9924 Y13.7915
G01 X100.8972 Y13.7677
G01 X100.8759 Y13.7618
G01 X100.8549 Y13.7548
G01 X100.7625 Y13.7218
G01 X100.7419 Y13.7138
G01 X100.7217 Y13.7049
G01 X100.6330 Y13.6629
G01 X100.6231 Y13.6581
G01 X100.6036 Y13.6477
G01 X100.5099 Y13.5916
G01 X100.4912 Y13.5798
G01 X100.4732 Y13.5671
G01 X100.3943 Y13.5087
G01 X100.3769 Y13.4951
G01 X100.3602 Y13.4806
G01 X100.2875 Y13.4147
G01 X100.2715 Y13.3995
G01 X100.2563 Y13.3835
G01 X100.1904 Y13.3108
G01 X100.1759 Y13.2941
G01 X100.1623 Y13.2767
G01 X100.1039 Y13.1978
G01 X100.0912 Y13.1798
G01 X100.0794 Y13.1611
G01 X100.0289 Y13.0769
G01 X100.0180 Y13.0577
G01 X100.0081 Y13.0380
G01 X99.9661 Y12.9493
G01 X99.9572 Y12.9291
G01 X99.9531 Y12.9188
G01 X99.9162 Y12.8161
G01 X99.9092 Y12.7951
G01 X99.9033 Y12.7738
G01 X99.8795 Y12.6786
G01 X99.8747 Y12.6571
G01 X99.8709 Y12.6353
G01 X99.8565 Y12.5382
G01 X99.8538 Y12.5163
G01 X99.8528 Y12.5053
G01 X99.8473 Y12.3963
G01 X99.8468 Y12.3742
G01 X99.8473 Y12.3521
G01 X99.8522 Y12.2541
G01 X99.8538 Y12.2321
G01 X99.8565 Y12.2102
G01 X99.8709 Y12.1131
G01 X99.8747 Y12.0913
G01 X99.8795 Y12.0698
G01 X99.9033 Y11.9746
G01 X99.9062 Y11.9639
G01 X99.9126 Y11.9428
G01 X99.9492 Y11.8399
G01 X99.9572 Y11.8193
G01 X99.9661 Y11.7991
G01 X100.0081 Y11.7104
G01 X100.0180 Y11.6907
G01 X100.0289 Y11.6715
G01 X100.0794 Y11.5873
G01 X100.0912 Y11.5686
G01 X100.1039 Y11.5506
G01 X100.1623 Y11.4717
G01 X100.1759 Y11.4543
G01 X100.1904 Y11.4376
G01 X100.2563 Y11.3649
G01 X100.2715 Y11.3489
G01 X100.2875 Y11.3337
G01 X100.3602 Y11.2678
G01 X100.3769 Y11.2533
G01 X100.3943 Y11.2397
G01 X100.4732 Y11.1813
G01 X100.4821 Y11.1748
G01 X100.5005 Y11.1625
G01 X100.6036 Y11.1007
G01 X100.6133 Y11.0954
G01 X100.6330 Y11.0855
G01 X100.7217 Y11.0435
G01 X100.7419 Y11.0346
G01 X100.7522 Y11.0305
G01 X100.8549 Y10.9936
G01 X100.8759 Y10.9866
G01 X100.8972 Y10.9807
G01 X100.9924 Y10.9569
G01 X101.0139 Y10.9521
G01 X101.0357 Y10.9483
G01 X101.1328 Y10.9339
G01 X101.1547 Y10.9312
G01 X101.1767 Y10.9296
G01 X101.2747 Y10.9247
G01 X101.2968 Y10.9242
G01 X101.3189 Y10.9247
G01 X101.4169 Y10.9296
G01 X101.4389 Y10.9312
G01 X101.4608 Y10.9339
G01 X101.5579 Y10.9483
G01 X101.5761 Y10.9514
G01 X101.5956 Y10.9487
G01 X101.6176 Y10.9465
G01 X101.6846 Y10.9431
G01 X101.7067 Y10.9425
G01 X118.5765 Y10.9425
G01 X118.5986 Y10.9431
G01 X118.6546 Y10.9458
G01 X118.6767 Y10.9474
G01 X118.6986 Y10.9501
G01 X118.7541 Y10.9584
G01 X118.7758 Y10.9621
G01 X118.7974 Y10.9670
G01 X118.8518 Y10.9806
G01 X118.8731 Y10.9865
G01 X118.8941 Y10.9934
G01 X118.9469 Y11.0123
G01 X118.9573 Y11.0162
G01 X118.9777 Y11.0246
G01 X119.0384 Y11.0532
G01 X119.0582 Y11.0632
G01 X119.0774 Y11.0741
G01 X119.1349 Y11.1087
G01 X119.1533 Y11.1210
G01 X119.1622 Y11.1274
G01 X119.2073 Y11.1609
G01 X119.2247 Y11.1744
G01 X119.2414 Y11.1889
G01 X119.2830 Y11.2266
G01 X119.2990 Y11.2418
G01 X129.6275 Y21.5703
G01 X129.6427 Y21.5863
G01 X129.6877 Y21.6361
G01 X129.6949 Y21.6446
G01 X129.7084 Y21.6620
G01 X129.7419 Y21.7071
G01 X129.7546 Y21.7251
G01 X129.7664 Y21.7438
G01 X129.7952 Y21.7919
G01 X129.8008 Y21.8015
G01 X129.8112 Y21.8209
G01 X129.8401 Y21.8816
G01 X129.8490 Y21.9018
G01 X129.8570 Y21.9224
G01 X129.8759 Y21.9752
G01 X129.8828 Y21.9962
G01 X129.8887 Y22.0175
G01 X129.9023 Y22.0719
G01 X129.9072 Y22.0935
G01 X129.9109 Y22.1152
G01 X129.9192 Y22.1707
G01 X129.9219 Y22.1926
G01 X129.9228 Y22.2037
G01 X129.9262 Y22.2707
G01 X129.9268 Y22.2928
G01 X129.9268 Y24.7128
G01 X129.9585 Y24.7797
G01 X129.9631 Y24.7898
G01 X129.9716 Y24.8102
G01 X130.0021 Y24.8956
G01 X130.0055 Y24.9062
G01 X130.0114 Y24.9275
G01 X130.0281 Y24.9941
G01 X130.0329 Y25.0156
G01 X130.0367 Y25.0374
G01 X130.0468 Y25.1054
G01 X130.0482 Y25.1163
G01 X130.0504 Y25.1383
G01 X130.0545 Y25.2179
G01 X130.0550 Y25.2400
G01 X130.0550 Y27.8400
G01 X130.0545 Y27.8621
G01 X130.0504 Y27.9417
G01 X130.0482 Y27.9637
G01 X130.0468 Y27.9746
G01 X130.0367 Y28.0426
G01 X130.0329 Y28.0644
G01 X130.0306 Y28.0752
G01 X130.0114 Y28.1525
G01 X130.0055 Y28.1738
G01 X129.9986 Y28.1948
G01 X129.9754 Y28.2595
G01 X129.9675 Y28.2801
G01 X129.9585 Y28.3003
G01 X129.9291 Y28.3624
G01 X129.9192 Y28.3821
G01 X129.9083 Y28.4013
G01 X129.8730 Y28.4602
G01 X129.8612 Y28.4789
G01 X129.8485 Y28.4970
G01 X129.8076 Y28.5521
G01 X129.7940 Y28.5696
G01 X129.7795 Y28.5863
G01 X129.7334 Y28.6372
G01 X129.7182 Y28.6532
G01 X129.7022 Y28.6684
G01 X129.6513 Y28.7145
G01 X129.6346 Y28.7290
G01 X129.6171 Y28.7426
G01 X129.5620 Y28.7835
G01 X129.5439 Y28.7962
G01 X129.5252 Y28.8080
G01 X129.4663 Y28.8433
G01 X129.4471 Y28.8542
G01 X129.4274 Y28.8641
G01 X129.3653 Y28.8935
G01 X129.3451 Y28.9025
G01 X129.3245 Y28.9104
G01 X129.2598 Y28.9336
G01 X129.2388 Y28.9405
G01 X129.2175 Y28.9464
G01 X129.1509 Y28.9631
G01 X129.1294 Y28.9679
G01 X129.1076 Y28.9717
G01 X129.0287 Y28.9832
G01 X129.0067 Y28.9854
G01 X128.9957 Y28.9861
G01 X128.9271 Y28.9895
G01 X128.9050 Y28.9900
G01 X128.8829 Y28.9895
G01 X128.8143 Y28.9861
G01 X128.7923 Y28.9845
G01 X128.7704 Y28.9818
G01 X128.7024 Y28.9717
G01 X128.6806 Y28.9679
G01 X128.6591 Y28.9631
G01 X128.5925 Y28.9464
G01 X128.5712 Y28.9405
G01 X128.5502 Y28.9336
G01 X128.4855 Y28.9104
G01 X128.4649 Y28.9025
G01 X128.4447 Y28.8935
G01 X128.3826 Y28.8641
G01 X128.3629 Y28.8542
G01 X128.3437 Y28.8433
G01 X128.2848 Y28.8080
G01 X128.2661 Y28.7962
G01 X128.2480 Y28.7835
G01 X128.1929 Y28.7426
G01 X128.1754 Y28.7290
G01 X128.1587 Y28.7145
G01 X128.1078 Y28.6684
G01 X128.0918 Y28.6532
G01 X128.0766 Y28.6372
G01 X128.0305 Y28.5863
G01 X128.0160 Y28.5696
G01 X128.0024 Y28.5521
G01 X127.9551 Y28.4880
G01 X127.9488 Y28.4789
G01 X127.9370 Y28.4602
G01 X127.9017 Y28.4013
G01 X127.8908 Y28.3821
G01 X127.8809 Y28.3624
G01 X127.8515 Y28.3003
G01 X127.8469 Y28.2902
G01 X127.8384 Y28.2698
G01 X127.8079 Y28.1844
G01 X127.8045 Y28.1738
G01 X127.7986 Y28.1525
G01 X127.7794 Y28.0752
G01 X127.7751 Y28.0535
G01 X127.7733 Y28.0426
G01 X127.7632 Y27.9746
G01 X127.7605 Y27.9527
G01 X127.7589 Y27.9307
G01 X127.7555 Y27.8621
G01 X127.7550 Y27.8400
G01 X127.7551 Y25.2290
G01 X127.7589 Y25.1493
G01 X127.7596 Y25.1383
G01 X127.7618 Y25.1163
G01 X127.7751 Y25.0265
G01 X127.7771 Y25.0156
G01 X127.7819 Y24.9941
G01 X127.7986 Y24.9275
G01 X127.8045 Y24.9062
G01 X127.8114 Y24.8852
G01 X127.8346 Y24.8205
G01 X127.8425 Y24.7999
G01 X127.8469 Y24.7898
G01 X127.8832 Y24.7128
G01 X127.8832 Y22.7160
G01 X118.1533 Y12.9861
G01 X114.8227 Y12.9861
G01 X114.9304 Y12.9913
G01 X114.9524 Y12.9929
G01 X114.9743 Y12.9956
G01 X115.0714 Y13.0100
G01 X115.0932 Y13.0138
G01 X115.1147 Y13.0186
G01 X115.2099 Y13.0424
G01 X115.2312 Y13.0483
G01 X115.2522 Y13.0553
G01 X115.3446 Y13.0883
G01 X115.3652 Y13.0963
G01 X115.3854 Y13.1052
G01 X115.4840 Y13.1520
G01 X115.5035 Y13.1624
G01 X115.5130 Y13.1680
G01 X115.5972 Y13.2185
G01 X115.6159 Y13.2303
G01 X115.6339 Y13.2430
G01 X115.7128 Y13.3014
G01 X115.7302 Y13.3150
G01 X115.7469 Y13.3295
G01 X115.8196 Y13.3954
G01 X115.8356 Y13.4106
G01 X115.8508 Y13.4266
G01 X115.9167 Y13.4993
G01 X115.9312 Y13.5160
G01 X115.9448 Y13.5334
G01 X116.0032 Y13.6123
G01 X116.0159 Y13.6303
G01 X116.0277 Y13.6490
G01 X116.0782 Y13.7332
G01 X116.0838 Y13.7427
G01 X116.0942 Y13.7622
G01 X116.1410 Y13.8608
G01 X116.1499 Y13.8810
G01 X116.1579 Y13.9016
G01 X116.1909 Y13.9940
G01 X116.1979 Y14.0150
G01 X116.2009 Y14.0256
G01 X116.2302 Y14.1422
G01 X116.2324 Y14.1530
G01 X116.2362 Y14.1748
G01 X116.2506 Y14.2719
G01 X116.2533 Y14.2938
G01 X116.2549 Y14.3158
G01 X116.2598 Y14.4138
G01 X116.2603 Y14.4359
G01 X116.2598 Y14.4580
G01 X116.2549 Y14.5560
G01 X116.2533 Y14.5780
G01 X116.2506 Y14.5999
G01 X116.2362 Y14.6970
G01 X116.2324 Y14.7188
G01 X116.2276 Y14.7403
G01 X116.2038 Y14.8355
G01 X116.1979 Y14.8568
G01 X116.1909 Y14.8778
G01 X116.1579 Y14.9702
G01 X116.1499 Y14.9908
G01 X116.1410 Y15.0110
G01 X116.0990 Y15.0997
G01 X116.0891 Y15.1194
G01 X116.0782 Y15.1386
G01 X116.0277 Y15.2228
G01 X116.0159 Y15.2415
G01 X116.0032 Y15.2595
G01 X115.9381 Y15.3471
G01 X115.9312 Y15.3558
G01 X115.9167 Y15.3725
G01 X115.8508 Y15.4452
G01 X115.8356 Y15.4612
G01 X115.8196 Y15.4764
G01 X115.7469 Y15.5423
G01 X115.7386 Y15.5497
G01 X115.7215 Y15.5637
G01 X115.6339 Y15.6288
G01 X115.6159 Y15.6415
G01 X115.5972 Y15.6533
G01 X115.5130 Y15.7038
G01 X115.4938 Y15.7147
G01 X115.4741 Y15.7246
G01 X115.3854 Y15.7666
G01 X115.3652 Y15.7755
G01 X115.3446 Y15.7835
G01 X115.2522 Y15.8165
G01 X115.2312 Y15.8235
G01 X115.2099 Y15.8294
G01 X115.1147 Y15.8532
G01 X115.0932 Y15.8580
G01 X115.0714 Y15.8618
G01 X114.9743 Y15.8762
G01 X114.9524 Y15.8789
G01 X114.9304 Y15.8805
G01 X114.8324 Y15.8854
G01 X114.8103 Y15.8859
G01 X114.7882 Y15.8854
G01 X114.6792 Y15.8799
G01 X114.6682 Y15.8789
G01 X114.6463 Y15.8762
G01 X114.5492 Y15.8618
G01 X114.5274 Y15.8580
G01 X114.5059 Y15.8532
G01 X114.4107 Y15.8294
G01 X114.3894 Y15.8235
G01 X114.3684 Y15.8165
G01 X114.2760 Y15.7835
G01 X114.2554 Y15.7755
G01 X114.2352 Y15.7666
G01 X114.1465 Y15.7246
G01 X114.1268 Y15.7147
G01 X114.1076 Y15.7038
G01 X114.0234 Y15.6533
G01 X114.0047 Y15.6415
G01 X113.9867 Y15.6288
G01 X113.9078 Y15.5704
G01 X113.8904 Y15.5568
G01 X113.8737 Y15.5423
G01 X113.8010 Y15.4764
G01 X113.7816 Y15.4577
G01 X108.7064 Y15.4577
G01 X107.5138 Y16.6503
G01 X107.5585 Y16.6098
G01 X107.5752 Y16.5953
G01 X107.5926 Y16.5818
G01 X107.6377 Y16.5483
G01 X107.6557 Y16.5356
G01 X107.6744 Y16.5238
G01 X107.7225 Y16.4950
G01 X107.7417 Y16.4841
G01 X107.7615 Y16.4741
G01 X107.8122 Y16.4501
G01 X107.8324 Y16.4412
G01 X107.8530 Y16.4332
G01 X107.9058 Y16.4143
G01 X107.9268 Y16.4074
G01 X107.9481 Y16.4015
G01 X108.0025 Y16.3879
G01 X108.0241 Y16.3830
G01 X108.0458 Y16.3793
G01 X108.1013 Y16.3710
G01 X108.1232 Y16.3683
G01 X108.1453 Y16.3667
G01 X108.2124 Y16.3635
G01 X119.3996 Y16.3634
G01 X119.4190 Y16.3447
G01 X119.4917 Y16.2788
G01 X119.5084 Y16.2643
G01 X119.5258 Y16.2507
G01 X119.6047 Y16.1923
G01 X119.6227 Y16.1796
G01 X119.6414 Y16.1678
G01 X119.7256 Y16.1173
G01 X119.7448 Y16.1064
G01 X119.7645 Y16.0965
G01 X119.8532 Y16.0545
G01 X119.8633 Y16.0499
G01 X119.8837 Y16.0415
G01 X119.9864 Y16.0046
G01 X120.0074 Y15.9976
G01 X120.0287 Y15.9917
G01 X120.1239 Y15.9679
G01 X120.1454 Y15.9631
G01 X120.1672 Y15.9593
G01 X120.2643 Y15.9449
G01 X120.2862 Y15.9422
G01 X120.3082 Y15.9406
G01 X120.4062 Y15.9357
G01 X120.4283 Y15.9352
G01 X120.4504 Y15.9357
G01 X120.5484 Y15.9406
G01 X120.5704 Y15.9422
G01 X120.5923 Y15.9449
G01 X120.6894 Y15.9593
G01 X120.7112 Y15.9631
G01 X120.7327 Y15.9679
G01 X120.8386 Y15.9946
G01 X120.8597 Y16.0010
G01 X120.8702 Y16.0046
G01 X120.9626 Y16.0376
G01 X120.9832 Y16.0456
G01 X121.0034 Y16.0545
G01 X121.0921 Y16.0965
G01 X121.1118 Y16.1064
G01 X121.1310 Y16.1173
G01 X121.2152 Y16.1678
G01 X121.2339 Y16.1796
G01 X121.2519 Y16.1923
G01 X121.3308 Y16.2507
G01 X121.3482 Y16.2643
G01 X121.3649 Y16.2788
G01 X121.4376 Y16.3447
G01 X121.4536 Y16.3599
G01 X121.4688 Y16.3759
G01 X121.5421 Y16.4569
G01 X121.5492 Y16.4653
G01 X121.5628 Y16.4827
G01 X121.6212 Y16.5616
G01 X121.6339 Y16.5796
G01 X121.6457 Y16.5983
G01 X121.6962 Y16.6825
G01 X121.7071 Y16.7017
G01 X121.7170 Y16.7214
G01 X121.7590 Y16.8101
G01 X121.7679 Y16.8303
G01 X121.7759 Y16.8509
G01 X121.8089 Y16.9433
G01 X121.8159 Y16.9643
G01 X121.8218 Y16.9856
G01 X121.8456 Y17.0808
G01 X121.8504 Y17.1023
G01 X121.8542 Y17.1241
G01 X121.8686 Y17.2212
G01 X121.8713 Y17.2431
G01 X121.8729 Y17.2651
G01 X121.8778 Y17.3631
G01 X121.8783 Y17.3852
G01 X121.8778 Y17.4073
G01 X121.8729 Y17.5053
G01 X121.8713 Y17.5273
G01 X121.8686 Y17.5492
G01 X121.8542 Y17.6463
G01 X121.8504 Y17.6681
G01 X121.8456 Y17.6896
G01 X121.8218 Y17.7848
G01 X121.8159 Y17.8061
G01 X121.8125 Y17.8166
G01 X121.7759 Y17.9195
G01 X121.7679 Y17.9401
G01 X121.7590 Y17.9603
G01 X121.7170 Y18.0490
G01 X121.7071 Y18.0687
G01 X121.6962 Y18.0879
G01 X121.6457 Y18.1721
G01 X121.6339 Y18.1908
G01 X121.6212 Y18.2088
G01 X121.5628 Y18.2877
G01 X121.5492 Y18.3051
G01 X121.5347 Y18.3218
G01 X121.4688 Y18.3945
G01 X121.4536 Y18.4105
G01 X121.4376 Y18.4257
G01 X121.3566 Y18.4990
G01 X121.3482 Y18.5061
G01 X121.3308 Y18.5197
G01 X121.2519 Y18.5781
G01 X121.2339 Y18.5908
G01 X121.2152 Y18.6026
G01 X121.1310 Y18.6531
G01 X121.1118 Y18.6640
G01 X121.0921 Y18.6739
G01 X121.0034 Y18.7159
G01 X120.9832 Y18.7248
G01 X120.9626 Y18.7328
G01 X120.8702 Y18.7658
G01 X120.8492 Y18.7728
G01 X120.8279 Y18.7787
G01 X120.7220 Y18.8051
G01 X120.7112 Y18.8073
G01 X120.6894 Y18.8111
G01 X120.5923 Y18.8255
G01 X120.5704 Y18.8282
G01 X120.5484 Y18.8298
G01 X120.4504 Y18.8347
G01 X120.4283 Y18.8352
G01 X120.4062 Y18.8347
G01 X120.3082 Y18.8298
G01 X120.2862 Y18.8282
G01 X120.2643 Y18.8255
G01 X120.1672 Y18.8111
G01 X120.1563 Y18.8094
G01 X120.1346 Y18.8051
G01 X120.0287 Y18.7787
G01 X120.0074 Y18.7728
G01 X119.9864 Y18.7658
G01 X119.8940 Y18.7328
G01 X119.8734 Y18.7248
G01 X119.8532 Y18.7159
G01 X119.7645 Y18.6739
G01 X119.7448 Y18.6640
G01 X119.7256 Y18.6531
G01 X119.6414 Y18.6026
G01 X119.6227 Y18.5908
G01 X119.6047 Y18.5781
G01 X119.5258 Y18.5197
G01 X119.5084 Y18.5061
G01 X119.4917 Y18.4916
G01 X119.4190 Y18.4257
G01 X119.3996 Y18.4070
G01 X108.6466 Y18.4070
G01 X103.2548 Y23.7986
G01 X103.1969 Y23.8511
G01 X103.1884 Y23.8583
G01 X103.1710 Y23.8718
G01 X103.1259 Y23.9053
G01 X103.1079 Y23.9180
G01 X103.0892 Y23.9298
G01 X103.0411 Y23.9586
G01 X103.0315 Y23.9642
G01 X103.0121 Y23.9746
G01 X102.9414 Y24.0081
G01 X102.9210 Y24.0165
G01 X102.9106 Y24.0204
G01 X102.8473 Y24.0429
G01 X102.8262 Y24.0493
G01 X102.7611 Y24.0657
G01 X102.7395 Y24.0706
G01 X102.7178 Y24.0743
G01 X102.6623 Y24.0826
G01 X102.6404 Y24.0853
G01 X102.6183 Y24.0869
G01 X102.5623 Y24.0896
G01 X102.5402 Y24.0902
G01 X92.0874 Y24.0902
G01 X92.1767 Y24.0946
G01 X92.1987 Y24.0968
G01 X92.2096 Y24.0982
G01 X92.2776 Y24.1083
G01 X92.2994 Y24.1121
G01 X92.3209 Y24.1169
G01 X92.3875 Y24.1336
G01 X92.4088 Y24.1395
G01 X92.4298 Y24.1464
G01 X92.4945 Y24.1696
G01 X92.5151 Y24.1775
G01 X92.5353 Y24.1865
G01 X92.5974 Y24.2159
G01 X92.6171 Y24.2258
G01 X92.6363 Y24.2367
G01 X92.6952 Y24.2720
G01 X92.7139 Y24.2838
G01 X92.7320 Y24.2965
G01 X92.7871 Y24.3374
G01 X92.8046 Y24.3510
G01 X92.8213 Y24.3655
G01 X92.8803 Y24.4191
G01 X92.8959 Y24.4347
G01 X92.9034 Y24.4428
G01 X92.9495 Y24.4937
G01 X92.9640 Y24.5104
G01 X92.9776 Y24.5279
G01 X93.0185 Y24.5830
G01 X93.0312 Y24.6011
G01 X93.0430 Y24.6198
G01 X93.0783 Y24.6787
G01 X93.0892 Y24.6979
G01 X93.0991 Y24.7176
G01 X93.1285 Y24.7797
G01 X93.1375 Y24.7999
G01 X93.1454 Y24.8205
G01 X93.1686 Y24.8852
G01 X93.1755 Y24.9062
G01 X93.1814 Y24.9275
G01 X93.1981 Y24.9941
G01 X93.2029 Y25.0156
G01 X93.2067 Y25.0374
G01 X93.2168 Y25.1054
G01 X93.2195 Y25.1273
G01 X93.2211 Y25.1493
G01 X93.2249 Y25.2290
G01 X93.2250 Y25.6556
G01 X93.2448 Y25.6531
G01 X93.2669 Y25.6515
G01 X93.3229 Y25.6488
G01 X93.3450 Y25.6482
G01 X105.4373 Y25.6482
G01 X105.4801 Y25.6226
G01 X105.4993 Y25.6117
G01 X105.5191 Y25.6018
G01 X105.5956 Y25.5657
G01 X105.6160 Y25.5572
G01 X105.6264 Y25.5534
G01 X105.6957 Y25.5286
G01 X105.7167 Y25.5217
G01 X105.7379 Y25.5158
G01 X105.8093 Y25.4979
G01 X105.8309 Y25.4931
G01 X105.8527 Y25.4893
G01 X105.9255 Y25.4785
G01 X105.9474 Y25.4758
G01 X105.9694 Y25.4742
G01 X106.0429 Y25.4705
G01 X106.0650 Y25.4700
G01 X108.5650 Y25.4700
G01 X108.5871 Y25.4705
G01 X108.6606 Y25.4742
G01 X108.6826 Y25.4758
G01 X108.7045 Y25.4785
G01 X108.7773 Y25.4893
G01 X108.7883 Y25.4910
G01 X108.8099 Y25.4953
G01 X108.8921 Y25.5158
G01 X108.9133 Y25.5217
G01 X108.9343 Y25.5286
G01 X109.0036 Y25.5534
G01 X109.0242 Y25.5613
G01 X109.0444 Y25.5703
G01 X109.1109 Y25.6018
G01 X109.1307 Y25.6117
G01 X109.1499 Y25.6226
G01 X109.2224 Y25.6662
G01 X109.2408 Y25.6785
G01 X109.2497 Y25.6850
G01 X109.3176 Y25.7355
G01 X109.3263 Y25.7424
G01 X109.3430 Y25.7568
G01 X109.3975 Y25.8062
G01 X109.4135 Y25.8215
G01 X109.4288 Y25.8375
G01 X109.4855 Y25.9003
G01 X109.4995 Y25.9174
G01 X109.5062 Y25.9261
G01 X109.5500 Y25.9853
G01 X109.5628 Y26.0033
G01 X109.5746 Y26.0220
G01 X109.6124 Y26.0851
G01 X109.6233 Y26.1043
G01 X109.6332 Y26.1241
G01 X109.6647 Y26.1906
G01 X109.6737 Y26.2108
G01 X109.6816 Y26.2314
G01 X109.7064 Y26.3007
G01 X109.7133 Y26.3217
G01 X109.7192 Y26.3429
G01 X109.7371 Y26.4143
G01 X109.7419 Y26.4359
G01 X109.7457 Y26.4577
G01 X109.7565 Y26.5305
G01 X109.7592 Y26.5524
G01 X109.7608 Y26.5744
G01 X109.7645 Y26.6479
G01 X109.7650 Y26.6700
G01 X109.7645 Y26.6921
G01 X109.7608 Y26.7656
G01 X109.7592 Y26.7876
G01 X109.7565 Y26.8095
G01 X109.7440 Y26.8933
G01 X109.7419 Y26.9041
G01 X109.7371 Y26.9257
G01 X109.7192 Y26.9971
G01 X109.7164 Y27.0077
G01 X109.7100 Y27.0289
G01 X109.6816 Y27.1086
G01 X109.6778 Y27.1190
G01 X109.6693 Y27.1394
G01 X109.6332 Y27.2159
G01 X109.6233 Y27.2357
G01 X109.6124 Y27.2549
G01 X109.5746 Y27.3180
G01 X109.5628 Y27.3367
G01 X109.5500 Y27.3547
G01 X109.5062 Y27.4139
G01 X109.4926 Y27.4313
G01 X109.4782 Y27.4480
G01 X109.4212 Y27.5106
G01 X109.4056 Y27.5262
G01 X109.3975 Y27.5338
G01 X109.3347 Y27.5905
G01 X109.3263 Y27.5976
G01 X109.3089 Y27.6112
G01 X109.2497 Y27.6550
G01 X109.2317 Y27.6678
G01 X109.2224 Y27.6738
G01 X109.1499 Y27.7174
G01 X109.1307 Y27.7283
G01 X109.1109 Y27.7382
G01 X109.0444 Y27.7697
G01 X109.0242 Y27.7787
G01 X109.0036 Y27.7866
G01 X108.9343 Y27.8114
G01 X108.9133 Y27.8183
G01 X108.8921 Y27.8242
G01 X108.8207 Y27.8421
G01 X108.7991 Y27.8469
G01 X108.7773 Y27.8507
G01 X108.6936 Y27.8630
G01 X108.6716 Y27.8652
G01 X108.6606 Y27.8658
G01 X108.5871 Y27.8695
G01 X108.5650 Y27.8700
G01 X106.0650 Y27.8700
G01 X106.0429 Y27.8695
G01 X105.9694 Y27.8658
G01 X105.9474 Y27.8642
G01 X105.9255 Y27.8615
G01 X105.8527 Y27.8507
G01 X105.8309 Y27.8469
G01 X105.8093 Y27.8421
G01 X105.7379 Y27.8242
G01 X105.7167 Y27.8183
G01 X105.7061 Y27.8150
G01 X105.6160 Y27.7828
G01 X105.5956 Y27.7743
G01 X105.5856 Y27.7697
G01 X105.5191 Y27.7382
G01 X105.4993 Y27.7283
G01 X105.4801 Y27.7174
G01 X105.4373 Y27.6918
G01 X93.7682 Y27.6918
G01 X93.1005 Y28.3595
G01 X93.0892 Y28.3821
G01 X93.0783 Y28.4013
G01 X93.0430 Y28.4602
G01 X93.0372 Y28.4696
G01 X93.0249 Y28.4880
G01 X92.9776 Y28.5521
G01 X92.9640 Y28.5696
G01 X92.9495 Y28.5863
G01 X92.8959 Y28.6453
G01 X92.8882 Y28.6532
G01 X92.8722 Y28.6684
G01 X92.8213 Y28.7145
G01 X92.8046 Y28.7290
G01 X92.7871 Y28.7426
G01 X92.7320 Y28.7835
G01 X92.7139 Y28.7962
G01 X92.6952 Y28.8080
G01 X92.6363 Y28.8433
G01 X92.6171 Y28.8542
G01 X92.5974 Y28.8641
G01 X92.5353 Y28.8935
G01 X92.5151 Y28.9025
G01 X92.4945 Y28.9104
G01 X92.4298 Y28.9336
G01 X92.4088 Y28.9405
G01 X92.3875 Y28.9464
G01 X92.3209 Y28.9631
G01 X92.2994 Y28.9679
G01 X92.2776 Y28.9717
G01 X92.2096 Y28.9818
G01 X92.1877 Y28.9845
G01 X92.1657 Y28.9861
G01 X92.0971 Y28.9895
G01 X92.0750 Y28.9900
G01 X92.0529 Y28.9895
G01 X91.9843 Y28.9861
G01 X91.9623 Y28.9845
G01 X91.9404 Y28.9818
G01 X91.8724 Y28.9717
G01 X91.8506 Y28.9679
G01 X91.8291 Y28.9631
G01 X91.7625 Y28.9464
G01 X91.7412 Y28.9405
G01 X91.7202 Y28.9336
G01 X91.6555 Y28.9104
G01 X91.6349 Y28.9025
G01 X91.6147 Y28.8935
G01 X91.5526 Y28.8641
G01 X91.5329 Y28.8542
G01 X91.5137 Y28.8433
G01 X91.4548 Y28.8080
G01 X91.4361 Y28.7962
G01 X91.4180 Y28.7835
G01 X91.3629 Y28.7426
G01 X91.3454 Y28.7290
G01 X91.3287 Y28.7145
G01 X91.2778 Y28.6684
G01 X91.2618 Y28.6532
G01 X91.2466 Y28.6372
G01 X91.2005 Y28.5863
G01 X91.1860 Y28.5696
G01 X91.1724 Y28.5521
G01 X91.1315 Y28.4970
G01 X91.1188 Y28.4789
G01 X91.1070 Y28.4602
G01 X91.0717 Y28.4013
G01 X91.0608 Y28.3821
G01 X91.0509 Y28.3624
G01 X91.0215 Y28.3003
G01 X91.0125 Y28.2801
G01 X91.0046 Y28.2595
G01 X90.9814 Y28.1948
G01 X90.9745 Y28.1738
G01 X90.9686 Y28.1525
G01 X90.9519 Y28.0859
G01 X90.9471 Y28.0644
G01 X90.9433 Y28.0426
G01 X90.9332 Y27.9746
G01 X90.9305 Y27.9527
G01 X90.9289 Y27.9307
G01 X90.9255 Y27.8621
G01 X90.9250 Y27.8400
G01 X90.9250 Y25.2400
G01 X90.9255 Y25.2179
G01 X90.9289 Y25.1493
G01 X90.9305 Y25.1273
G01 X90.9332 Y25.1054
G01 X90.9433 Y25.0374
G01 X90.9471 Y25.0156
G01 X90.9519 Y24.9941
G01 X90.9686 Y24.9275
G01 X90.9745 Y24.9062
G01 X90.9814 Y24.8852
G01 X91.0046 Y24.8205
G01 X91.0125 Y24.7999
G01 X91.0215 Y24.7797
G01 X91.0509 Y24.7176
G01 X91.0608 Y24.6979
G01 X91.0717 Y24.6787
G01 X91.1070 Y24.6198
G01 X91.1188 Y24.6011
G01 X91.1315 Y24.5830
G01 X91.1724 Y24.5279
G01 X91.1860 Y24.5104
G01 X91.2005 Y24.4937
G01 X91.2466 Y24.4428
G01 X91.2618 Y24.4268
G01 X91.2778 Y24.4116
G01 X91.3287 Y24.3655
G01 X91.3454 Y24.3510
G01 X91.3629 Y24.3374
G01 X91.4180 Y24.2965
G01 X91.4361 Y24.2838
G01 X91.4548 Y24.2720
G01 X91.5137 Y24.2367
G01 X91.5329 Y24.2258
G01 X91.5526 Y24.2159
G01 X91.6147 Y24.1865
G01 X91.6349 Y24.1775
G01 X91.6555 Y24.1696
G01 X91.7202 Y24.1464
G01 X91.7412 Y24.1395
G01 X91.7625 Y24.1336
G01 X91.8291 Y24.1169
G01 X91.8506 Y24.1121
G01 X91.8724 Y24.1083
G01 X91.9404 Y24.0982
G01 X91.9623 Y24.0955
G01 X91.9843 Y24.0939
G01 X92.0626 Y24.0902
G01 X89.5474 Y24.0902
G01 X89.6257 Y24.0939
G01 X89.6477 Y24.0955
G01 X89.6696 Y24.0982
G01 X89.7485 Y24.1101
G01 X89.7594 Y24.1121
G01 X89.7809 Y24.1169
G01 X89.8475 Y24.1336
G01 X89.8688 Y24.1395
G01 X89.8898 Y24.1464
G01 X89.9545 Y24.1696
G01 X89.9751 Y24.1775
G01 X89.9953 Y24.1865
G01 X90.0574 Y24.2159
G01 X90.0771 Y24.2258
G01 X90.0963 Y24.2367
G01 X90.1552 Y24.2720
G01 X90.1739 Y24.2838
G01 X90.1920 Y24.2965
G01 X90.2471 Y24.3374
G01 X90.2646 Y24.3510
G01 X90.2730 Y24.3581
G01 X90.3322 Y24.4116
G01 X90.3482 Y24.4268
G01 X90.3634 Y24.4428
G01 X90.4095 Y24.4937
G01 X90.4240 Y24.5104
G01 X90.4376 Y24.5279
G01 X90.4785 Y24.5830
G01 X90.4912 Y24.6011
G01 X90.5030 Y24.6198
G01 X90.5383 Y24.6787
G01 X90.5492 Y24.6979
G01 X90.5591 Y24.7176
G01 X90.5885 Y24.7797
G01 X90.5975 Y24.7999
G01 X90.6054 Y24.8205
G01 X90.6286 Y24.8852
G01 X90.6355 Y24.9062
G01 X90.6414 Y24.9275
G01 X90.6581 Y24.9941
G01 X90.6629 Y25.0156
G01 X90.6667 Y25.0374
G01 X90.6768 Y25.1054
G01 X90.6795 Y25.1273
G01 X90.6811 Y25.1493
G01 X90.6849 Y25.2290
G01 X90.6850 Y27.8400
G01 X90.6845 Y27.8621
G01 X90.6811 Y27.9307
G01 X90.6795 Y27.9527
G01 X90.6782 Y27.9637
G01 X90.6649 Y28.0535
G01 X90.6606 Y28.0752
G01 X90.6581 Y28.0859
G01 X90.6414 Y28.1525
G01 X90.6355 Y28.1738
G01 X90.6286 Y28.1948
G01 X90.6054 Y28.2595
G01 X90.5975 Y28.2801
G01 X90.5931 Y28.2902
G01 X90.5591 Y28.3624
G01 X90.5492 Y28.3821
G01 X90.5383 Y28.4013
G01 X90.5030 Y28.4602
G01 X90.4912 Y28.4789
G01 X90.4785 Y28.4970
G01 X90.4376 Y28.5521
G01 X90.4240 Y28.5696
G01 X90.4095 Y28.5863
G01 X90.3634 Y28.6372
G01 X90.3482 Y28.6532
G01 X90.3322 Y28.6684
G01 X90.2813 Y28.7145
G01 X90.2646 Y28.7290
G01 X90.2471 Y28.7426
G01 X90.1920 Y28.7835
G01 X90.1739 Y28.7962
G01 X90.1552 Y28.8080
G01 X90.0963 Y28.8433
G01 X90.0771 Y28.8542
G01 X90.0574 Y28.8641
G01 X89.9953 Y28.8935
G01 X89.9751 Y28.9025
G01 X89.9545 Y28.9104
G01 X89.8898 Y28.9336
G01 X89.8688 Y28.9405
G01 X89.8475 Y28.9464
G01 X89.7809 Y28.9631
G01 X89.7594 Y28.9679
G01 X89.7376 Y28.9717
G01 X89.6696 Y28.9818
G01 X89.6477 Y28.9845
G01 X89.6367 Y28.9854
G01 X89.5571 Y28.9895
G01 X89.5350 Y28.9900
G01 X89.5240 Y28.9899
G01 X89.4333 Y28.9854
G01 X89.4113 Y28.9832
G01 X89.4004 Y28.9818
G01 X89.3215 Y28.9699
G01 X89.3106 Y28.9679
G01 X89.2891 Y28.9631
G01 X89.2225 Y28.9464
G01 X89.2012 Y28.9405
G01 X89.1802 Y28.9336
G01 X89.1155 Y28.9104
G01 X89.0949 Y28.9025
G01 X89.0747 Y28.8935
G01 X89.0126 Y28.8641
G01 X88.9929 Y28.8542
G01 X88.9737 Y28.8433
G01 X88.9148 Y28.8080
G01 X88.8961 Y28.7962
G01 X88.8780 Y28.7835
G01 X88.8229 Y28.7426
G01 X88.8054 Y28.7290
G01 X88.7887 Y28.7145
G01 X88.7297 Y28.6609
G01 X88.7141 Y28.6453
G01 X88.7066 Y28.6372
G01 X88.6605 Y28.5863
G01 X88.6460 Y28.5696
G01 X88.6324 Y28.5521
G01 X88.5915 Y28.4970
G01 X88.5788 Y28.4789
G01 X88.5670 Y28.4602
G01 X88.5261 Y28.3918
G01 X88.5208 Y28.3821
G01 X88.5109 Y28.3624
G01 X88.4815 Y28.3003
G01 X88.4725 Y28.2801
G01 X88.4684 Y28.2698
G01 X88.4414 Y28.1948
G01 X88.4345 Y28.1738
G01 X88.4286 Y28.1525
G01 X88.4119 Y28.0859
G01 X88.4071 Y28.0644
G01 X88.4033 Y28.0426
G01 X88.3932 Y27.9746
G01 X88.3905 Y27.9527
G01 X88.3889 Y27.9307
G01 X88.3855 Y27.8621
G01 X88.3850 Y27.8400
G01 X88.3850 Y25.2400
G01 X88.3855 Y25.2179
G01 X88.3889 Y25.1493
G01 X88.3905 Y25.1273
G01 X88.3932 Y25.1054
G01 X88.4033 Y25.0374
G01 X88.4071 Y25.0156
G01 X88.4119 Y24.9941
G01 X88.4286 Y24.9275
G01 X88.4345 Y24.9062
G01 X88.4414 Y24.8852
G01 X88.4646 Y24.8205
G01 X88.4725 Y24.7999
G01 X88.4815 Y24.7797
G01 X88.5109 Y24.7176
G01 X88.5208 Y24.6979
G01 X88.5317 Y24.6787
G01 X88.5670 Y24.6198
G01 X88.5788 Y24.6011
G01 X88.5915 Y24.5830
G01 X88.6324 Y24.5279
G01 X88.6460 Y24.5104
G01 X88.6605 Y24.4937
G01 X88.7066 Y24.4428
G01 X88.7218 Y24.4268
G01 X88.7378 Y24.4116
G01 X88.7887 Y24.3655
G01 X88.8054 Y24.3510
G01 X88.8229 Y24.3374
G01 X88.8780 Y24.2965
G01 X88.8961 Y24.2838
G01 X88.9148 Y24.2720
G01 X88.9737 Y24.2367
G01 X88.9929 Y24.2258
G01 X89.0126 Y24.2159
G01 X89.0747 Y24.1865
G01 X89.0949 Y24.1775
G01 X89.1155 Y24.1696
G01 X89.1802 Y24.1464
G01 X89.2012 Y24.1395
G01 X89.2225 Y24.1336
G01 X89.2891 Y24.1169
G01 X89.3106 Y24.1121
G01 X89.3324 Y24.1083
G01 X89.4004 Y24.0982
G01 X89.4223 Y24.0955
G01 X89.4443 Y24.0939
G01 X89.5226 Y24.0902
G01 X88.0168 Y24.0902
G01 X88.0168 Y24.7128
G01 X88.0531 Y24.7898
G01 X88.0575 Y24.7999
G01 X88.0654 Y24.8205
G01 X88.0886 Y24.8852
G01 X88.0955 Y24.9062
G01 X88.1014 Y24.9275
G01 X88.1181 Y24.9941
G01 X88.1206 Y25.0048
G01 X88.1249 Y25.0265
G01 X88.1382 Y25.1163
G01 X88.1404 Y25.1383
G01 X88.1411 Y25.1493
G01 X88.1449 Y25.2290
G01 X88.1449 Y27.8510
G01 X88.1404 Y27.9417
G01 X88.1382 Y27.9637
G01 X88.1368 Y27.9746
G01 X88.1267 Y28.0426
G01 X88.1229 Y28.0644
G01 X88.1181 Y28.0859
G01 X88.1014 Y28.1525
G01 X88.0955 Y28.1738
G01 X88.0921 Y28.1844
G01 X88.0654 Y28.2595
G01 X88.0575 Y28.2801
G01 X88.0485 Y28.3003
G01 X88.0191 Y28.3624
G01 X88.0143 Y28.3723
G01 X88.0039 Y28.3918
G01 X87.9572 Y28.4696
G01 X87.9449 Y28.4880
G01 X87.9385 Y28.4970
G01 X87.8976 Y28.5521
G01 X87.8909 Y28.5609
G01 X87.8769 Y28.5780
G01 X87.8234 Y28.6372
G01 X87.8082 Y28.6532
G01 X87.8003 Y28.6609
G01 X87.7413 Y28.7145
G01 X87.7246 Y28.7290
G01 X87.7071 Y28.7426
G01 X87.6520 Y28.7835
G01 X87.6339 Y28.7962
G01 X87.6246 Y28.8022
G01 X87.5563 Y28.8433
G01 X87.5371 Y28.8542
G01 X87.5174 Y28.8641
G01 X87.4553 Y28.8935
G01 X87.4351 Y28.9025
G01 X87.4145 Y28.9104
G01 X87.3498 Y28.9336
G01 X87.3288 Y28.9405
G01 X87.3075 Y28.9464
G01 X87.2409 Y28.9631
G01 X87.2194 Y28.9679
G01 X87.1976 Y28.9717
G01 X87.1296 Y28.9818
G01 X87.1077 Y28.9845
G01 X87.0857 Y28.9861
G01 X87.0171 Y28.9895
G01 X86.9950 Y28.9900
G01 X86.9729 Y28.9895
G01 X86.9043 Y28.9861
G01 X86.8823 Y28.9845
G01 X86.8604 Y28.9818
G01 X86.7924 Y28.9717
G01 X86.7815 Y28.9699
G01 X86.7598 Y28.9656
G01 X86.6825 Y28.9464
G01 X86.6612 Y28.9405
G01 X86.6402 Y28.9336
G01 X86.5755 Y28.9104
G01 X86.5549 Y28.9025
G01 X86.5347 Y28.8935
G01 X86.4726 Y28.8641
G01 X86.4529 Y28.8542
G01 X86.4337 Y28.8433
G01 X86.3748 Y28.8080
G01 X86.3561 Y28.7962
G01 X86.3380 Y28.7835
G01 X86.2829 Y28.7426
G01 X86.2654 Y28.7290
G01 X86.2487 Y28.7145
G01 X86.1978 Y28.6684
G01 X86.1818 Y28.6532
G01 X86.1666 Y28.6372
G01 X86.1205 Y28.5863
G01 X86.1060 Y28.5696
G01 X86.0924 Y28.5521
G01 X86.0515 Y28.4970
G01 X86.0388 Y28.4789
G01 X86.0270 Y28.4602
G01 X85.9917 Y28.4013
G01 X85.9808 Y28.3821
G01 X85.9709 Y28.3624
G01 X85.9415 Y28.3003
G01 X85.9325 Y28.2801
G01 X85.9246 Y28.2595
G01 X85.9014 Y28.1948
G01 X85.8945 Y28.1738
G01 X85.8886 Y28.1525
G01 X85.8719 Y28.0859
G01 X85.8671 Y28.0644
G01 X85.8651 Y28.0535
G01 X85.8532 Y27.9746
G01 X85.8505 Y27.9527
G01 X85.8489 Y27.9307
G01 X85.8455 Y27.8621
G01 X85.8450 Y27.8400
G01 X85.8451 Y25.2290
G01 X85.8489 Y25.1493
G01 X85.8496 Y25.1383
G01 X85.8518 Y25.1163
G01 X85.8651 Y25.0265
G01 X85.8671 Y25.0156
G01 X85.8719 Y24.9941
G01 X85.8886 Y24.9275
G01 X85.8945 Y24.9062
G01 X85.9014 Y24.8852
G01 X85.9246 Y24.8205
G01 X85.9284 Y24.8102
G01 X85.9369 Y24.7898
G01 X85.9732 Y24.7128
G01 X85.9732 Y24.0902
G01 X84.4674 Y24.0902
G01 X84.5457 Y24.0939
G01 X84.5677 Y24.0955
G01 X84.5896 Y24.0982
G01 X84.6685 Y24.1101
G01 X84.6902 Y24.1144
G01 X84.7009 Y24.1169
G01 X84.7675 Y24.1336
G01 X84.7888 Y24.1395
G01 X84.8098 Y24.1464
G01 X84.8745 Y24.1696
G01 X84.8951 Y24.1775
G01 X84.9153 Y24.1865
G01 X84.9774 Y24.2159
G01 X84.9971 Y24.2258
G01 X85.0163 Y24.2367
G01 X85.0752 Y24.2720
G01 X85.0939 Y24.2838
G01 X85.1120 Y24.2965
G01 X85.1671 Y24.3374
G01 X85.1846 Y24.3510
G01 X85.1930 Y24.3581
G01 X85.2522 Y24.4116
G01 X85.2682 Y24.4268
G01 X85.2834 Y24.4428
G01 X85.3295 Y24.4937
G01 X85.3440 Y24.5104
G01 X85.3576 Y24.5279
G01 X85.3985 Y24.5830
G01 X85.4112 Y24.6011
G01 X85.4230 Y24.6198
G01 X85.4583 Y24.6787
G01 X85.4692 Y24.6979
G01 X85.4791 Y24.7176
G01 X85.5085 Y24.7797
G01 X85.5175 Y24.7999
G01 X85.5254 Y24.8205
G01 X85.5486 Y24.8852
G01 X85.5555 Y24.9062
G01 X85.5614 Y24.9275
G01 X85.5781 Y24.9941
G01 X85.5829 Y25.0156
G01 X85.5867 Y25.0374
G01 X85.5968 Y25.1054
G01 X85.5995 Y25.1273
G01 X85.6011 Y25.1493
G01 X85.6049 Y25.2290
G01 X85.6049 Y27.8510
G01 X85.6011 Y27.9307
G01 X85.5995 Y27.9527
G01 X85.5968 Y27.9746
G01 X85.5867 Y28.0426
G01 X85.5849 Y28.0535
G01 X85.5806 Y28.0752
G01 X85.5614 Y28.1525
G01 X85.5555 Y28.1738
G01 X85.5521 Y28.1844
G01 X85.5216 Y28.2698
G01 X85.5175 Y28.2801
G01 X85.5085 Y28.3003
G01 X85.4791 Y28.3624
G01 X85.4692 Y28.3821
G01 X85.4583 Y28.4013
G01 X85.4230 Y28.4602
G01 X85.4112 Y28.4789
G01 X85.4049 Y28.4880
G01 X85.3576 Y28.5521
G01 X85.3440 Y28.5696
G01 X85.3369 Y28.5780
G01 X85.2759 Y28.6453
G01 X85.2682 Y28.6532
G01 X85.2522 Y28.6684
G01 X85.1930 Y28.7219
G01 X85.1759 Y28.7359
G01 X85.1671 Y28.7426
G01 X85.1120 Y28.7835
G01 X85.0939 Y28.7962
G01 X85.0752 Y28.8080
G01 X85.0163 Y28.8433
G01 X84.9971 Y28.8542
G01 X84.9774 Y28.8641
G01 X84.9153 Y28.8935
G01 X84.8951 Y28.9025
G01 X84.8745 Y28.9104
G01 X84.8098 Y28.9336
G01 X84.7888 Y28.9405
G01 X84.7675 Y28.9464
G01 X84.7009 Y28.9631
G01 X84.6794 Y28.9679
G01 X84.6576 Y28.9717
G01 X84.5896 Y28.9818
G01 X84.5677 Y28.9845
G01 X84.5457 Y28.9861
G01 X84.4771 Y28.9895
G01 X84.4550 Y28.9900
G01 X84.4329 Y28.9895
G01 X84.3643 Y28.9861
G01 X84.3423 Y28.9845
G01 X84.3204 Y28.9818
G01 X84.2524 Y28.9717
G01 X84.2306 Y28.9679
G01 X84.2091 Y28.9631
G01 X84.1318 Y28.9436
G01 X84.1106 Y28.9371
G01 X84.1002 Y28.9336
G01 X84.0355 Y28.9104
G01 X84.0252 Y28.9066
G01 X84.0048 Y28.8981
G01 X83.9326 Y28.8641
G01 X83.9129 Y28.8542
G01 X83.8937 Y28.8433
G01 X83.8348 Y28.8080
G01 X83.8161 Y28.7962
G01 X83.7980 Y28.7835
G01 X83.7429 Y28.7426
G01 X83.7341 Y28.7359
G01 X83.7170 Y28.7219
G01 X83.6578 Y28.6684
G01 X83.6418 Y28.6532
G01 X83.6266 Y28.6372
G01 X83.5805 Y28.5863
G01 X83.5660 Y28.5696
G01 X83.5524 Y28.5521
G01 X83.5115 Y28.4970
G01 X83.4988 Y28.4789
G01 X83.4870 Y28.4602
G01 X83.4517 Y28.4013
G01 X83.4408 Y28.3821
G01 X83.4309 Y28.3624
G01 X83.4015 Y28.3003
G01 X83.3925 Y28.2801
G01 X83.3846 Y28.2595
G01 X83.3614 Y28.1948
G01 X83.3579 Y28.1844
G01 X83.3514 Y28.1632
G01 X83.3319 Y28.0859
G01 X83.3271 Y28.0644
G01 X83.3233 Y28.0426
G01 X83.3132 Y27.9746
G01 X83.3118 Y27.9637
G01 X83.3096 Y27.9417
G01 X83.3051 Y27.8510
G01 X83.3051 Y25.2290
G01 X83.3089 Y25.1493
G01 X83.3105 Y25.1273
G01 X83.3132 Y25.1054
G01 X83.3233 Y25.0374
G01 X83.3271 Y25.0156
G01 X83.3319 Y24.9941
G01 X83.3486 Y24.9275
G01 X83.3545 Y24.9062
G01 X83.3614 Y24.8852
G01 X83.3846 Y24.8205
G01 X83.3925 Y24.7999
G01 X83.4015 Y24.7797
G01 X83.4309 Y24.7176
G01 X83.4408 Y24.6979
G01 X83.4517 Y24.6787
G01 X83.4870 Y24.6198
G01 X83.4988 Y24.6011
G01 X83.5115 Y24.5830
G01 X83.5524 Y24.5279
G01 X83.5660 Y24.5104
G01 X83.5805 Y24.4937
G01 X83.6266 Y24.4428
G01 X83.6418 Y24.4268
G01 X83.6578 Y24.4116
G01 X83.7087 Y24.3655
G01 X83.7254 Y24.3510
G01 X83.7429 Y24.3374
G01 X83.7980 Y24.2965
G01 X83.8161 Y24.2838
G01 X83.8348 Y24.2720
G01 X83.8937 Y24.2367
G01 X83.9129 Y24.2258
G01 X83.9326 Y24.2159
G01 X83.9947 Y24.1865
G01 X84.0149 Y24.1775
G01 X84.0355 Y24.1696
G01 X84.1002 Y24.1464
G01 X84.1212 Y24.1395
G01 X84.1425 Y24.1336
G01 X84.2091 Y24.1169
G01 X84.2306 Y24.1121
G01 X84.2524 Y24.1083
G01 X84.3204 Y24.0982
G01 X84.3423 Y24.0955
G01 X84.3643 Y24.0939
G01 X84.4426 Y24.0902
G01 X81.9274 Y24.0902
G01 X82.0057 Y24.0939
G01 X82.0277 Y24.0955
G01 X82.0496 Y24.0982
G01 X82.1285 Y24.1101
G01 X82.1394 Y24.1121
G01 X82.1609 Y24.1169
G01 X82.2275 Y24.1336
G01 X82.2488 Y24.1395
G01 X82.2698 Y24.1464
G01 X82.3345 Y24.1696
G01 X82.3551 Y24.1775
G01 X82.3753 Y24.1865
G01 X82.4374 Y24.2159
G01 X82.4571 Y24.2258
G01 X82.4763 Y24.2367
G01 X82.5352 Y24.2720
G01 X82.5539 Y24.2838
G01 X82.5720 Y24.2965
G01 X82.6271 Y24.3374
G01 X82.6359 Y24.3441
G01 X82.6530 Y24.3581
G01 X82.7122 Y24.4116
G01 X82.7282 Y24.4268
G01 X82.7434 Y24.4428
G01 X82.7895 Y24.4937
G01 X82.8040 Y24.5104
G01 X82.8176 Y24.5279
G01 X82.8585 Y24.5830
G01 X82.8712 Y24.6011
G01 X82.8830 Y24.6198
G01 X82.9183 Y24.6787
G01 X82.9292 Y24.6979
G01 X82.9391 Y24.7176
G01 X82.9685 Y24.7797
G01 X82.9775 Y24.7999
G01 X82.9854 Y24.8205
G01 X83.0086 Y24.8852
G01 X83.0155 Y24.9062
G01 X83.0214 Y24.9275
G01 X83.0381 Y24.9941
G01 X83.0429 Y25.0156
G01 X83.0467 Y25.0374
G01 X83.0568 Y25.1054
G01 X83.0595 Y25.1273
G01 X83.0611 Y25.1493
G01 X83.0649 Y25.2290
G01 X83.0650 Y27.8400
G01 X83.0645 Y27.8621
G01 X83.0611 Y27.9307
G01 X83.0595 Y27.9527
G01 X83.0568 Y27.9746
G01 X83.0467 Y28.0426
G01 X83.0429 Y28.0644
G01 X83.0381 Y28.0859
G01 X83.0214 Y28.1525
G01 X83.0155 Y28.1738
G01 X83.0086 Y28.1948
G01 X82.9854 Y28.2595
G01 X82.9775 Y28.2801
G01 X82.9685 Y28.3003
G01 X82.9391 Y28.3624
G01 X82.9292 Y28.3821
G01 X82.9239 Y28.3918
G01 X82.8830 Y28.4602
G01 X82.8712 Y28.4789
G01 X82.8649 Y28.4880
G01 X82.8109 Y28.5609
G01 X82.8040 Y28.5696
G01 X82.7895 Y28.5863
G01 X82.7359 Y28.6453
G01 X82.7203 Y28.6609
G01 X82.7122 Y28.6684
G01 X82.6613 Y28.7145
G01 X82.6446 Y28.7290
G01 X82.6271 Y28.7426
G01 X82.5720 Y28.7835
G01 X82.5539 Y28.7962
G01 X82.5352 Y28.8080
G01 X82.4763 Y28.8433
G01 X82.4571 Y28.8542
G01 X82.4374 Y28.8641
G01 X82.3753 Y28.8935
G01 X82.3551 Y28.9025
G01 X82.3345 Y28.9104
G01 X82.2698 Y28.9336
G01 X82.2488 Y28.9405
G01 X82.2275 Y28.9464
G01 X82.1609 Y28.9631
G01 X82.1394 Y28.9679
G01 X82.1176 Y28.9717
G01 X82.0496 Y28.9818
G01 X82.0277 Y28.9845
G01 X82.0057 Y28.9861
G01 X81.9371 Y28.9895
G01 X81.9150 Y28.9900
G01 X81.8929 Y28.9895
G01 X81.8243 Y28.9861
G01 X81.8023 Y28.9845
G01 X81.7804 Y28.9818
G01 X81.7124 Y28.9717
G01 X81.6906 Y28.9679
G01 X81.6691 Y28.9631
G01 X81.6025 Y28.9464
G01 X81.5812 Y28.9405
G01 X81.5602 Y28.9336
G01 X81.4955 Y28.9104
G01 X81.4749 Y28.9025
G01 X81.4547 Y28.8935
G01 X81.3926 Y28.8641
G01 X81.3729 Y28.8542
G01 X81.3537 Y28.8433
G01 X81.2948 Y28.8080
G01 X81.2761 Y28.7962
G01 X81.2580 Y28.7835
G01 X81.2029 Y28.7426
G01 X81.1854 Y28.7290
G01 X81.1687 Y28.7145
G01 X81.1178 Y28.6684
G01 X81.1018 Y28.6532
G01 X81.0866 Y28.6372
G01 X81.0405 Y28.5863
G01 X81.0260 Y28.5696
G01 X81.0124 Y28.5521
G01 X80.9715 Y28.4970
G01 X80.9588 Y28.4789
G01 X80.9470 Y28.4602
G01 X80.9117 Y28.4013
G01 X80.9008 Y28.3821
G01 X80.8909 Y28.3624
G01 X80.8615 Y28.3003
G01 X80.8525 Y28.2801
G01 X80.8446 Y28.2595
G01 X80.8214 Y28.1948
G01 X80.8145 Y28.1738
G01 X80.8086 Y28.1525
G01 X80.7919 Y28.0859
G01 X80.7871 Y28.0644
G01 X80.7833 Y28.0426
G01 X80.7732 Y27.9746
G01 X80.7705 Y27.9527
G01 X80.7689 Y27.9307
G01 X80.7655 Y27.8621
G01 X80.7650 Y27.8400
G01 X80.7650 Y25.2400
G01 X80.7655 Y25.2179
G01 X80.7689 Y25.1493
G01 X80.7705 Y25.1273
G01 X80.7732 Y25.1054
G01 X80.7833 Y25.0374
G01 X80.7871 Y25.0156
G01 X80.7919 Y24.9941
G01 X80.8086 Y24.9275
G01 X80.8145 Y24.9062
G01 X80.8214 Y24.8852
G01 X80.8446 Y24.8205
G01 X80.8525 Y24.7999
G01 X80.8615 Y24.7797
G01 X80.8909 Y24.7176
G01 X80.9008 Y24.6979
G01 X80.9117 Y24.6787
G01 X80.9470 Y24.6198
G01 X80.9588 Y24.6011
G01 X80.9715 Y24.5830
G01 X81.0124 Y24.5279
G01 X81.0260 Y24.5104
G01 X81.0405 Y24.4937
G01 X81.0866 Y24.4428
G01 X81.1018 Y24.4268
G01 X81.1178 Y24.4116
G01 X81.1687 Y24.3655
G01 X81.1854 Y24.3510
G01 X81.2029 Y24.3374
G01 X81.2580 Y24.2965
G01 X81.2761 Y24.2838
G01 X81.2948 Y24.2720
G01 X81.3537 Y24.2367
G01 X81.3729 Y24.2258
G01 X81.3926 Y24.2159
G01 X81.4547 Y24.1865
G01 X81.4749 Y24.1775
G01 X81.4955 Y24.1696
G01 X81.5602 Y24.1464
G01 X81.5812 Y24.1395
G01 X81.6025 Y24.1336
G01 X81.6691 Y24.1169
G01 X81.6906 Y24.1121
G01 X81.7124 Y24.1083
G01 X81.7804 Y24.0982
G01 X81.8023 Y24.0955
G01 X81.8243 Y24.0939
G01 X81.9026 Y24.0902
G01 X80.8945 Y24.0902
G01 X80.8724 Y24.0896
G01 X80.8164 Y24.0869
G01 X80.7943 Y24.0853
G01 X80.7834 Y24.0840
G01 X80.7169 Y24.0743
G01 X80.6952 Y24.0706
G01 X80.6736 Y24.0657
G01 X80.6192 Y24.0521
G01 X80.6085 Y24.0493
G01 X80.5874 Y24.0429
G01 X80.5241 Y24.0204
G01 X80.5035 Y24.0124
G01 X80.4833 Y24.0035
G01 X80.4226 Y23.9746
G01 X80.4032 Y23.9642
G01 X80.3936 Y23.9586
G01 X80.3455 Y23.9298
G01 X80.3268 Y23.9180
G01 X80.3088 Y23.9053
G01 X80.2637 Y23.8718
G01 X80.2549 Y23.8652
G01 X80.2378 Y23.8511
G01 X80.1880 Y23.8061
G01 X80.1720 Y23.7909
G01 X76.3199 Y19.9388
G01 X36.5418 Y19.9388
G01 X33.4068 Y23.0738
G01 X33.4068 Y24.7128
G01 X33.4431 Y24.7898
G01 X33.4475 Y24.7999
G01 X33.4554 Y24.8205
G01 X33.4786 Y24.8852
G01 X33.4855 Y24.9062
G01 X33.4914 Y24.9275
G01 X33.5081 Y24.9941
G01 X33.5129 Y25.0156
G01 X33.5149 Y25.0265
G01 X33.5282 Y25.1163
G01 X33.5295 Y25.1273
G01 X33.5311 Y25.1493
G01 X33.5349 Y25.2290
G01 X33.5350 Y27.8400
G01 X33.5345 Y27.8621
G01 X33.5311 Y27.9307
G01 X33.5295 Y27.9527
G01 X33.5268 Y27.9746
G01 X33.5167 Y28.0426
G01 X33.5129 Y28.0644
G01 X33.5106 Y28.0752
G01 X33.4914 Y28.1525
G01 X33.4855 Y28.1738
G01 X33.4786 Y28.1948
G01 X33.4554 Y28.2595
G01 X33.4516 Y28.2698
G01 X33.4431 Y28.2902
G01 X33.4091 Y28.3624
G01 X33.3992 Y28.3821
G01 X33.3939 Y28.3918
G01 X33.3472 Y28.4696
G01 X33.3349 Y28.4880
G01 X33.3285 Y28.4970
G01 X33.2876 Y28.5521
G01 X33.2740 Y28.5696
G01 X33.2669 Y28.5780
G01 X33.2059 Y28.6453
G01 X33.1903 Y28.6609
G01 X33.1822 Y28.6684
G01 X33.1313 Y28.7145
G01 X33.1146 Y28.7290
G01 X33.0971 Y28.7426
G01 X33.0420 Y28.7835
G01 X33.0330 Y28.7899
G01 X33.0146 Y28.8022
G01 X32.9463 Y28.8433
G01 X32.9271 Y28.8542
G01 X32.9074 Y28.8641
G01 X32.8453 Y28.8935
G01 X32.8251 Y28.9025
G01 X32.8045 Y28.9104
G01 X32.7398 Y28.9336
G01 X32.7188 Y28.9405
G01 X32.6975 Y28.9464
G01 X32.6309 Y28.9631
G01 X32.6094 Y28.9679
G01 X32.5876 Y28.9717
G01 X32.5196 Y28.9818
G01 X32.4977 Y28.9845
G01 X32.4757 Y28.9861
G01 X32.4071 Y28.9895
G01 X32.3850 Y28.9900
G01 X32.3629 Y28.9895
G01 X32.2943 Y28.9861
G01 X32.2723 Y28.9845
G01 X32.2504 Y28.9818
G01 X32.1824 Y28.9717
G01 X32.1606 Y28.9679
G01 X32.1391 Y28.9631
G01 X32.0725 Y28.9464
G01 X32.0618 Y28.9436
G01 X32.0406 Y28.9371
G01 X31.9655 Y28.9104
G01 X31.9449 Y28.9025
G01 X31.9247 Y28.8935
G01 X31.8626 Y28.8641
G01 X31.8429 Y28.8542
G01 X31.8237 Y28.8433
G01 X31.7648 Y28.8080
G01 X31.7461 Y28.7962
G01 X31.7280 Y28.7835
G01 X31.6729 Y28.7426
G01 X31.6554 Y28.7290
G01 X31.6387 Y28.7145
G01 X31.5878 Y28.6684
G01 X31.5718 Y28.6532
G01 X31.5566 Y28.6372
G01 X31.5105 Y28.5863
G01 X31.4960 Y28.5696
G01 X31.4824 Y28.5521
G01 X31.4415 Y28.4970
G01 X31.4288 Y28.4789
G01 X31.4170 Y28.4602
G01 X31.3817 Y28.4013
G01 X31.3708 Y28.3821
G01 X31.3609 Y28.3624
G01 X31.3315 Y28.3003
G01 X31.3225 Y28.2801
G01 X31.3146 Y28.2595
G01 X31.2914 Y28.1948
G01 X31.2845 Y28.1738
G01 X31.2786 Y28.1525
G01 X31.2619 Y28.0859
G01 X31.2571 Y28.0644
G01 X31.2533 Y28.0426
G01 X31.2432 Y27.9746
G01 X31.2405 Y27.9527
G01 X31.2389 Y27.9307
G01 X31.2355 Y27.8621
G01 X31.2350 Y27.8400
G01 X31.2351 Y25.2290
G01 X31.2389 Y25.1493
G01 X31.2396 Y25.1383
G01 X31.2418 Y25.1163
G01 X31.2551 Y25.0265
G01 X31.2594 Y25.0048
G01 X31.2619 Y24.9941
G01 X31.2786 Y24.9275
G01 X31.2845 Y24.9062
G01 X31.2914 Y24.8852
G01 X31.3146 Y24.8205
G01 X31.3184 Y24.8102
G01 X31.3269 Y24.7898
G01 X31.3632 Y24.7128
G01 X31.3633 Y22.6396
G01 X31.3665 Y22.5725
G01 X31.3681 Y22.5504
G01 X31.3708 Y22.5285
G01 X31.3808 Y22.4621
G01 X31.3851 Y22.4405
G01 X31.4013 Y22.3753
G01 X31.4072 Y22.3540
G01 X31.4141 Y22.3330
G01 X31.4330 Y22.2802
G01 X31.4410 Y22.2596
G01 X31.4499 Y22.2394
G01 X31.4739 Y22.1887
G01 X31.4788 Y22.1787
G01 X31.4892 Y22.1593
G01 X31.5236 Y22.1016
G01 X31.5294 Y22.0922
G01 X31.5417 Y22.0738
G01 X31.5882 Y22.0110
G01 X31.5951 Y22.0024
G01 X31.6096 Y21.9857
G01 X31.6548 Y21.9360
G01 X35.3961 Y18.1945
G01 X35.4121 Y18.1793
G01 X35.4537 Y18.1416
G01 X35.4704 Y18.1271
G01 X35.4878 Y18.1136
G01 X35.5329 Y18.0801
G01 X35.5418 Y18.0737
G01 X35.5602 Y18.0614
G01 X35.6177 Y18.0268
G01 X35.6369 Y18.0159
G01 X35.6567 Y18.0059
G01 X35.7174 Y17.9773
G01 X35.7276 Y17.9730
G01 X35.7482 Y17.9650
G01 X35.8010 Y17.9461
G01 X35.8220 Y17.9392
G01 X35.8433 Y17.9333
G01 X35.9085 Y17.9171
G01 X35.9193 Y17.9148
G01 X35.9410 Y17.9111
G01 X35.9965 Y17.9028
G01 X36.0184 Y17.9001
G01 X36.0405 Y17.8985
G01 X36.0965 Y17.8958
G01 X36.1186 Y17.8952
G01 X76.7431 Y17.8952
G01 X76.7652 Y17.8958
G01 X76.8212 Y17.8985
G01 X76.8433 Y17.9001
G01 X76.8652 Y17.9028
G01 X76.9207 Y17.9111
G01 X76.9424 Y17.9148
G01 X76.9640 Y17.9197
G01 X77.0184 Y17.9333
G01 X77.0397 Y17.9392
G01 X77.0607 Y17.9461
G01 X77.1135 Y17.9650
G01 X77.1341 Y17.9730
G01 X77.1543 Y17.9819
G01 X77.2050 Y18.0059
G01 X77.2248 Y18.0159
G01 X77.2440 Y18.0268
G01 X77.2921 Y18.0556
G01 X77.3108 Y18.0674
G01 X77.3288 Y18.0801
G01 X77.3739 Y18.1136
G01 X77.3913 Y18.1271
G01 X77.4080 Y18.1416
G01 X77.4499 Y18.1795
G01 X77.1164 Y17.8460
G01 X35.6642 Y17.8460
G01 X30.8668 Y22.6434
G01 X30.8668 Y24.7128
G01 X30.9031 Y24.7898
G01 X30.9075 Y24.7999
G01 X30.9154 Y24.8205
G01 X30.9386 Y24.8852
G01 X30.9455 Y24.9062
G01 X30.9514 Y24.9275
G01 X30.9681 Y24.9941
G01 X30.9706 Y25.0048
G01 X30.9749 Y25.0265
G01 X30.9882 Y25.1163
G01 X30.9895 Y25.1273
G01 X30.9911 Y25.1493
G01 X30.9949 Y25.2290
G01 X30.9950 Y27.8400
G01 X30.9945 Y27.8621
G01 X30.9911 Y27.9307
G01 X30.9895 Y27.9527
G01 X30.9868 Y27.9746
G01 X30.9767 Y28.0426
G01 X30.9729 Y28.0644
G01 X30.9681 Y28.0859
G01 X30.9514 Y28.1525
G01 X30.9455 Y28.1738
G01 X30.9386 Y28.1948
G01 X30.9154 Y28.2595
G01 X30.9075 Y28.2801
G01 X30.8985 Y28.3003
G01 X30.8691 Y28.3624
G01 X30.8592 Y28.3821
G01 X30.8483 Y28.4013
G01 X30.8130 Y28.4602
G01 X30.8012 Y28.4789
G01 X30.7885 Y28.4970
G01 X30.7476 Y28.5521
G01 X30.7340 Y28.5696
G01 X30.7195 Y28.5863
G01 X30.6734 Y28.6372
G01 X30.6582 Y28.6532
G01 X30.6422 Y28.6684
G01 X30.5913 Y28.7145
G01 X30.5746 Y28.7290
G01 X30.5571 Y28.7426
G01 X30.5020 Y28.7835
G01 X30.4839 Y28.7962
G01 X30.4652 Y28.8080
G01 X30.4063 Y28.8433
G01 X30.3871 Y28.8542
G01 X30.3674 Y28.8641
G01 X30.3053 Y28.8935
G01 X30.2851 Y28.9025
G01 X30.2645 Y28.9104
G01 X30.1998 Y28.9336
G01 X30.1788 Y28.9405
G01 X30.1575 Y28.9464
G01 X30.0909 Y28.9631
G01 X30.0694 Y28.9679
G01 X30.0476 Y28.9717
G01 X29.9796 Y28.9818
G01 X29.9577 Y28.9845
G01 X29.9357 Y28.9861
G01 X29.8671 Y28.9895
G01 X29.8450 Y28.9900
G01 X29.8229 Y28.9895
G01 X29.7543 Y28.9861
G01 X29.7323 Y28.9845
G01 X29.7104 Y28.9818
G01 X29.6424 Y28.9717
G01 X29.6206 Y28.9679
G01 X29.5991 Y28.9631
G01 X29.5325 Y28.9464
G01 X29.5112 Y28.9405
G01 X29.4902 Y28.9336
G01 X29.4255 Y28.9104
G01 X29.4049 Y28.9025
G01 X29.3847 Y28.8935
G01 X29.3226 Y28.8641
G01 X29.3029 Y28.8542
G01 X29.2837 Y28.8433
G01 X29.2248 Y28.8080
G01 X29.2061 Y28.7962
G01 X29.1880 Y28.7835
G01 X29.1329 Y28.7426
G01 X29.1154 Y28.7290
G01 X29.0987 Y28.7145
G01 X29.0478 Y28.6684
G01 X29.0318 Y28.6532
G01 X29.0166 Y28.6372
G01 X28.9705 Y28.5863
G01 X28.9560 Y28.5696
G01 X28.9424 Y28.5521
G01 X28.9015 Y28.4970
G01 X28.8888 Y28.4789
G01 X28.8770 Y28.4602
G01 X28.8417 Y28.4013
G01 X28.8308 Y28.3821
G01 X28.8209 Y28.3624
G01 X28.7915 Y28.3003
G01 X28.7825 Y28.2801
G01 X28.7746 Y28.2595
G01 X28.7514 Y28.1948
G01 X28.7445 Y28.1738
G01 X28.7386 Y28.1525
G01 X28.7194 Y28.0752
G01 X28.7171 Y28.0644
G01 X28.7133 Y28.0426
G01 X28.7032 Y27.9746
G01 X28.7005 Y27.9527
G01 X28.6989 Y27.9307
G01 X28.6955 Y27.8621
G01 X28.6950 Y27.8400
G01 X28.6951 Y25.2290
G01 X28.6989 Y25.1493
G01 X28.7005 Y25.1273
G01 X28.7018 Y25.1163
G01 X28.7151 Y25.0265
G01 X28.7194 Y25.0048
G01 X28.7219 Y24.9941
G01 X28.7386 Y24.9275
G01 X28.7445 Y24.9062
G01 X28.7514 Y24.8852
G01 X28.7746 Y24.8205
G01 X28.7784 Y24.8102
G01 X28.7869 Y24.7898
G01 X28.8232 Y24.7128
G01 X28.8232 Y22.2202
G01 X28.8238 Y22.1981
G01 X28.8272 Y22.1311
G01 X28.8294 Y22.1091
G01 X28.8308 Y22.0981
G01 X28.8391 Y22.0426
G01 X28.8428 Y22.0209
G01 X28.8477 Y21.9993
G01 X28.8613 Y21.9449
G01 X28.8641 Y21.9342
G01 X28.8705 Y21.9131
G01 X28.8969 Y21.8394
G01 X28.9053 Y21.8190
G01 X28.9099 Y21.8090
G01 X28.9388 Y21.7483
G01 X28.9492 Y21.7289
G01 X28.9836 Y21.6712
G01 X28.9954 Y21.6525
G01 X29.0081 Y21.6345
G01 X29.0416 Y21.5894
G01 X29.0551 Y21.5720
G01 X29.0696 Y21.5553
G01 X29.1073 Y21.5137
G01 X29.1225 Y21.4977
G01 X34.5264 Y16.0940
G01 X34.5761 Y16.0488
G01 X34.5928 Y16.0343
G01 X34.6102 Y16.0208
G01 X34.6553 Y15.9873
G01 X34.6733 Y15.9746
G01 X34.6826 Y15.9686
G01 X34.7401 Y15.9340
G01 X34.7593 Y15.9231
G01 X34.7791 Y15.9131
G01 X34.8398 Y15.8845
G01 X34.8500 Y15.8802
G01 X34.8706 Y15.8722
G01 X34.9234 Y15.8533
G01 X34.9444 Y15.8464
G01 X34.9657 Y15.8405
G01 X35.0309 Y15.8243
G01 X35.0525 Y15.8200
G01 X35.0634 Y15.8183
G01 X35.1189 Y15.8100
G01 X35.1408 Y15.8073
G01 X35.1629 Y15.8057
G01 X35.2189 Y15.8030
G01 X35.2410 Y15.8024
G01 X77.5396 Y15.8024
G01 X77.5617 Y15.8030
G01 X77.6287 Y15.8064
G01 X77.6507 Y15.8086
G01 X77.7172 Y15.8183
G01 X77.7389 Y15.8220
G01 X77.7605 Y15.8269
G01 X77.8256 Y15.8433
G01 X77.8467 Y15.8497
G01 X77.9100 Y15.8722
G01 X77.9204 Y15.8761
G01 X77.9408 Y15.8845
G01 X78.0015 Y15.9131
G01 X78.0213 Y15.9231
G01 X78.0405 Y15.9340
G01 X78.0886 Y15.9628
G01 X78.1073 Y15.9746
G01 X78.1253 Y15.9873
G01 X78.1704 Y16.0208
G01 X78.1878 Y16.0343
G01 X78.2045 Y16.0488
G01 X78.2461 Y16.0865
G01 X78.2621 Y16.1017
G01 X81.8492 Y19.6888
G01 X84.8835 Y19.6888
G01 X84.7758 Y19.6836
G01 X84.7538 Y19.6820
G01 X84.7319 Y19.6793
G01 X84.6348 Y19.6649
G01 X84.6130 Y19.6611
G01 X84.5915 Y19.6563
G01 X84.4963 Y19.6325
G01 X84.4750 Y19.6266
G01 X84.4540 Y19.6196
G01 X84.3616 Y19.5866
G01 X84.3410 Y19.5786
G01 X84.3208 Y19.5697
G01 X84.2321 Y19.5277
G01 X84.2124 Y19.5178
G01 X84.1932 Y19.5069
G01 X84.1090 Y19.4564
G01 X84.0903 Y19.4446
G01 X84.0723 Y19.4319
G01 X83.9934 Y19.3735
G01 X83.9760 Y19.3599
G01 X83.9593 Y19.3454
G01 X83.8866 Y19.2795
G01 X83.8706 Y19.2643
G01 X83.8554 Y19.2483
G01 X83.7895 Y19.1756
G01 X83.7750 Y19.1589
G01 X83.7614 Y19.1415
G01 X83.7030 Y19.0626
G01 X83.6903 Y19.0446
G01 X83.6785 Y19.0259
G01 X83.6280 Y18.9417
G01 X83.6171 Y18.9225
G01 X83.6072 Y18.9028
G01 X83.5652 Y18.8141
G01 X83.5563 Y18.7939
G01 X83.5483 Y18.7733
G01 X83.5153 Y18.6809
G01 X83.5083 Y18.6599
G01 X83.5024 Y18.6386
G01 X83.4786 Y18.5434
G01 X83.4738 Y18.5219
G01 X83.4700 Y18.5001
G01 X83.4556 Y18.4030
G01 X83.4529 Y18.3811
G01 X83.4513 Y18.3591
G01 X83.4464 Y18.2611
G01 X83.4459 Y18.2390
G01 X83.4464 Y18.2172
G01 X83.4121 Y18.1916
G01 X83.3950 Y18.1775
G01 X83.3452 Y18.1325
G01 X83.3292 Y18.1173
G01 X80.9898 Y15.7779
G01 X34.8328 Y15.7779
G01 X28.3268 Y22.2839
G01 X28.3268 Y24.7128
G01 X28.3631 Y24.7898
G01 X28.3675 Y24.7999
G01 X28.3754 Y24.8205
G01 X28.3986 Y24.8852
G01 X28.4055 Y24.9062
G01 X28.4114 Y24.9275
G01 X28.4281 Y24.9941
G01 X28.4306 Y25.0048
G01 X28.4349 Y25.0265
G01 X28.4482 Y25.1163
G01 X28.4495 Y25.1273
G01 X28.4511 Y25.1493
G01 X28.4549 Y25.2290
G01 X28.4550 Y27.8400
G01 X28.4545 Y27.8621
G01 X28.4511 Y27.9307
G01 X28.4495 Y27.9527
G01 X28.4468 Y27.9746
G01 X28.4367 Y28.0426
G01 X28.4329 Y28.0644
G01 X28.4281 Y28.0859
G01 X28.4114 Y28.1525
G01 X28.4055 Y28.1738
G01 X28.3986 Y28.1948
G01 X28.3754 Y28.2595
G01 X28.3675 Y28.2801
G01 X28.3585 Y28.3003
G01 X28.3291 Y28.3624
G01 X28.3192 Y28.3821
G01 X28.3083 Y28.4013
G01 X28.2730 Y28.4602
G01 X28.2612 Y28.4789
G01 X28.2485 Y28.4970
G01 X28.2076 Y28.5521
G01 X28.1940 Y28.5696
G01 X28.1795 Y28.5863
G01 X28.1334 Y28.6372
G01 X28.1182 Y28.6532
G01 X28.1022 Y28.6684
G01 X28.0513 Y28.7145
G01 X28.0346 Y28.7290
G01 X28.0171 Y28.7426
G01 X27.9620 Y28.7835
G01 X27.9439 Y28.7962
G01 X27.9252 Y28.8080
G01 X27.8663 Y28.8433
G01 X27.8471 Y28.8542
G01 X27.8274 Y28.8641
G01 X27.7653 Y28.8935
G01 X27.7451 Y28.9025
G01 X27.7245 Y28.9104
G01 X27.6598 Y28.9336
G01 X27.6388 Y28.9405
G01 X27.6175 Y28.9464
G01 X27.5509 Y28.9631
G01 X27.5294 Y28.9679
G01 X27.5076 Y28.9717
G01 X27.4396 Y28.9818
G01 X27.4177 Y28.9845
G01 X27.3957 Y28.9861
G01 X27.3271 Y28.9895
G01 X27.3050 Y28.9900
G01 X27.2829 Y28.9895
G01 X27.2143 Y28.9861
G01 X27.1923 Y28.9845
G01 X27.1704 Y28.9818
G01 X27.1024 Y28.9717
G01 X27.0806 Y28.9679
G01 X27.0591 Y28.9631
G01 X26.9925 Y28.9464
G01 X26.9712 Y28.9405
G01 X26.9502 Y28.9336
G01 X26.8855 Y28.9104
G01 X26.8649 Y28.9025
G01 X26.8447 Y28.8935
G01 X26.7826 Y28.8641
G01 X26.7629 Y28.8542
G01 X26.7437 Y28.8433
G01 X26.6848 Y28.8080
G01 X26.6661 Y28.7962
G01 X26.6480 Y28.7835
G01 X26.5929 Y28.7426
G01 X26.5754 Y28.7290
G01 X26.5587 Y28.7145
G01 X26.5078 Y28.6684
G01 X26.4918 Y28.6532
G01 X26.4766 Y28.6372
G01 X26.4305 Y28.5863
G01 X26.4160 Y28.5696
G01 X26.4024 Y28.5521
G01 X26.3615 Y28.4970
G01 X26.3488 Y28.4789
G01 X26.3370 Y28.4602
G01 X26.3017 Y28.4013
G01 X26.2908 Y28.3821
G01 X26.2809 Y28.3624
G01 X26.2515 Y28.3003
G01 X26.2425 Y28.2801
G01 X26.2346 Y28.2595
G01 X26.2114 Y28.1948
G01 X26.2045 Y28.1738
G01 X26.1986 Y28.1525
G01 X26.1819 Y28.0859
G01 X26.1771 Y28.0644
G01 X26.1733 Y28.0426
G01 X26.1632 Y27.9746
G01 X26.1605 Y27.9527
G01 X26.1589 Y27.9307
G01 X26.1551 Y27.8510
G01 X26.1550 Y25.2400
G01 X26.1555 Y25.2179
G01 X26.1589 Y25.1493
G01 X26.1605 Y25.1273
G01 X26.1632 Y25.1054
G00 Z2.0000
G00 X21.0832 Y30.4454
G01 F60.00
G01 Z-0.0500
G01 F80.00
G01 X21.0933 Y30.3774
G01 X21.0971 Y30.3556
G01 X21.1019 Y30.3341
G01 X21.1186 Y30.2675
G01 X21.1245 Y30.2462
G01 X21.1314 Y30.2252
G01 X21.1546 Y30.1605
G01 X21.1625 Y30.1399
G01 X21.1715 Y30.1197
G01 X21.2009 Y30.0576
G01 X21.2057 Y30.0477
G01 X21.2161 Y30.0282
G01 X21.2570 Y29.9598
G01 X21.2688 Y29.9411
G01 X21.2815 Y29.9230
G01 X21.3224 Y29.8679
G01 X21.3360 Y29.8504
G01 X21.3505 Y29.8337
G01 X21.3966 Y29.7828
G01 X21.4118 Y29.7668
G01 X21.4278 Y29.7516
G01 X21.4787 Y29.7055
G01 X21.4954 Y29.6910
G01 X21.5129 Y29.6774
G01 X21.5680 Y29.6365
G01 X21.5861 Y29.6238
G01 X21.6048 Y29.6120
G01 X21.6732 Y29.5711
G01 X21.6927 Y29.5607
G01 X21.7026 Y29.5559
G01 X21.7647 Y29.5265
G01 X21.7849 Y29.5175
G01 X21.8055 Y29.5096
G01 X21.8702 Y29.4864
G01 X21.8912 Y29.4795
G01 X21.9125 Y29.4736
G01 X21.9791 Y29.4569
G01 X22.0006 Y29.4521
G01 X22.0224 Y29.4483
G01 X22.0904 Y29.4382
G01 X22.1123 Y29.4355
G01 X22.1343 Y29.4339
G01 X22.2140 Y29.4301
G01 X22.2250 Y29.4300
G01 X22.2471 Y29.4305
G01 X22.3157 Y29.4339
G01 X22.3377 Y29.4355
G01 X22.3596 Y29.4382
G01 X22.4276 Y29.4483
G01 X22.4494 Y29.4521
G01 X22.4709 Y29.4569
G01 X22.5375 Y29.4736
G01 X22.5588 Y29.4795
G01 X22.5798 Y29.4864
G01 X22.6445 Y29.5096
G01 X22.6651 Y29.5175
G01 X22.6853 Y29.5265
G01 X22.7573 Y29.5607
G01 X22.7671 Y29.5658
G01 X22.7863 Y29.5767
G01 X22.8452 Y29.6120
G01 X22.8639 Y29.6238
G01 X22.8820 Y29.6365
G01 X22.9371 Y29.6774
G01 X22.9546 Y29.6910
G01 X22.9713 Y29.7055
G01 X23.0222 Y29.7516
G01 X23.0382 Y29.7668
G01 X23.0534 Y29.7828
G01 X23.0995 Y29.8337
G01 X23.1140 Y29.8504
G01 X23.1209 Y29.8591
G01 X23.1685 Y29.9230
G01 X23.1812 Y29.9411
G01 X23.1930 Y29.9598
G01 X23.2283 Y30.0187
G01 X23.2392 Y30.0379
G01 X23.2491 Y30.0576
G01 X23.2785 Y30.1197
G01 X23.2875 Y30.1399
G01 X23.2954 Y30.1605
G01 X23.3186 Y30.2252
G01 X23.3255 Y30.2462
G01 X23.3314 Y30.2675
G01 X23.3481 Y30.3341
G01 X23.3529 Y30.3556
G01 X23.3567 Y30.3774
G01 X23.3668 Y30.4454
G01 X23.3695 Y30.4673
G01 X23.3711 Y30.4893
G01 X23.3749 Y30.5690
G01 X23.3750 Y33.1800
G01 X23.3745 Y33.2021
G01 X23.3711 Y33.2707
G01 X23.3695 Y33.2927
G01 X23.3668 Y33.3146
G01 X23.3567 Y33.3826
G01 X23.3529 Y33.4044
G01 X23.3481 Y33.4259
G01 X23.3314 Y33.4925
G01 X23.3255 Y33.5138
G01 X23.3186 Y33.5348
G01 X23.2954 Y33.5995
G01 X23.2875 Y33.6201
G01 X23.2785 Y33.6403
G01 X23.2491 Y33.7024
G01 X23.2392 Y33.7221
G01 X23.2283 Y33.7413
G01 X23.1930 Y33.8002
G01 X23.1812 Y33.8189
G01 X23.1685 Y33.8370
G01 X23.1276 Y33.8921
G01 X23.1140 Y33.9096
G01 X23.0995 Y33.9263
G01 X23.0534 Y33.9772
G01 X23.0382 Y33.9932
G01 X23.0222 Y34.0084
G01 X22.9713 Y34.0545
G01 X22.9546 Y34.0690
G01 X22.9371 Y34.0826
G01 X22.8820 Y34.1235
G01 X22.8639 Y34.1362
G01 X22.8452 Y34.1480
G01 X22.7863 Y34.1833
G01 X22.7671 Y34.1942
G01 X22.7474 Y34.2041
G01 X22.6853 Y34.2335
G01 X22.6651 Y34.2425
G01 X22.6445 Y34.2504
G01 X22.5798 Y34.2736
G01 X22.5588 Y34.2805
G01 X22.5375 Y34.2864
G01 X22.4709 Y34.3031
G01 X22.4494 Y34.3079
G01 X22.4276 Y34.3117
G01 X22.3596 Y34.3218
G01 X22.3377 Y34.3245
G01 X22.3157 Y34.3261
G01 X22.2471 Y34.3295
G01 X22.2250 Y34.3300
G01 X22.2029 Y34.3295
G01 X22.1343 Y34.3261
G01 X22.1123 Y34.3245
G01 X22.0904 Y34.3218
G01 X22.0224 Y34.3117
G01 X22.0006 Y34.3079
G01 X21.9791 Y34.3031
G01 X21.9125 Y34.2864
G01 X21.8912 Y34.2805
G01 X21.8702 Y34.2736
G01 X21.8055 Y34.2504
G01 X21.7849 Y34.2425
G01 X21.7647 Y34.2335
G01 X21.7026 Y34.2041
G01 X21.6829 Y34.1942
G01 X21.6637 Y34.1833
G01 X21.6048 Y34.1480
G01 X21.5861 Y34.1362
G01 X21.5680 Y34.1235
G01 X21.5129 Y34.0826
G01 X21.4954 Y34.0690
G01 X21.4787 Y34.0545
G01 X21.4278 Y34.0084
G01 X21.4118 Y33.9932
G01 X21.3966 Y33.9772
G01 X21.3505 Y33.9263
G01 X21.3360 Y33.9096
G01 X21.3224 Y33.8921
G01 X21.2815 Y33.8370
G01 X21.2688 Y33.8189
G01 X21.2570 Y33.8002
G01 X21.2217 Y33.7413
G01 X21.2108 Y33.7221
G01 X21.2009 Y33.7024
G01 X21.1715 Y33.6403
G01 X21.1625 Y33.6201
G01 X21.1546 Y33.5995
G01 X21.1314 Y33.5348
G01 X21.1245 Y33.5138
G01 X21.1186 Y33.4925
G01 X21.1019 Y33.4259
G01 X21.0971 Y33.4044
G01 X21.0933 Y33.3826
G01 X21.0832 Y33.3146
G01 X21.0805 Y33.2927
G01 X21.0789 Y33.2707
G01 X21.0751 Y33.1910
G01 X21.0750 Y30.5800
G01 X21.0755 Y30.5579
G01 X21.0789 Y30.4893
G01 X21.0805 Y30.4673
G01 X21.0832 Y30.4454
G00 Z2.0000
G00 X18.5432 Y30.4454
G01 F60.00
G01 Z-0.0500
G01 F80.00
G01 X18.5533 Y30.3774
G01 X18.5571 Y30.3556
G01 X18.5619 Y30.3341
G01 X18.5786 Y30.2675
G01 X18.5845 Y30.2462
G01 X18.5914 Y30.2252
G01 X18.6146 Y30.1605
G01 X18.6225 Y30.1399
G01 X18.6315 Y30.1197
G01 X18.6609 Y30.0576
G01 X18.6708 Y30.0379
G01 X18.6761 Y30.0282
G01 X18.7170 Y29.9598
G01 X18.7288 Y29.9411
G01 X18.7415 Y29.9230
G01 X18.7824 Y29.8679
G01 X18.7960 Y29.8504
G01 X18.8105 Y29.8337
G01 X18.8566 Y29.7828
G01 X18.8718 Y29.7668
G01 X18.8878 Y29.7516
G01 X18.9387 Y29.7055
G01 X18.9554 Y29.6910
G01 X18.9729 Y29.6774
G01 X19.0280 Y29.6365
G01 X19.0461 Y29.6238
G01 X19.0648 Y29.6120
G01 X19.1332 Y29.5711
G01 X19.1527 Y29.5607
G01 X19.1626 Y29.5559
G01 X19.2247 Y29.5265
G01 X19.2449 Y29.5175
G01 X19.2655 Y29.5096
G01 X19.3302 Y29.4864
G01 X19.3512 Y29.4795
G01 X19.3725 Y29.4736
G01 X19.4391 Y29.4569
G01 X19.4606 Y29.4521
G01 X19.4824 Y29.4483
G01 X19.5504 Y29.4382
G01 X19.5723 Y29.4355
G01 X19.5943 Y29.4339
G01 X19.6740 Y29.4301
G01 X19.6850 Y29.4300
G01 X19.7071 Y29.4305
G01 X19.7757 Y29.4339
G01 X19.7977 Y29.4355
G01 X19.8196 Y29.4382
G01 X19.8876 Y29.4483
G01 X19.9094 Y29.4521
G01 X19.9309 Y29.4569
G01 X19.9975 Y29.4736
G01 X20.0188 Y29.4795
G01 X20.0398 Y29.4864
G01 X20.1045 Y29.5096
G01 X20.1251 Y29.5175
G01 X20.1453 Y29.5265
G01 X20.2173 Y29.5607
G01 X20.2271 Y29.5658
G01 X20.2463 Y29.5767
G01 X20.3052 Y29.6120
G01 X20.3239 Y29.6238
G01 X20.3420 Y29.6365
G01 X20.3971 Y29.6774
G01 X20.4146 Y29.6910
G01 X20.4313 Y29.7055
G01 X20.4822 Y29.7516
G01 X20.4982 Y29.7668
G01 X20.5134 Y29.7828
G01 X20.5595 Y29.8337
G01 X20.5740 Y29.8504
G01 X20.5809 Y29.8591
G01 X20.6285 Y29.9230
G01 X20.6412 Y29.9411
G01 X20.6530 Y29.9598
G01 X20.6883 Y30.0187
G01 X20.6992 Y30.0379
G01 X20.7091 Y30.0576
G01 X20.7385 Y30.1197
G01 X20.7475 Y30.1399
G01 X20.7554 Y30.1605
G01 X20.7786 Y30.2252
G01 X20.7855 Y30.2462
G01 X20.7914 Y30.2675
G01 X20.8081 Y30.3341
G01 X20.8129 Y30.3556
G01 X20.8167 Y30.3774
G01 X20.8268 Y30.4454
G01 X20.8295 Y30.4673
G01 X20.8311 Y30.4893
G01 X20.8349 Y30.5690
G01 X20.8350 Y33.1800
G01 X20.8345 Y33.2021
G01 X20.8311 Y33.2707
G01 X20.8295 Y33.2927
G01 X20.8268 Y33.3146
G01 X20.8167 Y33.3826
G01 X20.8129 Y33.4044
G01 X20.8081 Y33.4259
G01 X20.7914 Y33.4925
G01 X20.7855 Y33.5138
G01 X20.7786 Y33.5348
G01 X20.7554 Y33.5995
G01 X20.7475 Y33.6201
G01 X20.7385 Y33.6403
G01 X20.7091 Y33.7024
G01 X20.6992 Y33.7221
G01 X20.6883 Y33.7413
G01 X20.6530 Y33.8002
G01 X20.6412 Y33.8189
G01 X20.6285 Y33.8370
G01 X20.5876 Y33.8921
G01 X20.5740 Y33.9096
G01 X20.5595 Y33.9263
G01 X20.5134 Y33.9772
G01 X20.4982 Y33.9932
G01 X20.4822 Y34.0084
G01 X20.4313 Y34.0545
G01 X20.4146 Y34.0690
G01 X20.3971 Y34.0826
G01 X20.3420 Y34.1235
G01 X20.3239 Y34.1362
G01 X20.3052 Y34.1480
G01 X20.2463 Y34.1833
G01 X20.2271 Y34.1942
G01 X20.2074 Y34.2041
G01 X20.1453 Y34.2335
G01 X20.1251 Y34.2425
G01 X20.1045 Y34.2504
G01 X20.0398 Y34.2736
G01 X20.0188 Y34.2805
G01 X19.9975 Y34.2864
G01 X19.9309 Y34.3031
G01 X19.9094 Y34.3079
G01 X19.8876 Y34.3117
G01 X19.8196 Y34.3218
G01 X19.7977 Y34.3245
G01 X19.7757 Y34.3261
G01 X19.7071 Y34.3295
G01 X19.6850 Y34.3300
G01 X19.6629 Y34.3295
G01 X19.5943 Y34.3261
G01 X19.5723 Y34.3245
G01 X19.5504 Y34.3218
G01 X19.4824 Y34.3117
G01 X19.4606 Y34.3079
G01 X19.4391 Y34.3031
G01 X19.3725 Y34.2864
G01 X19.3512 Y34.2805
G01 X19.3302 Y34.2736
G01 X19.2655 Y34.2504
G01 X19.2449 Y34.2425
G01 X19.2247 Y34.2335
G01 X19.1626 Y34.2041
G01 X19.1429 Y34.1942
G01 X19.1237 Y34.1833
G01 X19.0648 Y34.1480
G01 X19.0461 Y34.1362
G01 X19.0280 Y34.1235
G01 X18.9729 Y34.0826
G01 X18.9554 Y34.0690
G01 X18.9387 Y34.0545
G01 X18.8878 Y34.0084
G01 X18.8718 Y33.9932
G01 X18.8566 Y33.9772
G01 X18.8105 Y33.9263
G01 X18.7960 Y33.9096
G01 X18.7824 Y33.8921
G01 X18.7415 Y33.8370
G01 X18.7288 Y33.8189
G01 X18.7170 Y33.8002
G01 X18.6817 Y33.7413
G01 X18.6708 Y33.7221
G01 X18.6609 Y33.7024
G01 X18.6315 Y33.6403
G01 X18.6225 Y33.6201
G01 X18.6146 Y33.5995
G01 X18.5914 Y33.5348
G01 X18.5845 Y33.5138
G01 X18.5786 Y33.4925
G01 X18.5619 Y33.4259
G01 X18.5571 Y33.4044
G01 X18.5533 Y33.3826
G01 X18.5432 Y33.3146
G01 X18.5405 Y33.2927
G01 X18.5389 Y33.2707
G01 X18.5351 Y33.1910
G01 X18.5350 Y30.5800
G01 X18.5355 Y30.5579
G01 X18.5389 Y30.4893
G01 X18.5405 Y30.4673
G01 X18.5432 Y30.4454
G00 Z2.0000
G00 X16.0032 Y30.4454
G01 F60.00
G01 Z-0.0500
G01 F80.00
G01 X16.0133 Y30.3774
G01 X16.0171 Y30.3556
G01 X16.0219 Y30.3341
G01 X16.0386 Y30.2675
G01 X16.0445 Y30.2462
G01 X16.0514 Y30.2252
G01 X16.0746 Y30.1605
G01 X16.0825 Y30.1399
G01 X16.0915 Y30.1197
G01 X16.1209 Y30.0576
G01 X16.1308 Y30.0379
G01 X16.1361 Y30.0282
G01 X16.1770 Y29.9598
G01 X16.1888 Y29.9411
G01 X16.2015 Y29.9230
G01 X16.2424 Y29.8679
G01 X16.2560 Y29.8504
G01 X16.2705 Y29.8337
G01 X16.3166 Y29.7828
G01 X16.3318 Y29.7668
G01 X16.3478 Y29.7516
G01 X16.3987 Y29.7055
G01 X16.4154 Y29.6910
G01 X16.4329 Y29.6774
G01 X16.4880 Y29.6365
G01 X16.5061 Y29.6238
G01 X16.5248 Y29.6120
G01 X16.5932 Y29.5711
G01 X16.6127 Y29.5607
G01 X16.6226 Y29.5559
G01 X16.6847 Y29.5265
G01 X16.7049 Y29.5175
G01 X16.7255 Y29.5096
G01 X16.7902 Y29.4864
G01 X16.8112 Y29.4795
G01 X16.8325 Y29.4736
G01 X16.8991 Y29.4569
G01 X16.9206 Y29.4521
G01 X16.9424 Y29.4483
G01 X17.0104 Y29.4382
G01 X17.0323 Y29.4355
G01 X17.0543 Y29.4339
G01 X17.1340 Y29.4301
G01 X17.1450 Y29.4300
G01 X17.1671 Y29.4305
G01 X17.2357 Y29.4339
G01 X17.2577 Y29.4355
G01 X17.2796 Y29.4382
G01 X17.3476 Y29.4483
G01 X17.3694 Y29.4521
G01 X17.3909 Y29.4569
G01 X17.4575 Y29.4736
G01 X17.4788 Y29.4795
G01 X17.4998 Y29.4864
G01 X17.5645 Y29.5096
G01 X17.5851 Y29.5175
G01 X17.6053 Y29.5265
G01 X17.6773 Y29.5607
G01 X17.6871 Y29.5658
G01 X17.7063 Y29.5767
G01 X17.7652 Y29.6120
G01 X17.7839 Y29.6238
G01 X17.8020 Y29.6365
G01 X17.8571 Y29.6774
G01 X17.8746 Y29.6910
G01 X17.8913 Y29.7055
G01 X17.9422 Y29.7516
G01 X17.9582 Y29.7668
G01 X17.9734 Y29.7828
G01 X18.0195 Y29.8337
G01 X18.0340 Y29.8504
G01 X18.0409 Y29.8591
G01 X18.0885 Y29.9230
G01 X18.1012 Y29.9411
G01 X18.1130 Y29.9598
G01 X18.1483 Y30.0187
G01 X18.1592 Y30.0379
G01 X18.1691 Y30.0576
G01 X18.1985 Y30.1197
G01 X18.2075 Y30.1399
G01 X18.2154 Y30.1605
G01 X18.2386 Y30.2252
G01 X18.2455 Y30.2462
G01 X18.2514 Y30.2675
G01 X18.2681 Y30.3341
G01 X18.2729 Y30.3556
G01 X18.2767 Y30.3774
G01 X18.2868 Y30.4454
G01 X18.2895 Y30.4673
G01 X18.2911 Y30.4893
G01 X18.2949 Y30.5690
G01 X18.2950 Y33.1800
G01 X18.2945 Y33.2021
G01 X18.2911 Y33.2707
G01 X18.2895 Y33.2927
G01 X18.2868 Y33.3146
G01 X18.2767 Y33.3826
G01 X18.2729 Y33.4044
G01 X18.2681 Y33.4259
G01 X18.2514 Y33.4925
G01 X18.2455 Y33.5138
G01 X18.2386 Y33.5348
G01 X18.2154 Y33.5995
G01 X18.2075 Y33.6201
G01 X18.1985 Y33.6403
G01 X18.1691 Y33.7024
G01 X18.1592 Y33.7221
G01 X18.1483 Y33.7413
G01 X18.1130 Y33.8002
G01 X18.1012 Y33.8189
G01 X18.0885 Y33.8370
G01 X18.0476 Y33.8921
G01 X18.0340 Y33.9096
G01 X18.0195 Y33.9263
G01 X17.9734 Y33.9772
G01 X17.9582 Y33.9932
G01 X17.9422 Y34.0084
G01 X17.8913 Y34.0545
G01 X17.8746 Y34.0690
G01 X17.8571 Y34.0826
G01 X17.8020 Y34.1235
G01 X17.7839 Y34.1362
G01 X17.7652 Y34.1480
G01 X17.7063 Y34.1833
G01 X17.6871 Y34.1942
G01 X17.6674 Y34.2041
G01 X17.6053 Y34.2335
G01 X17.5851 Y34.2425
G01 X17.5645 Y34.2504
G01 X17.4998 Y34.2736
G01 X17.4788 Y34.2805
G01 X17.4575 Y34.2864
G01 X17.3909 Y34.3031
G01 X17.3694 Y34.3079
G01 X17.3476 Y34.3117
G01 X17.2796 Y34.3218
G01 X17.2577 Y34.3245
G01 X17.2357 Y34.3261
G01 X17.1671 Y34.3295
G01 X17.1450 Y34.3300
G01 X17.1229 Y34.3295
G01 X17.0543 Y34.3261
G01 X17.0323 Y34.3245
G01 X17.0104 Y34.3218
G01 X16.9424 Y34.3117
G01 X16.9206 Y34.3079
G01 X16.8991 Y34.3031
G01 X16.8325 Y34.2864
G01 X16.8112 Y34.2805
G01 X16.7902 Y34.2736
G01 X16.7255 Y34.2504
G01 X16.7049 Y34.2425
G01 X16.6847 Y34.2335
G01 X16.6226 Y34.2041
G01 X16.6029 Y34.1942
G01 X16.5837 Y34.1833
G01 X16.5248 Y34.1480
G01 X16.5061 Y34.1362
G01 X16.4880 Y34.1235
G01 X16.4329 Y34.0826
G01 X16.4154 Y34.0690
G01 X16.3987 Y34.0545
G01 X16.3478 Y34.0084
G01 X16.3318 Y33.9932
G01 X16.3166 Y33.9772
G01 X16.2705 Y33.9263
G01 X16.2560 Y33.9096
G01 X16.2424 Y33.8921
G01 X16.2015 Y33.8370
G01 X16.1888 Y33.8189
G01 X16.1770 Y33.8002
G01 X16.1417 Y33.7413
G01 X16.1308 Y33.7221
G01 X16.1209 Y33.7024
G01 X16.0915 Y33.6403
G01 X16.0825 Y33.6201
G01 X16.0746 Y33.5995
G01 X16.0514 Y33.5348
G01 X16.0445 Y33.5138
G01 X16.0386 Y33.4925
G01 X16.0219 Y33.4259
G01 X16.0171 Y33.4044
G01 X16.0133 Y33.3826
G01 X16.0032 Y33.3146
G01 X16.0005 Y33.2927
G01 X15.9989 Y33.2707
G01 X15.9951 Y33.1910
G01 X15.9950 Y30.5800
G01 X15.9955 Y30.5579
G01 X15.9989 Y30.4893
G01 X16.0005 Y30.4673
G01 X16.0032 Y30.4454
G00 Z2.0000
G00 X10.4709 Y36.2490
G01 F60.00
G01 Z-0.0500
G01 F80.00
G01 X10.4853 Y36.1519
G01 X10.4891 Y36.1301
G01 X10.4939 Y36.1086
G01 X10.5177 Y36.0134
G01 X10.5236 Y35.9921
G01 X10.5306 Y35.9711
G01 X10.5636 Y35.8787
G01 X10.5716 Y35.8581
G01 X10.5805 Y35.8379
G01 X10.6225 Y35.7492
G01 X10.6273 Y35.7393
G01 X10.6377 Y35.7198
G01 X10.6938 Y35.6261
G01 X10.7056 Y35.6074
G01 X10.7183 Y35.5894
G01 X10.7767 Y35.5105
G01 X10.7903 Y35.4931
G01 X10.8048 Y35.4764
G01 X10.8707 Y35.4037
G01 X10.8894 Y35.3843
G01 X10.8895 Y24.5076
G01 X10.8927 Y24.4405
G01 X10.8943 Y24.4184
G01 X10.8970 Y24.3965
G01 X10.9053 Y24.3410
G01 X10.9090 Y24.3193
G01 X10.9139 Y24.2977
G01 X10.9303 Y24.2326
G01 X10.9367 Y24.2115
G01 X10.9592 Y24.1482
G01 X10.9672 Y24.1276
G01 X10.9761 Y24.1074
G01 X11.0050 Y24.0467
G01 X11.0154 Y24.0273
G01 X11.0498 Y23.9696
G01 X11.0616 Y23.9509
G01 X11.0743 Y23.9329
G01 X11.1078 Y23.8878
G01 X11.1213 Y23.8704
G01 X11.1358 Y23.8537
G01 X11.1735 Y23.8121
G01 X11.1887 Y23.7961
G01 X12.6977 Y22.2873
G01 X12.7556 Y22.2348
G01 X12.7641 Y22.2276
G01 X12.7815 Y22.2141
G01 X12.8266 Y22.1806
G01 X12.8446 Y22.1679
G01 X12.8633 Y22.1561
G01 X12.9114 Y22.1273
G01 X12.9210 Y22.1217
G01 X12.9404 Y22.1113
G01 X13.0111 Y22.0778
G01 X13.0315 Y22.0694
G01 X13.0419 Y22.0655
G01 X13.1052 Y22.0430
G01 X13.1263 Y22.0366
G01 X13.1914 Y22.0202
G01 X13.2130 Y22.0153
G01 X13.2347 Y22.0116
G01 X13.2902 Y22.0033
G01 X13.3121 Y22.0006
G01 X13.3342 Y21.9990
G01 X13.4013 Y21.9958
G01 X16.7218 Y21.9957
G01 X30.8000 Y7.9175
G01 X30.8160 Y7.9023
G01 X30.8576 Y7.8646
G01 X30.8743 Y7.8501
G01 X30.8917 Y7.8366
G01 X30.9368 Y7.8031
