(ALIGNMENT-HOLES)
(T1  D=0.0394 CR=0. - ZMIN=-0.2369 - FLAT END MILL)
G20
G40
G49
G80
G90
(WHEN USING FUSION 360 FOR PERSONAL USE, THE FEEDRATE OF)
(RAPID MOVES IS REDUCED TO MATCH THE FEEDRATE OF CUTTING)
(MOVES, WHICH CAN INCREASE MACHINING TIME. UNRESTRICTED RAPID)
(MOVES ARE AVAILABLE WITH A FUSION 360 SUBSCRIPTION.)

(BORE1)
M5
T1 M6
S5000 M3
G54
G0 B0. C0.
G17
G0 X6.884 Y3.9206 Z0.6
G94 G1 Z0.04 F40.
Z-0.0361
X6.8843 Z-0.0376
X6.8851 Z-0.0388
X6.8864 Z-0.0397
X6.8879 Z-0.04
X6.8899
X6.8914 Y3.9209
X6.8927 Y3.9217
X6.8935 Y3.923
X6.8938 Y3.9245
G3 X6.851 Y3.9673 Z-0.0498 R0.0428
X6.8082 Y3.9245 Z-0.0597 R0.0428
X6.851 Y3.8817 Z-0.0695 R0.0428
X6.8938 Y3.9245 Z-0.0794 R0.0428
X6.851 Y3.9673 Z-0.0892 R0.0428
X6.8082 Y3.9245 Z-0.0991 R0.0428
X6.851 Y3.8817 Z-0.1089 R0.0428
X6.8938 Y3.9245 Z-0.1187 R0.0428
X6.851 Y3.9673 Z-0.1286 R0.0428
X6.8082 Y3.9245 Z-0.1384 R0.0428
X6.851 Y3.8817 Z-0.1483 R0.0428
X6.8938 Y3.9245 Z-0.1581 R0.0428
X6.851 Y3.9673 Z-0.168 R0.0428
X6.8082 Y3.9245 Z-0.1778 R0.0428
X6.851 Y3.8817 Z-0.1876 R0.0428
X6.8938 Y3.9245 Z-0.1975 R0.0428
X6.851 Y3.9673 Z-0.2073 R0.0428
X6.8082 Y3.9245 Z-0.2172 R0.0428
X6.851 Y3.8817 Z-0.227 R0.0428
X6.8938 Y3.9245 Z-0.2369 R0.0428
X6.851 Y3.9673 R0.0428
X6.8082 Y3.9245 R0.0428
X6.851 Y3.8817 R0.0428
X6.8938 Y3.9245 R0.0428
G1 X6.8935 Y3.926
X6.8927 Y3.9273
X6.8914 Y3.9281
X6.8899 Y3.9284
X6.8879
X6.8864 Z-0.2366
X6.8851 Z-0.2357
X6.8843 Z-0.2344
X6.884 Z-0.2329
Z0.2
Y0.3511
Z0.04
Z-0.0361
X6.8843 Z-0.0376
X6.8851 Z-0.0388
X6.8864 Z-0.0397
X6.8879 Z-0.04
X6.8899
X6.8914 Y0.3514
X6.8927 Y0.3522
X6.8935 Y0.3535
X6.8938 Y0.355
G3 X6.851 Y0.3978 Z-0.0498 R0.0428
X6.8082 Y0.355 Z-0.0597 R0.0428
X6.851 Y0.3122 Z-0.0695 R0.0428
X6.8938 Y0.355 Z-0.0794 R0.0428
X6.851 Y0.3978 Z-0.0892 R0.0428
X6.8082 Y0.355 Z-0.0991 R0.0428
X6.851 Y0.3122 Z-0.1089 R0.0428
X6.8938 Y0.355 Z-0.1187 R0.0428
X6.851 Y0.3978 Z-0.1286 R0.0428
X6.8082 Y0.355 Z-0.1384 R0.0428
X6.851 Y0.3122 Z-0.1483 R0.0428
X6.8938 Y0.355 Z-0.1581 R0.0428
X6.851 Y0.3978 Z-0.168 R0.0428
X6.8082 Y0.355 Z-0.1778 R0.0428
X6.851 Y0.3122 Z-0.1876 R0.0428
X6.8938 Y0.355 Z-0.1975 R0.0428
X6.851 Y0.3978 Z-0.2073 R0.0428
X6.8082 Y0.355 Z-0.2172 R0.0428
X6.851 Y0.3122 Z-0.227 R0.0428
X6.8938 Y0.355 Z-0.2369 R0.0428
X6.851 Y0.3978 R0.0428
X6.8082 Y0.355 R0.0428
X6.851 Y0.3122 R0.0428
X6.8938 Y0.355 R0.0428
G1 X6.8935 Y0.3565
X6.8927 Y0.3578
X6.8914 Y0.3586
X6.8899 Y0.3589
X6.8879
X6.8864 Z-0.2366
X6.8851 Z-0.2357
X6.8843 Z-0.2344
X6.884 Z-0.2329
Z0.2
X0.6636 Y0.233
Z0.04
Z-0.0361
X0.6639 Z-0.0376
X0.6647 Z-0.0388
X0.666 Z-0.0397
X0.6675 Z-0.04
X0.6695
X0.671 Y0.2333
X0.6723 Y0.2341
X0.6731 Y0.2354
X0.6734 Y0.2369
G3 X0.6306 Y0.2797 Z-0.0498 R0.0428
X0.5878 Y0.2369 Z-0.0597 R0.0428
X0.6306 Y0.1941 Z-0.0695 R0.0428
X0.6734 Y0.2369 Z-0.0794 R0.0428
X0.6306 Y0.2797 Z-0.0892 R0.0428
X0.5878 Y0.2369 Z-0.0991 R0.0428
X0.6306 Y0.1941 Z-0.1089 R0.0428
X0.6734 Y0.2369 Z-0.1187 R0.0428
X0.6306 Y0.2797 Z-0.1286 R0.0428
X0.5878 Y0.2369 Z-0.1384 R0.0428
X0.6306 Y0.1941 Z-0.1483 R0.0428
X0.6734 Y0.2369 Z-0.1581 R0.0428
X0.6306 Y0.2797 Z-0.168 R0.0428
X0.5878 Y0.2369 Z-0.1778 R0.0428
X0.6306 Y0.1941 Z-0.1876 R0.0428
X0.6734 Y0.2369 Z-0.1975 R0.0428
X0.6306 Y0.2797 Z-0.2073 R0.0428
X0.5878 Y0.2369 Z-0.2172 R0.0428
X0.6306 Y0.1941 Z-0.227 R0.0428
X0.6734 Y0.2369 Z-0.2369 R0.0428
X0.6306 Y0.2797 R0.0428
X0.5878 Y0.2369 R0.0428
X0.6306 Y0.1941 R0.0428
X0.6734 Y0.2369 R0.0428
G1 X0.6731 Y0.2384
X0.6723 Y0.2397
X0.671 Y0.2405
X0.6695 Y0.2408
X0.6675
X0.666 Z-0.2366
X0.6647 Z-0.2357
X0.6639 Z-0.2344
X0.6636 Z-0.2329
Z0.2
Y4.0387
Z0.04
Z-0.0361
X0.6639 Z-0.0376
X0.6647 Z-0.0388
X0.666 Z-0.0397
X0.6675 Z-0.04
X0.6695
X0.671 Y4.039
X0.6723 Y4.0398
X0.6731 Y4.0411
X0.6734 Y4.0426
G3 X0.6306 Y4.0854 Z-0.0498 R0.0428
X0.5878 Y4.0426 Z-0.0597 R0.0428
X0.6306 Y3.9998 Z-0.0695 R0.0428
X0.6734 Y4.0426 Z-0.0794 R0.0428
X0.6306 Y4.0854 Z-0.0892 R0.0428
X0.5878 Y4.0426 Z-0.0991 R0.0428
X0.6306 Y3.9998 Z-0.1089 R0.0428
X0.6734 Y4.0426 Z-0.1187 R0.0428
X0.6306 Y4.0854 Z-0.1286 R0.0428
X0.5878 Y4.0426 Z-0.1384 R0.0428
X0.6306 Y3.9998 Z-0.1483 R0.0428
X0.6734 Y4.0426 Z-0.1581 R0.0428
X0.6306 Y4.0854 Z-0.168 R0.0428
X0.5878 Y4.0426 Z-0.1778 R0.0428
X0.6306 Y3.9998 Z-0.1876 R0.0428
X0.6734 Y4.0426 Z-0.1975 R0.0428
X0.6306 Y4.0854 Z-0.2073 R0.0428
X0.5878 Y4.0426 Z-0.2172 R0.0428
X0.6306 Y3.9998 Z-0.227 R0.0428
X0.6734 Y4.0426 Z-0.2369 R0.0428
X0.6306 Y4.0854 R0.0428
X0.5878 Y4.0426 R0.0428
X0.6306 Y3.9998 R0.0428
X0.6734 Y4.0426 R0.0428
G1 X0.6731 Y4.0441
X0.6723 Y4.0454
X0.671 Y4.0462
X0.6695 Y4.0465
X0.6675
X0.666 Z-0.2366
X0.6647 Z-0.2357
X0.6639 Z-0.2344
X0.6636 Z-0.2329
Z0.6

M5
M30
