(G-CODE GENERATED BY FLATCAM v8.994 - www.flatcam.org - Version Date: 2020/11/7)

(Name: io-board-B_Cu.gbr_iso_combined_cnc)
(Type: G-code from Geometry)
(Units: MM)

(Created on Sunday, 02 May 2021 at 15:25)

(This preprocessor is the default preprocessor used by FlatCAM.)
(It is made to work with MACH3 compatible motion controllers.)

(TOOL DIAMETER: 0.1 mm)
(Feedrate_XY: 120.0 mm/min)
(Feedrate_Z: 60.0 mm/min)
(Feedrate rapids 1500.0 mm/min)

(Z_Cut: -0.0 mm)
(Z_Move: 2.0 mm)
(Z Start: None mm)
(Z End: 15.0 mm)
(X,Y End: None mm)
(Steps per circle: 64)
(Preprocessor Geometry: default)

(X range:    7.6633 ...  172.0179  mm)
(Y range:    4.7554 ...  101.1992  mm)

(Spindle Speed: 0.0 RPM)
G21
G90
G94

G01 F120.00

M5
G00 Z15.0000
G00 X0.0000 Y0.0000
T1
M6    
(MSG, Change to Tool Dia = 0.1000)
M0
G00 Z15.0000

M03
G01 F120.00
G00 X12.5098 Y16.4835
G01 F60.00
G01 Z-0.0000
G01 F120.00
G01 X12.5085 Y16.4708
G01 X12.5050 Y16.3958
G01 X12.5050 Y13.7958
G01 X12.5085 Y13.7208
G01 X12.5098 Y13.7081
G01 X12.5209 Y13.6339
G01 X12.5407 Y13.5549
G01 X12.5682 Y13.4782
G01 X12.6030 Y13.4045
G01 X12.6449 Y13.3347
G01 X12.6934 Y13.2693
G01 X12.7481 Y13.2089
G01 X12.8085 Y13.1542
G01 X12.8739 Y13.1057
G01 X12.9437 Y13.0638
G01 X13.0174 Y13.0290
G01 X13.0941 Y13.0015
G01 X13.1731 Y12.9817
G01 X13.2536 Y12.9698
G01 X13.3350 Y12.9658
G01 X13.4164 Y12.9698
G01 X13.4969 Y12.9817
G01 X13.5759 Y13.0015
G01 X13.6467 Y13.0267
G01 X13.6585 Y13.0316
G01 X13.7263 Y13.0638
G01 X13.7961 Y13.1057
G01 X13.8565 Y13.1503
G01 X13.8664 Y13.1584
G01 X13.9219 Y13.2089
G01 X13.9724 Y13.2644
G01 X13.9805 Y13.2743
G01 X14.0214 Y13.3295
G01 X14.0285 Y13.3401
G01 X14.0670 Y13.4045
G01 X14.0992 Y13.4723
G01 X14.1041 Y13.4841
G01 X14.1293 Y13.5549
G01 X14.1477 Y13.6276
G01 X14.1501 Y13.6402
G01 X14.1610 Y13.7144
G01 X14.1650 Y13.7958
G01 X14.1650 Y16.3958
G01 X14.1615 Y16.4708
G01 X14.1602 Y16.4835
G01 X14.1491 Y16.5577
G01 X14.1293 Y16.6367
G01 X14.1018 Y16.7134
G01 X14.0699 Y16.7814
G01 X14.0638 Y16.7926
G01 X14.0285 Y16.8515
G01 X14.0214 Y16.8621
G01 X13.9766 Y16.9223
G01 X13.9219 Y16.9827
G01 X13.8615 Y17.0374
G01 X13.7961 Y17.0859
G01 X13.7263 Y17.1278
G01 X13.6526 Y17.1626
G01 X13.5759 Y17.1901
G01 X13.5032 Y17.2085
G01 X13.4906 Y17.2109
G01 X13.4227 Y17.2210
G01 X13.4100 Y17.2223
G01 X13.3350 Y17.2258
G01 X13.2536 Y17.2218
G01 X13.1731 Y17.2099
G01 X13.1002 Y17.1918
G01 X13.0880 Y17.1881
G01 X13.0233 Y17.1649
G01 X13.0115 Y17.1600
G01 X12.9437 Y17.1278
G01 X12.8739 Y17.0859
G01 X12.8085 Y17.0374
G01 X12.7481 Y16.9827
G01 X12.6934 Y16.9223
G01 X12.6486 Y16.8621
G01 X12.6415 Y16.8515
G01 X12.6062 Y16.7926
G01 X12.6001 Y16.7814
G01 X12.5682 Y16.7134
G01 X12.5407 Y16.6367
G01 X12.5209 Y16.5577
G01 X12.5098 Y16.4835
G00 Z2.0000
G00 X12.5889 Y16.4717
G01 F60.00
G01 Z-0.0000
G01 F120.00
G01 X12.5850 Y16.3958
G01 X12.5850 Y13.7958
G01 X12.5889 Y13.7199
G01 X12.5994 Y13.6495
G01 X12.6170 Y13.5793
G01 X12.6421 Y13.5088
G01 X12.6736 Y13.4423
G01 X12.7114 Y13.3791
G01 X12.7552 Y13.3200
G01 X12.8047 Y13.2655
G01 X12.8592 Y13.2160
G01 X12.9183 Y13.1722
G01 X12.9815 Y13.1344
G01 X13.0480 Y13.1029
G01 X13.1173 Y13.0781
G01 X13.1887 Y13.0602
G01 X13.2615 Y13.0494
G01 X13.3350 Y13.0458
G01 X13.4085 Y13.0494
G01 X13.4813 Y13.0602
G01 X13.5515 Y13.0778
G01 X13.6243 Y13.1039
G01 X13.6885 Y13.1344
G01 X13.7517 Y13.1722
G01 X13.8108 Y13.2160
G01 X13.8636 Y13.2638
G01 X13.9148 Y13.3200
G01 X13.9599 Y13.3812
G01 X13.9964 Y13.4423
G01 X14.0279 Y13.5088
G01 X14.0534 Y13.5805
G01 X14.0706 Y13.6495
G01 X14.0811 Y13.7199
G01 X14.0850 Y13.7958
G01 X14.0850 Y16.3958
G01 X14.0811 Y16.4717
G01 X14.0706 Y16.5421
G01 X14.0530 Y16.6123
G01 X14.0279 Y16.6828
G01 X13.9975 Y16.7472
G01 X13.9572 Y16.8145
G01 X13.9148 Y16.8716
G01 X13.8653 Y16.9261
G01 X13.8108 Y16.9756
G01 X13.7517 Y17.0194
G01 X13.6885 Y17.0572
G01 X13.6220 Y17.0887
G01 X13.5527 Y17.1135
G01 X13.4837 Y17.1309
G01 X13.4061 Y17.1424
G01 X13.3350 Y17.1458
G01 X13.2615 Y17.1422
G01 X13.1887 Y17.1314
G01 X13.1197 Y17.1142
G01 X13.0457 Y17.0877
G01 X12.9815 Y17.0572
G01 X12.9183 Y17.0194
G01 X12.8592 Y16.9756
G01 X12.8047 Y16.9261
G01 X12.7552 Y16.8716
G01 X12.7128 Y16.8145
G01 X12.6725 Y16.7472
G01 X12.6421 Y16.6828
G01 X12.6173 Y16.6135
G01 X12.5994 Y16.5421
G01 X12.5889 Y16.4717
G00 Z2.0000
G00 X15.0498 Y16.4835
G01 F60.00
G01 Z-0.0000
G01 F120.00
G01 X15.0485 Y16.4708
G01 X15.0450 Y16.3958
G01 X15.0450 Y13.7958
G01 X15.0485 Y13.7208
G01 X15.0498 Y13.7081
G01 X15.0609 Y13.6339
G01 X15.0807 Y13.5549
G01 X15.1082 Y13.4782
G01 X15.1430 Y13.4045
G01 X15.1849 Y13.3347
G01 X15.2334 Y13.2693
G01 X15.2881 Y13.2089
G01 X15.3485 Y13.1542
G01 X15.4139 Y13.1057
G01 X15.4837 Y13.0638
G01 X15.5574 Y13.0290
G01 X15.6341 Y13.0015
G01 X15.7131 Y12.9817
G01 X15.7936 Y12.9698
G01 X15.8750 Y12.9658
G01 X15.9564 Y12.9698
G01 X16.0369 Y12.9817
G01 X16.1159 Y13.0015
G01 X16.1867 Y13.0267
G01 X16.1985 Y13.0316
G01 X16.2663 Y13.0638
G01 X16.3361 Y13.1057
G01 X16.3965 Y13.1503
G01 X16.4064 Y13.1584
G01 X16.4619 Y13.2089
G01 X16.5124 Y13.2644
G01 X16.5205 Y13.2743
G01 X16.5614 Y13.3295
G01 X16.5685 Y13.3401
G01 X16.6070 Y13.4045
G01 X16.6392 Y13.4723
G01 X16.6441 Y13.4841
G01 X16.6693 Y13.5549
G01 X16.6877 Y13.6276
G01 X16.6901 Y13.6402
G01 X16.7010 Y13.7144
G01 X16.7050 Y13.7958
G01 X16.7050 Y16.3958
G01 X16.7015 Y16.4708
G01 X16.7002 Y16.4835
G01 X16.6891 Y16.5577
G01 X16.6693 Y16.6367
G01 X16.6418 Y16.7134
G01 X16.6099 Y16.7814
G01 X16.6038 Y16.7926
G01 X16.5685 Y16.8515
G01 X16.5614 Y16.8621
G01 X16.5166 Y16.9223
G01 X16.4619 Y16.9827
G01 X16.4015 Y17.0374
G01 X16.3361 Y17.0859
G01 X16.2663 Y17.1278
G01 X16.1926 Y17.1626
G01 X16.1159 Y17.1901
G01 X16.0432 Y17.2085
G01 X16.0306 Y17.2109
G01 X15.9627 Y17.2210
G01 X15.9500 Y17.2223
G01 X15.8750 Y17.2258
G01 X15.7936 Y17.2218
G01 X15.7131 Y17.2099
G01 X15.6402 Y17.1918
G01 X15.6280 Y17.1881
G01 X15.5633 Y17.1649
G01 X15.5515 Y17.1600
G01 X15.4837 Y17.1278
G01 X15.4139 Y17.0859
G01 X15.3485 Y17.0374
G01 X15.2881 Y16.9827
G01 X15.2334 Y16.9223
G01 X15.1886 Y16.8621
G01 X15.1815 Y16.8515
G01 X15.1462 Y16.7926
G01 X15.1401 Y16.7814
G01 X15.1082 Y16.7134
G01 X15.0807 Y16.6367
G01 X15.0609 Y16.5577
G01 X15.0498 Y16.4835
G00 Z2.0000
G00 X15.1289 Y16.4717
G01 F60.00
G01 Z-0.0000
G01 F120.00
G01 X15.1250 Y16.3958
G01 X15.1250 Y13.7958
G01 X15.1289 Y13.7199
G01 X15.1394 Y13.6495
G01 X15.1570 Y13.5793
G01 X15.1821 Y13.5088
G01 X15.2136 Y13.4423
G01 X15.2514 Y13.3791
G01 X15.2952 Y13.3200
G01 X15.3447 Y13.2655
G01 X15.3992 Y13.2160
G01 X15.4583 Y13.1722
G01 X15.5215 Y13.1344
G01 X15.5880 Y13.1029
G01 X15.6573 Y13.0781
G01 X15.7287 Y13.0602
G01 X15.8015 Y13.0494
G01 X15.8750 Y13.0458
G01 X15.9485 Y13.0494
G01 X16.0213 Y13.0602
G01 X16.0915 Y13.0778
G01 X16.1643 Y13.1039
G01 X16.2285 Y13.1344
G01 X16.2917 Y13.1722
G01 X16.3508 Y13.2160
G01 X16.4036 Y13.2638
G01 X16.4548 Y13.3200
G01 X16.4999 Y13.3812
G01 X16.5364 Y13.4423
G01 X16.5679 Y13.5088
G01 X16.5934 Y13.5805
G01 X16.6106 Y13.6495
G01 X16.6211 Y13.7199
G01 X16.6250 Y13.7958
G01 X16.6250 Y16.3958
G01 X16.6211 Y16.4717
G01 X16.6106 Y16.5421
G01 X16.5930 Y16.6123
G01 X16.5679 Y16.6828
G01 X16.5375 Y16.7472
G01 X16.4972 Y16.8145
G01 X16.4548 Y16.8716
G01 X16.4053 Y16.9261
G01 X16.3508 Y16.9756
G01 X16.2917 Y17.0194
G01 X16.2285 Y17.0572
G01 X16.1620 Y17.0887
G01 X16.0927 Y17.1135
G01 X16.0237 Y17.1309
G01 X15.9461 Y17.1424
G01 X15.8750 Y17.1458
G01 X15.8015 Y17.1422
G01 X15.7287 Y17.1314
G01 X15.6597 Y17.1142
G01 X15.5857 Y17.0877
G01 X15.5215 Y17.0572
G01 X15.4583 Y17.0194
G01 X15.3992 Y16.9756
G01 X15.3447 Y16.9261
G01 X15.2952 Y16.8716
G01 X15.2528 Y16.8145
G01 X15.2125 Y16.7472
G01 X15.1821 Y16.6828
G01 X15.1573 Y16.6135
G01 X15.1394 Y16.5421
G01 X15.1289 Y16.4717
G00 Z2.0000
G00 X17.5898 Y16.4835
G01 F60.00
G01 Z-0.0000
G01 F120.00
G01 X17.5885 Y16.4708
G01 X17.5850 Y16.3958
G01 X17.5850 Y13.7958
G01 X17.5885 Y13.7208
G01 X17.5898 Y13.7081
G01 X17.6009 Y13.6339
G01 X17.6207 Y13.5549
G01 X17.6482 Y13.4782
G01 X17.6830 Y13.4045
G01 X17.7249 Y13.3347
G01 X17.7734 Y13.2693
G01 X17.8281 Y13.2089
G01 X17.8885 Y13.1542
G01 X17.9539 Y13.1057
G01 X18.0237 Y13.0638
G01 X18.0974 Y13.0290
G01 X18.1741 Y13.0015
G01 X18.2531 Y12.9817
G01 X18.3336 Y12.9698
G01 X18.4150 Y12.9658
G01 X18.4964 Y12.9698
G01 X18.5769 Y12.9817
G01 X18.6559 Y13.0015
G01 X18.7267 Y13.0267
G01 X18.7385 Y13.0316
G01 X18.8063 Y13.0638
G01 X18.8761 Y13.1057
G01 X18.9365 Y13.1503
G01 X18.9464 Y13.1584
G01 X19.0019 Y13.2089
G01 X19.0524 Y13.2644
G01 X19.0605 Y13.2743
G01 X19.1014 Y13.3295
G01 X19.1085 Y13.3401
G01 X19.1470 Y13.4045
G01 X19.1792 Y13.4723
G01 X19.1841 Y13.4841
G01 X19.2093 Y13.5549
G01 X19.2277 Y13.6276
G01 X19.2301 Y13.6402
G01 X19.2410 Y13.7144
G01 X19.2450 Y13.7958
G01 X19.2450 Y16.3958
G01 X19.2415 Y16.4708
G01 X19.2402 Y16.4835
G01 X19.2291 Y16.5577
G01 X19.2093 Y16.6367
G01 X19.1818 Y16.7134
G01 X19.1499 Y16.7814
G01 X19.1438 Y16.7926
G01 X19.1085 Y16.8515
G01 X19.1014 Y16.8621
G01 X19.0566 Y16.9223
G01 X19.0019 Y16.9827
G01 X18.9415 Y17.0374
G01 X18.8761 Y17.0859
G01 X18.8063 Y17.1278
G01 X18.7326 Y17.1626
G01 X18.6559 Y17.1901
G01 X18.5832 Y17.2085
G01 X18.5706 Y17.2109
G01 X18.5027 Y17.2210
G01 X18.4900 Y17.2223
G01 X18.4150 Y17.2258
G01 X18.3336 Y17.2218
G01 X18.2531 Y17.2099
G01 X18.1802 Y17.1918
G01 X18.1680 Y17.1881
G01 X18.1033 Y17.1649
G01 X18.0915 Y17.1600
G01 X18.0237 Y17.1278
G01 X17.9539 Y17.0859
G01 X17.8885 Y17.0374
G01 X17.8281 Y16.9827
G01 X17.7734 Y16.9223
G01 X17.7286 Y16.8621
G01 X17.7215 Y16.8515
G01 X17.6862 Y16.7926
G01 X17.6801 Y16.7814
G01 X17.6482 Y16.7134
G01 X17.6207 Y16.6367
G01 X17.6009 Y16.5577
G01 X17.5898 Y16.4835
G00 Z2.0000
G00 X17.6689 Y16.4717
G01 F60.00
G01 Z-0.0000
G01 F120.00
G01 X17.6650 Y16.3958
G01 X17.6650 Y13.7958
G01 X17.6689 Y13.7199
G01 X17.6794 Y13.6495
G01 X17.6970 Y13.5793
G01 X17.7221 Y13.5088
G01 X17.7536 Y13.4423
G01 X17.7914 Y13.3791
G01 X17.8352 Y13.3200
G01 X17.8847 Y13.2655
G01 X17.9392 Y13.2160
G01 X17.9983 Y13.1722
G01 X18.0615 Y13.1344
G01 X18.1280 Y13.1029
G01 X18.1973 Y13.0781
G01 X18.2687 Y13.0602
G01 X18.3415 Y13.0494
G01 X18.4150 Y13.0458
G01 X18.4885 Y13.0494
G01 X18.5613 Y13.0602
G01 X18.6315 Y13.0778
G01 X18.7043 Y13.1039
G01 X18.7685 Y13.1344
G01 X18.8317 Y13.1722
G01 X18.8908 Y13.2160
G01 X18.9436 Y13.2638
G01 X18.9948 Y13.3200
G01 X19.0399 Y13.3812
G01 X19.0764 Y13.4423
G01 X19.1079 Y13.5088
G01 X19.1334 Y13.5805
G01 X19.1506 Y13.6495
G01 X19.1611 Y13.7199
G01 X19.1650 Y13.7958
G01 X19.1650 Y16.3958
G01 X19.1611 Y16.4717
G01 X19.1506 Y16.5421
G01 X19.1330 Y16.6123
G01 X19.1079 Y16.6828
G01 X19.0775 Y16.7472
G01 X19.0372 Y16.8145
G01 X18.9948 Y16.8716
G01 X18.9453 Y16.9261
G01 X18.8908 Y16.9756
G01 X18.8317 Y17.0194
G01 X18.7685 Y17.0572
G01 X18.7020 Y17.0887
G01 X18.6327 Y17.1135
G01 X18.5637 Y17.1309
G01 X18.4861 Y17.1424
G01 X18.4150 Y17.1458
G01 X18.3415 Y17.1422
G01 X18.2687 Y17.1314
G01 X18.1997 Y17.1142
G01 X18.1257 Y17.0877
G01 X18.0615 Y17.0572
G01 X17.9983 Y17.0194
G01 X17.9392 Y16.9756
G01 X17.8847 Y16.9261
G01 X17.8352 Y16.8716
G01 X17.7928 Y16.8145
G01 X17.7525 Y16.7472
G01 X17.7221 Y16.6828
G01 X17.6973 Y16.6135
G01 X17.6794 Y16.5421
G01 X17.6689 Y16.4717
G00 Z2.0000
G00 X20.1298 Y16.4835
G01 F60.00
G01 Z-0.0000
G01 F120.00
G01 X20.1285 Y16.4708
G01 X20.1250 Y16.3958
G01 X20.1250 Y13.7958
G01 X20.1285 Y13.7208
G01 X20.1298 Y13.7081
G01 X20.1409 Y13.6339
G01 X20.1607 Y13.5549
G01 X20.1882 Y13.4782
G01 X20.2230 Y13.4045
G01 X20.2649 Y13.3347
G01 X20.3134 Y13.2693
G01 X20.3681 Y13.2089
G01 X20.4285 Y13.1542
G01 X20.4939 Y13.1057
G01 X20.5637 Y13.0638
G01 X20.6374 Y13.0290
G01 X20.7141 Y13.0015
G01 X20.7931 Y12.9817
G01 X20.8736 Y12.9698
G01 X20.9550 Y12.9658
G01 X21.0364 Y12.9698
G01 X21.1169 Y12.9817
G01 X21.1959 Y13.0015
G01 X21.2667 Y13.0267
G01 X21.2785 Y13.0316
G01 X21.3463 Y13.0638
G01 X21.4161 Y13.1057
G01 X21.4765 Y13.1503
G01 X21.4864 Y13.1584
G01 X21.5419 Y13.2089
G01 X21.5924 Y13.2644
G01 X21.6005 Y13.2743
G01 X21.6414 Y13.3295
G01 X21.6485 Y13.3401
G01 X21.6870 Y13.4045
G01 X21.7192 Y13.4723
G01 X21.7241 Y13.4841
G01 X21.7493 Y13.5549
G01 X21.7677 Y13.6276
G01 X21.7701 Y13.6402
G01 X21.7810 Y13.7144
G01 X21.7850 Y13.7958
G01 X21.7850 Y16.3958
G01 X21.7815 Y16.4708
G01 X21.7802 Y16.4835
G01 X21.7691 Y16.5577
G01 X21.7493 Y16.6367
G01 X21.7218 Y16.7134
G01 X21.6899 Y16.7814
G01 X21.6838 Y16.7926
G01 X21.6485 Y16.8515
G01 X21.6414 Y16.8621
G01 X21.5966 Y16.9223
G01 X21.5419 Y16.9827
G01 X21.4815 Y17.0374
G01 X21.4161 Y17.0859
G01 X21.3463 Y17.1278
G01 X21.2726 Y17.1626
G01 X21.1959 Y17.1901
G01 X21.1232 Y17.2085
G01 X21.1106 Y17.2109
G01 X21.0427 Y17.2210
G01 X21.0300 Y17.2223
G01 X20.9550 Y17.2258
G01 X20.8736 Y17.2218
G01 X20.7931 Y17.2099
G01 X20.7202 Y17.1918
G01 X20.7080 Y17.1881
G01 X20.6433 Y17.1649
G01 X20.6315 Y17.1600
G01 X20.5637 Y17.1278
G01 X20.4939 Y17.0859
G01 X20.4285 Y17.0374
G01 X20.3681 Y16.9827
G01 X20.3134 Y16.9223
G01 X20.2686 Y16.8621
G01 X20.2615 Y16.8515
G01 X20.2262 Y16.7926
G01 X20.2201 Y16.7814
G01 X20.1882 Y16.7134
G01 X20.1607 Y16.6367
G01 X20.1409 Y16.5577
G01 X20.1298 Y16.4835
G00 Z2.0000
G00 X20.2089 Y16.4717
G01 F60.00
G01 Z-0.0000
G01 F120.00
G01 X20.2050 Y16.3958
G01 X20.2050 Y13.7958
G01 X20.2089 Y13.7199
G01 X20.2194 Y13.6495
G01 X20.2370 Y13.5793
G01 X20.2621 Y13.5088
G01 X20.2936 Y13.4423
G01 X20.3314 Y13.3791
G01 X20.3752 Y13.3200
G01 X20.4247 Y13.2655
G01 X20.4792 Y13.2160
G01 X20.5383 Y13.1722
G01 X20.6015 Y13.1344
G01 X20.6680 Y13.1029
G01 X20.7373 Y13.0781
G01 X20.8087 Y13.0602
G01 X20.8815 Y13.0494
G01 X20.9550 Y13.0458
G01 X21.0285 Y13.0494
G01 X21.1013 Y13.0602
G01 X21.1715 Y13.0778
G01 X21.2443 Y13.1039
G01 X21.3085 Y13.1344
G01 X21.3717 Y13.1722
G01 X21.4308 Y13.2160
G01 X21.4836 Y13.2638
G01 X21.5348 Y13.3200
G01 X21.5799 Y13.3812
G01 X21.6164 Y13.4423
G01 X21.6479 Y13.5088
G01 X21.6734 Y13.5805
G01 X21.6906 Y13.6495
G01 X21.7011 Y13.7199
G01 X21.7050 Y13.7958
G01 X21.7050 Y16.3958
G01 X21.7011 Y16.4717
G01 X21.6906 Y16.5421
G01 X21.6730 Y16.6123
G01 X21.6479 Y16.6828
G01 X21.6175 Y16.7472
G01 X21.5772 Y16.8145
G01 X21.5348 Y16.8716
G01 X21.4853 Y16.9261
G01 X21.4308 Y16.9756
G01 X21.3717 Y17.0194
G01 X21.3085 Y17.0572
G01 X21.2420 Y17.0887
G01 X21.1727 Y17.1135
G01 X21.1037 Y17.1309
G01 X21.0261 Y17.1424
G01 X20.9550 Y17.1458
G01 X20.8815 Y17.1422
G01 X20.8087 Y17.1314
G01 X20.7397 Y17.1142
G01 X20.6657 Y17.0877
G01 X20.6015 Y17.0572
G01 X20.5383 Y17.0194
G01 X20.4792 Y16.9756
G01 X20.4247 Y16.9261
G01 X20.3752 Y16.8716
G01 X20.3328 Y16.8145
G01 X20.2925 Y16.7472
G01 X20.2621 Y16.6828
G01 X20.2373 Y16.6135
G01 X20.2194 Y16.5421
G01 X20.2089 Y16.4717
G00 Z2.0000
G00 X22.6698 Y16.4835
G01 F60.00
G01 Z-0.0000
G01 F120.00
G01 X22.6685 Y16.4708
G01 X22.6650 Y16.3958
G01 X22.6650 Y13.7926
G01 X22.6690 Y13.7144
G01 X22.6799 Y13.6402
G01 X22.6823 Y13.6276
G01 X22.7007 Y13.5549
G01 X22.7259 Y13.4841
G01 X22.7308 Y13.4723
G01 X22.7630 Y13.4045
G01 X22.7932 Y13.3538
G01 X22.7933 Y11.6210
G01 X22.7966 Y11.5554
G01 X22.8067 Y11.4873
G01 X22.8234 Y11.4205
G01 X22.8443 Y11.3616
G01 X22.8492 Y11.3498
G01 X22.8761 Y11.2934
G01 X22.9115 Y11.2343
G01 X22.9525 Y11.1790
G01 X22.9965 Y11.1302
G01 X25.0549 Y9.0718
G01 X25.1037 Y9.0278
G01 X25.1538 Y8.9905
G01 X25.1644 Y8.9834
G01 X25.2125 Y8.9545
G01 X25.2238 Y8.9485
G01 X25.2803 Y8.9219
G01 X25.3452 Y8.8987
G01 X25.4120 Y8.8820
G01 X25.4769 Y8.8722
G01 X25.4865 Y8.8714
G01 X25.5489 Y8.8685
G01 X63.9925 Y8.8687
G01 X64.0549 Y8.8719
G01 X64.1230 Y8.8820
G01 X64.1898 Y8.8987
G01 X64.2487 Y8.9196
G01 X64.2605 Y8.9245
G01 X64.3112 Y8.9485
G01 X64.3225 Y8.9545
G01 X64.3760 Y8.9868
G01 X64.4263 Y9.0239
G01 X64.4337 Y9.0299
G01 X64.4823 Y9.0741
G01 X66.0400 Y10.6317
G01 X69.6322 Y7.0395
G01 X69.6810 Y6.9955
G01 X69.7363 Y6.9545
G01 X69.7954 Y6.9191
G01 X69.8518 Y6.8922
G01 X69.8636 Y6.8873
G01 X69.9164 Y6.8684
G01 X69.9286 Y6.8647
G01 X69.9893 Y6.8497
G01 X70.0574 Y6.8396
G01 X70.1262 Y6.8362
G01 X85.5214 Y6.8362
G01 X85.5838 Y6.8391
G01 X85.5934 Y6.8399
G01 X85.6583 Y6.8497
G01 X85.7190 Y6.8647
G01 X85.7312 Y6.8684
G01 X85.7840 Y6.8873
G01 X85.7958 Y6.8922
G01 X85.8522 Y6.9191
G01 X85.9113 Y6.9545
G01 X85.9666 Y6.9955
G01 X86.0130 Y7.0374
G01 X88.2381 Y9.2622
G01 X90.5020 Y6.9986
G01 X90.5484 Y6.9567
G01 X90.5985 Y6.9194
G01 X90.6091 Y6.9123
G01 X90.6572 Y6.8834
G01 X90.6685 Y6.8774
G01 X90.7250 Y6.8508
G01 X90.7899 Y6.8276
G01 X90.8567 Y6.8109
G01 X90.9185 Y6.8016
G01 X90.9312 Y6.8003
G01 X90.9936 Y6.7974
G01 X105.1985 Y6.7975
G01 X105.2641 Y6.8008
G01 X105.3322 Y6.8109
G01 X105.3990 Y6.8276
G01 X105.4639 Y6.8508
G01 X105.5261 Y6.8803
G01 X105.5852 Y6.9157
G01 X105.6405 Y6.9567
G01 X105.6869 Y6.9986
G01 X108.7498 Y10.0612
G01 X113.8523 Y4.9587
G01 X113.9011 Y4.9147
G01 X113.9564 Y4.8737
G01 X114.0155 Y4.8383
G01 X114.0777 Y4.8088
G01 X114.1426 Y4.7856
G01 X114.2094 Y4.7689
G01 X114.2775 Y4.7588
G01 X114.3431 Y4.7555
G01 X145.9987 Y4.7554
G01 X146.0675 Y4.7588
G01 X146.1293 Y4.7678
G01 X146.1387 Y4.7696
G01 X146.2024 Y4.7856
G01 X146.2613 Y4.8065
G01 X146.2731 Y4.8114
G01 X146.3295 Y4.8383
G01 X146.3832 Y4.8703
G01 X146.3938 Y4.8774
G01 X146.4439 Y4.9147
G01 X146.4949 Y4.9610
G01 X152.2612 Y10.7273
G01 X152.3075 Y10.7783
G01 X152.3467 Y10.8310
G01 X152.3519 Y10.8390
G01 X152.3808 Y10.8871
G01 X152.3868 Y10.8984
G01 X152.4134 Y10.9549
G01 X152.4366 Y11.0198
G01 X152.4519 Y11.0804
G01 X152.4544 Y11.0929
G01 X152.4634 Y11.1547
G01 X152.4666 Y11.2171
G01 X152.4668 Y13.3538
G01 X152.4970 Y13.4045
G01 X152.5292 Y13.4723
G01 X152.5341 Y13.4841
G01 X152.5593 Y13.5549
G01 X152.5777 Y13.6276
G01 X152.5801 Y13.6402
G01 X152.5910 Y13.7144
G01 X152.5950 Y13.7926
G01 X152.5950 Y16.3990
G01 X152.5910 Y16.4772
G01 X152.5801 Y16.5514
G01 X152.5777 Y16.5640
G01 X152.5593 Y16.6367
G01 X152.5318 Y16.7134
G01 X152.4970 Y16.7871
G01 X152.4551 Y16.8569
G01 X152.4066 Y16.9223
G01 X152.3519 Y16.9827
G01 X152.2915 Y17.0374
G01 X152.2261 Y17.0859
G01 X152.1563 Y17.1278
G01 X152.0826 Y17.1626
G01 X152.0059 Y17.1901
G01 X151.9269 Y17.2099
G01 X151.8464 Y17.2218
G01 X151.7650 Y17.2258
G01 X151.6836 Y17.2218
G01 X151.6031 Y17.2099
G01 X151.5241 Y17.1901
G01 X151.4533 Y17.1649
G01 X151.4415 Y17.1600
G01 X151.3737 Y17.1278
G01 X151.3039 Y17.0859
G01 X151.2385 Y17.0374
G01 X151.1827 Y16.9871
G01 X151.1737 Y16.9781
G01 X151.1234 Y16.9223
G01 X151.0786 Y16.8621
G01 X151.0715 Y16.8515
G01 X151.0330 Y16.7871
G01 X150.9982 Y16.7134
G01 X150.9707 Y16.6367
G01 X150.9523 Y16.5640
G01 X150.9499 Y16.5514
G01 X150.9398 Y16.4835
G01 X150.9387 Y16.4740
G01 X150.9350 Y16.3958
G01 X150.9350 Y13.7926
G01 X150.9390 Y13.7144
G01 X150.9499 Y13.6402
G01 X150.9523 Y13.6276
G01 X150.9707 Y13.5549
G01 X150.9959 Y13.4841
G01 X151.0008 Y13.4723
G01 X151.0330 Y13.4045
G01 X151.0632 Y13.3538
G01 X151.0632 Y11.5142
G01 X145.7080 Y6.1590
G01 X114.6370 Y6.1590
G01 X109.2868 Y11.5092
G01 X109.2868 Y13.3538
G01 X109.3170 Y13.4045
G01 X109.3492 Y13.4723
G01 X109.3541 Y13.4841
G01 X109.3793 Y13.5549
G01 X109.3977 Y13.6276
G01 X109.4001 Y13.6402
G01 X109.4110 Y13.7144
G01 X109.4150 Y13.7926
G01 X109.4150 Y16.3958
G01 X109.4110 Y16.4772
G01 X109.3991 Y16.5577
G01 X109.3810 Y16.6306
G01 X109.3773 Y16.6428
G01 X109.3541 Y16.7075
G01 X109.3492 Y16.7193
G01 X109.3170 Y16.7871
G01 X109.2751 Y16.8569
G01 X109.2266 Y16.9223
G01 X109.1719 Y16.9827
G01 X109.1115 Y17.0374
G01 X109.0461 Y17.0859
G01 X108.9763 Y17.1278
G01 X108.9085 Y17.1600
G01 X108.8967 Y17.1649
G01 X108.8320 Y17.1881
G01 X108.8198 Y17.1918
G01 X108.7469 Y17.2099
G01 X108.6727 Y17.2210
G01 X108.6632 Y17.2221
G01 X108.5850 Y17.2258
G01 X108.5036 Y17.2218
G01 X108.4231 Y17.2099
G01 X108.3441 Y17.1901
G01 X108.2674 Y17.1626
G01 X108.1937 Y17.1278
G01 X108.1239 Y17.0859
G01 X108.0585 Y17.0374
G01 X107.9981 Y16.9827
G01 X107.9434 Y16.9223
G01 X107.8949 Y16.8569
G01 X107.8530 Y16.7871
G01 X107.8182 Y16.7134
G01 X107.7907 Y16.6367
G01 X107.7709 Y16.5577
G01 X107.7593 Y16.4803
G01 X107.7585 Y16.4708
G01 X107.7550 Y16.3958
G01 X107.7550 Y13.7926
G01 X107.7590 Y13.7144
G01 X107.7699 Y13.6402
G01 X107.7723 Y13.6276
G01 X107.7907 Y13.5549
G01 X107.8159 Y13.4841
G01 X107.8208 Y13.4723
G01 X107.8530 Y13.4045
G01 X107.8832 Y13.3538
G01 X107.8832 Y11.2185
G01 X107.8849 Y11.1813
G01 X104.9046 Y8.2010
G01 X91.2843 Y8.2010
G01 X88.9399 Y10.5454
G01 X88.9399 Y64.1574
G01 X93.1175 Y68.3350
G01 X102.5469 Y68.3350
G01 X102.5469 Y61.6229
G01 X101.6400 Y60.7160
G01 X99.1268 Y60.7160
G01 X99.1268 Y61.7063
G01 X99.1530 Y61.7417
G01 X99.1584 Y61.7496
G01 X99.1979 Y61.8154
G01 X99.2026 Y61.8238
G01 X99.2380 Y61.8990
G01 X99.2661 Y61.9773
G01 X99.2688 Y61.9865
G01 X99.2867 Y62.0579
G01 X99.2892 Y62.0704
G01 X99.3008 Y62.1495
G01 X99.3050 Y62.2326
G01 X99.3050 Y64.7390
G01 X99.3008 Y64.8221
G01 X99.2881 Y64.9075
G01 X99.2671 Y64.9913
G01 X99.2392 Y65.0696
G01 X99.2354 Y65.0784
G01 X99.2011 Y65.1506
G01 X99.1601 Y65.2193
G01 X99.1530 Y65.2299
G01 X99.1092 Y65.2890
G01 X99.1011 Y65.2989
G01 X99.0473 Y65.3581
G01 X98.9833 Y65.4160
G01 X98.9139 Y65.4675
G01 X98.8398 Y65.5119
G01 X98.7618 Y65.5488
G01 X98.6805 Y65.5779
G01 X98.5967 Y65.5989
G01 X98.5176 Y65.6108
G01 X98.5049 Y65.6120
G01 X98.4314 Y65.6156
G01 X98.4186 Y65.6156
G01 X98.3387 Y65.6116
G01 X98.2533 Y65.5989
G01 X98.1695 Y65.5779
G01 X98.0882 Y65.5488
G01 X98.0102 Y65.5119
G01 X97.9415 Y65.4709
G01 X97.9309 Y65.4638
G01 X97.8718 Y65.4200
G01 X97.8619 Y65.4119
G01 X97.8027 Y65.3581
G01 X97.7448 Y65.2941
G01 X97.6933 Y65.2247
G01 X97.6521 Y65.1562
G01 X97.6460 Y65.1449
G01 X97.6146 Y65.0784
G01 X97.6097 Y65.0666
G01 X97.5829 Y64.9913
G01 X97.5619 Y64.9075
G01 X97.5492 Y64.8221
G01 X97.5450 Y64.7390
G01 X97.5450 Y62.2358
G01 X97.5490 Y62.1527
G01 X97.5500 Y62.1432
G01 X97.5608 Y62.0704
G01 X97.5633 Y62.0579
G01 X97.5829 Y61.9803
G01 X97.6108 Y61.9020
G01 X97.6146 Y61.8932
G01 X97.6460 Y61.8267
G01 X97.6504 Y61.8182
G01 X97.6916 Y61.7496
G01 X97.6970 Y61.7417
G01 X97.7232 Y61.7063
G01 X97.7232 Y60.0142
G01 X97.7263 Y59.9486
G01 X97.7274 Y59.9391
G01 X97.7356 Y59.8836
G01 X97.7381 Y59.8711
G01 X97.7534 Y59.8105
G01 X97.7766 Y59.7456
G01 X97.8061 Y59.6834
G01 X97.8381 Y59.6297
G01 X97.8452 Y59.6191
G01 X97.8786 Y59.5740
G01 X97.8867 Y59.5642
G01 X97.9244 Y59.5226
G01 X97.9334 Y59.5136
G01 X97.9798 Y59.4717
G01 X98.0299 Y59.4344
G01 X98.0405 Y59.4273
G01 X98.0942 Y59.3953
G01 X98.1506 Y59.3684
G01 X98.1624 Y59.3635
G01 X98.2213 Y59.3426
G01 X98.2881 Y59.3259
G01 X98.3562 Y59.3158
G01 X98.4218 Y59.3125
G01 X101.9339 Y59.3125
G01 X101.9995 Y59.3158
G01 X102.0613 Y59.3248
G01 X102.0738 Y59.3273
G01 X102.1344 Y59.3426
G01 X102.1993 Y59.3658
G01 X102.2558 Y59.3924
G01 X102.2671 Y59.3984
G01 X102.3152 Y59.4273
G01 X102.3232 Y59.4325
G01 X102.3759 Y59.4717
G01 X102.4269 Y59.5180
G01 X103.7493 Y60.8406
G01 X103.7912 Y60.8870
G01 X103.8285 Y60.9371
G01 X103.8356 Y60.9477
G01 X103.8676 Y61.0014
G01 X103.8971 Y61.0636
G01 X103.9183 Y61.1224
G01 X103.9220 Y61.1346
G01 X103.9356 Y61.1891
G01 X103.9376 Y61.1984
G01 X103.9471 Y61.2634
G01 X103.9505 Y61.3322
G01 X103.9505 Y68.3350
G01 X106.3239 Y68.3352
G01 X106.3863 Y68.3384
G01 X106.4481 Y68.3474
G01 X106.4606 Y68.3499
G01 X106.5212 Y68.3652
G01 X106.5861 Y68.3884
G01 X106.6426 Y68.4150
G01 X106.6539 Y68.4210
G01 X106.7074 Y68.4533
G01 X106.7627 Y68.4943
G01 X106.8137 Y68.5406
G01 X111.2828 Y73.0097
G01 X111.3291 Y73.0607
G01 X111.3664 Y73.1108
G01 X111.3735 Y73.1214
G01 X111.4055 Y73.1751
G01 X111.4324 Y73.2315
G01 X111.4373 Y73.2433
G01 X111.4572 Y73.2991
G01 X111.4599 Y73.3083
G01 X111.4735 Y73.3628
G01 X111.4760 Y73.3753
G01 X111.4850 Y73.4371
G01 X111.4884 Y73.5059
G01 X111.4884 Y77.4558
G01 X111.4855 Y77.5182
G01 X111.4842 Y77.5309
G01 X111.4749 Y77.5927
G01 X111.4599 Y77.6534
G01 X111.4562 Y77.6656
G01 X111.4350 Y77.7244
G01 X111.4084 Y77.7809
G01 X111.4040 Y77.7894
G01 X111.3701 Y77.8457
G01 X111.3330 Y77.8960
G01 X111.3249 Y77.9058
G01 X111.2872 Y77.9474
G01 X111.2782 Y77.9564
G01 X111.2318 Y77.9983
G01 X111.1817 Y78.0356
G01 X111.1711 Y78.0427
G01 X111.1174 Y78.0747
G01 X111.0552 Y78.1042
G01 X110.9903 Y78.1274
G01 X110.9235 Y78.1441
G01 X110.8554 Y78.1542
G01 X110.7866 Y78.1576
G01 X109.0945 Y78.1576
G01 X109.0591 Y78.1838
G01 X109.0512 Y78.1892
G01 X108.9854 Y78.2287
G01 X108.9770 Y78.2334
G01 X108.9018 Y78.2688
G01 X108.8235 Y78.2969
G01 X108.8143 Y78.2996
G01 X108.7429 Y78.3175
G01 X108.7304 Y78.3200
G01 X108.6513 Y78.3316
G01 X108.5682 Y78.3358
G01 X106.0650 Y78.3358
G01 X105.9787 Y78.3316
G01 X105.8933 Y78.3189
G01 X105.8157 Y78.2996
G01 X105.8035 Y78.2959
G01 X105.7282 Y78.2688
G01 X105.6502 Y78.2319
G01 X105.5815 Y78.1909
G01 X105.5709 Y78.1838
G01 X105.5067 Y78.1360
G01 X105.4474 Y78.0825
G01 X105.4383 Y78.0734
G01 X105.3848 Y78.0141
G01 X105.3370 Y77.9499
G01 X105.3299 Y77.9393
G01 X105.2889 Y77.8706
G01 X105.2546 Y77.7984
G01 X105.2497 Y77.7866
G01 X105.2229 Y77.7113
G01 X105.2019 Y77.6275
G01 X105.1892 Y77.5421
G01 X105.1850 Y77.4558
G01 X105.1888 Y77.3759
G01 X105.1900 Y77.3632
G01 X105.2019 Y77.2841
G01 X105.2212 Y77.2065
G01 X105.2249 Y77.1943
G01 X105.2520 Y77.1190
G01 X105.2860 Y77.0467
G01 X105.2921 Y77.0354
G01 X105.3299 Y76.9723
G01 X105.3370 Y76.9617
G01 X105.3848 Y76.8975
G01 X105.4427 Y76.8335
G01 X105.5067 Y76.7756
G01 X105.5761 Y76.7241
G01 X105.6502 Y76.6797
G01 X105.7282 Y76.6428
G01 X105.8095 Y76.6137
G01 X105.8933 Y76.5927
G01 X105.9787 Y76.5800
G01 X106.0650 Y76.5758
G01 X108.5714 Y76.5760
G01 X108.6513 Y76.5800
G01 X108.7304 Y76.5916
G01 X108.7429 Y76.5941
G01 X108.8143 Y76.6120
G01 X108.8235 Y76.6147
G01 X108.9018 Y76.6428
G01 X108.9770 Y76.6782
G01 X108.9854 Y76.6829
G01 X109.0512 Y76.7224
G01 X109.0591 Y76.7278
G01 X109.0945 Y76.7540
G01 X110.0848 Y76.7540
G01 X110.0848 Y73.7966
G01 X106.0268 Y69.7386
G01 X92.8268 Y69.7386
G01 X92.7644 Y69.7357
G01 X92.7517 Y69.7344
G01 X92.6899 Y69.7251
G01 X92.6292 Y69.7101
G01 X92.6170 Y69.7064
G01 X92.5582 Y69.6852
G01 X92.5017 Y69.6586
G01 X92.4904 Y69.6526
G01 X92.4369 Y69.6203
G01 X92.3866 Y69.5832
G01 X92.3768 Y69.5751
G01 X92.3328 Y69.5353
G01 X87.9474 Y65.1499
G01 X86.5319 Y65.1499
G01 X80.0768 Y71.6050
G01 X80.0768 Y73.0438
G01 X80.1070 Y73.0945
G01 X80.1392 Y73.1623
G01 X80.1441 Y73.1741
G01 X80.1693 Y73.2449
G01 X80.1877 Y73.3176
G01 X80.1901 Y73.3302
G01 X80.2010 Y73.4044
G01 X80.2050 Y73.4826
G01 X80.2050 Y76.0858
G01 X80.2010 Y76.1672
G01 X80.1891 Y76.2477
G01 X80.1710 Y76.3206
G01 X80.1673 Y76.3328
G01 X80.1418 Y76.4034
G01 X80.1070 Y76.4771
G01 X80.0685 Y76.5415
G01 X80.0614 Y76.5521
G01 X80.0166 Y76.6123
G01 X79.9663 Y76.6681
G01 X79.9573 Y76.6771
G01 X79.9015 Y76.7274
G01 X79.8361 Y76.7759
G01 X79.7718 Y76.8146
G01 X79.7606 Y76.8207
G01 X79.6926 Y76.8526
G01 X79.6190 Y76.8791
G01 X79.6098 Y76.8818
G01 X79.5369 Y76.8999
G01 X79.4564 Y76.9118
G01 X79.3750 Y76.9158
G01 X79.2936 Y76.9118
G01 X79.2131 Y76.8999
G01 X79.1341 Y76.8801
G01 X79.0574 Y76.8526
G01 X78.9837 Y76.8178
G01 X78.9139 Y76.7759
G01 X78.8485 Y76.7274
G01 X78.7881 Y76.6727
G01 X78.7334 Y76.6123
G01 X78.6849 Y76.5469
G01 X78.6430 Y76.4771
G01 X78.6082 Y76.4034
G01 X78.5827 Y76.3328
G01 X78.5790 Y76.3206
G01 X78.5609 Y76.2477
G01 X78.5498 Y76.1735
G01 X78.5485 Y76.1608
G01 X78.5450 Y76.0858
G01 X78.5450 Y73.4826
G01 X78.5490 Y73.4044
G01 X78.5599 Y73.3302
G01 X78.5623 Y73.3176
G01 X78.5807 Y73.2449
G01 X78.6059 Y73.1741
G01 X78.6108 Y73.1623
G01 X78.6430 Y73.0945
G01 X78.6732 Y73.0438
G01 X78.6732 Y71.6050
G01 X78.0866 Y71.0184
G01 X59.5299 Y71.0184
G01 X56.8784 Y73.6699
G01 X56.8784 Y77.4558
G01 X56.8755 Y77.5182
G01 X56.8742 Y77.5309
G01 X56.8649 Y77.5927
G01 X56.8482 Y77.6595
G01 X56.8250 Y77.7244
G01 X56.7955 Y77.7866
G01 X56.7601 Y77.8457
G01 X56.7191 Y77.9010
G01 X56.6728 Y77.9520
G01 X56.6266 Y77.9941
G01 X56.6168 Y78.0022
G01 X56.5665 Y78.0393
G01 X56.5130 Y78.0716
G01 X56.5017 Y78.0776
G01 X56.4452 Y78.1042
G01 X56.3803 Y78.1274
G01 X56.3197 Y78.1427
G01 X56.3072 Y78.1452
G01 X56.2517 Y78.1534
G01 X56.2422 Y78.1545
G01 X56.1766 Y78.1576
G01 X54.4845 Y78.1576
G01 X54.4491 Y78.1838
G01 X54.4412 Y78.1892
G01 X54.3726 Y78.2304
G01 X54.3641 Y78.2348
G01 X54.2976 Y78.2662
G01 X54.2888 Y78.2700
G01 X54.2105 Y78.2979
G01 X54.1329 Y78.3175
G01 X54.1204 Y78.3200
G01 X54.0476 Y78.3308
G01 X54.0381 Y78.3318
G01 X53.9550 Y78.3358
G01 X51.4486 Y78.3356
G01 X51.3687 Y78.3316
G01 X51.2896 Y78.3200
G01 X51.2771 Y78.3175
G01 X51.2057 Y78.2996
G01 X51.1935 Y78.2959
G01 X51.1182 Y78.2688
G01 X51.0402 Y78.2319
G01 X50.9661 Y78.1875
G01 X50.9018 Y78.1400
G01 X50.8919 Y78.1319
G01 X50.8374 Y78.0825
G01 X50.8283 Y78.0734
G01 X50.7748 Y78.0141
G01 X50.7233 Y77.9447
G01 X50.6821 Y77.8762
G01 X50.6760 Y77.8649
G01 X50.6420 Y77.7926
G01 X50.6139 Y77.7143
G01 X50.6112 Y77.7051
G01 X50.5919 Y77.6275
G01 X50.5792 Y77.5421
G01 X50.5750 Y77.4558
G01 X50.5792 Y77.3695
G01 X50.5919 Y77.2841
G01 X50.6129 Y77.2003
G01 X50.6420 Y77.1190
G01 X50.6760 Y77.0467
G01 X50.6821 Y77.0354
G01 X50.7199 Y76.9723
G01 X50.7270 Y76.9617
G01 X50.7748 Y76.8975
G01 X50.8283 Y76.8382
G01 X50.8374 Y76.8291
G01 X50.8967 Y76.7756
G01 X50.9609 Y76.7278
G01 X50.9715 Y76.7207
G01 X51.0402 Y76.6797
G01 X51.1182 Y76.6428
G01 X51.1995 Y76.6137
G01 X51.2833 Y76.5927
G01 X51.3687 Y76.5800
G01 X51.4550 Y76.5758
G01 X53.9614 Y76.5760
G01 X54.0413 Y76.5800
G01 X54.1204 Y76.5916
G01 X54.1329 Y76.5941
G01 X54.2043 Y76.6120
G01 X54.2135 Y76.6147
G01 X54.2918 Y76.6428
G01 X54.3670 Y76.6782
G01 X54.3754 Y76.6829
G01 X54.4412 Y76.7224
G01 X54.4491 Y76.7278
G01 X54.4845 Y76.7540
G01 X55.4748 Y76.7540
G01 X55.4749 Y73.3760
G01 X55.4782 Y73.3104
G01 X55.4883 Y73.2423
G01 X55.5050 Y73.1755
G01 X55.5259 Y73.1166
G01 X55.5295 Y73.1077
G01 X55.5577 Y73.0484
G01 X55.5931 Y72.9893
G01 X55.6341 Y72.9340
G01 X55.6781 Y72.8852
G01 X58.2467 Y70.3166
G01 X55.3815 Y67.4514
G01 X55.3417 Y67.4074
G01 X55.3336 Y67.3976
G01 X55.2965 Y67.3473
G01 X55.2642 Y67.2938
G01 X55.2582 Y67.2825
G01 X55.2316 Y67.2260
G01 X55.2084 Y67.1611
G01 X55.1931 Y67.1005
G01 X55.1906 Y67.0880
G01 X55.1816 Y67.0262
G01 X55.1783 Y66.9606
G01 X55.1782 Y65.2653
G01 X55.1520 Y65.2299
G01 X55.1466 Y65.2220
G01 X55.1071 Y65.1562
G01 X55.1024 Y65.1478
G01 X55.0670 Y65.0726
G01 X55.0389 Y64.9943
G01 X55.0362 Y64.9851
G01 X55.0183 Y64.9137
G01 X55.0158 Y64.9012
G01 X55.0042 Y64.8221
G01 X55.0002 Y64.7422
G01 X55.0000 Y62.2358
G01 X55.0038 Y62.1559
G01 X55.0050 Y62.1432
G01 X55.0169 Y62.0641
G01 X55.0362 Y61.9865
G01 X55.0399 Y61.9743
G01 X55.0670 Y61.8990
G01 X55.1010 Y61.8267
G01 X55.1071 Y61.8154
G01 X55.1449 Y61.7523
G01 X55.1520 Y61.7417
G01 X55.1998 Y61.6775
G01 X55.2533 Y61.6182
G01 X55.2624 Y61.6091
G01 X55.3217 Y61.5556
G01 X55.3911 Y61.5041
G01 X55.4596 Y61.4629
G01 X55.4709 Y61.4568
G01 X55.5374 Y61.4254
G01 X55.5462 Y61.4216
G01 X55.6245 Y61.3937
G01 X55.7021 Y61.3741
G01 X55.7146 Y61.3716
G01 X55.7874 Y61.3608
G01 X55.8001 Y61.3596
G01 X55.8800 Y61.3558
G01 X55.9599 Y61.3596
G01 X55.9726 Y61.3608
G01 X56.0517 Y61.3727
G01 X56.1355 Y61.3937
G01 X56.2168 Y61.4228
G01 X56.2948 Y61.4597
G01 X56.3689 Y61.5041
G01 X56.4332 Y61.5516
G01 X56.4431 Y61.5597
G01 X56.4976 Y61.6091
G01 X56.5067 Y61.6182
G01 X56.5602 Y61.6775
G01 X56.6080 Y61.7417
G01 X56.6151 Y61.7523
G01 X56.6561 Y61.8210
G01 X56.6930 Y61.8990
G01 X56.7221 Y61.9803
G01 X56.7431 Y62.0641
G01 X56.7558 Y62.1495
G01 X56.7600 Y62.2358
G01 X56.7600 Y64.7390
G01 X56.7558 Y64.8221
G01 X56.7442 Y64.9012
G01 X56.7417 Y64.9137
G01 X56.7238 Y64.9851
G01 X56.7211 Y64.9943
G01 X56.6930 Y65.0726
G01 X56.6576 Y65.1478
G01 X56.6529 Y65.1562
G01 X56.6134 Y65.2220
G01 X56.6080 Y65.2299
G01 X56.5818 Y65.2653
G01 X56.5818 Y66.6667
G01 X59.5299 Y69.6148
G01 X78.3805 Y69.6149
G01 X78.4461 Y69.6182
G01 X78.5079 Y69.6272
G01 X78.5204 Y69.6297
G01 X78.5810 Y69.6450
G01 X78.6459 Y69.6682
G01 X78.7024 Y69.6948
G01 X78.7137 Y69.7008
G01 X78.7618 Y69.7297
G01 X78.7698 Y69.7349
G01 X78.8225 Y69.7741
G01 X78.8713 Y69.8181
G01 X79.3750 Y70.3218
G01 X85.7450 Y63.9519
G01 X85.7960 Y63.9056
G01 X85.8513 Y63.8646
G01 X85.9048 Y63.8323
G01 X85.9161 Y63.8263
G01 X85.9726 Y63.7997
G01 X86.0314 Y63.7785
G01 X86.0436 Y63.7748
G01 X86.1043 Y63.7598
G01 X86.1724 Y63.7497
G01 X86.2412 Y63.7463
G01 X87.5363 Y63.7463
G01 X87.5363 Y10.5454
G01 X85.2307 Y8.2398
G01 X70.4169 Y8.2398
G01 X66.7418 Y11.9149
G01 X66.7418 Y13.3538
G01 X66.7720 Y13.4045
G01 X66.8042 Y13.4723
G01 X66.8091 Y13.4841
G01 X66.8343 Y13.5549
G01 X66.8527 Y13.6276
G01 X66.8551 Y13.6402
G01 X66.8660 Y13.7144
G01 X66.8700 Y13.7926
G01 X66.8700 Y16.3958
G01 X66.8665 Y16.4708
G01 X66.8657 Y16.4803
G01 X66.8541 Y16.5577
G01 X66.8343 Y16.6367
G01 X66.8068 Y16.7134
G01 X66.7749 Y16.7814
G01 X66.7688 Y16.7926
G01 X66.7335 Y16.8515
G01 X66.7264 Y16.8621
G01 X66.6816 Y16.9223
G01 X66.6269 Y16.9827
G01 X66.5665 Y17.0374
G01 X66.5063 Y17.0822
G01 X66.4957 Y17.0893
G01 X66.4368 Y17.1246
G01 X66.4256 Y17.1307
G01 X66.3576 Y17.1626
G01 X66.2809 Y17.1901
G01 X66.2019 Y17.2099
G01 X66.1245 Y17.2215
G01 X66.1150 Y17.2223
G01 X66.0400 Y17.2258
G01 X65.9586 Y17.2218
G01 X65.8781 Y17.2099
G01 X65.7991 Y17.1901
G01 X65.7224 Y17.1626
G01 X65.6487 Y17.1278
G01 X65.5789 Y17.0859
G01 X65.5135 Y17.0374
G01 X65.4531 Y16.9827
G01 X65.3984 Y16.9223
G01 X65.3499 Y16.8569
G01 X65.3080 Y16.7871
G01 X65.2732 Y16.7134
G01 X65.2457 Y16.6367
G01 X65.2259 Y16.5577
G01 X65.2148 Y16.4835
G01 X65.2135 Y16.4708
G01 X65.2100 Y16.3958
G01 X65.2100 Y13.7926
G01 X65.2140 Y13.7144
G01 X65.2249 Y13.6402
G01 X65.2273 Y13.6276
G01 X65.2457 Y13.5549
G01 X65.2709 Y13.4841
G01 X65.2758 Y13.4723
G01 X65.3080 Y13.4045
G01 X65.3382 Y13.3538
G01 X65.3382 Y11.9149
G01 X63.6954 Y10.2721
G01 X25.8396 Y10.2721
G01 X24.1968 Y11.9149
G01 X24.1968 Y13.3538
G01 X24.2270 Y13.4045
G01 X24.2592 Y13.4723
G01 X24.2641 Y13.4841
G01 X24.2893 Y13.5549
G01 X24.3091 Y13.6339
G01 X24.3202 Y13.7081
G01 X24.3215 Y13.7208
G01 X24.3250 Y13.7958
G01 X24.3250 Y16.3990
G01 X24.3215 Y16.4708
G01 X24.3202 Y16.4835
G01 X24.3091 Y16.5577
G01 X24.2910 Y16.6306
G01 X24.2873 Y16.6428
G01 X24.2618 Y16.7134
G01 X24.2285 Y16.7842
G01 X24.2238 Y16.7926
G01 X24.1885 Y16.8515
G01 X24.1814 Y16.8621
G01 X24.1366 Y16.9223
G01 X24.0819 Y16.9827
G01 X24.0215 Y17.0374
G01 X23.9613 Y17.0822
G01 X23.9507 Y17.0893
G01 X23.8918 Y17.1246
G01 X23.8806 Y17.1307
G01 X23.8126 Y17.1626
G01 X23.7359 Y17.1901
G01 X23.6569 Y17.2099
G01 X23.5827 Y17.2210
G01 X23.5700 Y17.2223
G01 X23.5014 Y17.2256
G01 X23.4886 Y17.2256
G01 X23.4136 Y17.2218
G01 X23.3331 Y17.2099
G01 X23.2541 Y17.1901
G01 X23.1833 Y17.1649
G01 X23.1715 Y17.1600
G01 X23.1037 Y17.1278
G01 X23.0339 Y17.0859
G01 X22.9735 Y17.0413
G01 X22.9636 Y17.0332
G01 X22.9127 Y16.9871
G01 X22.9037 Y16.9781
G01 X22.8534 Y16.9223
G01 X22.8049 Y16.8569
G01 X22.7630 Y16.7871
G01 X22.7308 Y16.7193
G01 X22.7259 Y16.7075
G01 X22.7027 Y16.6428
G01 X22.6990 Y16.6306
G01 X22.6809 Y16.5577
G01 X22.6698 Y16.4835
G00 Z2.0000
G00 X22.7489 Y16.4717
G01 F60.00
G01 Z-0.0000
G01 F120.00
G01 X22.7450 Y16.3958
G01 X22.7450 Y13.7946
G01 X22.7486 Y13.7223
G01 X22.7590 Y13.6519
G01 X22.7773 Y13.5781
G01 X22.8021 Y13.5088
G01 X22.8325 Y13.4444
G01 X22.8701 Y13.3812
G01 X22.8732 Y13.3766
G01 X22.8732 Y11.6230
G01 X22.8762 Y11.5633
G01 X22.8852 Y11.5029
G01 X22.9000 Y11.4437
G01 X22.9197 Y11.3885
G01 X22.9466 Y11.3311
G01 X22.9780 Y11.2788
G01 X23.0144 Y11.2297
G01 X23.0545 Y11.1854
G01 X25.1101 Y9.1298
G01 X25.1544 Y9.0897
G01 X25.2014 Y9.0547
G01 X25.2580 Y9.0208
G01 X25.3110 Y8.9958
G01 X25.3684 Y8.9753
G01 X25.4276 Y8.9605
G01 X25.4867 Y8.9516
G01 X25.5489 Y8.9485
G01 X63.9886 Y8.9486
G01 X64.0470 Y8.9515
G01 X64.1074 Y8.9605
G01 X64.1666 Y8.9753
G01 X64.2218 Y8.9950
G01 X64.2813 Y9.0231
G01 X64.3315 Y9.0533
G01 X64.3815 Y9.0904
G01 X64.4258 Y9.1306
G01 X66.0400 Y10.7449
G01 X69.6874 Y7.0975
G01 X69.7317 Y7.0574
G01 X69.7808 Y7.0210
G01 X69.8331 Y6.9896
G01 X69.8860 Y6.9645
G01 X69.9481 Y6.9423
G01 X70.0049 Y6.9282
G01 X70.0653 Y6.9192
G01 X70.1262 Y6.9162
G01 X85.5214 Y6.9162
G01 X85.5836 Y6.9193
G01 X85.6427 Y6.9282
G01 X85.6995 Y6.9423
G01 X85.7616 Y6.9645
G01 X85.8145 Y6.9896
G01 X85.8668 Y7.0210
G01 X85.9159 Y7.0574
G01 X85.9593 Y7.0966
G01 X88.2381 Y9.3754
G01 X90.5557 Y7.0578
G01 X90.5991 Y7.0186
G01 X90.6461 Y6.9836
G01 X90.7027 Y6.9497
G01 X90.7557 Y6.9247
G01 X90.8131 Y6.9042
G01 X90.8723 Y6.8894
G01 X90.9302 Y6.8807
G01 X90.9936 Y6.8774
G01 X105.1965 Y6.8774
G01 X105.2562 Y6.8804
G01 X105.3166 Y6.8894
G01 X105.3758 Y6.9042
G01 X105.4332 Y6.9247
G01 X105.4884 Y6.9508
G01 X105.5407 Y6.9822
G01 X105.5898 Y7.0186
G01 X105.6332 Y7.0578
G01 X108.7498 Y10.1744
G01 X113.9075 Y5.0167
G01 X113.9518 Y4.9766
G01 X114.0009 Y4.9402
G01 X114.0532 Y4.9088
G01 X114.1084 Y4.8827
G01 X114.1658 Y4.8622
G01 X114.2250 Y4.8474
G01 X114.2854 Y4.8384
G01 X114.3451 Y4.8354
G01 X145.9987 Y4.8354
G01 X146.0596 Y4.8384
G01 X146.1212 Y4.8476
G01 X146.1792 Y4.8622
G01 X146.2344 Y4.8819
G01 X146.2918 Y4.9088
G01 X146.3462 Y4.9416
G01 X146.3932 Y4.9766
G01 X146.4384 Y5.0175
G01 X152.2047 Y10.7838
G01 X152.2456 Y10.8290
G01 X152.2813 Y10.8770
G01 X152.3145 Y10.9326
G01 X152.3395 Y10.9856
G01 X152.3600 Y11.0430
G01 X152.3753 Y11.1046
G01 X152.3838 Y11.1626
G01 X152.3867 Y11.2210
G01 X152.3868 Y13.3766
G01 X152.3899 Y13.3812
G01 X152.4275 Y13.4444
G01 X152.4579 Y13.5088
G01 X152.4827 Y13.5781
G01 X152.5010 Y13.6519
G01 X152.5114 Y13.7223
G01 X152.5150 Y13.7946
G01 X152.5150 Y16.3958
G01 X152.5111 Y16.4717
G01 X152.5006 Y16.5421
G01 X152.4827 Y16.6135
G01 X152.4579 Y16.6828
G01 X152.4264 Y16.7493
G01 X152.3886 Y16.8125
G01 X152.3448 Y16.8716
G01 X152.2953 Y16.9261
G01 X152.2408 Y16.9756
G01 X152.1817 Y17.0194
G01 X152.1185 Y17.0572
G01 X152.0520 Y17.0887
G01 X151.9827 Y17.1135
G01 X151.9113 Y17.1314
G01 X151.8385 Y17.1422
G01 X151.7650 Y17.1458
G01 X151.6915 Y17.1422
G01 X151.6187 Y17.1314
G01 X151.5473 Y17.1135
G01 X151.4757 Y17.0877
G01 X151.4115 Y17.0572
G01 X151.3483 Y17.0194
G01 X151.2892 Y16.9756
G01 X151.2364 Y16.9278
G01 X151.1852 Y16.8716
G01 X151.1401 Y16.8104
G01 X151.1036 Y16.7493
G01 X151.0721 Y16.6828
G01 X151.0473 Y16.6135
G01 X151.0299 Y16.5445
G01 X151.0185 Y16.4681
G01 X151.0150 Y16.3958
G01 X151.0150 Y13.7946
G01 X151.0186 Y13.7223
G01 X151.0290 Y13.6519
G01 X151.0473 Y13.5781
G01 X151.0721 Y13.5088
G01 X151.1025 Y13.4444
G01 X151.1401 Y13.3812
G01 X151.1432 Y13.3766
G01 X151.1432 Y11.4811
G01 X145.7411 Y6.0790
G01 X114.6039 Y6.0790
G01 X109.2068 Y11.4761
G01 X109.2068 Y13.3766
G01 X109.2099 Y13.3812
G01 X109.2475 Y13.4444
G01 X109.2779 Y13.5088
G01 X109.3027 Y13.5781
G01 X109.3210 Y13.6519
G01 X109.3314 Y13.7223
G01 X109.3350 Y13.7946
G01 X109.3350 Y16.3958
G01 X109.3314 Y16.4693
G01 X109.3206 Y16.5421
G01 X109.3034 Y16.6111
G01 X109.2769 Y16.6851
G01 X109.2464 Y16.7493
G01 X109.2086 Y16.8125
G01 X109.1648 Y16.8716
G01 X109.1153 Y16.9261
G01 X109.0608 Y16.9756
G01 X109.0017 Y17.0194
G01 X108.9385 Y17.0572
G01 X108.8743 Y17.0877
G01 X108.8003 Y17.1142
G01 X108.7313 Y17.1314
G01 X108.6573 Y17.1423
G01 X108.5850 Y17.1458
G01 X108.5115 Y17.1422
G01 X108.4387 Y17.1314
G01 X108.3673 Y17.1135
G01 X108.2980 Y17.0887
G01 X108.2315 Y17.0572
G01 X108.1683 Y17.0194
G01 X108.1092 Y16.9756
G01 X108.0547 Y16.9261
G01 X108.0052 Y16.8716
G01 X107.9614 Y16.8125
G01 X107.9236 Y16.7493
G01 X107.8921 Y16.6828
G01 X107.8673 Y16.6135
G01 X107.8494 Y16.5421
G01 X107.8387 Y16.4705
G01 X107.8350 Y16.3958
G01 X107.8350 Y13.7946
G01 X107.8386 Y13.7223
G01 X107.8490 Y13.6519
G01 X107.8673 Y13.5781
G01 X107.8921 Y13.5088
G01 X107.9225 Y13.4444
G01 X107.9601 Y13.3812
G01 X107.9632 Y13.3766
G01 X107.9632 Y11.2185
G01 X107.9660 Y11.1600
G01 X107.9672 Y11.1504
G01 X104.9377 Y8.1210
G01 X91.2512 Y8.1210
G01 X88.8599 Y10.5123
G01 X88.8599 Y64.1905
G01 X93.0844 Y68.4150
G01 X102.6269 Y68.4150
G01 X102.6269 Y61.5898
G01 X101.6731 Y60.6360
G01 X99.0468 Y60.6360
G01 X99.0468 Y61.7327
G01 X99.0902 Y61.7913
G01 X99.1305 Y61.8587
G01 X99.1641 Y61.9297
G01 X99.1898 Y62.0012
G01 X99.2100 Y62.0821
G01 X99.2211 Y62.1574
G01 X99.2250 Y62.2346
G01 X99.2250 Y64.7370
G01 X99.2211 Y64.8142
G01 X99.2100 Y64.8895
G01 X99.1898 Y64.9704
G01 X99.1641 Y65.0419
G01 X99.1305 Y65.1129
G01 X99.0902 Y65.1803
G01 X99.0449 Y65.2414
G01 X98.9889 Y65.3032
G01 X98.9325 Y65.3542
G01 X98.8695 Y65.4010
G01 X98.8021 Y65.4413
G01 X98.7311 Y65.4749
G01 X98.6572 Y65.5014
G01 X98.5835 Y65.5199
G01 X98.5010 Y65.5321
G01 X98.4250 Y65.5358
G01 X98.3442 Y65.5316
G01 X98.2689 Y65.5204
G01 X98.1928 Y65.5014
G01 X98.1189 Y65.4749
G01 X98.0501 Y65.4424
G01 X97.9805 Y65.4010
G01 X97.9194 Y65.3557
G01 X97.8576 Y65.2997
G01 X97.8066 Y65.2433
G01 X97.7598 Y65.1803
G01 X97.7195 Y65.1129
G01 X97.6859 Y65.0419
G01 X97.6594 Y64.9680
G01 X97.6404 Y64.8919
G01 X97.6289 Y64.8142
G01 X97.6251 Y64.7383
G01 X97.6250 Y62.2358
G01 X97.6287 Y62.1586
G01 X97.6409 Y62.0773
G01 X97.6594 Y62.0036
G01 X97.6859 Y61.9297
G01 X97.7207 Y61.8565
G01 X97.7598 Y61.7913
G01 X97.8032 Y61.7327
G01 X97.8032 Y60.0142
G01 X97.8061 Y59.9545
G01 X97.8157 Y59.8905
G01 X97.8300 Y59.8337
G01 X97.8505 Y59.7763
G01 X97.8766 Y59.7211
G01 X97.9067 Y59.6708
G01 X97.9460 Y59.6179
G01 X97.9871 Y59.5728
G01 X98.0305 Y59.5336
G01 X98.0775 Y59.4986
G01 X98.1319 Y59.4658
G01 X98.1848 Y59.4407
G01 X98.2445 Y59.4192
G01 X98.3037 Y59.4044
G01 X98.3641 Y59.3954
G01 X98.4238 Y59.3924
G01 X101.9319 Y59.3924
G01 X101.9916 Y59.3954
G01 X102.0496 Y59.4039
G01 X102.1112 Y59.4192
G01 X102.1686 Y59.4397
G01 X102.2216 Y59.4647
G01 X102.2772 Y59.4979
G01 X102.3252 Y59.5336
G01 X102.3704 Y59.5745
G01 X103.6901 Y60.8943
G01 X103.7293 Y60.9377
G01 X103.7643 Y60.9847
G01 X103.7971 Y61.0391
G01 X103.8232 Y61.0943
G01 X103.8429 Y61.1494
G01 X103.8588 Y61.2121
G01 X103.8675 Y61.2713
G01 X103.8705 Y61.3322
G01 X103.8705 Y68.4150
G01 X106.3200 Y68.4151
G01 X106.3784 Y68.4180
G01 X106.4364 Y68.4265
G01 X106.4980 Y68.4418
G01 X106.5554 Y68.4623
G01 X106.6084 Y68.4873
G01 X106.6629 Y68.5198
G01 X106.7120 Y68.5562
G01 X106.7572 Y68.5971
G01 X111.2263 Y73.0662
G01 X111.2672 Y73.1114
G01 X111.3049 Y73.1625
G01 X111.3350 Y73.2128
G01 X111.3601 Y73.2657
G01 X111.3812 Y73.3242
G01 X111.3969 Y73.3870
G01 X111.4054 Y73.4450
G01 X111.4084 Y73.5059
G01 X111.4084 Y77.4558
G01 X111.4051 Y77.5192
G01 X111.3964 Y77.5771
G01 X111.3823 Y77.6339
G01 X111.3611 Y77.6937
G01 X111.3344 Y77.7500
G01 X111.3036 Y77.8012
G01 X111.2656 Y77.8521
G01 X111.2245 Y77.8972
G01 X111.1811 Y77.9364
G01 X111.1341 Y77.9714
G01 X111.0797 Y78.0042
G01 X111.0245 Y78.0303
G01 X110.9671 Y78.0508
G01 X110.9067 Y78.0659
G01 X110.8475 Y78.0746
G01 X110.7866 Y78.0776
G01 X109.0681 Y78.0776
G01 X109.0095 Y78.1210
G01 X108.9421 Y78.1613
G01 X108.8711 Y78.1949
G01 X108.7996 Y78.2206
G01 X108.7187 Y78.2408
G01 X108.6434 Y78.2519
G01 X108.5662 Y78.2558
G01 X106.0650 Y78.2558
G01 X105.9866 Y78.2519
G01 X105.9101 Y78.2407
G01 X105.8304 Y78.2206
G01 X105.7589 Y78.1949
G01 X105.6901 Y78.1624
G01 X105.6205 Y78.1210
G01 X105.5556 Y78.0726
G01 X105.4993 Y78.0215
G01 X105.4482 Y77.9652
G01 X105.3998 Y77.9003
G01 X105.3584 Y77.8307
G01 X105.3259 Y77.7619
G01 X105.2994 Y77.6880
G01 X105.2804 Y77.6119
G01 X105.2689 Y77.5342
G01 X105.2650 Y77.4558
G01 X105.2692 Y77.3750
G01 X105.2804 Y77.2997
G01 X105.3002 Y77.2212
G01 X105.3259 Y77.1497
G01 X105.3584 Y77.0809
G01 X105.3985 Y77.0134
G01 X105.4466 Y76.9483
G01 X105.4993 Y76.8901
G01 X105.5575 Y76.8374
G01 X105.6205 Y76.7906
G01 X105.6879 Y76.7503
G01 X105.7589 Y76.7167
G01 X105.8328 Y76.6902
G01 X105.9101 Y76.6709
G01 X105.9866 Y76.6597
G01 X106.0650 Y76.6558
G01 X108.5675 Y76.6559
G01 X108.6434 Y76.6597
G01 X108.7187 Y76.6708
G01 X108.7996 Y76.6910
G01 X108.8711 Y76.7167
G01 X108.9421 Y76.7503
G01 X109.0095 Y76.7906
G01 X109.0681 Y76.8340
G01 X110.1648 Y76.8340
G01 X110.1648 Y73.7635
G01 X106.0599 Y69.6586
G01 X92.8268 Y69.6586
G01 X92.7634 Y69.6553
G01 X92.7055 Y69.6466
G01 X92.6487 Y69.6325
G01 X92.5889 Y69.6113
G01 X92.5316 Y69.5840
G01 X92.4814 Y69.5538
G01 X92.4343 Y69.5190
G01 X92.3871 Y69.4765
G01 X87.9805 Y65.0699
G01 X86.4988 Y65.0699
G01 X79.9968 Y71.5719
G01 X79.9968 Y73.0666
G01 X79.9999 Y73.0712
G01 X80.0375 Y73.1344
G01 X80.0679 Y73.1988
G01 X80.0927 Y73.2681
G01 X80.1110 Y73.3419
G01 X80.1214 Y73.4123
G01 X80.1250 Y73.4846
G01 X80.1250 Y76.0858
G01 X80.1215 Y76.1581
G01 X80.1101 Y76.2345
G01 X80.0927 Y76.3035
G01 X80.0679 Y76.3728
G01 X80.0364 Y76.4393
G01 X79.9999 Y76.5004
G01 X79.9548 Y76.5616
G01 X79.9036 Y76.6178
G01 X79.8508 Y76.6656
G01 X79.7917 Y76.7094
G01 X79.7264 Y76.7483
G01 X79.6620 Y76.7787
G01 X79.5939 Y76.8031
G01 X79.5213 Y76.8214
G01 X79.4485 Y76.8322
G01 X79.3750 Y76.8358
G01 X79.3015 Y76.8322
G01 X79.2287 Y76.8214
G01 X79.1573 Y76.8035
G01 X79.0880 Y76.7787
G01 X79.0215 Y76.7472
G01 X78.9583 Y76.7094
G01 X78.8992 Y76.6656
G01 X78.8447 Y76.6161
G01 X78.7952 Y76.5616
G01 X78.7514 Y76.5025
G01 X78.7136 Y76.4393
G01 X78.6821 Y76.3728
G01 X78.6566 Y76.3011
G01 X78.6394 Y76.2321
G01 X78.6289 Y76.1617
G01 X78.6250 Y76.0858
G01 X78.6250 Y73.4846
G01 X78.6286 Y73.4123
G01 X78.6390 Y73.3419
G01 X78.6573 Y73.2681
G01 X78.6821 Y73.1988
G01 X78.7125 Y73.1344
G01 X78.7501 Y73.0712
G01 X78.7532 Y73.0666
G01 X78.7532 Y71.5719
G01 X78.1197 Y70.9384
G01 X59.4968 Y70.9384
G01 X56.7984 Y73.6368
G01 X56.7984 Y77.4558
G01 X56.7956 Y77.5143
G01 X56.7864 Y77.5771
G01 X56.7716 Y77.6363
G01 X56.7511 Y77.6937
G01 X56.7250 Y77.7489
G01 X56.6936 Y77.8012
G01 X56.6572 Y77.8503
G01 X56.6163 Y77.8955
G01 X56.5701 Y77.9372
G01 X56.5220 Y77.9728
G01 X56.4718 Y78.0030
G01 X56.4145 Y78.0303
G01 X56.3571 Y78.0508
G01 X56.3003 Y78.0651
G01 X56.2363 Y78.0747
G01 X56.1766 Y78.0776
G01 X54.4581 Y78.0776
G01 X54.3995 Y78.1210
G01 X54.3343 Y78.1601
G01 X54.2611 Y78.1949
G01 X54.1872 Y78.2214
G01 X54.1135 Y78.2399
G01 X54.0322 Y78.2521
G01 X53.9550 Y78.2558
G01 X51.4525 Y78.2557
G01 X51.3766 Y78.2519
G01 X51.3013 Y78.2408
G01 X51.2204 Y78.2206
G01 X51.1489 Y78.1949
G01 X51.0779 Y78.1613
G01 X51.0105 Y78.1210
G01 X50.9494 Y78.0757
G01 X50.8876 Y78.0197
G01 X50.8366 Y77.9633
G01 X50.7898 Y77.9003
G01 X50.7484 Y77.8307
G01 X50.7159 Y77.7619
G01 X50.6898 Y77.6892
G01 X50.6704 Y77.6119
G01 X50.6589 Y77.5342
G01 X50.6550 Y77.4558
G01 X50.6592 Y77.3750
G01 X50.6704 Y77.2997
G01 X50.6902 Y77.2212
G01 X50.7159 Y77.1497
G01 X50.7484 Y77.0809
G01 X50.7885 Y77.0134
G01 X50.8366 Y76.9483
G01 X50.8893 Y76.8901
G01 X50.9475 Y76.8374
G01 X51.0105 Y76.7906
G01 X51.0779 Y76.7503
G01 X51.1489 Y76.7167
G01 X51.2228 Y76.6902
G01 X51.3001 Y76.6709
G01 X51.3766 Y76.6597
G01 X51.4550 Y76.6558
G01 X53.9575 Y76.6559
G01 X54.0334 Y76.6597
G01 X54.1087 Y76.6708
G01 X54.1896 Y76.6910
G01 X54.2611 Y76.7167
G01 X54.3321 Y76.7503
G01 X54.3995 Y76.7906
G01 X54.4581 Y76.8340
G01 X55.5548 Y76.8340
G01 X55.5548 Y73.3780
G01 X55.5578 Y73.3183
G01 X55.5668 Y73.2579
G01 X55.5816 Y73.1987
G01 X55.6026 Y73.1401
G01 X55.6282 Y73.0861
G01 X55.6596 Y73.0338
G01 X55.6960 Y72.9847
G01 X55.7369 Y72.9395
G01 X58.3599 Y70.3166
G01 X55.4395 Y67.3962
G01 X55.3978 Y67.3499
G01 X55.3630 Y67.3028
G01 X55.3328 Y67.2526
G01 X55.3055 Y67.1953
G01 X55.2850 Y67.1379
G01 X55.2697 Y67.0763
G01 X55.2612 Y67.0183
G01 X55.2582 Y66.9586
G01 X55.2582 Y65.2389
G01 X55.2148 Y65.1803
G01 X55.1745 Y65.1129
G01 X55.1409 Y65.0419
G01 X55.1152 Y64.9704
G01 X55.0950 Y64.8895
G01 X55.0839 Y64.8142
G01 X55.0801 Y64.7383
G01 X55.0800 Y62.2358
G01 X55.0837 Y62.1598
G01 X55.0954 Y62.0797
G01 X55.1152 Y62.0012
G01 X55.1409 Y61.9297
G01 X55.1734 Y61.8609
G01 X55.2162 Y61.7893
G01 X55.2616 Y61.7283
G01 X55.3126 Y61.6719
G01 X55.3725 Y61.6174
G01 X55.4355 Y61.5706
G01 X55.5007 Y61.5315
G01 X55.5750 Y61.4962
G01 X55.6478 Y61.4702
G01 X55.7263 Y61.4508
G01 X55.8040 Y61.4395
G01 X55.8800 Y61.4358
G01 X55.9560 Y61.4395
G01 X56.0361 Y61.4512
G01 X56.1122 Y61.4702
G01 X56.1861 Y61.4967
G01 X56.2571 Y61.5303
G01 X56.3245 Y61.5706
G01 X56.3894 Y61.6190
G01 X56.4474 Y61.6719
G01 X56.4984 Y61.7283
G01 X56.5438 Y61.7893
G01 X56.5855 Y61.8587
G01 X56.6191 Y61.9297
G01 X56.6456 Y62.0036
G01 X56.6649 Y62.0809
G01 X56.6761 Y62.1574
G01 X56.6800 Y62.2358
G01 X56.6800 Y64.7370
G01 X56.6761 Y64.8142
G01 X56.6650 Y64.8895
G01 X56.6448 Y64.9704
G01 X56.6191 Y65.0419
G01 X56.5855 Y65.1129
G01 X56.5452 Y65.1803
G01 X56.5018 Y65.2389
G01 X56.5018 Y66.6998
G01 X59.4968 Y69.6948
G01 X78.3798 Y69.6949
G01 X78.4382 Y69.6978
G01 X78.4962 Y69.7063
G01 X78.5601 Y69.7224
G01 X78.6152 Y69.7421
G01 X78.6704 Y69.7682
G01 X78.7227 Y69.7996
G01 X78.7698 Y69.8344
G01 X78.8170 Y69.8769
G01 X79.3750 Y70.4350
G01 X85.8015 Y64.0084
G01 X85.8467 Y63.9675
G01 X85.8958 Y63.9311
G01 X85.9460 Y63.9009
G01 X86.0033 Y63.8736
G01 X86.0607 Y63.8531
G01 X86.1175 Y63.8388
G01 X86.1815 Y63.8292
G01 X86.2412 Y63.8263
G01 X87.6163 Y63.8263
G01 X87.6163 Y10.5123
G01 X85.2638 Y8.1598
G01 X70.3838 Y8.1598
G01 X66.6618 Y11.8818
G01 X66.6618 Y13.3766
G01 X66.6649 Y13.3812
G01 X66.7025 Y13.4444
G01 X66.7329 Y13.5088
G01 X66.7577 Y13.5781
G01 X66.7760 Y13.6519
G01 X66.7864 Y13.7223
G01 X66.7900 Y13.7946
G01 X66.7900 Y16.3958
G01 X66.7864 Y16.4693
G01 X66.7756 Y16.5421
G01 X66.7584 Y16.6111
G01 X66.7319 Y16.6851
G01 X66.7014 Y16.7493
G01 X66.6636 Y16.8125
G01 X66.6198 Y16.8716
G01 X66.5703 Y16.9261
G01 X66.5158 Y16.9756
G01 X66.4587 Y17.0180
G01 X66.3914 Y17.0583
G01 X66.3270 Y17.0887
G01 X66.2577 Y17.1135
G01 X66.1863 Y17.1314
G01 X66.1147 Y17.1421
G01 X66.0400 Y17.1458
G01 X65.9665 Y17.1422
G01 X65.8937 Y17.1314
G01 X65.8223 Y17.1135
G01 X65.7530 Y17.0887
G01 X65.6865 Y17.0572
G01 X65.6233 Y17.0194
G01 X65.5642 Y16.9756
G01 X65.5097 Y16.9261
G01 X65.4602 Y16.8716
G01 X65.4164 Y16.8125
G01 X65.3786 Y16.7493
G01 X65.3471 Y16.6828
G01 X65.3223 Y16.6135
G01 X65.3044 Y16.5421
G01 X65.2937 Y16.4705
G01 X65.2900 Y16.3958
G01 X65.2900 Y13.7946
G01 X65.2936 Y13.7223
G01 X65.3040 Y13.6519
G01 X65.3223 Y13.5781
G01 X65.3471 Y13.5088
G01 X65.3775 Y13.4444
G01 X65.4151 Y13.3812
G01 X65.4182 Y13.3766
G01 X65.4182 Y11.8818
G01 X63.7285 Y10.1921
G01 X25.8065 Y10.1921
G01 X24.1168 Y11.8818
G01 X24.1168 Y13.3766
G01 X24.1199 Y13.3812
G01 X24.1575 Y13.4444
G01 X24.1879 Y13.5088
G01 X24.2127 Y13.5781
G01 X24.2306 Y13.6495
G01 X24.2411 Y13.7199
G01 X24.2450 Y13.7958
G01 X24.2450 Y16.3970
G01 X24.2414 Y16.4693
G01 X24.2301 Y16.5445
G01 X24.2127 Y16.6135
G01 X24.1888 Y16.6805
G01 X24.1575 Y16.7472
G01 X24.1172 Y16.8145
G01 X24.0748 Y16.8716
G01 X24.0253 Y16.9261
G01 X23.9708 Y16.9756
G01 X23.9137 Y17.0180
G01 X23.8464 Y17.0583
G01 X23.7820 Y17.0887
G01 X23.7127 Y17.1135
G01 X23.6413 Y17.1314
G01 X23.5709 Y17.1419
G01 X23.4925 Y17.1457
G01 X23.4215 Y17.1422
G01 X23.3487 Y17.1314
G01 X23.2773 Y17.1135
G01 X23.2103 Y17.0896
G01 X23.1415 Y17.0572
G01 X23.0783 Y17.0194
G01 X23.0211 Y16.9771
G01 X22.9630 Y16.9244
G01 X22.9152 Y16.8716
G01 X22.8714 Y16.8125
G01 X22.8336 Y16.7493
G01 X22.8031 Y16.6851
G01 X22.7766 Y16.6111
G01 X22.7594 Y16.5421
G01 X22.7489 Y16.4717
G00 Z2.0000
G00 X25.2098 Y16.4835
G01 F60.00
G01 Z-0.0000
G01 F120.00
G01 X25.2085 Y16.4708
G01 X25.2050 Y16.3958
G01 X25.2050 Y13.7958
G01 X25.2085 Y13.7208
G01 X25.2098 Y13.7081
G01 X25.2209 Y13.6339
G01 X25.2407 Y13.5549
G01 X25.2682 Y13.4782
G01 X25.3030 Y13.4045
G01 X25.3449 Y13.3347
G01 X25.3934 Y13.2693
G01 X25.4481 Y13.2089
G01 X25.5085 Y13.1542
G01 X25.5739 Y13.1057
G01 X25.6437 Y13.0638
G01 X25.7174 Y13.0290
G01 X25.7941 Y13.0015
G01 X25.8731 Y12.9817
G01 X25.9536 Y12.9698
G01 X26.0350 Y12.9658
G01 X26.1164 Y12.9698
G01 X26.1969 Y12.9817
G01 X26.2759 Y13.0015
G01 X26.3467 Y13.0267
G01 X26.3585 Y13.0316
G01 X26.4263 Y13.0638
G01 X26.4961 Y13.1057
G01 X26.5565 Y13.1503
G01 X26.5664 Y13.1584
G01 X26.6219 Y13.2089
G01 X26.6724 Y13.2644
G01 X26.6805 Y13.2743
G01 X26.7214 Y13.3295
G01 X26.7285 Y13.3401
G01 X26.7670 Y13.4045
G01 X26.7992 Y13.4723
G01 X26.8041 Y13.4841
G01 X26.8293 Y13.5549
G01 X26.8477 Y13.6276
G01 X26.8501 Y13.6402
G01 X26.8610 Y13.7144
G01 X26.8650 Y13.7958
G01 X26.8650 Y16.3958
G01 X26.8615 Y16.4708
G01 X26.8602 Y16.4835
G01 X26.8491 Y16.5577
G01 X26.8293 Y16.6367
G01 X26.8018 Y16.7134
G01 X26.7699 Y16.7814
G01 X26.7638 Y16.7926
G01 X26.7285 Y16.8515
G01 X26.7214 Y16.8621
G01 X26.6766 Y16.9223
G01 X26.6219 Y16.9827
G01 X26.5615 Y17.0374
G01 X26.4961 Y17.0859
G01 X26.4263 Y17.1278
G01 X26.3526 Y17.1626
G01 X26.2759 Y17.1901
G01 X26.2032 Y17.2085
G01 X26.1906 Y17.2109
G01 X26.1227 Y17.2210
G01 X26.1100 Y17.2223
G01 X26.0350 Y17.2258
G01 X25.9536 Y17.2218
G01 X25.8731 Y17.2099
G01 X25.8002 Y17.1918
G01 X25.7880 Y17.1881
G01 X25.7233 Y17.1649
G01 X25.7115 Y17.1600
G01 X25.6437 Y17.1278
G01 X25.5739 Y17.0859
G01 X25.5085 Y17.0374
G01 X25.4481 Y16.9827
G01 X25.3934 Y16.9223
G01 X25.3486 Y16.8621
G01 X25.3415 Y16.8515
G01 X25.3062 Y16.7926
G01 X25.3001 Y16.7814
G01 X25.2682 Y16.7134
G01 X25.2407 Y16.6367
G01 X25.2209 Y16.5577
G01 X25.2098 Y16.4835
G00 Z2.0000
G00 X25.2889 Y16.4717
G01 F60.00
G01 Z-0.0000
G01 F120.00
G01 X25.2850 Y16.3958
G01 X25.2850 Y13.7958
G01 X25.2889 Y13.7199
G01 X25.2994 Y13.6495
G01 X25.3170 Y13.5793
G01 X25.3421 Y13.5088
G01 X25.3736 Y13.4423
G01 X25.4114 Y13.3791
G01 X25.4552 Y13.3200
G01 X25.5047 Y13.2655
G01 X25.5592 Y13.2160
G01 X25.6183 Y13.1722
G01 X25.6815 Y13.1344
G01 X25.7480 Y13.1029
G01 X25.8173 Y13.0781
G01 X25.8887 Y13.0602
G01 X25.9615 Y13.0494
G01 X26.0350 Y13.0458
G01 X26.1085 Y13.0494
G01 X26.1813 Y13.0602
G01 X26.2515 Y13.0778
G01 X26.3243 Y13.1039
G01 X26.3885 Y13.1344
G01 X26.4517 Y13.1722
G01 X26.5108 Y13.2160
G01 X26.5636 Y13.2638
G01 X26.6148 Y13.3200
G01 X26.6599 Y13.3812
G01 X26.6964 Y13.4423
G01 X26.7279 Y13.5088
G01 X26.7534 Y13.5805
G01 X26.7706 Y13.6495
G01 X26.7811 Y13.7199
G01 X26.7850 Y13.7958
G01 X26.7850 Y16.3958
G01 X26.7811 Y16.4717
G01 X26.7706 Y16.5421
G01 X26.7530 Y16.6123
G01 X26.7279 Y16.6828
G01 X26.6975 Y16.7472
G01 X26.6572 Y16.8145
G01 X26.6148 Y16.8716
G01 X26.5653 Y16.9261
G01 X26.5108 Y16.9756
G01 X26.4517 Y17.0194
G01 X26.3885 Y17.0572
G01 X26.3220 Y17.0887
G01 X26.2527 Y17.1135
G01 X26.1837 Y17.1309
G01 X26.1061 Y17.1424
G01 X26.0350 Y17.1458
G01 X25.9615 Y17.1422
G01 X25.8887 Y17.1314
G01 X25.8197 Y17.1142
G01 X25.7457 Y17.0877
G01 X25.6815 Y17.0572
G01 X25.6183 Y17.0194
G01 X25.5592 Y16.9756
G01 X25.5047 Y16.9261
G01 X25.4552 Y16.8716
G01 X25.4128 Y16.8145
G01 X25.3725 Y16.7472
G01 X25.3421 Y16.6828
G01 X25.3173 Y16.6135
G01 X25.2994 Y16.5421
G01 X25.2889 Y16.4717
G00 Z2.0000
G00 X27.7498 Y16.4835
G01 F60.00
G01 Z-0.0000
G01 F120.00
G01 X27.7485 Y16.4708
G01 X27.7450 Y16.3958
G01 X27.7450 Y13.7958
G01 X27.7485 Y13.7208
G01 X27.7498 Y13.7081
G01 X27.7609 Y13.6339
G01 X27.7807 Y13.5549
G01 X27.8082 Y13.4782
G01 X27.8430 Y13.4045
G01 X27.8849 Y13.3347
G01 X27.9334 Y13.2693
G01 X27.9881 Y13.2089
G01 X28.0485 Y13.1542
G01 X28.1139 Y13.1057
G01 X28.1837 Y13.0638
G01 X28.2574 Y13.0290
G01 X28.3341 Y13.0015
G01 X28.4131 Y12.9817
G01 X28.4936 Y12.9698
G01 X28.5750 Y12.9658
G01 X28.6564 Y12.9698
G01 X28.7369 Y12.9817
G01 X28.8159 Y13.0015
G01 X28.8867 Y13.0267
G01 X28.8985 Y13.0316
G01 X28.9663 Y13.0638
G01 X29.0361 Y13.1057
G01 X29.0965 Y13.1503
G01 X29.1064 Y13.1584
G01 X29.1619 Y13.2089
G01 X29.2124 Y13.2644
G01 X29.2205 Y13.2743
G01 X29.2614 Y13.3295
G01 X29.2685 Y13.3401
G01 X29.3070 Y13.4045
G01 X29.3392 Y13.4723
G01 X29.3441 Y13.4841
G01 X29.3693 Y13.5549
G01 X29.3877 Y13.6276
G01 X29.3901 Y13.6402
G01 X29.4010 Y13.7144
G01 X29.4050 Y13.7958
G01 X29.4050 Y16.3958
G01 X29.4015 Y16.4708
G01 X29.4002 Y16.4835
G01 X29.3891 Y16.5577
G01 X29.3693 Y16.6367
G01 X29.3418 Y16.7134
G01 X29.3099 Y16.7814
G01 X29.3038 Y16.7926
G01 X29.2685 Y16.8515
G01 X29.2614 Y16.8621
G01 X29.2166 Y16.9223
G01 X29.1619 Y16.9827
G01 X29.1015 Y17.0374
G01 X29.0361 Y17.0859
G01 X28.9663 Y17.1278
G01 X28.8926 Y17.1626
G01 X28.8159 Y17.1901
G01 X28.7432 Y17.2085
G01 X28.7306 Y17.2109
G01 X28.6627 Y17.2210
G01 X28.6500 Y17.2223
G01 X28.5750 Y17.2258
G01 X28.4936 Y17.2218
G01 X28.4131 Y17.2099
G01 X28.3402 Y17.1918
G01 X28.3280 Y17.1881
G01 X28.2633 Y17.1649
G01 X28.2515 Y17.1600
G01 X28.1837 Y17.1278
G01 X28.1139 Y17.0859
G01 X28.0485 Y17.0374
G01 X27.9881 Y16.9827
G01 X27.9334 Y16.9223
G01 X27.8886 Y16.8621
G01 X27.8815 Y16.8515
G01 X27.8462 Y16.7926
G01 X27.8401 Y16.7814
G01 X27.8082 Y16.7134
G01 X27.7807 Y16.6367
G01 X27.7609 Y16.5577
G01 X27.7498 Y16.4835
G00 Z2.0000
G00 X27.8289 Y16.4717
G01 F60.00
G01 Z-0.0000
G01 F120.00
G01 X27.8250 Y16.3958
G01 X27.8250 Y13.7958
G01 X27.8289 Y13.7199
G01 X27.8394 Y13.6495
G01 X27.8570 Y13.5793
G01 X27.8821 Y13.5088
G01 X27.9136 Y13.4423
G01 X27.9514 Y13.3791
G01 X27.9952 Y13.3200
G01 X28.0447 Y13.2655
G01 X28.0992 Y13.2160
G01 X28.1583 Y13.1722
G01 X28.2215 Y13.1344
G01 X28.2880 Y13.1029
G01 X28.3573 Y13.0781
G01 X28.4287 Y13.0602
G01 X28.5015 Y13.0494
G01 X28.5750 Y13.0458
G01 X28.6485 Y13.0494
G01 X28.7213 Y13.0602
G01 X28.7915 Y13.0778
G01 X28.8643 Y13.1039
G01 X28.9285 Y13.1344
G01 X28.9917 Y13.1722
G01 X29.0508 Y13.2160
G01 X29.1036 Y13.2638
G01 X29.1548 Y13.3200
G01 X29.1999 Y13.3812
G01 X29.2364 Y13.4423
G01 X29.2679 Y13.5088
G01 X29.2934 Y13.5805
G01 X29.3106 Y13.6495
G01 X29.3211 Y13.7199
G01 X29.3250 Y13.7958
G01 X29.3250 Y16.3958
G01 X29.3211 Y16.4717
G01 X29.3106 Y16.5421
G01 X29.2930 Y16.6123
G01 X29.2679 Y16.6828
G01 X29.2375 Y16.7472
G01 X29.1972 Y16.8145
G01 X29.1548 Y16.8716
G01 X29.1053 Y16.9261
G01 X29.0508 Y16.9756
G01 X28.9917 Y17.0194
G01 X28.9285 Y17.0572
G01 X28.8620 Y17.0887
G01 X28.7927 Y17.1135
G01 X28.7237 Y17.1309
G01 X28.6461 Y17.1424
G01 X28.5750 Y17.1458
G01 X28.5015 Y17.1422
G01 X28.4287 Y17.1314
G01 X28.3597 Y17.1142
G01 X28.2857 Y17.0877
G01 X28.2215 Y17.0572
G01 X28.1583 Y17.0194
G01 X28.0992 Y16.9756
G01 X28.0447 Y16.9261
G01 X27.9952 Y16.8716
G01 X27.9528 Y16.8145
G01 X27.9125 Y16.7472
G01 X27.8821 Y16.6828
G01 X27.8573 Y16.6135
G01 X27.8394 Y16.5421
G01 X27.8289 Y16.4717
G00 Z2.0000
G00 X30.2898 Y16.4835
G01 F60.00
G01 Z-0.0000
G01 F120.00
G01 X30.2885 Y16.4708
G01 X30.2850 Y16.3958
G01 X30.2850 Y13.7926
G01 X30.2890 Y13.7144
G01 X30.2999 Y13.6402
G01 X30.3023 Y13.6276
G01 X30.3207 Y13.5549
G01 X30.3459 Y13.4841
G01 X30.3508 Y13.4723
G01 X30.3830 Y13.4045
G01 X30.4132 Y13.3538
G01 X30.4132 Y11.6242
G01 X30.4161 Y11.5618
G01 X30.4174 Y11.5491
G01 X30.4267 Y11.4873
G01 X30.4434 Y11.4205
G01 X30.4666 Y11.3556
G01 X30.4932 Y11.2991
G01 X30.4992 Y11.2878
G01 X30.5281 Y11.2397
G01 X30.5352 Y11.2291
G01 X30.5725 Y11.1790
G01 X30.6188 Y11.1280
G01 X30.6698 Y11.0817
G01 X30.7199 Y11.0444
G01 X30.7305 Y11.0373
G01 X30.7786 Y11.0084
G01 X30.7899 Y11.0024
G01 X30.8464 Y10.9758
G01 X30.9113 Y10.9526
G01 X30.9781 Y10.9359
G01 X31.0462 Y10.9258
G01 X31.1150 Y10.9224
G01 X37.1331 Y10.9224
G01 X37.2019 Y10.9258
G01 X37.2700 Y10.9359
G01 X37.3368 Y10.9526
G01 X37.4017 Y10.9758
G01 X37.4639 Y11.0053
G01 X37.5230 Y11.0407
G01 X37.5783 Y11.0817
G01 X37.6293 Y11.1280
G01 X41.5104 Y15.0091
G01 X41.5567 Y15.0601
G01 X41.5940 Y15.1102
G01 X41.6011 Y15.1208
G01 X41.6331 Y15.1745
G01 X41.6626 Y15.2367
G01 X41.6838 Y15.2955
G01 X41.6875 Y15.3077
G01 X41.7011 Y15.3622
G01 X41.7031 Y15.3715
G01 X41.7126 Y15.4365
G01 X41.7160 Y15.5053
G01 X41.7160 Y37.6409
G01 X41.7131 Y37.7033
G01 X41.7118 Y37.7160
G01 X41.7025 Y37.7778
G01 X41.6858 Y37.8446
G01 X41.6626 Y37.9095
G01 X41.6360 Y37.9660
G01 X41.6300 Y37.9773
G01 X41.6011 Y38.0254
G01 X41.5940 Y38.0360
G01 X41.5567 Y38.0861
G01 X41.5127 Y38.1349
G01 X36.8968 Y42.7508
G01 X36.8968 Y47.7363
G01 X36.9230 Y47.7717
G01 X36.9284 Y47.7796
G01 X36.9696 Y47.8482
G01 X36.9740 Y47.8567
G01 X37.0054 Y47.9232
G01 X37.0092 Y47.9320
G01 X37.0371 Y48.0103
G01 X37.0567 Y48.0879
G01 X37.0592 Y48.1004
G01 X37.0700 Y48.1732
G01 X37.0712 Y48.1859
G01 X37.0750 Y48.2658
G01 X37.0750 Y50.7658
G01 X37.0712 Y50.8457
G01 X37.0700 Y50.8584
G01 X37.0592 Y50.9312
G01 X37.0567 Y50.9437
G01 X37.0371 Y51.0213
G01 X37.0080 Y51.1026
G01 X36.9711 Y51.1806
G01 X36.9301 Y51.2493
G01 X36.9230 Y51.2599
G01 X36.8792 Y51.3190
G01 X36.8711 Y51.3289
G01 X36.8173 Y51.3881
G01 X36.7533 Y51.4460
G01 X36.6839 Y51.4975
G01 X36.6154 Y51.5387
G01 X36.6041 Y51.5448
G01 X36.5376 Y51.5762
G01 X36.5258 Y51.5811
G01 X36.4505 Y51.6079
G01 X36.3729 Y51.6275
G01 X36.3635 Y51.6295
G01 X36.2813 Y51.6416
G01 X36.1950 Y51.6458
G01 X36.1087 Y51.6416
G01 X36.0296 Y51.6300
G01 X36.0171 Y51.6275
G01 X35.9457 Y51.6096
G01 X35.9335 Y51.6059
G01 X35.8582 Y51.5788
G01 X35.7859 Y51.5448
G01 X35.7746 Y51.5387
G01 X35.7061 Y51.4975
G01 X35.6418 Y51.4500
G01 X35.6319 Y51.4419
G01 X35.5727 Y51.3881
G01 X35.5148 Y51.3241
G01 X35.4633 Y51.2547
G01 X35.4189 Y51.1806
G01 X35.3820 Y51.1026
G01 X35.3529 Y51.0213
G01 X35.3319 Y50.9375
G01 X35.3192 Y50.8521
G01 X35.3150 Y50.7658
G01 X35.3150 Y48.2658
G01 X35.3188 Y48.1859
G01 X35.3200 Y48.1732
G01 X35.3308 Y48.1004
G01 X35.3333 Y48.0879
G01 X35.3529 Y48.0103
G01 X35.3808 Y47.9320
G01 X35.3846 Y47.9232
G01 X35.4160 Y47.8567
G01 X35.4204 Y47.8482
G01 X35.4616 Y47.7796
G01 X35.4670 Y47.7717
G01 X35.4932 Y47.7363
G01 X35.4932 Y42.4601
G01 X35.4961 Y42.3977
G01 X35.4974 Y42.3850
G01 X35.5067 Y42.3232
G01 X35.5225 Y42.2594
G01 X35.5254 Y42.2503
G01 X35.5466 Y42.1915
G01 X35.5732 Y42.1350
G01 X35.5792 Y42.1237
G01 X35.6115 Y42.0702
G01 X35.6486 Y42.0199
G01 X35.6567 Y42.0101
G01 X35.6965 Y41.9661
G01 X40.3124 Y37.3502
G01 X40.3124 Y15.7960
G01 X36.8424 Y12.3260
G01 X31.8168 Y12.3260
G01 X31.8168 Y13.3538
G01 X31.8470 Y13.4045
G01 X31.8792 Y13.4723
G01 X31.8841 Y13.4841
G01 X31.9093 Y13.5549
G01 X31.9277 Y13.6276
G01 X31.9301 Y13.6402
G01 X31.9410 Y13.7144
G01 X31.9450 Y13.7926
G01 X31.9450 Y16.3990
G01 X31.9410 Y16.4772
G01 X31.9291 Y16.5577
G01 X31.9093 Y16.6367
G01 X31.8841 Y16.7075
G01 X31.8792 Y16.7193
G01 X31.8499 Y16.7814
G01 X31.8438 Y16.7926
G01 X31.8051 Y16.8569
G01 X31.7566 Y16.9223
G01 X31.7019 Y16.9827
G01 X31.6464 Y17.0332
G01 X31.6365 Y17.0413
G01 X31.5813 Y17.0822
G01 X31.5707 Y17.0893
G01 X31.5063 Y17.1278
G01 X31.4326 Y17.1626
G01 X31.3559 Y17.1901
G01 X31.2832 Y17.2085
G01 X31.2706 Y17.2109
G01 X31.2027 Y17.2210
G01 X31.1900 Y17.2223
G01 X31.1150 Y17.2258
G01 X31.0400 Y17.2223
G01 X31.0273 Y17.2210
G01 X30.9531 Y17.2099
G01 X30.8741 Y17.1901
G01 X30.7974 Y17.1626
G01 X30.7294 Y17.1307
G01 X30.7182 Y17.1246
G01 X30.6593 Y17.0893
G01 X30.6487 Y17.0822
G01 X30.5885 Y17.0374
G01 X30.5281 Y16.9827
G01 X30.4734 Y16.9223
G01 X30.4286 Y16.8621
G01 X30.4215 Y16.8515
G01 X30.3862 Y16.7926
G01 X30.3801 Y16.7814
G01 X30.3482 Y16.7134
G01 X30.3207 Y16.6367
G01 X30.3009 Y16.5577
G01 X30.2898 Y16.4835
G00 Z2.0000
G00 X30.3689 Y16.4717
G01 F60.00
G01 Z-0.0000
G01 F120.00
G01 X30.3650 Y16.3958
G01 X30.3650 Y13.7946
G01 X30.3686 Y13.7223
G01 X30.3790 Y13.6519
G01 X30.3973 Y13.5781
G01 X30.4221 Y13.5088
G01 X30.4525 Y13.4444
G01 X30.4901 Y13.3812
G01 X30.4932 Y13.3766
G01 X30.4932 Y11.6242
G01 X30.4963 Y11.5620
G01 X30.5052 Y11.5029
G01 X30.5200 Y11.4437
G01 X30.5405 Y11.3863
G01 X30.5655 Y11.3333
G01 X30.5994 Y11.2767
G01 X30.6344 Y11.2297
G01 X30.6753 Y11.1845
G01 X30.7205 Y11.1436
G01 X30.7675 Y11.1086
G01 X30.8241 Y11.0747
G01 X30.8771 Y11.0497
G01 X30.9345 Y11.0292
G01 X30.9937 Y11.0144
G01 X31.0541 Y11.0054
G01 X31.1150 Y11.0024
G01 X37.1331 Y11.0024
G01 X37.1940 Y11.0054
G01 X37.2544 Y11.0144
G01 X37.3136 Y11.0292
G01 X37.3710 Y11.0497
G01 X37.4262 Y11.0758
G01 X37.4785 Y11.1072
G01 X37.5276 Y11.1436
G01 X37.5728 Y11.1845
G01 X41.4539 Y15.0656
G01 X41.4948 Y15.1108
G01 X41.5298 Y15.1578
G01 X41.5626 Y15.2122
G01 X41.5887 Y15.2674
G01 X41.6084 Y15.3225
G01 X41.6243 Y15.3852
G01 X41.6330 Y15.4444
G01 X41.6360 Y15.5053
G01 X41.6360 Y37.6409
G01 X41.6327 Y37.7043
G01 X41.6240 Y37.7622
G01 X41.6092 Y37.8214
G01 X41.5887 Y37.8788
G01 X41.5637 Y37.9318
G01 X41.5298 Y37.9884
G01 X41.4948 Y38.0354
G01 X41.4547 Y38.0797
G01 X36.8168 Y42.7177
G01 X36.8168 Y47.7627
G01 X36.8602 Y47.8213
G01 X36.8993 Y47.8865
G01 X36.9341 Y47.9597
G01 X36.9606 Y48.0336
G01 X36.9791 Y48.1073
G01 X36.9913 Y48.1898
G01 X36.9950 Y48.2658
G01 X36.9950 Y50.7658
G01 X36.9913 Y50.8418
G01 X36.9791 Y50.9243
G01 X36.9606 Y50.9980
G01 X36.9341 Y51.0719
G01 X36.9005 Y51.1429
G01 X36.8615 Y51.2082
G01 X36.8118 Y51.2752
G01 X36.7607 Y51.3315
G01 X36.7025 Y51.3842
G01 X36.6395 Y51.4310
G01 X36.5743 Y51.4701
G01 X36.4989 Y51.5058
G01 X36.4272 Y51.5314
G01 X36.3499 Y51.5507
G01 X36.2734 Y51.5619
G01 X36.1950 Y51.5658
G01 X36.1166 Y51.5619
G01 X36.0365 Y51.5499
G01 X35.9604 Y51.5306
G01 X35.8889 Y51.5049
G01 X35.8201 Y51.4724
G01 X35.7505 Y51.4310
G01 X35.6894 Y51.3857
G01 X35.6293 Y51.3315
G01 X35.5766 Y51.2733
G01 X35.5298 Y51.2103
G01 X35.4895 Y51.1429
G01 X35.4559 Y51.0719
G01 X35.4294 Y50.9980
G01 X35.4104 Y50.9219
G01 X35.3987 Y50.8430
G01 X35.3950 Y50.7658
G01 X35.3950 Y48.2658
G01 X35.3987 Y48.1898
G01 X35.4109 Y48.1073
G01 X35.4294 Y48.0336
G01 X35.4559 Y47.9597
G01 X35.4907 Y47.8865
G01 X35.5298 Y47.8213
G01 X35.5732 Y47.7627
G01 X35.5732 Y42.4601
G01 X35.5765 Y42.3967
G01 X35.5852 Y42.3388
G01 X35.5996 Y42.2808
G01 X35.6205 Y42.2222
G01 X35.6478 Y42.1649
G01 X35.6780 Y42.1147
G01 X35.7128 Y42.0676
G01 X35.7553 Y42.0204
G01 X40.3924 Y37.3833
G01 X40.3924 Y15.7629
G01 X36.8755 Y12.2460
G01 X31.7368 Y12.2460
G01 X31.7368 Y13.3766
G01 X31.7399 Y13.3812
G01 X31.7775 Y13.4444
G01 X31.8079 Y13.5088
G01 X31.8327 Y13.5781
G01 X31.8510 Y13.6519
G01 X31.8614 Y13.7223
G01 X31.8650 Y13.7946
G01 X31.8650 Y16.3958
G01 X31.8614 Y16.4693
G01 X31.8510 Y16.5397
G01 X31.8323 Y16.6147
G01 X31.8079 Y16.6828
G01 X31.7764 Y16.7493
G01 X31.7386 Y16.8125
G01 X31.6963 Y16.8697
G01 X31.6436 Y16.9278
G01 X31.5908 Y16.9756
G01 X31.5317 Y17.0194
G01 X31.4685 Y17.0572
G01 X31.4020 Y17.0887
G01 X31.3327 Y17.1135
G01 X31.2637 Y17.1309
G01 X31.1861 Y17.1424
G01 X31.1150 Y17.1458
G01 X31.0415 Y17.1422
G01 X30.9687 Y17.1314
G01 X30.8997 Y17.1142
G01 X30.8257 Y17.0877
G01 X30.7615 Y17.0572
G01 X30.6983 Y17.0194
G01 X30.6392 Y16.9756
G01 X30.5847 Y16.9261
G01 X30.5352 Y16.8716
G01 X30.4928 Y16.8145
G01 X30.4525 Y16.7472
G01 X30.4221 Y16.6828
G01 X30.3973 Y16.6135
G01 X30.3794 Y16.5421
G01 X30.3689 Y16.4717
G00 Z2.0000
G00 X32.8298 Y16.4835
G01 F60.00
G01 Z-0.0000
G01 F120.00
G01 X32.8285 Y16.4708
G01 X32.8250 Y16.3958
G01 X32.8250 Y13.7958
G01 X32.8285 Y13.7208
G01 X32.8298 Y13.7081
G01 X32.8409 Y13.6339
G01 X32.8607 Y13.5549
G01 X32.8882 Y13.4782
G01 X32.9230 Y13.4045
G01 X32.9649 Y13.3347
G01 X33.0134 Y13.2693
G01 X33.0681 Y13.2089
G01 X33.1285 Y13.1542
G01 X33.1939 Y13.1057
G01 X33.2637 Y13.0638
G01 X33.3374 Y13.0290
G01 X33.4141 Y13.0015
G01 X33.4931 Y12.9817
G01 X33.5736 Y12.9698
G01 X33.6550 Y12.9658
G01 X33.7364 Y12.9698
G01 X33.8169 Y12.9817
G01 X33.8959 Y13.0015
G01 X33.9667 Y13.0267
G01 X33.9785 Y13.0316
G01 X34.0463 Y13.0638
G01 X34.1161 Y13.1057
G01 X34.1765 Y13.1503
G01 X34.1864 Y13.1584
G01 X34.2419 Y13.2089
G01 X34.2924 Y13.2644
G01 X34.3005 Y13.2743
G01 X34.3414 Y13.3295
G01 X34.3485 Y13.3401
G01 X34.3870 Y13.4045
G01 X34.4192 Y13.4723
G01 X34.4241 Y13.4841
G01 X34.4493 Y13.5549
G01 X34.4677 Y13.6276
G01 X34.4701 Y13.6402
G01 X34.4810 Y13.7144
G01 X34.4850 Y13.7958
G01 X34.4850 Y16.3958
G01 X34.4815 Y16.4708
G01 X34.4802 Y16.4835
G01 X34.4691 Y16.5577
G01 X34.4493 Y16.6367
G01 X34.4218 Y16.7134
G01 X34.3899 Y16.7814
G01 X34.3838 Y16.7926
G01 X34.3485 Y16.8515
G01 X34.3414 Y16.8621
G01 X34.2966 Y16.9223
G01 X34.2419 Y16.9827
G01 X34.1815 Y17.0374
G01 X34.1161 Y17.0859
G01 X34.0463 Y17.1278
G01 X33.9726 Y17.1626
G01 X33.8959 Y17.1901
G01 X33.8232 Y17.2085
G01 X33.8106 Y17.2109
G01 X33.7427 Y17.2210
G01 X33.7300 Y17.2223
G01 X33.6550 Y17.2258
G01 X33.5736 Y17.2218
G01 X33.4931 Y17.2099
G01 X33.4202 Y17.1918
G01 X33.4080 Y17.1881
G01 X33.3433 Y17.1649
G01 X33.3315 Y17.1600
G01 X33.2637 Y17.1278
G01 X33.1939 Y17.0859
G01 X33.1285 Y17.0374
G01 X33.0681 Y16.9827
G01 X33.0134 Y16.9223
G01 X32.9686 Y16.8621
G01 X32.9615 Y16.8515
G01 X32.9262 Y16.7926
G01 X32.9201 Y16.7814
G01 X32.8882 Y16.7134
G01 X32.8607 Y16.6367
G01 X32.8409 Y16.5577
G01 X32.8298 Y16.4835
G00 Z2.0000
G00 X32.9089 Y16.4717
G01 F60.00
G01 Z-0.0000
G01 F120.00
G01 X32.9050 Y16.3958
G01 X32.9050 Y13.7958
G01 X32.9089 Y13.7199
G01 X32.9194 Y13.6495
G01 X32.9370 Y13.5793
G01 X32.9621 Y13.5088
G01 X32.9936 Y13.4423
G01 X33.0314 Y13.3791
G01 X33.0752 Y13.3200
G01 X33.1247 Y13.2655
G01 X33.1792 Y13.2160
G01 X33.2383 Y13.1722
G01 X33.3015 Y13.1344
G01 X33.3680 Y13.1029
G01 X33.4373 Y13.0781
G01 X33.5087 Y13.0602
G01 X33.5815 Y13.0494
G01 X33.6550 Y13.0458
G01 X33.7285 Y13.0494
G01 X33.8013 Y13.0602
G01 X33.8715 Y13.0778
G01 X33.9443 Y13.1039
G01 X34.0085 Y13.1344
G01 X34.0717 Y13.1722
G01 X34.1308 Y13.2160
G01 X34.1836 Y13.2638
G01 X34.2348 Y13.3200
G01 X34.2799 Y13.3812
G01 X34.3164 Y13.4423
G01 X34.3479 Y13.5088
G01 X34.3734 Y13.5805
G01 X34.3906 Y13.6495
G01 X34.4011 Y13.7199
G01 X34.4050 Y13.7958
G01 X34.4050 Y16.3958
G01 X34.4011 Y16.4717
G01 X34.3906 Y16.5421
G01 X34.3730 Y16.6123
G01 X34.3479 Y16.6828
G01 X34.3175 Y16.7472
G01 X34.2772 Y16.8145
G01 X34.2348 Y16.8716
G01 X34.1853 Y16.9261
G01 X34.1308 Y16.9756
G01 X34.0717 Y17.0194
G01 X34.0085 Y17.0572
G01 X33.9420 Y17.0887
G01 X33.8727 Y17.1135
G01 X33.8037 Y17.1309
G01 X33.7261 Y17.1424
G01 X33.6550 Y17.1458
G01 X33.5815 Y17.1422
G01 X33.5087 Y17.1314
G01 X33.4397 Y17.1142
G01 X33.3657 Y17.0877
G01 X33.3015 Y17.0572
G01 X33.2383 Y17.0194
G01 X33.1792 Y16.9756
G01 X33.1247 Y16.9261
G01 X33.0752 Y16.8716
G01 X33.0328 Y16.8145
G01 X32.9925 Y16.7472
G01 X32.9621 Y16.6828
G01 X32.9373 Y16.6135
G01 X32.9194 Y16.5421
G01 X32.9089 Y16.4717
G00 Z2.0000
G00 X32.9089 Y21.8117
G01 F60.00
G01 Z-0.0000
G01 F120.00
G01 X32.9050 Y21.7358
G01 X32.9050 Y19.1358
G01 X32.9089 Y19.0599
G01 X32.9194 Y18.9895
G01 X32.9370 Y18.9193
G01 X32.9621 Y18.8488
G01 X32.9936 Y18.7823
G01 X33.0314 Y18.7191
G01 X33.0752 Y18.6600
G01 X33.1247 Y18.6055
G01 X33.1792 Y18.5560
G01 X33.2383 Y18.5122
G01 X33.3015 Y18.4744
G01 X33.3680 Y18.4429
G01 X33.4373 Y18.4181
G01 X33.5087 Y18.4002
G01 X33.5815 Y18.3894
G01 X33.6550 Y18.3858
G01 X33.7285 Y18.3894
G01 X33.8013 Y18.4002
G01 X33.8715 Y18.4178
G01 X33.9443 Y18.4439
G01 X34.0085 Y18.4744
G01 X34.0717 Y18.5122
G01 X34.1308 Y18.5560
G01 X34.1836 Y18.6038
G01 X34.2348 Y18.6600
G01 X34.2799 Y18.7212
G01 X34.3164 Y18.7823
G01 X34.3479 Y18.8488
G01 X34.3734 Y18.9205
G01 X34.3906 Y18.9895
G01 X34.4011 Y19.0599
G01 X34.4050 Y19.1358
G01 X34.4050 Y21.7358
G01 X34.4011 Y21.8117
G01 X34.3906 Y21.8821
G01 X34.3730 Y21.9523
G01 X34.3479 Y22.0228
G01 X34.3175 Y22.0872
G01 X34.2772 Y22.1545
G01 X34.2348 Y22.2116
G01 X34.1853 Y22.2661
G01 X34.1308 Y22.3156
G01 X34.0717 Y22.3594
G01 X34.0085 Y22.3972
G01 X33.9443 Y22.4277
G01 X33.8703 Y22.4542
G01 X33.8013 Y22.4714
G01 X33.7285 Y22.4822
G01 X33.6550 Y22.4858
G01 X33.5815 Y22.4822
G01 X33.5087 Y22.4714
G01 X33.4397 Y22.4542
G01 X33.3657 Y22.4277
G01 X33.3015 Y22.3972
G01 X33.2383 Y22.3594
G01 X33.1792 Y22.3156
G01 X33.1247 Y22.2661
G01 X33.0752 Y22.2116
G01 X33.0328 Y22.1545
G01 X32.9925 Y22.0872
G01 X32.9621 Y22.0228
G01 X32.9373 Y21.9535
G01 X32.9194 Y21.8821
G01 X32.9089 Y21.8117
G00 Z2.0000
G00 X32.8298 Y21.8235
G01 F60.00
G01 Z-0.0000
G01 F120.00
G01 X32.8285 Y21.8108
G01 X32.8250 Y21.7358
G01 X32.8250 Y19.1358
G01 X32.8285 Y19.0608
G01 X32.8298 Y19.0481
G01 X32.8409 Y18.9739
G01 X32.8607 Y18.8949
G01 X32.8882 Y18.8182
G01 X32.9230 Y18.7445
G01 X32.9649 Y18.6747
G01 X33.0134 Y18.6093
G01 X33.0681 Y18.5489
G01 X33.1285 Y18.4942
G01 X33.1939 Y18.4457
G01 X33.2637 Y18.4038
G01 X33.3374 Y18.3690
G01 X33.4141 Y18.3415
G01 X33.4931 Y18.3217
G01 X33.5736 Y18.3098
G01 X33.6550 Y18.3058
G01 X33.7364 Y18.3098
G01 X33.8169 Y18.3217
G01 X33.8959 Y18.3415
G01 X33.9667 Y18.3667
G01 X33.9785 Y18.3716
G01 X34.0463 Y18.4038
G01 X34.1161 Y18.4457
G01 X34.1765 Y18.4903
G01 X34.1864 Y18.4984
G01 X34.2419 Y18.5489
G01 X34.2924 Y18.6044
G01 X34.3005 Y18.6143
G01 X34.3414 Y18.6695
G01 X34.3485 Y18.6801
G01 X34.3870 Y18.7445
G01 X34.4192 Y18.8123
G01 X34.4241 Y18.8241
G01 X34.4493 Y18.8949
G01 X34.4677 Y18.9676
G01 X34.4701 Y18.9802
G01 X34.4810 Y19.0544
G01 X34.4850 Y19.1358
G01 X34.4850 Y21.7358
G01 X34.4815 Y21.8108
G01 X34.4802 Y21.8235
G01 X34.4691 Y21.8977
G01 X34.4493 Y21.9767
G01 X34.4218 Y22.0534
G01 X34.3899 Y22.1214
G01 X34.3838 Y22.1326
G01 X34.3485 Y22.1915
G01 X34.3414 Y22.2021
G01 X34.2966 Y22.2623
G01 X34.2419 Y22.3227
G01 X34.1815 Y22.3774
G01 X34.1161 Y22.4259
G01 X34.0463 Y22.4678
G01 X33.9785 Y22.5000
G01 X33.9667 Y22.5049
G01 X33.9020 Y22.5281
G01 X33.8898 Y22.5318
G01 X33.8169 Y22.5499
G01 X33.7364 Y22.5618
G01 X33.6550 Y22.5658
G01 X33.5736 Y22.5618
G01 X33.4931 Y22.5499
G01 X33.4202 Y22.5318
G01 X33.4080 Y22.5281
G01 X33.3433 Y22.5049
G01 X33.3315 Y22.5000
G01 X33.2637 Y22.4678
G01 X33.1939 Y22.4259
G01 X33.1285 Y22.3774
G01 X33.0681 Y22.3227
G01 X33.0134 Y22.2623
G01 X32.9686 Y22.2021
G01 X32.9615 Y22.1915
G01 X32.9262 Y22.1326
G01 X32.9201 Y22.1214
G01 X32.8882 Y22.0534
G01 X32.8607 Y21.9767
G01 X32.8409 Y21.8977
G01 X32.8298 Y21.8235
G00 Z2.0000
G00 X30.3689 Y21.8117
G01 F60.00
G01 Z-0.0000
G01 F120.00
G01 X30.3650 Y21.7358
G01 X30.3650 Y19.1358
G01 X30.3689 Y19.0599
G01 X30.3794 Y18.9895
G01 X30.3970 Y18.9193
G01 X30.4221 Y18.8488
G01 X30.4536 Y18.7823
G01 X30.4914 Y18.7191
G01 X30.5352 Y18.6600
G01 X30.5847 Y18.6055
G01 X30.6392 Y18.5560
G01 X30.6983 Y18.5122
G01 X30.7615 Y18.4744
G01 X30.8280 Y18.4429
G01 X30.8973 Y18.4181
G01 X30.9687 Y18.4002
G01 X31.0415 Y18.3894
G01 X31.1150 Y18.3858
G01 X31.1885 Y18.3894
G01 X31.2613 Y18.4002
G01 X31.3315 Y18.4178
G01 X31.4043 Y18.4439
G01 X31.4685 Y18.4744
G01 X31.5317 Y18.5122
G01 X31.5908 Y18.5560
G01 X31.6436 Y18.6038
G01 X31.6948 Y18.6600
G01 X31.7399 Y18.7212
G01 X31.7764 Y18.7823
G01 X31.8079 Y18.8488
G01 X31.8334 Y18.9205
G01 X31.8506 Y18.9895
G01 X31.8611 Y19.0599
G01 X31.8650 Y19.1358
G01 X31.8650 Y21.7358
G01 X31.8611 Y21.8117
G01 X31.8506 Y21.8821
G01 X31.8330 Y21.9523
G01 X31.8079 Y22.0228
G01 X31.7775 Y22.0872
G01 X31.7372 Y22.1545
G01 X31.6948 Y22.2116
G01 X31.6453 Y22.2661
G01 X31.5908 Y22.3156
G01 X31.5317 Y22.3594
G01 X31.4685 Y22.3972
G01 X31.4043 Y22.4277
G01 X31.3303 Y22.4542
G01 X31.2613 Y22.4714
G01 X31.1885 Y22.4822
G01 X31.1150 Y22.4858
G01 X31.0415 Y22.4822
G01 X30.9687 Y22.4714
G01 X30.8997 Y22.4542
G01 X30.8257 Y22.4277
G01 X30.7615 Y22.3972
G01 X30.6983 Y22.3594
G01 X30.6392 Y22.3156
G01 X30.5847 Y22.2661
G01 X30.5352 Y22.2116
G01 X30.4928 Y22.1545
G01 X30.4525 Y22.0872
G01 X30.4221 Y22.0228
G01 X30.3973 Y21.9535
G01 X30.3794 Y21.8821
G01 X30.3689 Y21.8117
G00 Z2.0000
G00 X30.2898 Y21.8235
G01 F60.00
G01 Z-0.0000
G01 F120.00
G01 X30.2885 Y21.8108
G01 X30.2850 Y21.7358
G01 X30.2850 Y19.1358
G01 X30.2885 Y19.0608
G01 X30.2898 Y19.0481
G01 X30.3009 Y18.9739
G01 X30.3207 Y18.8949
G01 X30.3482 Y18.8182
G01 X30.3830 Y18.7445
G01 X30.4249 Y18.6747
G01 X30.4734 Y18.6093
G01 X30.5281 Y18.5489
G01 X30.5885 Y18.4942
G01 X30.6539 Y18.4457
G01 X30.7237 Y18.4038
G01 X30.7974 Y18.3690
G01 X30.8741 Y18.3415
G01 X30.9531 Y18.3217
G01 X31.0336 Y18.3098
G01 X31.1150 Y18.3058
G01 X31.1964 Y18.3098
G01 X31.2769 Y18.3217
G01 X31.3559 Y18.3415
G01 X31.4267 Y18.3667
G01 X31.4385 Y18.3716
G01 X31.5063 Y18.4038
G01 X31.5761 Y18.4457
G01 X31.6365 Y18.4903
G01 X31.6464 Y18.4984
G01 X31.7019 Y18.5489
G01 X31.7524 Y18.6044
G01 X31.7605 Y18.6143
G01 X31.8014 Y18.6695
G01 X31.8085 Y18.6801
G01 X31.8470 Y18.7445
G01 X31.8792 Y18.8123
G01 X31.8841 Y18.8241
G01 X31.9093 Y18.8949
G01 X31.9277 Y18.9676
G01 X31.9301 Y18.9802
G01 X31.9410 Y19.0544
G01 X31.9450 Y19.1358
G01 X31.9450 Y21.7358
G01 X31.9415 Y21.8108
G01 X31.9402 Y21.8235
G01 X31.9291 Y21.8977
G01 X31.9093 Y21.9767
G01 X31.8818 Y22.0534
G01 X31.8499 Y22.1214
G01 X31.8438 Y22.1326
G01 X31.8085 Y22.1915
G01 X31.8014 Y22.2021
G01 X31.7566 Y22.2623
G01 X31.7019 Y22.3227
G01 X31.6415 Y22.3774
G01 X31.5761 Y22.4259
G01 X31.5063 Y22.4678
G01 X31.4385 Y22.5000
G01 X31.4267 Y22.5049
G01 X31.3620 Y22.5281
G01 X31.3498 Y22.5318
G01 X31.2769 Y22.5499
G01 X31.1964 Y22.5618
G01 X31.1150 Y22.5658
G01 X31.0336 Y22.5618
G01 X30.9531 Y22.5499
G01 X30.8802 Y22.5318
G01 X30.8680 Y22.5281
G01 X30.8033 Y22.5049
G01 X30.7915 Y22.5000
G01 X30.7237 Y22.4678
G01 X30.6539 Y22.4259
G01 X30.5885 Y22.3774
G01 X30.5281 Y22.3227
G01 X30.4734 Y22.2623
G01 X30.4286 Y22.2021
G01 X30.4215 Y22.1915
G01 X30.3862 Y22.1326
G01 X30.3801 Y22.1214
G01 X30.3482 Y22.0534
G01 X30.3207 Y21.9767
G01 X30.3009 Y21.8977
G01 X30.2898 Y21.8235
G00 Z2.0000
G00 X25.2889 Y21.8117
G01 F60.00
G01 Z-0.0000
G01 F120.00
G01 X25.2850 Y21.7358
G01 X25.2850 Y19.1358
G01 X25.2889 Y19.0599
G01 X25.2994 Y18.9895
G01 X25.3170 Y18.9193
G01 X25.3421 Y18.8488
G01 X25.3736 Y18.7823
G01 X25.4114 Y18.7191
G01 X25.4552 Y18.6600
G01 X25.5047 Y18.6055
G01 X25.5592 Y18.5560
G01 X25.6183 Y18.5122
G01 X25.6815 Y18.4744
G01 X25.7480 Y18.4429
G01 X25.8173 Y18.4181
G01 X25.8887 Y18.4002
G01 X25.9615 Y18.3894
G01 X26.0350 Y18.3858
G01 X26.1085 Y18.3894
G01 X26.1813 Y18.4002
G01 X26.2515 Y18.4178
G01 X26.3243 Y18.4439
G01 X26.3885 Y18.4744
G01 X26.4517 Y18.5122
G01 X26.5108 Y18.5560
G01 X26.5636 Y18.6038
G01 X26.6148 Y18.6600
G01 X26.6599 Y18.7212
G01 X26.6964 Y18.7823
G01 X26.7279 Y18.8488
G01 X26.7534 Y18.9205
G01 X26.7706 Y18.9895
G01 X26.7811 Y19.0599
G01 X26.7850 Y19.1358
G01 X26.7850 Y21.7358
G01 X26.7811 Y21.8117
G01 X26.7706 Y21.8821
G01 X26.7530 Y21.9523
G01 X26.7279 Y22.0228
G01 X26.6975 Y22.0872
G01 X26.6572 Y22.1545
G01 X26.6148 Y22.2116
G01 X26.5653 Y22.2661
G01 X26.5108 Y22.3156
G01 X26.4517 Y22.3594
G01 X26.3885 Y22.3972
G01 X26.3243 Y22.4277
G01 X26.2503 Y22.4542
G01 X26.1813 Y22.4714
G01 X26.1085 Y22.4822
G01 X26.0350 Y22.4858
G01 X25.9615 Y22.4822
G01 X25.8887 Y22.4714
G01 X25.8197 Y22.4542
G01 X25.7457 Y22.4277
G01 X25.6815 Y22.3972
G01 X25.6183 Y22.3594
G01 X25.5592 Y22.3156
G01 X25.5047 Y22.2661
G01 X25.4552 Y22.2116
G01 X25.4128 Y22.1545
G01 X25.3725 Y22.0872
G01 X25.3421 Y22.0228
G01 X25.3173 Y21.9535
G01 X25.2994 Y21.8821
G01 X25.2889 Y21.8117
G00 Z2.0000
G00 X25.2098 Y21.8235
G01 F60.00
G01 Z-0.0000
G01 F120.00
G01 X25.2085 Y21.8108
G01 X25.2050 Y21.7358
G01 X25.2050 Y19.1358
G01 X25.2085 Y19.0608
G01 X25.2098 Y19.0481
G01 X25.2209 Y18.9739
G01 X25.2407 Y18.8949
G01 X25.2682 Y18.8182
G01 X25.3030 Y18.7445
G01 X25.3449 Y18.6747
G01 X25.3934 Y18.6093
G01 X25.4481 Y18.5489
G01 X25.5085 Y18.4942
G01 X25.5739 Y18.4457
G01 X25.6437 Y18.4038
G01 X25.7174 Y18.3690
G01 X25.7941 Y18.3415
G01 X25.8731 Y18.3217
G01 X25.9536 Y18.3098
G01 X26.0350 Y18.3058
G01 X26.1164 Y18.3098
G01 X26.1969 Y18.3217
G01 X26.2759 Y18.3415
G01 X26.3467 Y18.3667
G01 X26.3585 Y18.3716
G01 X26.4263 Y18.4038
G01 X26.4961 Y18.4457
G01 X26.5565 Y18.4903
G01 X26.5664 Y18.4984
G01 X26.6219 Y18.5489
G01 X26.6724 Y18.6044
G01 X26.6805 Y18.6143
G01 X26.7214 Y18.6695
G01 X26.7285 Y18.6801
G01 X26.7670 Y18.7445
G01 X26.7992 Y18.8123
G01 X26.8041 Y18.8241
G01 X26.8293 Y18.8949
G01 X26.8477 Y18.9676
G01 X26.8501 Y18.9802
G01 X26.8610 Y19.0544
G01 X26.8650 Y19.1358
G01 X26.8650 Y21.7358
G01 X26.8615 Y21.8108
G01 X26.8602 Y21.8235
G01 X26.8491 Y21.8977
G01 X26.8293 Y21.9767
G01 X26.8018 Y22.0534
G01 X26.7699 Y22.1214
G01 X26.7638 Y22.1326
G01 X26.7285 Y22.1915
G01 X26.7214 Y22.2021
G01 X26.6766 Y22.2623
G01 X26.6219 Y22.3227
G01 X26.5615 Y22.3774
G01 X26.4961 Y22.4259
G01 X26.4263 Y22.4678
G01 X26.3585 Y22.5000
G01 X26.3467 Y22.5049
G01 X26.2820 Y22.5281
G01 X26.2698 Y22.5318
G01 X26.1969 Y22.5499
G01 X26.1164 Y22.5618
G01 X26.0350 Y22.5658
G01 X25.9536 Y22.5618
G01 X25.8731 Y22.5499
G01 X25.8002 Y22.5318
G01 X25.7880 Y22.5281
G01 X25.7233 Y22.5049
G01 X25.7115 Y22.5000
G01 X25.6437 Y22.4678
G01 X25.5739 Y22.4259
G01 X25.5085 Y22.3774
G01 X25.4481 Y22.3227
G01 X25.3934 Y22.2623
G01 X25.3486 Y22.2021
G01 X25.3415 Y22.1915
G01 X25.3062 Y22.1326
G01 X25.3001 Y22.1214
G01 X25.2682 Y22.0534
G01 X25.2407 Y21.9767
G01 X25.2209 Y21.8977
G01 X25.2098 Y21.8235
G00 Z2.0000
G00 X22.7489 Y21.8117
G01 F60.00
G01 Z-0.0000
G01 F120.00
G01 X22.7450 Y21.7358
G01 X22.7450 Y19.1358
G01 X22.7489 Y19.0599
G01 X22.7594 Y18.9895
G01 X22.7770 Y18.9193
G01 X22.8021 Y18.8488
G01 X22.8336 Y18.7823
G01 X22.8714 Y18.7191
G01 X22.9152 Y18.6600
G01 X22.9647 Y18.6055
G01 X23.0192 Y18.5560
G01 X23.0783 Y18.5122
G01 X23.1415 Y18.4744
G01 X23.2080 Y18.4429
G01 X23.2773 Y18.4181
G01 X23.3487 Y18.4002
G01 X23.4215 Y18.3894
G01 X23.4950 Y18.3858
G01 X23.5685 Y18.3894
G01 X23.6413 Y18.4002
G01 X23.7115 Y18.4178
G01 X23.7843 Y18.4439
G01 X23.8485 Y18.4744
G01 X23.9117 Y18.5122
G01 X23.9708 Y18.5560
G01 X24.0236 Y18.6038
G01 X24.0748 Y18.6600
G01 X24.1199 Y18.7212
G01 X24.1564 Y18.7823
G01 X24.1879 Y18.8488
G01 X24.2134 Y18.9205
G01 X24.2306 Y18.9895
G01 X24.2411 Y19.0599
G01 X24.2450 Y19.1358
G01 X24.2450 Y21.7358
G01 X24.2411 Y21.8117
G01 X24.2306 Y21.8821
G01 X24.2130 Y21.9523
G01 X24.1879 Y22.0228
G01 X24.1575 Y22.0872
G01 X24.1172 Y22.1545
G01 X24.0748 Y22.2116
G01 X24.0253 Y22.2661
G01 X23.9708 Y22.3156
G01 X23.9117 Y22.3594
G01 X23.8485 Y22.3972
G01 X23.7843 Y22.4277
G01 X23.7103 Y22.4542
G01 X23.6413 Y22.4714
G01 X23.5685 Y22.4822
G01 X23.4950 Y22.4858
G01 X23.4215 Y22.4822
G01 X23.3487 Y22.4714
G01 X23.2797 Y22.4542
G01 X23.2057 Y22.4277
G01 X23.1415 Y22.3972
G01 X23.0783 Y22.3594
G01 X23.0192 Y22.3156
G01 X22.9647 Y22.2661
G01 X22.9152 Y22.2116
G01 X22.8728 Y22.1545
G01 X22.8325 Y22.0872
G01 X22.8021 Y22.0228
G01 X22.7773 Y21.9535
G01 X22.7594 Y21.8821
G01 X22.7489 Y21.8117
G00 Z2.0000
G00 X22.6698 Y21.8235
G01 F60.00
G01 Z-0.0000
G01 F120.00
G01 X22.6685 Y21.8108
G01 X22.6650 Y21.7358
G01 X22.6650 Y19.1358
G01 X22.6685 Y19.0608
G01 X22.6698 Y19.0481
G01 X22.6809 Y18.9739
G01 X22.7007 Y18.8949
G01 X22.7282 Y18.8182
G01 X22.7630 Y18.7445
G01 X22.8049 Y18.6747
G01 X22.8534 Y18.6093
G01 X22.9081 Y18.5489
G01 X22.9685 Y18.4942
G01 X23.0339 Y18.4457
G01 X23.1037 Y18.4038
G01 X23.1774 Y18.3690
G01 X23.2541 Y18.3415
G01 X23.3331 Y18.3217
G01 X23.4136 Y18.3098
G01 X23.4950 Y18.3058
G01 X23.5764 Y18.3098
G01 X23.6569 Y18.3217
G01 X23.7359 Y18.3415
G01 X23.8067 Y18.3667
G01 X23.8185 Y18.3716
G01 X23.8863 Y18.4038
G01 X23.9561 Y18.4457
G01 X24.0165 Y18.4903
G01 X24.0264 Y18.4984
G01 X24.0819 Y18.5489
G01 X24.1324 Y18.6044
G01 X24.1405 Y18.6143
G01 X24.1814 Y18.6695
G01 X24.1885 Y18.6801
G01 X24.2270 Y18.7445
G01 X24.2592 Y18.8123
G01 X24.2641 Y18.8241
G01 X24.2893 Y18.8949
G01 X24.3077 Y18.9676
G01 X24.3101 Y18.9802
G01 X24.3210 Y19.0544
G01 X24.3250 Y19.1358
G01 X24.3250 Y21.7358
G01 X24.3215 Y21.8108
G01 X24.3202 Y21.8235
G01 X24.3091 Y21.8977
G01 X24.2893 Y21.9767
G01 X24.2618 Y22.0534
G01 X24.2299 Y22.1214
G01 X24.2238 Y22.1326
G01 X24.1885 Y22.1915
G01 X24.1814 Y22.2021
G01 X24.1366 Y22.2623
G01 X24.0819 Y22.3227
G01 X24.0215 Y22.3774
G01 X23.9561 Y22.4259
G01 X23.8863 Y22.4678
G01 X23.8185 Y22.5000
G01 X23.8067 Y22.5049
G01 X23.7420 Y22.5281
G01 X23.7298 Y22.5318
G01 X23.6569 Y22.5499
G01 X23.5764 Y22.5618
G01 X23.4950 Y22.5658
G01 X23.4136 Y22.5618
G01 X23.3331 Y22.5499
G01 X23.2602 Y22.5318
G01 X23.2480 Y22.5281
G01 X23.1833 Y22.5049
G01 X23.1715 Y22.5000
G01 X23.1037 Y22.4678
G01 X23.0339 Y22.4259
G01 X22.9685 Y22.3774
G01 X22.9081 Y22.3227
G01 X22.8534 Y22.2623
G01 X22.8086 Y22.2021
G01 X22.8015 Y22.1915
G01 X22.7662 Y22.1326
G01 X22.7601 Y22.1214
G01 X22.7282 Y22.0534
G01 X22.7007 Y21.9767
G01 X22.6809 Y21.8977
G01 X22.6698 Y21.8235
G00 Z2.0000
G00 X20.2089 Y21.8117
G01 F60.00
G01 Z-0.0000
G01 F120.00
G01 X20.2050 Y21.7358
G01 X20.2050 Y19.1358
G01 X20.2089 Y19.0599
G01 X20.2194 Y18.9895
G01 X20.2370 Y18.9193
G01 X20.2621 Y18.8488
G01 X20.2936 Y18.7823
G01 X20.3314 Y18.7191
G01 X20.3752 Y18.6600
G01 X20.4247 Y18.6055
G01 X20.4792 Y18.5560
G01 X20.5383 Y18.5122
G01 X20.6015 Y18.4744
G01 X20.6680 Y18.4429
G01 X20.7373 Y18.4181
G01 X20.8087 Y18.4002
G01 X20.8815 Y18.3894
G01 X20.9550 Y18.3858
G01 X21.0285 Y18.3894
G01 X21.1013 Y18.4002
G01 X21.1715 Y18.4178
G01 X21.2443 Y18.4439
G01 X21.3085 Y18.4744
G01 X21.3717 Y18.5122
G01 X21.4308 Y18.5560
G01 X21.4836 Y18.6038
G01 X21.5348 Y18.6600
G01 X21.5799 Y18.7212
G01 X21.6164 Y18.7823
G01 X21.6479 Y18.8488
G01 X21.6734 Y18.9205
G01 X21.6906 Y18.9895
G01 X21.7011 Y19.0599
G01 X21.7050 Y19.1358
G01 X21.7050 Y21.7358
G01 X21.7011 Y21.8117
G01 X21.6906 Y21.8821
G01 X21.6730 Y21.9523
G01 X21.6479 Y22.0228
G01 X21.6175 Y22.0872
G01 X21.5772 Y22.1545
G01 X21.5348 Y22.2116
G01 X21.4853 Y22.2661
G01 X21.4308 Y22.3156
G01 X21.3717 Y22.3594
G01 X21.3085 Y22.3972
G01 X21.2443 Y22.4277
G01 X21.1703 Y22.4542
G01 X21.1013 Y22.4714
G01 X21.0285 Y22.4822
G01 X20.9550 Y22.4858
G01 X20.8815 Y22.4822
G01 X20.8087 Y22.4714
G01 X20.7397 Y22.4542
G01 X20.6657 Y22.4277
G01 X20.6015 Y22.3972
G01 X20.5383 Y22.3594
G01 X20.4792 Y22.3156
G01 X20.4247 Y22.2661
G01 X20.3752 Y22.2116
G01 X20.3328 Y22.1545
G01 X20.2925 Y22.0872
G01 X20.2621 Y22.0228
G01 X20.2373 Y21.9535
G01 X20.2194 Y21.8821
G01 X20.2089 Y21.8117
G00 Z2.0000
G00 X20.1298 Y21.8235
G01 F60.00
G01 Z-0.0000
G01 F120.00
G01 X20.1285 Y21.8108
G01 X20.1250 Y21.7358
G01 X20.1250 Y19.1358
G01 X20.1285 Y19.0608
G01 X20.1298 Y19.0481
G01 X20.1409 Y18.9739
G01 X20.1607 Y18.8949
G01 X20.1882 Y18.8182
G01 X20.2230 Y18.7445
G01 X20.2649 Y18.6747
G01 X20.3134 Y18.6093
G01 X20.3681 Y18.5489
G01 X20.4285 Y18.4942
G01 X20.4939 Y18.4457
G01 X20.5637 Y18.4038
G01 X20.6374 Y18.3690
G01 X20.7141 Y18.3415
G01 X20.7931 Y18.3217
G01 X20.8736 Y18.3098
G01 X20.9550 Y18.3058
G01 X21.0364 Y18.3098
G01 X21.1169 Y18.3217
G01 X21.1959 Y18.3415
G01 X21.2667 Y18.3667
G01 X21.2785 Y18.3716
G01 X21.3463 Y18.4038
G01 X21.4161 Y18.4457
G01 X21.4765 Y18.4903
G01 X21.4864 Y18.4984
G01 X21.5419 Y18.5489
G01 X21.5924 Y18.6044
G01 X21.6005 Y18.6143
G01 X21.6414 Y18.6695
G01 X21.6485 Y18.6801
G01 X21.6870 Y18.7445
G01 X21.7192 Y18.8123
G01 X21.7241 Y18.8241
G01 X21.7493 Y18.8949
G01 X21.7677 Y18.9676
G01 X21.7701 Y18.9802
G01 X21.7810 Y19.0544
G01 X21.7850 Y19.1358
G01 X21.7850 Y21.7358
G01 X21.7815 Y21.8108
G01 X21.7802 Y21.8235
G01 X21.7691 Y21.8977
G01 X21.7493 Y21.9767
G01 X21.7218 Y22.0534
G01 X21.6899 Y22.1214
G01 X21.6838 Y22.1326
G01 X21.6485 Y22.1915
G01 X21.6414 Y22.2021
G01 X21.5966 Y22.2623
G01 X21.5419 Y22.3227
G01 X21.4815 Y22.3774
G01 X21.4161 Y22.4259
G01 X21.3463 Y22.4678
G01 X21.2785 Y22.5000
G01 X21.2667 Y22.5049
G01 X21.2020 Y22.5281
G01 X21.1898 Y22.5318
G01 X21.1169 Y22.5499
G01 X21.0364 Y22.5618
G01 X20.9550 Y22.5658
G01 X20.8736 Y22.5618
G01 X20.7931 Y22.5499
G01 X20.7202 Y22.5318
G01 X20.7080 Y22.5281
G01 X20.6433 Y22.5049
G01 X20.6315 Y22.5000
G01 X20.5637 Y22.4678
G01 X20.4939 Y22.4259
G01 X20.4285 Y22.3774
G01 X20.3681 Y22.3227
G01 X20.3134 Y22.2623
G01 X20.2686 Y22.2021
G01 X20.2615 Y22.1915
G01 X20.2262 Y22.1326
G01 X20.2201 Y22.1214
G01 X20.1882 Y22.0534
G01 X20.1607 Y21.9767
G01 X20.1409 Y21.8977
G01 X20.1298 Y21.8235
G00 Z2.0000
G00 X12.5864 Y22.2559
G01 F60.00
G01 Z-0.0000
G01 F120.00
G01 X12.5850 Y22.2300
G01 X12.5850 Y18.6416
G01 X12.5862 Y18.6165
G01 X12.5895 Y18.5941
G01 X12.5964 Y18.5662
G01 X12.6045 Y18.5437
G01 X12.6141 Y18.5232
G01 X12.6281 Y18.4995
G01 X12.6431 Y18.4793
G01 X12.6582 Y18.4625
G01 X12.6785 Y18.4439
G01 X12.7008 Y18.4276
G01 X12.7202 Y18.4160
G01 X12.7429 Y18.4053
G01 X12.7689 Y18.3962
G01 X12.7909 Y18.3907
G01 X12.8145 Y18.3872
G01 X12.8408 Y18.3858
G01 X13.8292 Y18.3858
G01 X13.8543 Y18.3870
G01 X13.8767 Y18.3903
G01 X13.9046 Y18.3972
G01 X13.9271 Y18.4053
G01 X13.9476 Y18.4149
G01 X13.9733 Y18.4303
G01 X13.9915 Y18.4439
G01 X14.0101 Y18.4607
G01 X14.0269 Y18.4793
G01 X14.0405 Y18.4975
G01 X14.0559 Y18.5232
G01 X14.0655 Y18.5437
G01 X14.0740 Y18.5673
G01 X14.0801 Y18.5917
G01 X14.0835 Y18.6141
G01 X14.0850 Y18.6416
G01 X14.0850 Y22.2312
G01 X14.0835 Y22.2575
G01 X14.0801 Y22.2799
G01 X14.0746 Y22.3019
G01 X14.0655 Y22.3279
G01 X14.0542 Y22.3517
G01 X14.0419 Y22.3721
G01 X14.0284 Y22.3903
G01 X14.0101 Y22.4109
G01 X13.9905 Y22.4285
G01 X13.9713 Y22.4427
G01 X13.9568 Y22.4515
G01 X13.9568 Y24.5643
G01 X16.9505 Y27.5581
G01 X16.9906 Y27.6024
G01 X17.0256 Y27.6494
G01 X17.0584 Y27.7038
G01 X17.0853 Y27.7612
G01 X17.1050 Y27.8164
G01 X17.1198 Y27.8756
G01 X17.1288 Y27.9360
G01 X17.1318 Y27.9969
G01 X17.1318 Y32.2258
G01 X17.2612 Y32.2258
G01 X17.2673 Y32.2263
G01 X17.2733 Y32.2276
G01 X17.2803 Y32.2301
G01 X17.2878 Y32.2342
G01 X17.2936 Y32.2388
G01 X17.2994 Y32.2450
G01 X17.3035 Y32.2512
G01 X17.3071 Y32.2590
G01 X17.3093 Y32.2673
G01 X17.3100 Y32.2746
G01 X17.3100 Y36.2758
G01 X17.3095 Y36.2831
G01 X17.3075 Y36.2915
G01 X17.3041 Y36.2994
G01 X17.3002 Y36.3056
G01 X17.2954 Y36.3112
G01 X17.2888 Y36.3167
G01 X17.2825 Y36.3205
G01 X17.2757 Y36.3233
G01 X17.2673 Y36.3253
G01 X17.2600 Y36.3258
G01 X15.7588 Y36.3258
G01 X15.7515 Y36.3251
G01 X15.7443 Y36.3233
G01 X15.7375 Y36.3205
G01 X15.7302 Y36.3160
G01 X15.7238 Y36.3103
G01 X15.7191 Y36.3046
G01 X15.7153 Y36.2983
G01 X15.7125 Y36.2915
G01 X15.7107 Y36.2843
G01 X15.7100 Y36.2758
G01 X15.7100 Y32.2746
G01 X15.7107 Y32.2673
G01 X15.7129 Y32.2590
G01 X15.7159 Y32.2522
G01 X15.7206 Y32.2450
G01 X15.7264 Y32.2388
G01 X15.7322 Y32.2342
G01 X15.7386 Y32.2306
G01 X15.7467 Y32.2276
G01 X15.7527 Y32.2263
G01 X15.7588 Y32.2258
G01 X15.8882 Y32.2258
G01 X15.8882 Y28.2545
G01 X12.8953 Y25.2616
G01 X12.8528 Y25.2144
G01 X12.8180 Y25.1673
G01 X12.7872 Y25.1161
G01 X12.7605 Y25.0598
G01 X12.7393 Y25.0000
G01 X12.7252 Y24.9432
G01 X12.7165 Y24.8853
G01 X12.7132 Y24.8231
G01 X12.7132 Y22.4515
G01 X12.7052 Y22.4469
G01 X12.6876 Y22.4348
G01 X12.6676 Y22.4183
G01 X12.6502 Y22.4006
G01 X12.6367 Y22.3842
G01 X12.6239 Y22.3656
G01 X12.6118 Y22.3440
G01 X12.6015 Y22.3202
G01 X12.5948 Y22.3000
G01 X12.5898 Y22.2793
G01 X12.5864 Y22.2559
G00 Z2.0000
G00 X12.5071 Y22.2669
G01 F60.00
G01 Z-0.0000
G01 F120.00
G01 X12.5060 Y22.2550
G01 X12.5050 Y22.2300
G01 X12.5050 Y18.6416
G01 X12.5066 Y18.6087
G01 X12.5115 Y18.5761
G01 X12.5195 Y18.5441
G01 X12.5283 Y18.5190
G01 X12.5331 Y18.5073
G01 X12.5447 Y18.4833
G01 X12.5582 Y18.4604
G01 X12.5653 Y18.4498
G01 X12.5812 Y18.4286
G01 X12.6011 Y18.4064
G01 X12.6080 Y18.3998
G01 X12.6303 Y18.3800
G01 X12.6542 Y18.3624
G01 X12.6770 Y18.3486
G01 X12.6882 Y18.3426
G01 X12.7123 Y18.3314
G01 X12.7373 Y18.3223
G01 X12.7495 Y18.3186
G01 X12.7753 Y18.3123
G01 X12.8047 Y18.3078
G01 X12.8142 Y18.3069
G01 X12.8408 Y18.3058
G01 X13.8324 Y18.3058
G01 X13.8621 Y18.3074
G01 X13.8947 Y18.3123
G01 X13.9267 Y18.3203
G01 X13.9518 Y18.3291
G01 X13.9635 Y18.3339
G01 X13.9903 Y18.3470
G01 X14.0158 Y18.3624
G01 X14.0397 Y18.3800
G01 X14.0620 Y18.3998
G01 X14.0710 Y18.4088
G01 X14.0888 Y18.4286
G01 X14.1066 Y18.4524
G01 X14.1222 Y18.4778
G01 X14.1282 Y18.4890
G01 X14.1394 Y18.5131
G01 X14.1505 Y18.5441
G01 X14.1571 Y18.5699
G01 X14.1596 Y18.5824
G01 X14.1634 Y18.6087
G01 X14.1650 Y18.6384
G01 X14.1650 Y22.2332
G01 X14.1639 Y22.2566
G01 X14.1630 Y22.2661
G01 X14.1591 Y22.2924
G01 X14.1571 Y22.3017
G01 X14.1505 Y22.3275
G01 X14.1417 Y22.3526
G01 X14.1382 Y22.3614
G01 X14.1268 Y22.3855
G01 X14.1222 Y22.3938
G01 X14.1084 Y22.4166
G01 X14.0888 Y22.4430
G01 X14.0666 Y22.4674
G01 X14.0471 Y22.4854
G01 X14.0379 Y22.4930
G01 X14.0368 Y24.5312
G01 X17.0085 Y27.5029
G01 X17.0525 Y27.5517
G01 X17.0898 Y27.6018
G01 X17.0969 Y27.6124
G01 X17.1289 Y27.6661
G01 X17.1584 Y27.7283
G01 X17.1796 Y27.7871
G01 X17.1833 Y27.7993
G01 X17.1969 Y27.8538
G01 X17.1989 Y27.8631
G01 X17.2084 Y27.9281
G01 X17.2118 Y27.9969
G01 X17.2118 Y32.1458
G01 X17.2632 Y32.1458
G01 X17.2727 Y32.1464
G01 X17.2854 Y32.1483
G01 X17.2977 Y32.1514
G01 X17.3127 Y32.1570
G01 X17.3268 Y32.1643
G01 X17.3374 Y32.1714
G01 X17.3473 Y32.1795
G01 X17.3584 Y32.1909
G01 X17.3681 Y32.2036
G01 X17.3761 Y32.2174
G01 X17.3824 Y32.2320
G01 X17.3868 Y32.2473
G01 X17.3890 Y32.2599
G01 X17.3900 Y32.2758
G01 X17.3900 Y36.2790
G01 X17.3894 Y36.2885
G01 X17.3881 Y36.2980
G01 X17.3861 Y36.3074
G01 X17.3834 Y36.3166
G01 X17.3788 Y36.3285
G01 X17.3746 Y36.3371
G01 X17.3698 Y36.3453
G01 X17.3644 Y36.3532
G01 X17.3563 Y36.3631
G01 X17.3496 Y36.3700
G01 X17.3425 Y36.3763
G01 X17.3349 Y36.3821
G01 X17.3268 Y36.3873
G01 X17.3184 Y36.3919
G01 X17.3097 Y36.3959
G01 X17.3008 Y36.3992
G01 X17.2916 Y36.4019
G01 X17.2822 Y36.4039
G01 X17.2696 Y36.4054
G01 X17.2600 Y36.4058
G01 X15.7536 Y36.4056
G01 X15.7441 Y36.4048
G01 X15.7346 Y36.4033
G01 X15.7253 Y36.4011
G01 X15.7162 Y36.3982
G01 X15.7073 Y36.3946
G01 X15.6987 Y36.3904
G01 X15.6905 Y36.3856
G01 X15.6826 Y36.3802
G01 X15.6751 Y36.3742
G01 X15.6681 Y36.3677
G01 X15.6616 Y36.3607
G01 X15.6537 Y36.3507
G01 X15.6485 Y36.3426
G01 X15.6439 Y36.3342
G01 X15.6399 Y36.3255
G01 X15.6366 Y36.3166
G01 X15.6339 Y36.3074
G01 X15.6319 Y36.2980
G01 X15.6304 Y36.2854
G01 X15.6300 Y36.2758
G01 X15.6300 Y32.2726
G01 X15.6314 Y32.2567
G01 X15.6347 Y32.2411
G01 X15.6399 Y32.2261
G01 X15.6454 Y32.2145
G01 X15.6519 Y32.2036
G01 X15.6616 Y32.1909
G01 X15.6727 Y32.1795
G01 X15.6851 Y32.1695
G01 X15.6959 Y32.1627
G01 X15.7073 Y32.1570
G01 X15.7192 Y32.1524
G01 X15.7346 Y32.1483
G01 X15.7473 Y32.1464
G01 X15.7568 Y32.1458
G01 X15.8082 Y32.1458
G01 X15.8082 Y28.2876
G01 X12.8388 Y25.3181
G01 X12.7925 Y25.2671
G01 X12.7552 Y25.2170
G01 X12.7481 Y25.2064
G01 X12.7161 Y25.1527
G01 X12.6866 Y25.0905
G01 X12.6654 Y25.0317
G01 X12.6617 Y25.0195
G01 X12.6467 Y24.9588
G01 X12.6374 Y24.8970
G01 X12.6361 Y24.8843
G01 X12.6333 Y24.8251
G01 X12.6332 Y22.4938
G01 X12.6146 Y22.4782
G01 X12.5968 Y22.4606
G01 X12.5906 Y22.4540
G01 X12.5766 Y22.4371
G01 X12.5710 Y22.4299
G01 X12.5569 Y22.4093
G01 X12.5430 Y22.3850
G01 X12.5389 Y22.3770
G01 X12.5288 Y22.3541
G01 X12.5187 Y22.3248
G01 X12.5113 Y22.2946
G01 X12.5071 Y22.2669
G00 Z2.0000
G00 X13.1742 Y35.6066
G01 F60.00
G01 Z-0.0000
G01 F120.00
G01 X13.1700 Y35.5258
G01 X13.1700 Y33.0258
G01 X13.1742 Y32.9450
G01 X13.1854 Y32.8697
G01 X13.2041 Y32.7948
G01 X13.2309 Y32.7197
G01 X13.2645 Y32.6487
G01 X13.3048 Y32.5813
G01 X13.3501 Y32.5202
G01 X13.4061 Y32.4584
G01 X13.4625 Y32.4074
G01 X13.5276 Y32.3593
G01 X13.5929 Y32.3203
G01 X13.6639 Y32.2867
G01 X13.7378 Y32.2602
G01 X13.8139 Y32.2412
G01 X13.8916 Y32.2297
G01 X13.9700 Y32.2258
G01 X14.0484 Y32.2297
G01 X14.1261 Y32.2412
G01 X14.2046 Y32.2610
G01 X14.2761 Y32.2867
G01 X14.3471 Y32.3203
G01 X14.4145 Y32.3606
G01 X14.4756 Y32.4059
G01 X14.5374 Y32.4619
G01 X14.5884 Y32.5183
G01 X14.6352 Y32.5813
G01 X14.6755 Y32.6487
G01 X14.7081 Y32.7174
G01 X14.7362 Y32.7959
G01 X14.7546 Y32.8697
G01 X14.7661 Y32.9474
G01 X14.7700 Y33.0258
G01 X14.7699 Y35.5283
G01 X14.7661 Y35.6042
G01 X14.7550 Y35.6795
G01 X14.7348 Y35.7604
G01 X14.7091 Y35.8319
G01 X14.6755 Y35.9029
G01 X14.6352 Y35.9703
G01 X14.5918 Y36.0289
G01 X14.5918 Y37.1256
G01 X17.6188 Y37.1256
G01 X18.1099 Y36.6345
G01 X18.1099 Y27.0217
G01 X15.4345 Y24.3462
G01 X15.3944 Y24.3019
G01 X15.3594 Y24.2549
G01 X15.3255 Y24.1983
G01 X15.3005 Y24.1453
G01 X15.2800 Y24.0879
G01 X15.2652 Y24.0287
G01 X15.2563 Y23.9696
G01 X15.2532 Y23.9074
G01 X15.2532 Y22.1550
G01 X15.2501 Y22.1504
G01 X15.2125 Y22.0872
G01 X15.1821 Y22.0228
G01 X15.1573 Y21.9535
G01 X15.1390 Y21.8797
G01 X15.1286 Y21.8093
G01 X15.1250 Y21.7370
G01 X15.1250 Y19.1358
G01 X15.1289 Y19.0599
G01 X15.1394 Y18.9895
G01 X15.1566 Y18.9205
G01 X15.1812 Y18.8511
G01 X15.2136 Y18.7823
G01 X15.2501 Y18.7212
G01 X15.2952 Y18.6600
G01 X15.3447 Y18.6055
G01 X15.3992 Y18.5560
G01 X15.4563 Y18.5136
G01 X15.5215 Y18.4744
G01 X15.5880 Y18.4429
G01 X15.6573 Y18.4181
G01 X15.7287 Y18.4002
G01 X15.8015 Y18.3894
G01 X15.8750 Y18.3858
G01 X15.9485 Y18.3894
G01 X16.0201 Y18.4000
G01 X16.0950 Y18.4189
G01 X16.1620 Y18.4429
G01 X16.2285 Y18.4744
G01 X16.2917 Y18.5122
G01 X16.3489 Y18.5545
G01 X16.4070 Y18.6072
G01 X16.4548 Y18.6600
G01 X16.4986 Y18.7191
G01 X16.5364 Y18.7823
G01 X16.5669 Y18.8465
G01 X16.5934 Y18.9205
G01 X16.6106 Y18.9895
G01 X16.6214 Y19.0623
G01 X16.6250 Y19.1358
G01 X16.6250 Y21.7370
G01 X16.6214 Y21.8093
G01 X16.6110 Y21.8797
G01 X16.5927 Y21.9535
G01 X16.5679 Y22.0228
G01 X16.5375 Y22.0872
G01 X16.4999 Y22.1504
G01 X16.4968 Y22.1550
G01 X16.4968 Y23.6498
G01 X19.1722 Y26.3253
G01 X19.2123 Y26.3696
G01 X19.2473 Y26.4166
G01 X19.2801 Y26.4710
G01 X19.3062 Y26.5262
G01 X19.3259 Y26.5813
G01 X19.3418 Y26.6440
G01 X19.3505 Y26.7032
G01 X19.3535 Y26.7641
G01 X19.3535 Y36.8921
G01 X19.3505 Y36.9530
G01 X19.3413 Y37.0146
G01 X19.3267 Y37.0726
G01 X19.3070 Y37.1278
G01 X19.2801 Y37.1852
G01 X19.2473 Y37.2396
G01 X19.2123 Y37.2866
G01 X19.1714 Y37.3318
G01 X18.3161 Y38.1871
G01 X18.2718 Y38.2273
G01 X18.2218 Y38.2644
G01 X18.1673 Y38.2969
G01 X18.1121 Y38.3227
G01 X18.0569 Y38.3424
G01 X18.0001 Y38.3567
G01 X17.9373 Y38.3662
G01 X17.8764 Y38.3692
G01 X13.9700 Y38.3692
G01 X13.9091 Y38.3662
G01 X13.8475 Y38.3570
G01 X13.7895 Y38.3424
G01 X13.7343 Y38.3227
G01 X13.6769 Y38.2958
G01 X13.6225 Y38.2630
G01 X13.5755 Y38.2280
G01 X13.5303 Y38.1871
G01 X13.4894 Y38.1419
G01 X13.4544 Y38.0949
G01 X13.4216 Y38.0405
G01 X13.3947 Y37.9831
G01 X13.3750 Y37.9279
G01 X13.3607 Y37.8711
G01 X13.3512 Y37.8083
G01 X13.3482 Y37.7474
G01 X13.3482 Y36.0289
G01 X13.3048 Y35.9703
G01 X13.2657 Y35.9051
G01 X13.2309 Y35.8319
G01 X13.2038 Y35.7557
G01 X13.1854 Y35.6819
G01 X13.1742 Y35.6066
G00 Z2.0000
G00 X13.0950 Y35.6184
G01 F60.00
G01 Z-0.0000
G01 F120.00
G01 X13.0938 Y35.6057
G01 X13.0900 Y35.5258
G01 X13.0900 Y33.0258
G01 X13.0938 Y32.9459
G01 X13.0950 Y32.9332
G01 X13.1069 Y32.8541
G01 X13.1279 Y32.7703
G01 X13.1570 Y32.6890
G01 X13.1939 Y32.6110
G01 X13.2383 Y32.5369
G01 X13.2898 Y32.4675
G01 X13.3477 Y32.4035
G01 X13.4117 Y32.3456
G01 X13.4811 Y32.2941
G01 X13.5496 Y32.2529
G01 X13.5609 Y32.2468
G01 X13.6332 Y32.2128
G01 X13.7085 Y32.1857
G01 X13.7207 Y32.1820
G01 X13.7921 Y32.1641
G01 X13.8046 Y32.1616
G01 X13.8837 Y32.1500
G01 X13.9700 Y32.1458
G01 X14.0563 Y32.1500
G01 X14.1417 Y32.1627
G01 X14.2193 Y32.1820
G01 X14.2315 Y32.1857
G01 X14.3068 Y32.2128
G01 X14.3848 Y32.2497
G01 X14.4589 Y32.2941
G01 X14.5232 Y32.3416
G01 X14.5331 Y32.3497
G01 X14.5876 Y32.3991
G01 X14.5967 Y32.4082
G01 X14.6502 Y32.4675
G01 X14.7017 Y32.5369
G01 X14.7461 Y32.6110
G01 X14.7804 Y32.6832
G01 X14.7853 Y32.6950
G01 X14.8101 Y32.7643
G01 X14.8138 Y32.7765
G01 X14.8331 Y32.8541
G01 X14.8458 Y32.9395
G01 X14.8500 Y33.0258
G01 X14.8498 Y35.5322
G01 X14.8458 Y35.6121
G01 X14.8342 Y35.6912
G01 X14.8317 Y35.7037
G01 X14.8138 Y35.7751
G01 X14.8111 Y35.7843
G01 X14.7830 Y35.8626
G01 X14.7476 Y35.9378
G01 X14.7429 Y35.9462
G01 X14.7034 Y36.0120
G01 X14.6980 Y36.0199
G01 X14.6718 Y36.0553
G01 X14.6718 Y37.0456
G01 X17.5857 Y37.0456
G01 X18.0299 Y36.6014
G01 X18.0299 Y27.0548
G01 X15.3744 Y24.3990
G01 X15.3325 Y24.3526
G01 X15.2915 Y24.2973
G01 X15.2561 Y24.2382
G01 X15.2292 Y24.1818
G01 X15.2243 Y24.1700
G01 X15.2054 Y24.1172
G01 X15.2017 Y24.1050
G01 X15.1867 Y24.0443
G01 X15.1766 Y23.9762
G01 X15.1732 Y23.9074
G01 X15.1732 Y22.1778
G01 X15.1430 Y22.1271
G01 X15.1108 Y22.0593
G01 X15.1059 Y22.0475
G01 X15.0807 Y21.9767
G01 X15.0623 Y21.9040
G01 X15.0599 Y21.8914
G01 X15.0490 Y21.8172
G01 X15.0450 Y21.7390
G01 X15.0450 Y19.1358
G01 X15.0490 Y19.0544
G01 X15.0599 Y18.9802
G01 X15.0623 Y18.9676
G01 X15.0807 Y18.8949
G01 X15.1082 Y18.8182
G01 X15.1430 Y18.7445
G01 X15.1849 Y18.6747
G01 X15.2334 Y18.6093
G01 X15.2881 Y18.5489
G01 X15.3485 Y18.4942
G01 X15.4139 Y18.4457
G01 X15.4837 Y18.4038
G01 X15.5574 Y18.3690
G01 X15.6341 Y18.3415
G01 X15.7131 Y18.3217
G01 X15.7936 Y18.3098
G01 X15.8750 Y18.3058
G01 X15.9564 Y18.3098
G01 X16.0338 Y18.3212
G01 X16.0432 Y18.3231
G01 X16.1098 Y18.3398
G01 X16.1220 Y18.3435
G01 X16.1926 Y18.3690
G01 X16.2663 Y18.4038
G01 X16.3361 Y18.4457
G01 X16.3965 Y18.4903
G01 X16.4064 Y18.4984
G01 X16.4573 Y18.5445
G01 X16.4663 Y18.5535
G01 X16.5166 Y18.6093
G01 X16.5651 Y18.6747
G01 X16.6070 Y18.7445
G01 X16.6392 Y18.8123
G01 X16.6441 Y18.8241
G01 X16.6673 Y18.8888
G01 X16.6710 Y18.9010
G01 X16.6891 Y18.9739
G01 X16.7010 Y19.0544
G01 X16.7050 Y19.1358
G01 X16.7050 Y21.7390
G01 X16.7010 Y21.8172
G01 X16.6901 Y21.8914
G01 X16.6877 Y21.9040
G01 X16.6693 Y21.9767
G01 X16.6441 Y22.0475
G01 X16.6392 Y22.0593
G01 X16.6070 Y22.1271
G01 X16.5768 Y22.1778
G01 X16.5768 Y23.6167
G01 X19.2302 Y26.2701
G01 X19.2742 Y26.3189
G01 X19.3115 Y26.3690
G01 X19.3186 Y26.3796
G01 X19.3506 Y26.4333
G01 X19.3801 Y26.4955
G01 X19.4013 Y26.5543
G01 X19.4050 Y26.5665
G01 X19.4186 Y26.6210
G01 X19.4206 Y26.6303
G01 X19.4301 Y26.6953
G01 X19.4335 Y26.7641
G01 X19.4335 Y36.8921
G01 X19.4301 Y36.9609
G01 X19.4211 Y37.0227
G01 X19.4193 Y37.0321
G01 X19.4033 Y37.0958
G01 X19.3824 Y37.1547
G01 X19.3775 Y37.1665
G01 X19.3506 Y37.2229
G01 X19.3186 Y37.2766
G01 X19.3115 Y37.2872
G01 X19.2742 Y37.3373
G01 X19.2302 Y37.3861
G01 X18.3726 Y38.2436
G01 X18.3264 Y38.2857
G01 X18.3166 Y38.2938
G01 X18.2663 Y38.3309
G01 X18.2072 Y38.3663
G01 X18.1450 Y38.3958
G01 X18.0862 Y38.4170
G01 X18.0740 Y38.4207
G01 X18.0133 Y38.4357
G01 X17.9515 Y38.4450
G01 X17.9388 Y38.4463
G01 X17.8764 Y38.4492
G01 X13.9700 Y38.4492
G01 X13.9012 Y38.4458
G01 X13.8394 Y38.4368
G01 X13.8300 Y38.4350
G01 X13.7663 Y38.4190
G01 X13.7074 Y38.3981
G01 X13.6956 Y38.3932
G01 X13.6392 Y38.3663
G01 X13.5855 Y38.3343
G01 X13.5749 Y38.3272
G01 X13.5248 Y38.2899
G01 X13.4784 Y38.2480
G01 X13.4694 Y38.2390
G01 X13.4317 Y38.1974
G01 X13.4236 Y38.1876
