(G-CODE GENERATED BY FLATCAM v8.994 - www.flatcam.org - Version Date: 2020/11/7)

(Name: io-board-PTH.drl_cnc)
(Type: G-code from Geometry)
(Units: MM)

(Created on Sunday, 02 May 2021 at 15:24)

(This preprocessor is the default preprocessor used by FlatCAM.)
(It is made to work with MACH3 compatible motion controllers.)


(TOOLS DIAMETER: )
(Tool: 1 -> Dia: 1.0007599999999999)

(FEEDRATE Z: )
(Tool: 1 -> Feedrate: 300)

(FEEDRATE RAPIDS: )
(Tool: 1 -> Feedrate Rapids: 1500)

(Z_CUT: )
(Tool: 1 -> Z_Cut: -1.7)

(Tools Offset: )
(Tool: 1 -> Offset Z: 0.0)

(Z_MOVE: )
(Tool: 1 -> Z_Move: 2)

(Z Toolchange: 15 mm)
(X,Y Toolchange: 0.0000, 0.0000 mm)
(Z Start: None mm)
(Z End: 0.5 mm)
(X,Y End: None mm)
(Steps per circle: 64)
(Preprocessor Excellon: default)

(X range:   10.9296 ...  167.5054  mm)
(Y range:    8.1407 ...   98.1710  mm)

(Spindle Speed: 0 RPM)
G21
G90
G94

G01 F300.00

M5
G00 Z15.0000
T1
G00 X0.0000 Y0.0000                
M6
(MSG, Change to Tool Dia = 1.0008 ||| Total drills for tool T1 = 234)
M0
G00 Z15.0000

G01 F300.00
M03
G00 X11.4300 Y72.3900
G01 Z-1.7000
G01 Z0
G00 Z2.0000
G00 X13.9700 Y72.3900
G01 Z-1.7000
G01 Z0
G00 Z2.0000
G00 X16.5100 Y72.3900
G01 Z-1.7000
G01 Z0
G00 Z2.0000
G00 X12.0650 Y57.1500
G01 Z-1.7000
G01 Z0
G00 Z2.0000
G00 X14.6050 Y57.1500
G01 Z-1.7000
G01 Z0
G00 Z2.0000
G00 X17.1450 Y57.1500
G01 Z-1.7000
G01 Z0
G00 Z2.0000
G00 X33.6550 Y57.1500
G01 Z-1.7000
G01 Z0
G00 Z2.0000
G00 X36.1950 Y57.1500
G01 Z-1.7000
G01 Z0
G00 Z2.0000
G00 X38.7350 Y57.1500
G01 Z-1.7000
G01 Z0
G00 Z2.0000
G00 X53.3400 Y57.1500
G01 Z-1.7000
G01 Z0
G00 Z2.0000
G00 X55.8800 Y57.1500
G01 Z-1.7000
G01 Z0
G00 Z2.0000
G00 X58.4200 Y57.1500
G01 Z-1.7000
G01 Z0
G00 Z2.0000
G00 X58.4200 Y43.1800
G01 Z-1.7000
G01 Z0
G00 Z2.0000
G00 X55.8800 Y43.1800
G01 Z-1.7000
G01 Z0
G00 Z2.0000
G00 X53.3400 Y43.1800
G01 Z-1.7000
G01 Z0
G00 Z2.0000
G00 X48.9763 Y47.8384
G01 Z-1.7000
G01 Z0
G00 Z2.0000
G00 X44.5541 Y42.7736
G01 Z-1.7000
G01 Z0
G00 Z2.0000
G00 X17.7800 Y43.1800
G01 Z-1.7000
G01 Z0
G00 Z2.0000
G00 X15.2400 Y43.1800
G01 Z-1.7000
G01 Z0
G00 Z2.0000
G00 X12.7000 Y43.1800
G01 Z-1.7000
G01 Z0
G00 Z2.0000
G00 X11.9101 Y36.4134
G01 Z-1.7000
G01 Z0
G00 Z2.0000
G00 X14.6050 Y30.4800
G01 Z-1.7000
G01 Z0
G00 Z2.0000
G00 X14.6050 Y27.9400
G01 Z-1.7000
G01 Z0
G00 Z2.0000
G00 X17.1450 Y30.4800
G01 Z-1.7000
G01 Z0
G00 Z2.0000
G00 X17.1450 Y27.9400
G01 Z-1.7000
G01 Z0
G00 Z2.0000
G00 X19.6850 Y27.9400
G01 Z-1.7000
G01 Z0
G00 Z2.0000
G00 X19.6850 Y30.4800
G01 Z-1.7000
G01 Z0
G00 Z2.0000
G00 X22.2250 Y30.4800
G01 Z-1.7000
G01 Z0
G00 Z2.0000
G00 X22.2250 Y27.9400
G01 Z-1.7000
G01 Z0
G00 Z2.0000
G00 X24.7650 Y27.9400
G01 Z-1.7000
G01 Z0
G00 Z2.0000
G00 X24.7650 Y30.4800
G01 Z-1.7000
G01 Z0
G00 Z2.0000
G00 X27.3050 Y30.4800
G01 Z-1.7000
G01 Z0
G00 Z2.0000
G00 X27.3050 Y27.9400
G01 Z-1.7000
G01 Z0
G00 Z2.0000
G00 X29.8450 Y27.9400
G01 Z-1.7000
G01 Z0
G00 Z2.0000
G00 X29.8450 Y30.4800
G01 Z-1.7000
G01 Z0
G00 Z2.0000
G00 X32.3850 Y30.4800
G01 Z-1.7000
G01 Z0
G00 Z2.0000
G00 X32.3850 Y27.9400
G01 Z-1.7000
G01 Z0
G00 Z2.0000
G00 X34.9250 Y27.9400
G01 Z-1.7000
G01 Z0
G00 Z2.0000
G00 X34.9250 Y30.4800
G01 Z-1.7000
G01 Z0
G00 Z2.0000
G00 X37.4650 Y30.4800
G01 Z-1.7000
G01 Z0
G00 Z2.0000
G00 X37.4650 Y27.9400
G01 Z-1.7000
G01 Z0
G00 Z2.0000
G00 X44.7650 Y23.0835
G01 Z-1.7000
G01 Z0
G00 Z2.0000
G00 X49.5757 Y23.6195
G01 Z-1.7000
G01 Z0
G00 Z2.0000
G00 X52.7050 Y26.6700
G01 Z-1.7000
G01 Z0
G00 Z2.0000
G00 X52.7050 Y29.2100
G01 Z-1.7000
G01 Z0
G00 Z2.0000
G00 X52.7050 Y31.7500
G01 Z-1.7000
G01 Z0
G00 Z2.0000
G00 X76.3092 Y8.6411
G01 Z-1.7000
G01 Z0
G00 Z2.0000
G00 X85.3110 Y14.8946
G01 Z-1.7000
G01 Z0
G00 Z2.0000
G00 X84.8970 Y18.2397
G01 Z-1.7000
G01 Z0
G00 Z2.0000
G00 X86.9798 Y20.5435
G01 Z-1.7000
G01 Z0
G00 Z2.0000
G00 X89.5350 Y27.9400
G01 Z-1.7000
G01 Z0
G00 Z2.0000
G00 X92.0750 Y27.9400
G01 Z-1.7000
G01 Z0
G00 Z2.0000
G00 X92.0750 Y30.4800
G01 Z-1.7000
G01 Z0
G00 Z2.0000
G00 X89.5350 Y30.4800
G01 Z-1.7000
G01 Z0
G00 Z2.0000
G00 X86.9950 Y30.4800
G01 Z-1.7000
G01 Z0
G00 Z2.0000
G00 X86.9950 Y27.9400
G01 Z-1.7000
G01 Z0
G00 Z2.0000
G00 X84.4550 Y27.9400
G01 Z-1.7000
G01 Z0
G00 Z2.0000
G00 X84.4550 Y30.4800
G01 Z-1.7000
G01 Z0
G00 Z2.0000
G00 X81.9150 Y30.4800
G01 Z-1.7000
G01 Z0
G00 Z2.0000
G00 X81.9150 Y27.9400
G01 Z-1.7000
G01 Z0
G00 Z2.0000
G00 X79.3750 Y27.9400
G01 Z-1.7000
G01 Z0
G00 Z2.0000
G00 X79.3750 Y30.4800
G01 Z-1.7000
G01 Z0
G00 Z2.0000
G00 X76.8350 Y30.4800
G01 Z-1.7000
G01 Z0
G00 Z2.0000
G00 X76.8350 Y27.9400
G01 Z-1.7000
G01 Z0
G00 Z2.0000
G00 X74.2950 Y27.9400
G01 Z-1.7000
G01 Z0
G00 Z2.0000
G00 X74.2950 Y30.4800
G01 Z-1.7000
G01 Z0
G00 Z2.0000
G00 X71.7550 Y30.4800
G01 Z-1.7000
G01 Z0
G00 Z2.0000
G00 X71.7550 Y27.9400
G01 Z-1.7000
G01 Z0
G00 Z2.0000
G00 X69.2150 Y27.9400
G01 Z-1.7000
G01 Z0
G00 Z2.0000
G00 X69.2150 Y30.4800
G01 Z-1.7000
G01 Z0
G00 Z2.0000
G00 X73.2968 Y39.5021
G01 Z-1.7000
G01 Z0
G00 Z2.0000
G00 X76.2000 Y57.1500
G01 Z-1.7000
G01 Z0
G00 Z2.0000
G00 X78.7400 Y57.1500
G01 Z-1.7000
G01 Z0
G00 Z2.0000
G00 X81.2800 Y57.1500
G01 Z-1.7000
G01 Z0
G00 Z2.0000
G00 X95.8850 Y57.1500
G01 Z-1.7000
G01 Z0
G00 Z2.0000
G00 X98.4250 Y57.1500
G01 Z-1.7000
G01 Z0
G00 Z2.0000
G00 X100.9650 Y57.1500
G01 Z-1.7000
G01 Z0
G00 Z2.0000
G00 X95.8850 Y43.1800
G01 Z-1.7000
G01 Z0
G00 Z2.0000
G00 X98.4250 Y43.1800
G01 Z-1.7000
G01 Z0
G00 Z2.0000
G00 X100.9650 Y43.1800
G01 Z-1.7000
G01 Z0
G00 Z2.0000
G00 X107.3150 Y31.7500
G01 Z-1.7000
G01 Z0
G00 Z2.0000
G00 X107.3150 Y29.2100
G01 Z-1.7000
G01 Z0
G00 Z2.0000
G00 X107.3150 Y26.6700
G01 Z-1.7000
G01 Z0
G00 Z2.0000
G00 X96.4438 Y12.9362
G01 Z-1.7000
G01 Z0
G00 Z2.0000
G00 X101.2977 Y12.3749
G01 Z-1.7000
G01 Z0
G00 Z2.0000
G00 X112.7455 Y20.2006
G01 Z-1.7000
G01 Z0
G00 Z2.0000
G00 X114.8105 Y14.4348
G01 Z-1.7000
G01 Z0
G00 Z2.0000
G00 X120.4290 Y17.3863
G01 Z-1.7000
G01 Z0
G00 Z2.0000
G00 X118.6637 Y22.7787
G01 Z-1.7000
G01 Z0
G00 Z2.0000
G00 X123.8250 Y27.9400
G01 Z-1.7000
G01 Z0
G00 Z2.0000
G00 X123.8250 Y30.4800
G01 Z-1.7000
G01 Z0
G00 Z2.0000
G00 X126.3650 Y30.4800
G01 Z-1.7000
G01 Z0
G00 Z2.0000
G00 X126.3650 Y27.9400
G01 Z-1.7000
G01 Z0
G00 Z2.0000
G00 X128.9050 Y27.9400
G01 Z-1.7000
G01 Z0
G00 Z2.0000
G00 X131.4450 Y27.9400
G01 Z-1.7000
G01 Z0
G00 Z2.0000
G00 X128.9050 Y30.4800
G01 Z-1.7000
G01 Z0
G00 Z2.0000
G00 X131.4450 Y30.4800
G01 Z-1.7000
G01 Z0
G00 Z2.0000
G00 X133.9850 Y30.4800
G01 Z-1.7000
G01 Z0
G00 Z2.0000
G00 X136.5250 Y30.4800
G01 Z-1.7000
G01 Z0
G00 Z2.0000
G00 X139.0650 Y30.4800
G01 Z-1.7000
G01 Z0
G00 Z2.0000
G00 X141.6050 Y30.4800
G01 Z-1.7000
G01 Z0
G00 Z2.0000
G00 X144.1450 Y30.4800
G01 Z-1.7000
G01 Z0
G00 Z2.0000
G00 X146.6850 Y30.4800
G01 Z-1.7000
G01 Z0
G00 Z2.0000
G00 X146.6850 Y27.9400
G01 Z-1.7000
G01 Z0
G00 Z2.0000
G00 X144.1450 Y27.9400
G01 Z-1.7000
G01 Z0
G00 Z2.0000
G00 X141.6050 Y27.9400
G01 Z-1.7000
G01 Z0
G00 Z2.0000
G00 X139.0650 Y27.9400
G01 Z-1.7000
G01 Z0
G00 Z2.0000
G00 X136.5250 Y27.9400
G01 Z-1.7000
G01 Z0
G00 Z2.0000
G00 X133.9850 Y27.9400
G01 Z-1.7000
G01 Z0
G00 Z2.0000
G00 X142.0317 Y20.4800
G01 Z-1.7000
G01 Z0
G00 Z2.0000
G00 X163.8300 Y26.6700
G01 Z-1.7000
G01 Z0
G00 Z2.0000
G00 X163.8300 Y29.2100
G01 Z-1.7000
G01 Z0
G00 Z2.0000
G00 X163.8300 Y31.7500
G01 Z-1.7000
G01 Z0
G00 Z2.0000
G00 X167.0050 Y43.1800
G01 Z-1.7000
G01 Z0
G00 Z2.0000
G00 X164.4650 Y43.1800
G01 Z-1.7000
G01 Z0
G00 Z2.0000
G00 X161.9250 Y43.1800
G01 Z-1.7000
G01 Z0
G00 Z2.0000
G00 X161.9250 Y57.1500
G01 Z-1.7000
G01 Z0
G00 Z2.0000
G00 X164.4650 Y57.1500
G01 Z-1.7000
G01 Z0
G00 Z2.0000
G00 X167.0050 Y57.1500
G01 Z-1.7000
G01 Z0
G00 Z2.0000
G00 X167.0050 Y72.3900
G01 Z-1.7000
G01 Z0
G00 Z2.0000
G00 X164.4650 Y72.3900
G01 Z-1.7000
G01 Z0
G00 Z2.0000
G00 X161.9250 Y72.3900
G01 Z-1.7000
G01 Z0
G00 Z2.0000
G00 X164.4650 Y87.6300
G01 Z-1.7000
G01 Z0
G00 Z2.0000
G00 X164.4650 Y90.1700
G01 Z-1.7000
G01 Z0
G00 Z2.0000
G00 X161.9250 Y90.1700
G01 Z-1.7000
G01 Z0
G00 Z2.0000
G00 X161.9250 Y87.6300
G01 Z-1.7000
G01 Z0
G00 Z2.0000
G00 X159.3850 Y87.6300
G01 Z-1.7000
G01 Z0
G00 Z2.0000
G00 X159.3850 Y90.1700
G01 Z-1.7000
G01 Z0
G00 Z2.0000
G00 X156.8450 Y90.1700
G01 Z-1.7000
G01 Z0
G00 Z2.0000
G00 X156.8450 Y87.6300
G01 Z-1.7000
G01 Z0
G00 Z2.0000
G00 X154.3050 Y87.6300
G01 Z-1.7000
G01 Z0
G00 Z2.0000
G00 X154.3050 Y90.1700
G01 Z-1.7000
G01 Z0
G00 Z2.0000
G00 X151.7650 Y90.1700
G01 Z-1.7000
G01 Z0
G00 Z2.0000
G00 X151.7650 Y87.6300
G01 Z-1.7000
G01 Z0
G00 Z2.0000
G00 X149.2250 Y87.6300
G01 Z-1.7000
G01 Z0
G00 Z2.0000
G00 X149.2250 Y90.1700
G01 Z-1.7000
G01 Z0
G00 Z2.0000
G00 X146.6850 Y90.1700
G01 Z-1.7000
G01 Z0
G00 Z2.0000
G00 X144.1450 Y90.1700
G01 Z-1.7000
G01 Z0
G00 Z2.0000
G00 X140.4468 Y97.6706
G01 Z-1.7000
G01 Z0
G00 Z2.0000
G00 X141.6050 Y90.1700
G01 Z-1.7000
G01 Z0
G00 Z2.0000
G00 X141.6050 Y87.6300
G01 Z-1.7000
G01 Z0
G00 Z2.0000
G00 X144.1450 Y87.6300
G01 Z-1.7000
G01 Z0
G00 Z2.0000
G00 X146.6850 Y87.6300
G01 Z-1.7000
G01 Z0
G00 Z2.0000
G00 X144.1450 Y72.3900
G01 Z-1.7000
G01 Z0
G00 Z2.0000
G00 X141.6050 Y72.3900
G01 Z-1.7000
G01 Z0
G00 Z2.0000
G00 X139.0650 Y72.3900
G01 Z-1.7000
G01 Z0
G00 Z2.0000
G00 X139.0650 Y57.1500
G01 Z-1.7000
G01 Z0
G00 Z2.0000
G00 X141.6050 Y57.1500
G01 Z-1.7000
G01 Z0
G00 Z2.0000
G00 X144.1450 Y57.1500
G01 Z-1.7000
G01 Z0
G00 Z2.0000
G00 X144.1450 Y43.1800
G01 Z-1.7000
G01 Z0
G00 Z2.0000
G00 X141.6050 Y43.1800
G01 Z-1.7000
G01 Z0
G00 Z2.0000
G00 X139.0650 Y43.1800
G01 Z-1.7000
G01 Z0
G00 Z2.0000
G00 X132.9131 Y42.5145
G01 Z-1.7000
G01 Z0
G00 Z2.0000
G00 X124.4600 Y57.1500
G01 Z-1.7000
G01 Z0
G00 Z2.0000
G00 X121.9200 Y57.1500
G01 Z-1.7000
G01 Z0
G00 Z2.0000
G00 X119.3800 Y57.1500
G01 Z-1.7000
G01 Z0
G00 Z2.0000
G00 X111.1733 Y70.5358
G01 Z-1.7000
G01 Z0
G00 Z2.0000
G00 X118.7450 Y72.3900
G01 Z-1.7000
G01 Z0
G00 Z2.0000
G00 X121.2850 Y72.3900
G01 Z-1.7000
G01 Z0
G00 Z2.0000
G00 X123.8250 Y72.3900
G01 Z-1.7000
G01 Z0
G00 Z2.0000
G00 X127.8788 Y78.7044
G01 Z-1.7000
G01 Z0
G00 Z2.0000
G00 X121.2850 Y87.6300
G01 Z-1.7000
G01 Z0
G00 Z2.0000
G00 X121.2850 Y90.1700
G01 Z-1.7000
G01 Z0
G00 Z2.0000
G00 X118.7450 Y90.1700
G01 Z-1.7000
G01 Z0
G00 Z2.0000
G00 X118.7450 Y87.6300
G01 Z-1.7000
G01 Z0
G00 Z2.0000
G00 X116.2050 Y87.6300
G01 Z-1.7000
G01 Z0
G00 Z2.0000
G00 X116.2050 Y90.1700
G01 Z-1.7000
G01 Z0
G00 Z2.0000
G00 X113.6650 Y90.1700
G01 Z-1.7000
G01 Z0
G00 Z2.0000
G00 X113.6650 Y87.6300
G01 Z-1.7000
G01 Z0
G00 Z2.0000
G00 X111.1250 Y87.6300
G01 Z-1.7000
G01 Z0
G00 Z2.0000
G00 X111.1250 Y90.1700
G01 Z-1.7000
G01 Z0
G00 Z2.0000
G00 X108.5850 Y90.1700
G01 Z-1.7000
G01 Z0
G00 Z2.0000
G00 X108.5850 Y87.6300
G01 Z-1.7000
G01 Z0
G00 Z2.0000
G00 X106.0450 Y87.6300
G01 Z-1.7000
G01 Z0
G00 Z2.0000
G00 X106.0450 Y90.1700
G01 Z-1.7000
G01 Z0
G00 Z2.0000
G00 X103.5050 Y90.1700
G01 Z-1.7000
G01 Z0
G00 Z2.0000
G00 X103.5050 Y87.6300
G01 Z-1.7000
G01 Z0
G00 Z2.0000
G00 X100.9650 Y87.6300
G01 Z-1.7000
G01 Z0
G00 Z2.0000
G00 X100.9650 Y90.1700
G01 Z-1.7000
G01 Z0
G00 Z2.0000
G00 X98.4250 Y90.1700
G01 Z-1.7000
G01 Z0
G00 Z2.0000
G00 X98.4250 Y87.6300
G01 Z-1.7000
G01 Z0
G00 Z2.0000
G00 X100.9650 Y72.3900
G01 Z-1.7000
G01 Z0
G00 Z2.0000
G00 X98.4250 Y72.3900
G01 Z-1.7000
G01 Z0
G00 Z2.0000
G00 X95.8850 Y72.3900
G01 Z-1.7000
G01 Z0
G00 Z2.0000
G00 X81.2800 Y72.3900
G01 Z-1.7000
G01 Z0
G00 Z2.0000
G00 X78.7400 Y72.3900
G01 Z-1.7000
G01 Z0
G00 Z2.0000
G00 X76.2000 Y72.3900
G01 Z-1.7000
G01 Z0
G00 Z2.0000
G00 X71.1200 Y87.6300
G01 Z-1.7000
G01 Z0
G00 Z2.0000
G00 X73.6600 Y87.6300
G01 Z-1.7000
G01 Z0
G00 Z2.0000
G00 X76.2000 Y87.6300
G01 Z-1.7000
G01 Z0
G00 Z2.0000
G00 X78.7400 Y87.6300
G01 Z-1.7000
G01 Z0
G00 Z2.0000
G00 X78.7400 Y90.1700
G01 Z-1.7000
G01 Z0
G00 Z2.0000
G00 X76.2000 Y90.1700
G01 Z-1.7000
G01 Z0
G00 Z2.0000
G00 X73.6600 Y90.1700
G01 Z-1.7000
G01 Z0
G00 Z2.0000
G00 X71.1200 Y90.1700
G01 Z-1.7000
G01 Z0
G00 Z2.0000
G00 X68.5800 Y90.1700
G01 Z-1.7000
G01 Z0
G00 Z2.0000
G00 X68.5800 Y87.6300
G01 Z-1.7000
G01 Z0
G00 Z2.0000
G00 X66.0400 Y87.6300
G01 Z-1.7000
G01 Z0
G00 Z2.0000
G00 X66.0400 Y90.1700
G01 Z-1.7000
G01 Z0
G00 Z2.0000
G00 X63.5000 Y90.1700
G01 Z-1.7000
G01 Z0
G00 Z2.0000
G00 X63.5000 Y87.6300
G01 Z-1.7000
G01 Z0
G00 Z2.0000
G00 X60.9600 Y87.6300
G01 Z-1.7000
G01 Z0
G00 Z2.0000
G00 X60.9600 Y90.1700
G01 Z-1.7000
G01 Z0
G00 Z2.0000
G00 X58.4200 Y90.1700
G01 Z-1.7000
G01 Z0
G00 Z2.0000
G00 X55.8800 Y90.1700
G01 Z-1.7000
G01 Z0
G00 Z2.0000
G00 X55.8800 Y87.6300
G01 Z-1.7000
G01 Z0
G00 Z2.0000
G00 X58.4200 Y87.6300
G01 Z-1.7000
G01 Z0
G00 Z2.0000
G00 X52.3164 Y78.6079
G01 Z-1.7000
G01 Z0
G00 Z2.0000
G00 X58.4200 Y72.3900
G01 Z-1.7000
G01 Z0
G00 Z2.0000
G00 X55.8800 Y72.3900
G01 Z-1.7000
G01 Z0
G00 Z2.0000
G00 X53.3400 Y72.3900
G01 Z-1.7000
G01 Z0
G00 Z2.0000
G00 X38.7350 Y72.3900
G01 Z-1.7000
G01 Z0
G00 Z2.0000
G00 X36.1950 Y72.3900
G01 Z-1.7000
G01 Z0
G00 Z2.0000
G00 X33.6550 Y72.3900
G01 Z-1.7000
G01 Z0
G00 Z2.0000
G00 X20.9550 Y87.6300
G01 Z-1.7000
G01 Z0
G00 Z2.0000
G00 X23.4950 Y87.6300
G01 Z-1.7000
G01 Z0
G00 Z2.0000
G00 X26.0350 Y87.6300
G01 Z-1.7000
G01 Z0
G00 Z2.0000
G00 X28.5750 Y87.6300
G01 Z-1.7000
G01 Z0
G00 Z2.0000
G00 X31.1150 Y87.6300
G01 Z-1.7000
G01 Z0
G00 Z2.0000
G00 X33.6550 Y87.6300
G01 Z-1.7000
G01 Z0
G00 Z2.0000
G00 X36.1950 Y87.6300
G01 Z-1.7000
G01 Z0
G00 Z2.0000
G00 X36.1950 Y90.1700
G01 Z-1.7000
G01 Z0
G00 Z2.0000
G00 X33.6550 Y90.1700
G01 Z-1.7000
G01 Z0
G00 Z2.0000
G00 X31.1150 Y90.1700
G01 Z-1.7000
G01 Z0
G00 Z2.0000
G00 X28.5750 Y90.1700
G01 Z-1.7000
G01 Z0
G00 Z2.0000
G00 X26.0350 Y90.1700
G01 Z-1.7000
G01 Z0
G00 Z2.0000
G00 X23.4950 Y90.1700
G01 Z-1.7000
G01 Z0
G00 Z2.0000
G00 X20.9550 Y90.1700
G01 Z-1.7000
G01 Z0
G00 Z2.0000
G00 X18.4150 Y90.1700
G01 Z-1.7000
G01 Z0
G00 Z2.0000
G00 X18.4150 Y87.6300
G01 Z-1.7000
G01 Z0
G00 Z2.0000
G00 X15.8750 Y87.6300
G01 Z-1.7000
G01 Z0
G00 Z2.0000
G00 X15.8750 Y90.1700
G01 Z-1.7000
G01 Z0
G00 Z2.0000
G00 X13.3350 Y90.1700
G01 Z-1.7000
G01 Z0
G00 Z2.0000
G00 X13.3350 Y87.6300
G01 Z-1.7000
G01 Z0
G00 Z2.0000
M05
G00 Z0.50


