(G-CODE GENERATED BY FLATCAM v8.994 - www.flatcam.org - Version Date: 2020/11/7)

(Name: io-board-F_Cu.gbr_iso_combined_cnc)
(Type: G-code from Geometry)
(Units: MM)

(Created on Sunday, 02 May 2021 at 19:08)

(This preprocessor is the default preprocessor used by FlatCAM.)
(It is made to work with MACH3 compatible motion controllers.)

(TOOL DIAMETER: 0.1 mm)
(Feedrate_XY: 120.0 mm/min)
(Feedrate_Z: 60.0 mm/min)
(Feedrate rapids 1500.0 mm/min)

(Z_Cut: -0.0 mm)
(Z_Move: 2.0 mm)
(Z Start: None mm)
(Z End: 15.0 mm)
(X,Y End: None mm)
(Steps per circle: 64)
(Preprocessor Geometry: default)

(X range:    4.4354 ...  169.3835  mm)
(Y range:    4.7714 ...  101.8945  mm)

(Spindle Speed: 0.0 RPM)
G21
G90
G94

G01 F120.00

M5
G00 Z15.0000
G00 X0.0000 Y0.0000
T1
M6    
(MSG, Change to Tool Dia = 0.1000)
M0
G00 Z15.0000
S1000
M03
G01 F120.00
G00 X13.7972 Y24.7095
G01 F60.00
G01 Z-0.0000
G01 F120.00
G01 X13.8011 Y24.6842
G01 X13.8086 Y24.6541
G01 X13.8190 Y24.6249
G01 X13.8310 Y24.5993
G01 X13.8453 Y24.5749
G01 X13.8513 Y24.5659
G01 X13.8667 Y24.5455
G01 X13.8838 Y24.5264
G01 X13.8894 Y24.5206
G01 X13.9105 Y24.5017
G01 X13.9354 Y24.4832
G01 X13.9619 Y24.4673
G01 X13.9875 Y24.4551
G01 X13.9950 Y24.4521
G01 X14.0191 Y24.4436
G01 X14.0439 Y24.4373
G01 X14.0545 Y24.4351
G01 X14.0772 Y24.4318
G01 X14.0852 Y24.4311
G01 X14.1108 Y24.4300
G01 X15.0992 Y24.4300
G01 X15.1302 Y24.4315
G01 X15.1555 Y24.4351
G01 X15.1661 Y24.4373
G01 X15.1909 Y24.4436
G01 X15.2150 Y24.4521
G01 X15.2250 Y24.4562
G01 X15.2481 Y24.4673
G01 X15.2701 Y24.4803
G01 X15.2791 Y24.4863
G01 X15.2995 Y24.5017
G01 X15.3186 Y24.5188
G01 X15.3262 Y24.5264
G01 X15.3433 Y24.5455
G01 X15.3587 Y24.5659
G01 X15.3647 Y24.5749
G01 X15.3777 Y24.5969
G01 X15.3888 Y24.6200
G01 X15.3929 Y24.6300
G01 X15.4014 Y24.6541
G01 X15.4089 Y24.6842
G01 X15.4135 Y24.7148
G01 X15.4150 Y24.7458
G01 X15.4149 Y28.3396
G01 X15.4135 Y28.3652
G01 X15.4099 Y28.3905
G01 X15.4077 Y28.4011
G01 X15.4006 Y28.4284
G01 X15.3910 Y28.4551
G01 X15.3801 Y28.4782
G01 X15.3750 Y28.4878
G01 X15.3603 Y28.5119
G01 X15.3433 Y28.5345
G01 X15.3262 Y28.5536
G01 X15.3186 Y28.5612
G01 X15.2974 Y28.5800
G01 X15.2746 Y28.5968
G01 X15.2504 Y28.6114
G01 X15.2250 Y28.6238
G01 X15.2150 Y28.6279
G01 X15.1909 Y28.6364
G01 X15.1608 Y28.6439
G01 X15.1302 Y28.6485
G01 X15.1019 Y28.6500
G01 X14.1108 Y28.6500
G01 X14.0852 Y28.6489
G01 X14.0772 Y28.6482
G01 X14.0492 Y28.6439
G01 X14.0243 Y28.6378
G01 X14.0140 Y28.6347
G01 X13.9899 Y28.6260
G01 X13.9668 Y28.6151
G01 X13.9572 Y28.6100
G01 X13.9354 Y28.5968
G01 X13.9126 Y28.5800
G01 X13.8914 Y28.5612
G01 X13.8838 Y28.5536
G01 X13.8667 Y28.5345
G01 X13.8513 Y28.5141
G01 X13.8453 Y28.5051
G01 X13.8323 Y28.4831
G01 X13.8212 Y28.4600
G01 X13.8171 Y28.4500
G01 X13.8086 Y28.4259
G01 X13.8011 Y28.3958
G01 X13.7965 Y28.3652
G01 X13.7950 Y28.3342
G01 X13.7950 Y24.7458
G01 X13.7961 Y24.7202
G01 X13.7972 Y24.7095
G00 Z2.0000
G00 X13.8565 Y24.7183
G01 F60.00
G01 Z-0.0000
G01 F120.00
G01 X13.8599 Y24.6959
G01 X13.8660 Y24.6715
G01 X13.8745 Y24.6479
G01 X13.8852 Y24.6252
G01 X13.8981 Y24.6037
G01 X13.9131 Y24.5835
G01 X13.9299 Y24.5649
G01 X13.9467 Y24.5497
G01 X13.9708 Y24.5318
G01 X13.9902 Y24.5202
G01 X14.0152 Y24.5086
G01 X14.0365 Y24.5010
G01 X14.0609 Y24.4949
G01 X14.0857 Y24.4912
G01 X14.1096 Y24.4900
G01 X15.0992 Y24.4900
G01 X15.1267 Y24.4915
G01 X15.1491 Y24.4949
G01 X15.1711 Y24.5004
G01 X15.1971 Y24.5095
G01 X15.2198 Y24.5202
G01 X15.2392 Y24.5318
G01 X15.2615 Y24.5481
G01 X15.2818 Y24.5667
G01 X15.2969 Y24.5835
G01 X15.3119 Y24.6037
G01 X15.3259 Y24.6274
G01 X15.3355 Y24.6479
G01 X15.3436 Y24.6704
G01 X15.3505 Y24.6983
G01 X15.3538 Y24.7207
G01 X15.3550 Y24.7458
G01 X15.3549 Y28.3367
G01 X15.3538 Y28.3593
G01 X15.3505 Y28.3817
G01 X15.3432 Y28.4108
G01 X15.3355 Y28.4321
G01 X15.3248 Y28.4548
G01 X15.3119 Y28.4763
G01 X15.2984 Y28.4945
G01 X15.2783 Y28.5168
G01 X15.2615 Y28.5319
G01 X15.2413 Y28.5469
G01 X15.2176 Y28.5609
G01 X15.1971 Y28.5705
G01 X15.1746 Y28.5786
G01 X15.1467 Y28.5855
G01 X15.1243 Y28.5888
G01 X15.0992 Y28.5900
G01 X14.1108 Y28.5900
G01 X14.0845 Y28.5886
G01 X14.0609 Y28.5851
G01 X14.0389 Y28.5796
G01 X14.0129 Y28.5705
G01 X13.9902 Y28.5598
G01 X13.9708 Y28.5482
G01 X13.9485 Y28.5319
G01 X13.9282 Y28.5133
G01 X13.9131 Y28.4965
G01 X13.8981 Y28.4763
G01 X13.8841 Y28.4526
G01 X13.8745 Y28.4321
G01 X13.8664 Y28.4096
G01 X13.8595 Y28.3817
G01 X13.8562 Y28.3593
G01 X13.8550 Y28.3342
G01 X13.8550 Y24.7458
G01 X13.8565 Y24.7183
G00 Z2.0000
G00 X18.8796 Y25.1552
G01 F60.00
G01 Z-0.0000
G01 F120.00
G01 X18.8906 Y25.0820
G01 X18.9099 Y25.0049
G01 X18.9367 Y24.9300
G01 X18.9682 Y24.8630
G01 X18.9733 Y24.8535
G01 X19.0086 Y24.7945
G01 X19.0146 Y24.7856
G01 X19.0589 Y24.7261
G01 X19.1122 Y24.6672
G01 X19.1711 Y24.6139
G01 X19.2306 Y24.5696
G01 X19.2395 Y24.5636
G01 X19.2985 Y24.5283
G01 X19.3080 Y24.5232
G01 X19.3750 Y24.4917
G01 X19.4499 Y24.4649
G01 X19.5270 Y24.4456
G01 X19.6056 Y24.4339
G01 X19.6850 Y24.4300
G01 X19.7590 Y24.4335
G01 X19.7698 Y24.4346
G01 X19.8377 Y24.4446
G01 X19.8483 Y24.4467
G01 X19.9201 Y24.4649
G01 X19.9950 Y24.4917
G01 X20.0668 Y24.5256
G01 X20.1350 Y24.5665
G01 X20.1989 Y24.6139
G01 X20.2578 Y24.6672
G01 X20.3111 Y24.7261
G01 X20.3554 Y24.7856
G01 X20.3614 Y24.7945
G01 X20.3967 Y24.8535
G01 X20.4018 Y24.8630
G01 X20.4333 Y24.9300
G01 X20.4601 Y25.0049
G01 X20.4794 Y25.0820
G01 X20.4904 Y25.1552
G01 X20.4915 Y25.1660
G01 X20.4950 Y25.2400
G01 X20.4950 Y27.8400
G01 X20.4911 Y27.9194
G01 X20.4804 Y27.9927
G01 X20.4783 Y28.0033
G01 X20.4601 Y28.0751
G01 X20.4353 Y28.1449
G01 X20.4312 Y28.1549
G01 X20.3994 Y28.2218
G01 X20.3614 Y28.2855
G01 X20.3554 Y28.2944
G01 X20.3145 Y28.3496
G01 X20.3076 Y28.3579
G01 X20.2578 Y28.4128
G01 X20.2029 Y28.4626
G01 X20.1946 Y28.4695
G01 X20.1350 Y28.5135
G01 X20.0668 Y28.5544
G01 X19.9999 Y28.5862
G01 X19.9899 Y28.5903
G01 X19.9201 Y28.6151
G01 X19.8430 Y28.6344
G01 X19.7644 Y28.6461
G01 X19.6850 Y28.6500
G01 X19.6056 Y28.6461
G01 X19.5270 Y28.6344
G01 X19.4499 Y28.6151
G01 X19.3750 Y28.5883
G01 X19.3032 Y28.5544
G01 X19.2350 Y28.5135
G01 X19.1711 Y28.4661
G01 X19.1122 Y28.4128
G01 X19.0589 Y28.3539
G01 X19.0115 Y28.2900
G01 X18.9706 Y28.2218
G01 X18.9367 Y28.1500
G01 X18.9099 Y28.0751
G01 X18.8906 Y27.9980
G01 X18.8796 Y27.9248
G01 X18.8785 Y27.9140
G01 X18.8750 Y27.8400
G01 X18.8750 Y25.2400
G01 X18.8785 Y25.1660
G01 X18.8796 Y25.1552
G00 Z2.0000
G00 X18.9389 Y25.1641
G01 F60.00
G01 Z-0.0000
G01 F120.00
G01 X18.9494 Y25.0937
G01 X18.9673 Y25.0223
G01 X18.9921 Y24.9530
G01 X19.0225 Y24.8886
G01 X19.0628 Y24.8213
G01 X19.1052 Y24.7642
G01 X19.1547 Y24.7097
G01 X19.2092 Y24.6602
G01 X19.2663 Y24.6178
G01 X19.3336 Y24.5775
G01 X19.3980 Y24.5471
G01 X19.4673 Y24.5223
G01 X19.5387 Y24.5044
G01 X19.6115 Y24.4936
G01 X19.6850 Y24.4900
G01 X19.7561 Y24.4934
G01 X19.8337 Y24.5049
G01 X19.9027 Y24.5223
G01 X19.9720 Y24.5471
G01 X20.0385 Y24.5786
G01 X20.1017 Y24.6164
G01 X20.1608 Y24.6602
G01 X20.2153 Y24.7097
G01 X20.2648 Y24.7642
G01 X20.3072 Y24.8213
G01 X20.3475 Y24.8886
G01 X20.3779 Y24.9530
G01 X20.4030 Y25.0235
G01 X20.4206 Y25.0937
G01 X20.4311 Y25.1641
G01 X20.4350 Y25.2400
G01 X20.4350 Y27.8400
G01 X20.4311 Y27.9159
G01 X20.4206 Y27.9863
G01 X20.4034 Y28.0553
G01 X20.3779 Y28.1270
G01 X20.3464 Y28.1935
G01 X20.3099 Y28.2546
G01 X20.2648 Y28.3158
G01 X20.2136 Y28.3720
G01 X20.1608 Y28.4198
G01 X20.1017 Y28.4636
G01 X20.0385 Y28.5014
G01 X19.9743 Y28.5319
G01 X19.9015 Y28.5580
G01 X19.8313 Y28.5756
G01 X19.7585 Y28.5864
G01 X19.6850 Y28.5900
G01 X19.6115 Y28.5864
G01 X19.5387 Y28.5756
G01 X19.4673 Y28.5577
G01 X19.3980 Y28.5329
G01 X19.3315 Y28.5014
G01 X19.2683 Y28.4636
G01 X19.2092 Y28.4198
G01 X19.1547 Y28.3703
G01 X19.1052 Y28.3158
G01 X19.0614 Y28.2567
G01 X19.0236 Y28.1935
G01 X18.9921 Y28.1270
G01 X18.9670 Y28.0565
G01 X18.9494 Y27.9863
G01 X18.9389 Y27.9159
G01 X18.9350 Y27.8400
G01 X18.9350 Y25.2400
G01 X18.9389 Y25.1641
G00 Z2.0000
G00 X21.4196 Y25.1552
G01 F60.00
G01 Z-0.0000
G01 F120.00
G01 X21.4306 Y25.0820
G01 X21.4499 Y25.0049
G01 X21.4767 Y24.9300
G01 X21.5082 Y24.8630
G01 X21.5133 Y24.8535
G01 X21.5486 Y24.7945
G01 X21.5546 Y24.7856
G01 X21.5989 Y24.7261
G01 X21.6522 Y24.6672
G01 X21.7111 Y24.6139
G01 X21.7706 Y24.5696
G01 X21.7795 Y24.5636
G01 X21.8385 Y24.5283
G01 X21.8480 Y24.5232
G01 X21.9150 Y24.4917
G01 X21.9899 Y24.4649
G01 X22.0670 Y24.4456
G01 X22.1456 Y24.4339
G01 X22.2250 Y24.4300
G01 X22.3044 Y24.4339
G01 X22.3830 Y24.4456
G01 X22.4549 Y24.4634
G01 X22.4653 Y24.4666
G01 X22.5299 Y24.4897
G01 X22.5399 Y24.4938
G01 X22.6068 Y24.5256
G01 X22.6750 Y24.5665
G01 X22.7389 Y24.6139
G01 X22.7978 Y24.6672
G01 X22.8511 Y24.7261
G01 X22.8954 Y24.7856
G01 X22.9014 Y24.7945
G01 X22.9367 Y24.8535
G01 X22.9418 Y24.8630
G01 X22.9733 Y24.9300
G01 X23.0001 Y25.0049
G01 X23.0194 Y25.0820
G01 X23.0304 Y25.1552
G01 X23.0315 Y25.1660
G01 X23.0350 Y25.2400
G01 X23.0350 Y27.8400
G01 X23.0311 Y27.9194
G01 X23.0204 Y27.9927
G01 X23.0183 Y28.0033
G01 X23.0001 Y28.0751
G01 X22.9753 Y28.1449
G01 X22.9712 Y28.1549
G01 X22.9394 Y28.2218
G01 X22.9014 Y28.2855
G01 X22.8954 Y28.2944
G01 X22.8545 Y28.3496
G01 X22.8476 Y28.3579
G01 X22.7978 Y28.4128
G01 X22.7429 Y28.4626
G01 X22.7346 Y28.4695
G01 X22.6750 Y28.5135
G01 X22.6068 Y28.5544
G01 X22.5399 Y28.5862
G01 X22.5299 Y28.5903
G01 X22.4601 Y28.6151
G01 X22.3830 Y28.6344
G01 X22.3044 Y28.6461
G01 X22.2250 Y28.6500
G01 X22.1456 Y28.6461
G01 X22.0670 Y28.6344
G01 X21.9899 Y28.6151
G01 X21.9150 Y28.5883
G01 X21.8432 Y28.5544
G01 X21.7750 Y28.5135
G01 X21.7111 Y28.4661
G01 X21.6522 Y28.4128
G01 X21.5989 Y28.3539
G01 X21.5515 Y28.2900
G01 X21.5106 Y28.2218
G01 X21.4767 Y28.1500
G01 X21.4499 Y28.0751
G01 X21.4306 Y27.9980
G01 X21.4196 Y27.9248
G01 X21.4185 Y27.9140
G01 X21.4150 Y27.8400
G01 X21.4150 Y25.2400
G01 X21.4185 Y25.1660
G01 X21.4196 Y25.1552
G00 Z2.0000
G00 X21.4789 Y25.1641
G01 F60.00
G01 Z-0.0000
G01 F120.00
G01 X21.4894 Y25.0937
G01 X21.5073 Y25.0223
G01 X21.5321 Y24.9530
G01 X21.5625 Y24.8886
G01 X21.6028 Y24.8213
G01 X21.6452 Y24.7642
G01 X21.6947 Y24.7097
G01 X21.7492 Y24.6602
G01 X21.8063 Y24.6178
G01 X21.8736 Y24.5775
G01 X21.9380 Y24.5471
G01 X22.0073 Y24.5223
G01 X22.0787 Y24.5044
G01 X22.1515 Y24.4936
G01 X22.2250 Y24.4900
G01 X22.2985 Y24.4936
G01 X22.3713 Y24.5044
G01 X22.4403 Y24.5216
G01 X22.5143 Y24.5481
G01 X22.5785 Y24.5786
G01 X22.6417 Y24.6164
G01 X22.7008 Y24.6602
G01 X22.7553 Y24.7097
G01 X22.8048 Y24.7642
G01 X22.8472 Y24.8213
G01 X22.8875 Y24.8886
G01 X22.9179 Y24.9530
G01 X22.9430 Y25.0235
G01 X22.9606 Y25.0937
G01 X22.9711 Y25.1641
G01 X22.9750 Y25.2400
G01 X22.9750 Y27.8400
G01 X22.9711 Y27.9159
G01 X22.9606 Y27.9863
G01 X22.9434 Y28.0553
G01 X22.9179 Y28.1270
G01 X22.8864 Y28.1935
G01 X22.8499 Y28.2546
G01 X22.8048 Y28.3158
G01 X22.7536 Y28.3720
G01 X22.7008 Y28.4198
G01 X22.6417 Y28.4636
G01 X22.5785 Y28.5014
G01 X22.5143 Y28.5319
G01 X22.4415 Y28.5580
G01 X22.3713 Y28.5756
G01 X22.2985 Y28.5864
G01 X22.2250 Y28.5900
G01 X22.1515 Y28.5864
G01 X22.0787 Y28.5756
G01 X22.0073 Y28.5577
G01 X21.9380 Y28.5329
G01 X21.8715 Y28.5014
G01 X21.8083 Y28.4636
G01 X21.7492 Y28.4198
G01 X21.6947 Y28.3703
G01 X21.6452 Y28.3158
G01 X21.6014 Y28.2567
G01 X21.5636 Y28.1935
G01 X21.5321 Y28.1270
G01 X21.5070 Y28.0565
G01 X21.4894 Y27.9863
G01 X21.4789 Y27.9159
G01 X21.4750 Y27.8400
G01 X21.4750 Y25.2400
G01 X21.4789 Y25.1641
G00 Z2.0000
G00 X23.9596 Y25.1552
G01 F60.00
G01 Z-0.0000
G01 F120.00
G01 X23.9706 Y25.0820
G01 X23.9884 Y25.0101
G01 X23.9916 Y24.9997
G01 X24.0147 Y24.9351
G01 X24.0188 Y24.9251
G01 X24.0506 Y24.8582
G01 X24.0832 Y24.8036
G01 X24.0832 Y21.4748
G01 X24.0865 Y21.4107
G01 X24.0954 Y21.3498
G01 X24.0975 Y21.3392
G01 X24.1126 Y21.2796
G01 X24.1351 Y21.2166
G01 X24.1613 Y21.1609
G01 X24.1664 Y21.1514
G01 X24.1952 Y21.1033
G01 X24.1996 Y21.0965
G01 X24.2380 Y21.0450
G01 X24.2829 Y20.9954
G01 X33.1046 Y12.1737
G01 X33.1542 Y12.1288
G01 X33.2035 Y12.0920
G01 X33.2125 Y12.0860
G01 X33.2653 Y12.0545
G01 X33.3258 Y12.0259
G01 X33.3837 Y12.0051
G01 X33.3940 Y12.0019
G01 X33.4484 Y11.9883
G01 X33.4563 Y11.9866
G01 X33.5199 Y11.9773
G01 X33.5867 Y11.9740
G01 X83.0726 Y11.9740
G01 X83.1340 Y11.9769
G01 X83.1448 Y11.9780
G01 X83.2003 Y11.9862
G01 X83.2109 Y11.9883
G01 X83.2705 Y12.0034
G01 X83.3335 Y12.0259
G01 X83.3940 Y12.0545
G01 X83.4468 Y12.0860
G01 X83.4558 Y12.0920
G01 X83.5009 Y12.1255
G01 X83.5092 Y12.1323
G01 X83.5547 Y12.1737
G01 X85.1756 Y13.7946
G01 X85.2060 Y13.7904
G01 X85.3094 Y13.7853
G01 X85.3175 Y13.7854
G01 X85.4182 Y13.7904
G01 X85.4263 Y13.7913
G01 X85.5287 Y13.8066
G01 X85.6317 Y13.8323
G01 X85.6394 Y13.8348
G01 X85.7369 Y13.8698
G01 X85.8354 Y13.9164
G01 X85.9288 Y13.9724
G01 X86.0163 Y14.0373
G01 X86.0970 Y14.1104
G01 X86.1701 Y14.1911
G01 X86.2350 Y14.2786
G01 X86.2884 Y14.3674
G01 X86.2935 Y14.3769
G01 X86.3354 Y14.4656
G01 X86.3395 Y14.4756
G01 X86.3743 Y14.5731
G01 X86.3996 Y14.6735
G01 X86.4013 Y14.6814
G01 X86.4168 Y14.7865
G01 X86.4220 Y14.8899
G01 X86.4220 Y14.9007
G01 X86.4172 Y14.9987
G01 X86.4161 Y15.0095
G01 X86.4008 Y15.1119
G01 X86.3757 Y15.2123
G01 X86.3726 Y15.2226
G01 X86.3376 Y15.3201
G01 X86.2910 Y15.4186
G01 X86.2350 Y15.5120
G01 X86.1701 Y15.5995
G01 X86.0970 Y15.6802
G01 X86.0204 Y15.7498
G01 X86.0120 Y15.7567
G01 X85.9332 Y15.8151
G01 X85.9242 Y15.8211
G01 X85.8354 Y15.8742
G01 X85.7418 Y15.9186
G01 X85.7318 Y15.9227
G01 X85.6343 Y15.9575
G01 X85.5287 Y15.9840
G01 X85.4209 Y16.0000
G01 X85.3175 Y16.0052
G01 X85.3094 Y16.0053
G01 X85.2033 Y16.0000
G01 X85.0955 Y15.9840
G01 X84.9899 Y15.9575
G01 X84.8873 Y15.9208
G01 X84.7888 Y15.8742
G01 X84.6954 Y15.8182
G01 X84.6079 Y15.7533
G01 X84.5311 Y15.6839
G01 X84.5253 Y15.6783
G01 X84.4576 Y15.6036
G01 X84.4507 Y15.5952
G01 X84.3892 Y15.5120
G01 X84.3358 Y15.4232
G01 X84.3307 Y15.4137
G01 X84.2866 Y15.3201
G01 X84.2507 Y15.2201
G01 X84.2485 Y15.2123
G01 X84.2234 Y15.1119
G01 X84.2081 Y15.0095
G01 X84.2072 Y15.0014
G01 X84.2022 Y14.9007
G01 X84.2021 Y14.8926
G01 X84.2072 Y14.7892
G01 X84.2114 Y14.7588
G01 X82.7902 Y13.3376
G01 X33.8691 Y13.3376
G01 X25.4468 Y21.7599
G01 X25.4468 Y24.8036
G01 X25.4794 Y24.8582
G01 X25.5112 Y24.9251
G01 X25.5153 Y24.9351
G01 X25.5401 Y25.0049
G01 X25.5583 Y25.0767
G01 X25.5604 Y25.0873
G01 X25.5711 Y25.1606
G01 X25.5749 Y25.2346
G01 X25.5750 Y27.8400
G01 X25.5713 Y27.9167
G01 X25.5704 Y27.9248
G01 X25.5604 Y27.9927
G01 X25.5583 Y28.0033
G01 X25.5401 Y28.0751
G01 X25.5133 Y28.1500
G01 X25.4794 Y28.2218
G01 X25.4414 Y28.2855
G01 X25.4354 Y28.2944
G01 X25.3911 Y28.3539
G01 X25.3415 Y28.4088
G01 X25.3338 Y28.4165
G01 X25.2789 Y28.4661
G01 X25.2150 Y28.5135
G01 X25.1468 Y28.5544
G01 X25.0799 Y28.5862
G01 X25.0699 Y28.5903
G01 X25.0001 Y28.6151
G01 X24.9230 Y28.6344
G01 X24.8444 Y28.6461
G01 X24.7650 Y28.6500
G01 X24.6856 Y28.6461
G01 X24.6070 Y28.6344
G01 X24.5299 Y28.6151
G01 X24.4550 Y28.5883
G01 X24.3832 Y28.5544
G01 X24.3150 Y28.5135
G01 X24.2511 Y28.4661
G01 X24.1922 Y28.4128
G01 X24.1389 Y28.3539
G01 X24.0915 Y28.2900
G01 X24.0506 Y28.2218
G01 X24.0167 Y28.1500
G01 X23.9899 Y28.0751
G01 X23.9706 Y27.9980
G01 X23.9596 Y27.9248
G01 X23.9585 Y27.9140
G01 X23.9550 Y27.8400
G01 X23.9550 Y25.2400
G01 X23.9585 Y25.1660
G01 X23.9596 Y25.1552
G00 Z2.0000
G00 X24.0189 Y25.1641
G01 F60.00
G01 Z-0.0000
G01 F120.00
G01 X24.0294 Y25.0937
G01 X24.0466 Y25.0247
G01 X24.0712 Y24.9553
G01 X24.1036 Y24.8865
G01 X24.1401 Y24.8254
G01 X24.1432 Y24.8208
G01 X24.1432 Y21.4763
G01 X24.1462 Y21.4166
G01 X24.1547 Y21.3586
G01 X24.1700 Y21.2970
G01 X24.1905 Y21.2396
G01 X24.2155 Y21.1866
G01 X24.2487 Y21.1310
G01 X24.2844 Y21.0830
G01 X24.3253 Y21.0378
G01 X33.1470 Y12.2161
G01 X33.1922 Y12.1752
G01 X33.2392 Y12.1402
G01 X33.2936 Y12.1074
G01 X33.3488 Y12.0813
G01 X33.4039 Y12.0616
G01 X33.4666 Y12.0457
G01 X33.5258 Y12.0370
G01 X33.5867 Y12.0340
G01 X83.0726 Y12.0340
G01 X83.1311 Y12.0368
G01 X83.1963 Y12.0465
G01 X83.2531 Y12.0608
G01 X83.3105 Y12.0813
G01 X83.3657 Y12.1074
G01 X83.4160 Y12.1375
G01 X83.4689 Y12.1768
G01 X83.5123 Y12.2161
G01 X85.1545 Y13.8584
G01 X85.2104 Y13.8503
G01 X85.3109 Y13.8453
G01 X85.4138 Y13.8503
G01 X85.5169 Y13.8655
G01 X85.6157 Y13.8902
G01 X85.7139 Y13.9252
G01 X85.8071 Y13.9693
G01 X85.8954 Y14.0223
G01 X85.9782 Y14.0836
G01 X86.0546 Y14.1528
G01 X86.1238 Y14.2292
G01 X86.1851 Y14.3120
G01 X86.2369 Y14.3982
G01 X86.2831 Y14.4958
G01 X86.3169 Y14.5905
G01 X86.3421 Y14.6917
G01 X86.3570 Y14.7924
G01 X86.3620 Y14.8928
G01 X86.3570 Y14.9982
G01 X86.3414 Y15.1025
G01 X86.3169 Y15.2001
G01 X86.2831 Y15.2948
G01 X86.2381 Y15.3903
G01 X86.1837 Y15.4807
G01 X86.1238 Y15.5614
G01 X86.0563 Y15.6360
G01 X85.9782 Y15.7070
G01 X85.8934 Y15.7697
G01 X85.8071 Y15.8213
G01 X85.7139 Y15.8654
G01 X85.6145 Y15.9007
G01 X85.5169 Y15.9251
G01 X85.4175 Y15.9399
G01 X85.3121 Y15.9453
G01 X85.2067 Y15.9399
G01 X85.1073 Y15.9251
G01 X85.0097 Y15.9007
G01 X84.9103 Y15.8654
G01 X84.8171 Y15.8213
G01 X84.7308 Y15.7697
G01 X84.6441 Y15.7054
G01 X84.5696 Y15.6378
G01 X84.5004 Y15.5614
G01 X84.4391 Y15.4786
G01 X84.3867 Y15.3913
G01 X84.3411 Y15.2948
G01 X84.3073 Y15.2001
G01 X84.2821 Y15.0989
G01 X84.2672 Y14.9982
G01 X84.2621 Y14.8965
G01 X84.2671 Y14.7936
G01 X84.2752 Y14.7377
G01 X82.8150 Y13.2776
G01 X33.8443 Y13.2776
G01 X25.3868 Y21.7351
G01 X25.3868 Y24.8208
G01 X25.3899 Y24.8254
G01 X25.4275 Y24.8886
G01 X25.4579 Y24.9530
G01 X25.4827 Y25.0223
G01 X25.5010 Y25.0961
G01 X25.5114 Y25.1665
G01 X25.5149 Y25.2375
G01 X25.5150 Y27.8400
G01 X25.5116 Y27.9111
G01 X25.5001 Y27.9887
G01 X25.4827 Y28.0577
G01 X25.4579 Y28.1270
G01 X25.4264 Y28.1935
G01 X25.3899 Y28.2546
G01 X25.3448 Y28.3158
G01 X25.2936 Y28.3720
G01 X25.2408 Y28.4198
G01 X25.1817 Y28.4636
G01 X25.1185 Y28.5014
G01 X25.0543 Y28.5319
G01 X24.9815 Y28.5580
G01 X24.9113 Y28.5756
G01 X24.8385 Y28.5864
G01 X24.7650 Y28.5900
G01 X24.6915 Y28.5864
G01 X24.6187 Y28.5756
G01 X24.5473 Y28.5577
G01 X24.4780 Y28.5329
G01 X24.4115 Y28.5014
G01 X24.3483 Y28.4636
G01 X24.2892 Y28.4198
G01 X24.2347 Y28.3703
G01 X24.1852 Y28.3158
G01 X24.1414 Y28.2567
G01 X24.1036 Y28.1935
G01 X24.0721 Y28.1270
G01 X24.0470 Y28.0565
G01 X24.0294 Y27.9863
G01 X24.0189 Y27.9159
G01 X24.0150 Y27.8400
G01 X24.0150 Y25.2400
G01 X24.0189 Y25.1641
G00 Z2.0000
G00 X26.4996 Y25.1552
G01 F60.00
G01 Z-0.0000
G01 F120.00
G01 X26.5106 Y25.0820
G01 X26.5284 Y25.0101
G01 X26.5316 Y24.9997
G01 X26.5547 Y24.9351
G01 X26.5588 Y24.9251
G01 X26.5906 Y24.8582
G01 X26.6232 Y24.8036
G01 X26.6232 Y21.8580
G01 X26.6265 Y21.7939
G01 X26.6354 Y21.7330
G01 X26.6375 Y21.7224
G01 X26.6526 Y21.6628
G01 X26.6751 Y21.5998
G01 X26.7013 Y21.5441
G01 X26.7064 Y21.5346
G01 X26.7352 Y21.4865
G01 X26.7396 Y21.4797
G01 X26.7780 Y21.4282
G01 X26.8229 Y21.3786
G01 X33.9275 Y14.2740
G01 X33.9771 Y14.2291
G01 X34.0264 Y14.1923
G01 X34.0354 Y14.1863
G01 X34.0882 Y14.1548
G01 X34.1487 Y14.1262
G01 X34.2066 Y14.1054
G01 X34.2169 Y14.1022
G01 X34.2766 Y14.0874
G01 X34.3428 Y14.0776
G01 X34.4096 Y14.0743
G01 X81.4184 Y14.0744
G01 X81.4798 Y14.0776
G01 X81.5460 Y14.0874
G01 X81.6109 Y14.1037
G01 X81.6689 Y14.1243
G01 X81.6788 Y14.1284
G01 X81.7344 Y14.1548
G01 X81.7872 Y14.1863
G01 X81.7962 Y14.1923
G01 X81.8413 Y14.2258
G01 X81.8496 Y14.2326
G01 X81.8951 Y14.2740
G01 X84.3341 Y16.7130
G01 X88.1938 Y16.7130
G01 X97.6167 Y7.2901
G01 X97.6622 Y7.2487
G01 X97.6705 Y7.2419
G01 X97.7200 Y7.2053
G01 X97.7727 Y7.1736
G01 X97.7822 Y7.1685
G01 X97.8379 Y7.1423
G01 X97.9009 Y7.1198
G01 X97.9658 Y7.1035
G01 X98.0266 Y7.0944
G01 X98.0374 Y7.0933
G01 X98.0988 Y7.0904
G01 X121.2315 Y7.0904
G01 X121.2956 Y7.0937
G01 X121.3618 Y7.1035
G01 X121.4267 Y7.1198
G01 X121.4897 Y7.1423
G01 X121.5502 Y7.1709
G01 X121.6076 Y7.2053
G01 X121.6613 Y7.2452
G01 X121.7109 Y7.2901
G01 X137.0071 Y22.5863
G01 X137.0485 Y22.6318
G01 X137.0537 Y22.6380
G01 X137.0919 Y22.6896
G01 X137.1236 Y22.7423
G01 X137.1287 Y22.7518
G01 X137.1549 Y22.8075
G01 X137.1757 Y22.8654
G01 X137.1789 Y22.8757
G01 X137.1937 Y22.9354
G01 X137.2035 Y23.0016
G01 X137.2068 Y23.0684
G01 X137.2068 Y24.8036
G01 X137.2394 Y24.8582
G01 X137.2712 Y24.9251
G01 X137.2753 Y24.9351
G01 X137.2984 Y24.9997
G01 X137.3016 Y25.0101
G01 X137.3194 Y25.0820
G01 X137.3304 Y25.1552
G01 X137.3315 Y25.1660
G01 X137.3350 Y25.2400
G01 X137.3350 Y27.8427
G01 X137.3311 Y27.9194
G01 X137.3194 Y27.9980
G01 X137.3001 Y28.0751
G01 X137.2753 Y28.1449
G01 X137.2712 Y28.1549
G01 X137.2394 Y28.2218
G01 X137.2014 Y28.2855
G01 X137.1954 Y28.2944
G01 X137.1545 Y28.3496
G01 X137.1476 Y28.3579
G01 X137.0978 Y28.4128
G01 X137.0389 Y28.4661
G01 X136.9750 Y28.5135
G01 X136.9068 Y28.5544
G01 X136.8350 Y28.5883
G01 X136.7601 Y28.6151
G01 X136.6830 Y28.6344
G01 X136.6098 Y28.6454
G01 X136.5990 Y28.6465
G01 X136.5250 Y28.6500
G01 X136.4510 Y28.6465
G01 X136.4402 Y28.6454
G01 X136.3723 Y28.6354
G01 X136.3617 Y28.6333
G01 X136.2899 Y28.6151
G01 X136.2150 Y28.5883
G01 X136.1432 Y28.5544
G01 X136.0750 Y28.5135
G01 X136.0111 Y28.4661
G01 X135.9562 Y28.4165
G01 X135.9485 Y28.4088
G01 X135.9024 Y28.3579
G01 X135.8955 Y28.3496
G01 X135.8515 Y28.2900
G01 X135.8106 Y28.2218
G01 X135.7767 Y28.1500
G01 X135.7507 Y28.0777
G01 X135.7484 Y28.0699
G01 X135.7317 Y28.0033
G01 X135.7296 Y27.9927
G01 X135.7189 Y27.9194
G01 X135.7150 Y27.8427
G01 X135.7150 Y25.2373
G01 X135.7189 Y25.1606
G01 X135.7296 Y25.0873
G01 X135.7317 Y25.0767
G01 X135.7499 Y25.0049
G01 X135.7747 Y24.9351
G01 X135.7788 Y24.9251
G01 X135.8106 Y24.8582
G01 X135.8432 Y24.8036
G01 X135.8432 Y23.3508
G01 X120.9464 Y8.4540
G01 X98.3812 Y8.4540
G01 X88.9583 Y17.8769
G01 X88.9087 Y17.9218
G01 X88.8594 Y17.9586
G01 X88.8504 Y17.9646
G01 X88.7976 Y17.9961
G01 X88.7371 Y18.0247
G01 X88.6741 Y18.0472
G01 X88.6145 Y18.0623
G01 X88.6039 Y18.0644
G01 X88.5484 Y18.0726
G01 X88.5376 Y18.0737
G01 X88.4762 Y18.0766
G01 X85.9927 Y18.0766
G01 X85.9999 Y18.1248
G01 X86.0008 Y18.1329
G01 X86.0059 Y18.2363
G01 X86.0058 Y18.2444
G01 X86.0008 Y18.3451
G01 X85.9999 Y18.3532
G01 X85.9846 Y18.4556
G01 X85.9589 Y18.5586
G01 X85.9564 Y18.5663
G01 X85.9214 Y18.6638
G01 X85.8748 Y18.7623
G01 X85.8188 Y18.8557
G01 X85.7556 Y18.9411
G01 X85.7504 Y18.9473
G01 X85.6808 Y19.0239
G01 X85.6001 Y19.0970
G01 X85.5126 Y19.1619
G01 X85.4192 Y19.2179
G01 X85.3207 Y19.2645
G01 X85.2181 Y19.3012
G01 X85.1125 Y19.3277
G01 X85.0101 Y19.3430
G01 X85.0020 Y19.3439
G01 X84.8959 Y19.3490
G01 X84.7925 Y19.3441
G01 X84.7817 Y19.3430
G01 X84.6793 Y19.3277
G01 X84.5789 Y19.3026
G01 X84.5686 Y19.2995
G01 X84.4762 Y19.2664
G01 X84.4662 Y19.2623
G01 X84.3726 Y19.2179
G01 X84.2792 Y19.1619
G01 X84.1917 Y19.0970
G01 X84.1110 Y19.0239
G01 X84.0379 Y18.9432
G01 X83.9761 Y18.8601
G01 X83.9701 Y18.8511
G01 X83.9170 Y18.7623
G01 X83.8726 Y18.6687
G01 X83.8685 Y18.6587
G01 X83.8337 Y18.5612
G01 X83.8072 Y18.4556
G01 X83.7919 Y18.3532
G01 X83.7908 Y18.3424
G01 X83.7860 Y18.2444
G01 X83.7860 Y18.2336
G01 X83.7912 Y18.1302
G01 X83.8059 Y18.0302
G01 X83.7883 Y18.0236
G01 X83.7327 Y17.9973
G01 X83.7256 Y17.9934
G01 X83.6752 Y17.9632
G01 X83.6685 Y17.9586
G01 X83.6192 Y17.9218
G01 X83.5715 Y17.8788
G01 X81.1306 Y15.4379
G01 X34.6920 Y15.4379
G01 X27.9868 Y22.1431
G01 X27.9868 Y24.8036
G01 X28.0194 Y24.8582
G01 X28.0512 Y24.9251
G01 X28.0553 Y24.9351
G01 X28.0801 Y25.0049
G01 X28.0983 Y25.0767
G01 X28.1004 Y25.0873
G01 X28.1111 Y25.1606
G01 X28.1150 Y25.2373
G01 X28.1150 Y27.8400
G01 X28.1113 Y27.9167
G01 X28.1104 Y27.9248
G01 X28.1004 Y27.9927
G01 X28.0983 Y28.0033
G01 X28.0801 Y28.0751
G01 X28.0533 Y28.1500
G01 X28.0194 Y28.2218
G01 X27.9814 Y28.2855
G01 X27.9754 Y28.2944
G01 X27.9311 Y28.3539
G01 X27.8815 Y28.4088
G01 X27.8738 Y28.4165
G01 X27.8189 Y28.4661
G01 X27.7550 Y28.5135
G01 X27.6868 Y28.5544
G01 X27.6199 Y28.5862
G01 X27.6099 Y28.5903
G01 X27.5401 Y28.6151
G01 X27.4630 Y28.6344
G01 X27.3844 Y28.6461
G01 X27.3050 Y28.6500
G01 X27.2256 Y28.6461
G01 X27.1470 Y28.6344
G01 X27.0699 Y28.6151
G01 X26.9950 Y28.5883
G01 X26.9232 Y28.5544
G01 X26.8550 Y28.5135
G01 X26.7911 Y28.4661
G01 X26.7322 Y28.4128
G01 X26.6789 Y28.3539
G01 X26.6315 Y28.2900
G01 X26.5906 Y28.2218
G01 X26.5567 Y28.1500
G01 X26.5299 Y28.0751
G01 X26.5106 Y27.9980
G01 X26.4996 Y27.9248
G01 X26.4985 Y27.9140
G01 X26.4950 Y27.8400
G01 X26.4950 Y25.2400
G01 X26.4985 Y25.1660
G01 X26.4996 Y25.1552
G00 Z2.0000
G00 X26.5589 Y25.1641
G01 F60.00
G01 Z-0.0000
G01 F120.00
G01 X26.5694 Y25.0937
G01 X26.5866 Y25.0247
G01 X26.6112 Y24.9553
G01 X26.6436 Y24.8865
G01 X26.6801 Y24.8254
G01 X26.6832 Y24.8208
G01 X26.6832 Y21.8595
G01 X26.6862 Y21.7998
G01 X26.6947 Y21.7418
G01 X26.7100 Y21.6802
G01 X26.7305 Y21.6228
G01 X26.7555 Y21.5698
G01 X26.7887 Y21.5142
G01 X26.8244 Y21.4662
G01 X26.8653 Y21.4210
G01 X33.9699 Y14.3164
G01 X34.0151 Y14.2755
G01 X34.0621 Y14.2405
G01 X34.1165 Y14.2077
G01 X34.1717 Y14.1816
G01 X34.2268 Y14.1619
G01 X34.2883 Y14.1463
G01 X34.3487 Y14.1373
G01 X34.4096 Y14.1343
G01 X81.4155 Y14.1344
G01 X81.4739 Y14.1373
G01 X81.5343 Y14.1463
G01 X81.5935 Y14.1611
G01 X81.6509 Y14.1816
G01 X81.7061 Y14.2077
G01 X81.7584 Y14.2391
G01 X81.8075 Y14.2755
G01 X81.8509 Y14.3147
G01 X84.3093 Y16.7730
G01 X88.2186 Y16.7730
G01 X97.6591 Y7.3325
G01 X97.7063 Y7.2900
G01 X97.7534 Y7.2552
G01 X97.8036 Y7.2250
G01 X97.8609 Y7.1977
G01 X97.9183 Y7.1772
G01 X97.9775 Y7.1624
G01 X98.0354 Y7.1537
G01 X98.0988 Y7.1504
G01 X121.2300 Y7.1504
G01 X121.2897 Y7.1534
G01 X121.3501 Y7.1624
G01 X121.4093 Y7.1772
G01 X121.4667 Y7.1977
G01 X121.5219 Y7.2238
G01 X121.5742 Y7.2552
G01 X121.6233 Y7.2916
G01 X121.6685 Y7.3325
G01 X136.9647 Y22.6287
G01 X137.0064 Y22.6749
G01 X137.0420 Y22.7230
G01 X137.0722 Y22.7732
G01 X137.0995 Y22.8305
G01 X137.1207 Y22.8903
G01 X137.1348 Y22.9471
G01 X137.1438 Y23.0075
G01 X137.1468 Y23.0684
G01 X137.1468 Y24.8208
G01 X137.1499 Y24.8254
G01 X137.1864 Y24.8865
G01 X137.2188 Y24.9553
G01 X137.2427 Y25.0223
G01 X137.2601 Y25.0913
G01 X137.2716 Y25.1689
G01 X137.2750 Y25.2400
G01 X137.2750 Y27.8412
G01 X137.2714 Y27.9135
G01 X137.2606 Y27.9863
G01 X137.2427 Y28.0577
G01 X137.2188 Y28.1247
G01 X137.1864 Y28.1935
G01 X137.1499 Y28.2546
G01 X137.1032 Y28.3177
G01 X137.0553 Y28.3703
G01 X137.0008 Y28.4198
G01 X136.9417 Y28.4636
G01 X136.8785 Y28.5014
G01 X136.8120 Y28.5329
G01 X136.7427 Y28.5577
G01 X136.6713 Y28.5756
G01 X136.6009 Y28.5861
G01 X136.5250 Y28.5900
G01 X136.4539 Y28.5866
G01 X136.3763 Y28.5751
G01 X136.3073 Y28.5577
G01 X136.2380 Y28.5329
G01 X136.1715 Y28.5014
G01 X136.1083 Y28.4636
G01 X136.0492 Y28.4198
G01 X135.9947 Y28.3703
G01 X135.9452 Y28.3158
G01 X135.9028 Y28.2587
G01 X135.8625 Y28.1914
G01 X135.8321 Y28.1270
G01 X135.8073 Y28.0577
G01 X135.7894 Y27.9863
G01 X135.7789 Y27.9159
G01 X135.7750 Y27.8400
G01 X135.7750 Y25.2388
G01 X135.7786 Y25.1665
G01 X135.7890 Y25.0961
G01 X135.8073 Y25.0223
G01 X135.8321 Y24.9530
G01 X135.8625 Y24.8886
G01 X135.9001 Y24.8254
G01 X135.9032 Y24.8208
G01 X135.9032 Y23.3260
G01 X120.9712 Y8.3940
G01 X98.3564 Y8.3940
G01 X88.9159 Y17.8345
G01 X88.8707 Y17.8754
G01 X88.8216 Y17.9118
G01 X88.7714 Y17.9420
G01 X88.7119 Y17.9701
G01 X88.6567 Y17.9898
G01 X88.5975 Y18.0046
G01 X88.5371 Y18.0136
G01 X88.4787 Y18.0165
G01 X85.9214 Y18.0166
G01 X85.9259 Y18.0354
G01 X85.9408 Y18.1361
G01 X85.9459 Y18.2390
G01 X85.9408 Y18.3419
G01 X85.9257 Y18.4438
G01 X85.9007 Y18.5438
G01 X85.8660 Y18.6408
G01 X85.8219 Y18.7340
G01 X85.7675 Y18.8244
G01 X85.7076 Y18.9051
G01 X85.6366 Y18.9832
G01 X85.5601 Y19.0522
G01 X85.4792 Y19.1120
G01 X85.3930 Y19.1638
G01 X85.2977 Y19.2091
G01 X85.2007 Y19.2438
G01 X85.1007 Y19.2688
G01 X84.9976 Y19.2840
G01 X84.8959 Y19.2890
G01 X84.7905 Y19.2836
G01 X84.6911 Y19.2688
G01 X84.5935 Y19.2444
G01 X84.4964 Y19.2100
G01 X84.4009 Y19.1650
G01 X84.3126 Y19.1120
G01 X84.2298 Y19.0507
G01 X84.1534 Y18.9815
G01 X84.0827 Y18.9032
G01 X84.0229 Y18.8223
G01 X83.9711 Y18.7361
G01 X83.9258 Y18.6408
G01 X83.8908 Y18.5426
G01 X83.8661 Y18.4438
G01 X83.8513 Y18.3444
G01 X83.8459 Y18.2402
G01 X83.8511 Y18.1349
G01 X83.8659 Y18.0354
G01 X83.8768 Y17.9913
G01 X83.8689 Y17.9890
G01 X83.8138 Y17.9693
G01 X83.7565 Y17.9420
G01 X83.7063 Y17.9118
G01 X83.6592 Y17.8770
G01 X83.6129 Y17.8353
G01 X81.1554 Y15.3779
G01 X34.6672 Y15.3779
G01 X27.9268 Y22.1183
G01 X27.9268 Y24.8208
G01 X27.9299 Y24.8254
G01 X27.9675 Y24.8886
G01 X27.9979 Y24.9530
G01 X28.0227 Y25.0223
G01 X28.0410 Y25.0961
G01 X28.0514 Y25.1665
G01 X28.0550 Y25.2388
G01 X28.0550 Y27.8400
G01 X28.0515 Y27.9123
G01 X28.0401 Y27.9887
G01 X28.0227 Y28.0577
G01 X27.9979 Y28.1270
G01 X27.9664 Y28.1935
G01 X27.9299 Y28.2546
G01 X27.8848 Y28.3158
G01 X27.8336 Y28.3720
G01 X27.7808 Y28.4198
G01 X27.7217 Y28.4636
G01 X27.6585 Y28.5014
G01 X27.5943 Y28.5319
G01 X27.5215 Y28.5580
G01 X27.4513 Y28.5756
G01 X27.3785 Y28.5864
G01 X27.3050 Y28.5900
G01 X27.2315 Y28.5864
G01 X27.1587 Y28.5756
G01 X27.0873 Y28.5577
G01 X27.0180 Y28.5329
G01 X26.9515 Y28.5014
G01 X26.8883 Y28.4636
G01 X26.8292 Y28.4198
G01 X26.7747 Y28.3703
G01 X26.7252 Y28.3158
G01 X26.6814 Y28.2567
G01 X26.6436 Y28.1935
G01 X26.6121 Y28.1270
G01 X26.5870 Y28.0565
G01 X26.5694 Y27.9863
G01 X26.5589 Y27.9159
G01 X26.5550 Y27.8400
G01 X26.5550 Y25.2400
G01 X26.5589 Y25.1641
G00 Z2.0000
G00 X29.0396 Y25.1552
G01 F60.00
G01 Z-0.0000
G01 F120.00
G01 X29.0506 Y25.0820
G01 X29.0684 Y25.0101
G01 X29.0716 Y24.9997
G01 X29.0947 Y24.9351
G01 X29.0988 Y24.9251
G01 X29.1306 Y24.8582
G01 X29.1632 Y24.8036
G01 X29.1633 Y22.2148
G01 X29.1665 Y22.1534
G01 X29.1754 Y22.0925
G01 X29.1775 Y22.0819
G01 X29.1926 Y22.0223
G01 X29.2151 Y21.9593
G01 X29.2413 Y21.9036
G01 X29.2464 Y21.8941
G01 X29.2781 Y21.8414
G01 X29.3180 Y21.7877
G01 X29.3629 Y21.7381
G01 X34.7608 Y16.3402
G01 X34.8085 Y16.2972
G01 X34.8578 Y16.2604
G01 X34.8668 Y16.2544
G01 X34.9149 Y16.2256
G01 X34.9244 Y16.2205
G01 X34.9801 Y16.1943
G01 X35.0431 Y16.1718
G01 X35.1080 Y16.1555
G01 X35.1715 Y16.1460
G01 X35.1796 Y16.1453
G01 X35.2410 Y16.1424
G01 X77.5396 Y16.1424
G01 X77.6010 Y16.1453
G01 X77.6118 Y16.1464
G01 X77.6726 Y16.1555
G01 X77.7323 Y16.1703
G01 X77.7426 Y16.1735
G01 X77.7955 Y16.1924
G01 X77.8054 Y16.1965
G01 X77.8610 Y16.2229
G01 X77.9184 Y16.2573
G01 X77.9721 Y16.2972
G01 X78.0198 Y16.3402
G01 X81.7084 Y20.0288
G01 X85.9969 Y20.0288
G01 X86.0039 Y20.0153
G01 X86.0573 Y19.9265
G01 X86.1188 Y19.8433
G01 X86.1257 Y19.8349
G01 X86.1953 Y19.7583
G01 X86.2719 Y19.6887
G01 X86.2803 Y19.6818
G01 X86.3591 Y19.6234
G01 X86.3681 Y19.6174
G01 X86.4569 Y19.5643
G01 X86.5505 Y19.5199
G01 X86.5605 Y19.5158
G01 X86.6580 Y19.4810
G01 X86.7636 Y19.4545
G01 X86.8660 Y19.4392
G01 X86.8768 Y19.4381
G01 X86.9802 Y19.4332
G01 X87.0890 Y19.4385
G01 X87.1914 Y19.4536
G01 X87.2020 Y19.4557
G01 X87.3024 Y19.4810
G01 X87.3999 Y19.5158
G01 X87.4099 Y19.5199
G01 X87.5011 Y19.5630
G01 X87.5081 Y19.5669
G01 X87.5969 Y19.6203
G01 X87.6801 Y19.6818
G01 X87.6864 Y19.6869
G01 X87.7612 Y19.7546
G01 X87.7670 Y19.7602
G01 X87.8365 Y19.8370
G01 X87.8550 Y19.8614
G01 X101.8935 Y19.8614
G01 X107.8011 Y13.9538
G01 X107.8507 Y13.9089
G01 X107.9044 Y13.8690
G01 X107.9618 Y13.8346
G01 X108.0174 Y13.8082
G01 X108.0248 Y13.8050
G01 X108.0853 Y13.7835
G01 X108.1502 Y13.7672
G01 X108.2164 Y13.7574
G01 X108.2832 Y13.7541
G01 X113.9355 Y13.7541
G01 X113.9540 Y13.7297
G01 X114.0235 Y13.6529
G01 X114.0293 Y13.6473
G01 X114.1020 Y13.5814
G01 X114.1082 Y13.5762
G01 X114.1892 Y13.5161
G01 X114.1982 Y13.5101
G01 X114.2870 Y13.4570
G01 X114.3830 Y13.4115
G01 X114.3906 Y13.4085
G01 X114.4881 Y13.3737
G01 X114.5885 Y13.3484
G01 X114.5991 Y13.3463
G01 X114.7015 Y13.3312
G01 X114.8049 Y13.3260
G01 X114.8157 Y13.3260
G01 X114.9164 Y13.3310
G01 X114.9245 Y13.3319
G01 X115.0269 Y13.3472
G01 X115.1273 Y13.3723
G01 X115.1376 Y13.3754
G01 X115.2300 Y13.4085
G01 X115.2400 Y13.4126
G01 X115.3336 Y13.4570
G01 X115.4270 Y13.5130
G01 X115.5145 Y13.5779
G01 X115.5952 Y13.6510
G01 X115.6683 Y13.7317
G01 X115.7301 Y13.8148
G01 X115.7361 Y13.8238
G01 X115.7866 Y13.9080
G01 X115.7917 Y13.9175
G01 X115.8358 Y14.0111
G01 X115.8725 Y14.1137
G01 X115.8990 Y14.2193
G01 X115.9147 Y14.3244
G01 X115.9154 Y14.3325
G01 X115.9203 Y14.4359
G01 X115.9150 Y14.5447
G01 X115.8990 Y14.6525
G01 X115.8725 Y14.7581
G01 X115.8358 Y14.8607
G01 X115.7892 Y14.9592
G01 X115.7332 Y15.0526
G01 X115.6683 Y15.1401
G01 X115.5952 Y15.2208
G01 X115.5145 Y15.2939
G01 X115.4270 Y15.3588
G01 X115.3336 Y15.4148
G01 X115.2351 Y15.4614
G01 X115.1325 Y15.4981
G01 X115.0269 Y15.5246
G01 X114.9191 Y15.5406
G01 X114.8157 Y15.5458
G01 X114.8049 Y15.5458
G01 X114.7015 Y15.5406
G01 X114.5991 Y15.5255
G01 X114.5885 Y15.5234
G01 X114.4881 Y15.4981
G01 X114.3906 Y15.4633
G01 X114.3830 Y15.4603
G01 X114.2870 Y15.4148
G01 X114.1982 Y15.3617
G01 X114.1892 Y15.3557
G01 X114.1082 Y15.2956
G01 X114.1020 Y15.2904
G01 X114.0293 Y15.2245
G01 X114.0235 Y15.2189
G01 X113.9540 Y15.1421
G01 X113.9355 Y15.1177
G01 X108.5656 Y15.1177
G01 X102.6561 Y21.0272
G01 X102.6084 Y21.0702
G01 X102.5547 Y21.1101
G01 X102.4973 Y21.1445
G01 X102.4368 Y21.1731
G01 X102.3738 Y21.1956
G01 X102.3089 Y21.2119
G01 X102.2427 Y21.2217
G01 X102.1813 Y21.2249
G01 X87.8550 Y21.2250
G01 X87.8365 Y21.2494
G01 X87.7670 Y21.3262
G01 X87.7612 Y21.3318
G01 X87.6864 Y21.3995
G01 X87.6801 Y21.4046
G01 X87.5969 Y21.4661
G01 X87.5081 Y21.5195
G01 X87.5011 Y21.5234
G01 X87.4099 Y21.5665
G01 X87.3999 Y21.5706
G01 X87.3024 Y21.6054
G01 X87.2020 Y21.6307
G01 X87.1914 Y21.6328
G01 X87.0890 Y21.6479
G01 X86.9802 Y21.6532
G01 X86.8714 Y21.6479
G01 X86.7636 Y21.6319
G01 X86.6580 Y21.6054
G01 X86.5605 Y21.5706
G01 X86.5505 Y21.5665
G01 X86.4569 Y21.5221
G01 X86.3681 Y21.4690
G01 X86.3591 Y21.4630
G01 X86.2803 Y21.4046
G01 X86.2740 Y21.3995
G01 X86.2661 Y21.3924
G01 X81.4260 Y21.3924
G01 X81.3592 Y21.3891
G01 X81.2983 Y21.3802
G01 X81.2877 Y21.3781
G01 X81.2333 Y21.3645
G01 X81.2230 Y21.3613
G01 X81.1651 Y21.3405
G01 X81.1046 Y21.3119
G01 X81.0518 Y21.2804
G01 X81.0428 Y21.2744
G01 X80.9935 Y21.2376
G01 X80.9458 Y21.1946
G01 X77.2572 Y17.5060
G01 X35.5234 Y17.5060
G01 X30.5268 Y22.5026
G01 X30.5268 Y24.8036
G01 X30.5594 Y24.8582
G01 X30.5912 Y24.9251
G01 X30.5953 Y24.9351
G01 X30.6201 Y25.0049
G01 X30.6383 Y25.0767
G01 X30.6404 Y25.0873
G01 X30.6511 Y25.1606
G01 X30.6550 Y25.2373
G01 X30.6550 Y27.8400
G01 X30.6513 Y27.9167
G01 X30.6504 Y27.9248
G01 X30.6404 Y27.9927
G01 X30.6383 Y28.0033
G01 X30.6201 Y28.0751
G01 X30.5933 Y28.1500
G01 X30.5594 Y28.2218
G01 X30.5214 Y28.2855
G01 X30.5154 Y28.2944
G01 X30.4711 Y28.3539
G01 X30.4215 Y28.4088
G01 X30.4138 Y28.4165
G01 X30.3589 Y28.4661
G01 X30.2950 Y28.5135
G01 X30.2268 Y28.5544
G01 X30.1599 Y28.5862
G01 X30.1499 Y28.5903
G01 X30.0801 Y28.6151
G01 X30.0030 Y28.6344
G01 X29.9244 Y28.6461
G01 X29.8450 Y28.6500
G01 X29.7656 Y28.6461
G01 X29.6870 Y28.6344
G01 X29.6099 Y28.6151
G01 X29.5350 Y28.5883
G01 X29.4632 Y28.5544
G01 X29.3950 Y28.5135
G01 X29.3311 Y28.4661
G01 X29.2722 Y28.4128
G01 X29.2189 Y28.3539
G01 X29.1715 Y28.2900
G01 X29.1306 Y28.2218
G01 X29.0967 Y28.1500
G01 X29.0699 Y28.0751
G01 X29.0506 Y27.9980
G01 X29.0396 Y27.9248
G01 X29.0385 Y27.9140
G01 X29.0350 Y27.8400
G01 X29.0350 Y25.2400
G01 X29.0385 Y25.1660
G01 X29.0396 Y25.1552
G00 Z2.0000
G00 X29.0989 Y25.1641
G01 F60.00
G01 Z-0.0000
G01 F120.00
G01 X29.1094 Y25.0937
G01 X29.1266 Y25.0247
G01 X29.1512 Y24.9553
G01 X29.1836 Y24.8865
G01 X29.2201 Y24.8254
G01 X29.2232 Y24.8208
G01 X29.2232 Y22.2190
G01 X29.2262 Y22.1593
G01 X29.2347 Y22.1013
G01 X29.2500 Y22.0397
G01 X29.2705 Y21.9823
G01 X29.2955 Y21.9293
G01 X29.3280 Y21.8748
G01 X29.3644 Y21.8257
G01 X29.4053 Y21.7805
G01 X34.8022 Y16.3837
G01 X34.8465 Y16.3436
G01 X34.8935 Y16.3086
G01 X34.9501 Y16.2747
G01 X35.0031 Y16.2497
G01 X35.0605 Y16.2292
G01 X35.1197 Y16.2144
G01 X35.1788 Y16.2055
G01 X35.2410 Y16.2024
G01 X77.5396 Y16.2024
G01 X77.5981 Y16.2052
G01 X77.6609 Y16.2144
G01 X77.7177 Y16.2285
G01 X77.7798 Y16.2507
G01 X77.8327 Y16.2758
G01 X77.8850 Y16.3072
G01 X77.9341 Y16.3436
G01 X77.9784 Y16.3837
G01 X81.6836 Y20.0888
G01 X86.0349 Y20.0888
G01 X86.0548 Y20.0472
G01 X86.1065 Y19.9609
G01 X86.1693 Y19.8761
G01 X86.2377 Y19.8007
G01 X86.3122 Y19.7331
G01 X86.3979 Y19.6695
G01 X86.4852 Y19.6172
G01 X86.5761 Y19.5741
G01 X86.6754 Y19.5384
G01 X86.7754 Y19.5134
G01 X86.8748 Y19.4986
G01 X86.9802 Y19.4932
G01 X87.0831 Y19.4983
G01 X87.1874 Y19.5139
G01 X87.2850 Y19.5384
G01 X87.3797 Y19.5722
G01 X87.4741 Y19.6166
G01 X87.5635 Y19.6702
G01 X87.6473 Y19.7323
G01 X87.7235 Y19.8016
G01 X87.7911 Y19.8761
G01 X87.8248 Y19.9214
G01 X101.9183 Y19.9214
G01 X107.8435 Y13.9962
G01 X107.8887 Y13.9553
G01 X107.9378 Y13.9189
G01 X107.9901 Y13.8875
G01 X108.0453 Y13.8614
G01 X108.1027 Y13.8409
G01 X108.1619 Y13.8261
G01 X108.2223 Y13.8171
G01 X108.2832 Y13.8141
G01 X113.9657 Y13.8141
G01 X113.9994 Y13.7688
G01 X114.0670 Y13.6943
G01 X114.1451 Y13.6235
G01 X114.2290 Y13.5615
G01 X114.3153 Y13.5099
G01 X114.4074 Y13.4663
G01 X114.5055 Y13.4311
G01 X114.6079 Y13.4057
G01 X114.7098 Y13.3908
G01 X114.8103 Y13.3859
G01 X114.9108 Y13.3908
G01 X115.0151 Y13.4061
G01 X115.1127 Y13.4305
G01 X115.2144 Y13.4668
G01 X115.3053 Y13.5099
G01 X115.3936 Y13.5629
G01 X115.4764 Y13.6242
G01 X115.5528 Y13.6934
G01 X115.6220 Y13.7698
G01 X115.6819 Y13.8505
G01 X115.7374 Y13.9431
G01 X115.7804 Y14.0341
G01 X115.8151 Y14.1311
G01 X115.8401 Y14.2311
G01 X115.8551 Y14.3318
G01 X115.8603 Y14.4359
G01 X115.8552 Y14.5388
G01 X115.8401 Y14.6407
G01 X115.8151 Y14.7407
G01 X115.7804 Y14.8377
G01 X115.7363 Y14.9309
G01 X115.6833 Y15.0192
G01 X115.6220 Y15.1020
G01 X115.5528 Y15.1784
G01 X115.4764 Y15.2476
G01 X115.3936 Y15.3089
G01 X115.3053 Y15.3619
G01 X115.2121 Y15.4060
G01 X115.1151 Y15.4407
G01 X115.0151 Y15.4657
G01 X114.9132 Y15.4808
G01 X114.8078 Y15.4858
G01 X114.7074 Y15.4808
G01 X114.6079 Y15.4661
G01 X114.5055 Y15.4407
G01 X114.4074 Y15.4055
G01 X114.3153 Y15.3619
G01 X114.2290 Y15.3103
G01 X114.1451 Y15.2483
G01 X114.0670 Y15.1775
G01 X113.9994 Y15.1030
G01 X113.9657 Y15.0577
G01 X108.5408 Y15.0577
G01 X102.6147 Y20.9837
G01 X102.5704 Y21.0238
G01 X102.5213 Y21.0602
G01 X102.4690 Y21.0916
G01 X102.4138 Y21.1177
G01 X102.3564 Y21.1382
G01 X102.2972 Y21.1530
G01 X102.2368 Y21.1620
G01 X102.1784 Y21.1649
G01 X87.8248 Y21.1650
G01 X87.7911 Y21.2103
G01 X87.7235 Y21.2848
G01 X87.6473 Y21.3541
G01 X87.5635 Y21.4162
G01 X87.4741 Y21.4698
G01 X87.3797 Y21.5142
G01 X87.2850 Y21.5480
G01 X87.1874 Y21.5725
G01 X87.0831 Y21.5881
G01 X86.9802 Y21.5932
G01 X86.8773 Y21.5881
G01 X86.7754 Y21.5730
G01 X86.6754 Y21.5480
G01 X86.5795 Y21.5137
G01 X86.4852 Y21.4692
G01 X86.3979 Y21.4169
G01 X86.3150 Y21.3556
G01 X86.2892 Y21.3324
G01 X81.4260 Y21.3324
G01 X81.3651 Y21.3294
G01 X81.3071 Y21.3209
G01 X81.2432 Y21.3048
G01 X81.1881 Y21.2851
G01 X81.1329 Y21.2590
G01 X81.0785 Y21.2262
G01 X81.0315 Y21.1912
G01 X80.9872 Y21.1511
G01 X77.2820 Y17.4460
G01 X35.4986 Y17.4460
G01 X30.4668 Y22.4778
G01 X30.4668 Y24.8208
G01 X30.4699 Y24.8254
G01 X30.5075 Y24.8886
G01 X30.5379 Y24.9530
G01 X30.5627 Y25.0223
G01 X30.5810 Y25.0961
G01 X30.5914 Y25.1665
G01 X30.5950 Y25.2388
G01 X30.5950 Y27.8400
G01 X30.5915 Y27.9123
G01 X30.5801 Y27.9887
G01 X30.5627 Y28.0577
G01 X30.5379 Y28.1270
G01 X30.5064 Y28.1935
G01 X30.4699 Y28.2546
G01 X30.4248 Y28.3158
G01 X30.3736 Y28.3720
G01 X30.3208 Y28.4198
G01 X30.2617 Y28.4636
G01 X30.1985 Y28.5014
G01 X30.1343 Y28.5319
G01 X30.0615 Y28.5580
G01 X29.9913 Y28.5756
G01 X29.9185 Y28.5864
G01 X29.8450 Y28.5900
G01 X29.7715 Y28.5864
G01 X29.6987 Y28.5756
G01 X29.6273 Y28.5577
G01 X29.5580 Y28.5329
G01 X29.4915 Y28.5014
G01 X29.4283 Y28.4636
G01 X29.3692 Y28.4198
G01 X29.3147 Y28.3703
G01 X29.2652 Y28.3158
G01 X29.2214 Y28.2567
G01 X29.1836 Y28.1935
G01 X29.1521 Y28.1270
G01 X29.1270 Y28.0565
G01 X29.1094 Y27.9863
G01 X29.0989 Y27.9159
G01 X29.0950 Y27.8400
G01 X29.0950 Y25.2400
G01 X29.0989 Y25.1641
G00 Z2.0000
G00 X31.5796 Y25.1552
G01 F60.00
G01 Z-0.0000
G01 F120.00
G01 X31.5906 Y25.0820
G01 X31.6084 Y25.0101
G01 X31.6116 Y24.9997
G01 X31.6347 Y24.9351
G01 X31.6388 Y24.9251
G01 X31.6706 Y24.8582
G01 X31.7032 Y24.8036
G01 X31.7033 Y22.6452
G01 X31.7065 Y22.5838
G01 X31.7154 Y22.5229
G01 X31.7175 Y22.5123
G01 X31.7326 Y22.4527
G01 X31.7532 Y22.3947
G01 X31.7573 Y22.3848
G01 X31.7837 Y22.3292
G01 X31.8166 Y22.2741
G01 X31.8212 Y22.2674
G01 X31.8580 Y22.2181
G01 X31.9029 Y22.1685
G01 X35.6384 Y18.4330
G01 X35.6861 Y18.3900
G01 X35.7398 Y18.3501
G01 X35.7972 Y18.3157
G01 X35.8528 Y18.2893
G01 X35.8627 Y18.2852
G01 X35.9156 Y18.2663
G01 X35.9259 Y18.2631
G01 X35.9856 Y18.2483
G01 X36.0518 Y18.2385
G01 X36.1186 Y18.2352
G01 X76.7431 Y18.2352
G01 X76.8072 Y18.2383
G01 X76.8153 Y18.2392
G01 X76.8761 Y18.2483
G01 X76.9358 Y18.2631
G01 X76.9461 Y18.2663
G01 X76.9990 Y18.2852
G01 X77.0089 Y18.2893
G01 X77.0645 Y18.3157
G01 X77.1219 Y18.3501
G01 X77.1756 Y18.3900
G01 X77.2233 Y18.4330
G01 X81.1769 Y22.3866
G01 X102.2578 Y22.3866
G01 X107.7413 Y16.9031
G01 X107.7868 Y16.8617
G01 X107.7951 Y16.8549
G01 X107.8446 Y16.8183
G01 X107.8973 Y16.7866
G01 X107.9068 Y16.7815
G01 X107.9625 Y16.7553
G01 X108.0204 Y16.7345
G01 X108.0281 Y16.7320
G01 X108.0904 Y16.7165
G01 X108.1512 Y16.7074
G01 X108.1620 Y16.7063
G01 X108.2234 Y16.7034
G01 X119.5535 Y16.7034
G01 X119.5720 Y16.6790
G01 X119.6415 Y16.6022
G01 X119.6473 Y16.5966
G01 X119.7241 Y16.5272
G01 X119.8116 Y16.4623
G01 X119.9004 Y16.4089
G01 X119.9099 Y16.4038
G01 X119.9986 Y16.3619
G01 X120.0086 Y16.3578
G01 X120.1061 Y16.3230
G01 X120.2065 Y16.2977
G01 X120.2171 Y16.2956
G01 X120.3195 Y16.2805
G01 X120.4229 Y16.2753
G01 X120.4337 Y16.2753
G01 X120.5371 Y16.2805
G01 X120.6449 Y16.2965
G01 X120.7505 Y16.3230
G01 X120.8531 Y16.3597
G01 X120.9516 Y16.4063
G01 X121.0450 Y16.4623
G01 X121.1325 Y16.5272
G01 X121.2093 Y16.5966
G01 X121.2169 Y16.6042
G01 X121.2863 Y16.6810
G01 X121.3481 Y16.7641
G01 X121.3541 Y16.7731
G01 X121.4046 Y16.8573
G01 X121.4097 Y16.8668
G01 X121.4538 Y16.9604
G01 X121.4905 Y17.0630
G01 X121.5170 Y17.1686
G01 X121.5330 Y17.2764
G01 X121.5383 Y17.3852
G01 X121.5330 Y17.4940
G01 X121.5170 Y17.6018
G01 X121.4905 Y17.7074
G01 X121.4538 Y17.8100
G01 X121.4072 Y17.9085
G01 X121.3512 Y18.0019
G01 X121.2863 Y18.0894
G01 X121.2132 Y18.1701
G01 X121.1325 Y18.2432
G01 X121.0450 Y18.3081
G01 X120.9516 Y18.3641
G01 X120.8531 Y18.4107
G01 X120.7505 Y18.4474
G01 X120.6449 Y18.4739
G01 X120.5425 Y18.4892
G01 X120.5317 Y18.4903
G01 X120.4283 Y18.4952
G01 X120.3249 Y18.4903
G01 X120.3141 Y18.4892
G01 X120.2171 Y18.4748
G01 X120.2065 Y18.4727
G01 X120.1061 Y18.4474
G01 X120.0086 Y18.4126
G01 X120.0010 Y18.4096
G01 X119.9050 Y18.3641
G01 X119.8162 Y18.3110
G01 X119.8072 Y18.3050
G01 X119.7262 Y18.2449
G01 X119.7200 Y18.2397
G01 X119.6473 Y18.1738
G01 X119.6415 Y18.1682
G01 X119.5720 Y18.0914
G01 X119.5535 Y18.0670
G01 X108.5058 Y18.0670
G01 X103.0204 Y23.5524
G01 X102.9727 Y23.5954
G01 X102.9234 Y23.6322
G01 X102.9144 Y23.6382
G01 X102.8616 Y23.6697
G01 X102.8060 Y23.6961
G01 X102.7961 Y23.7002
G01 X102.7381 Y23.7208
G01 X102.6732 Y23.7371
G01 X102.6070 Y23.7469
G01 X102.5402 Y23.7502
G01 X87.6768 Y23.7502
G01 X87.6768 Y24.8036
G01 X87.7094 Y24.8582
G01 X87.7412 Y24.9251
G01 X87.7453 Y24.9351
G01 X87.7701 Y25.0049
G01 X87.7883 Y25.0767
G01 X87.7904 Y25.0873
G01 X87.8011 Y25.1606
G01 X87.8050 Y25.2373
G01 X87.8050 Y27.8400
G01 X87.8015 Y27.9140
G01 X87.8008 Y27.9221
G01 X87.7894 Y27.9980
G01 X87.7701 Y28.0751
G01 X87.7433 Y28.1500
G01 X87.7118 Y28.2170
G01 X87.7067 Y28.2265
G01 X87.6714 Y28.2855
G01 X87.6654 Y28.2944
G01 X87.6211 Y28.3539
G01 X87.5678 Y28.4128
G01 X87.5089 Y28.4661
G01 X87.4450 Y28.5135
G01 X87.3768 Y28.5544
G01 X87.3099 Y28.5862
G01 X87.2999 Y28.5903
G01 X87.2353 Y28.6134
G01 X87.2249 Y28.6166
G01 X87.1530 Y28.6344
G01 X87.0744 Y28.6461
G01 X86.9950 Y28.6500
G01 X86.9156 Y28.6461
G01 X86.8370 Y28.6344
G01 X86.7599 Y28.6151
G01 X86.6850 Y28.5883
G01 X86.6132 Y28.5544
G01 X86.5450 Y28.5135
G01 X86.4854 Y28.4695
G01 X86.4771 Y28.4626
G01 X86.4262 Y28.4165
G01 X86.4185 Y28.4088
G01 X86.3689 Y28.3539
G01 X86.3246 Y28.2944
G01 X86.3186 Y28.2855
G01 X86.2806 Y28.2218
G01 X86.2467 Y28.1500
G01 X86.2199 Y28.0751
G01 X86.2017 Y28.0033
G01 X86.1996 Y27.9927
G01 X86.1889 Y27.9194
G01 X86.1850 Y27.8400
G01 X86.1850 Y25.2373
G01 X86.1889 Y25.1606
G01 X86.1996 Y25.0873
G01 X86.2017 Y25.0767
G01 X86.2199 Y25.0049
G01 X86.2447 Y24.9351
G01 X86.2488 Y24.9251
G01 X86.2806 Y24.8582
G01 X86.3132 Y24.8036
G01 X86.3132 Y23.7502
G01 X80.8945 Y23.7502
G01 X80.8277 Y23.7469
G01 X80.7615 Y23.7371
G01 X80.6966 Y23.7208
G01 X80.6336 Y23.6983
G01 X80.5731 Y23.6697
G01 X80.5157 Y23.6353
G01 X80.4620 Y23.5954
G01 X80.4124 Y23.5505
G01 X76.4607 Y19.5988
G01 X36.4010 Y19.5988
G01 X33.0668 Y22.9330
G01 X33.0668 Y24.8036
G01 X33.0994 Y24.8582
G01 X33.1312 Y24.9251
G01 X33.1353 Y24.9351
G01 X33.1601 Y25.0049
G01 X33.1783 Y25.0767
G01 X33.1804 Y25.0873
G01 X33.1911 Y25.1606
G01 X33.1950 Y25.2373
G01 X33.1950 Y27.8400
G01 X33.1913 Y27.9167
G01 X33.1904 Y27.9248
G01 X33.1804 Y27.9927
G01 X33.1783 Y28.0033
G01 X33.1601 Y28.0751
G01 X33.1333 Y28.1500
G01 X33.0994 Y28.2218
G01 X33.0614 Y28.2855
G01 X33.0554 Y28.2944
G01 X33.0111 Y28.3539
G01 X32.9615 Y28.4088
G01 X32.9538 Y28.4165
G01 X32.8989 Y28.4661
G01 X32.8350 Y28.5135
G01 X32.7668 Y28.5544
G01 X32.6999 Y28.5862
G01 X32.6899 Y28.5903
G01 X32.6201 Y28.6151
G01 X32.5430 Y28.6344
G01 X32.4644 Y28.6461
G01 X32.3850 Y28.6500
G01 X32.3056 Y28.6461
G01 X32.2270 Y28.6344
G01 X32.1499 Y28.6151
G01 X32.0750 Y28.5883
G01 X32.0032 Y28.5544
G01 X31.9350 Y28.5135
G01 X31.8711 Y28.4661
G01 X31.8122 Y28.4128
G01 X31.7589 Y28.3539
G01 X31.7115 Y28.2900
G01 X31.6706 Y28.2218
G01 X31.6367 Y28.1500
G01 X31.6099 Y28.0751
G01 X31.5906 Y27.9980
G01 X31.5796 Y27.9248
G01 X31.5785 Y27.9140
G01 X31.5750 Y27.8400
G01 X31.5750 Y25.2400
G01 X31.5785 Y25.1660
G01 X31.5796 Y25.1552
G00 Z2.0000
G00 X31.6389 Y25.1641
G01 F60.00
G01 Z-0.0000
G01 F120.00
G01 X31.6494 Y25.0937
G01 X31.6666 Y25.0247
G01 X31.6912 Y24.9553
G01 X31.7236 Y24.8865
G01 X31.7601 Y24.8254
G01 X31.7632 Y24.8208
G01 X31.7633 Y22.6481
G01 X31.7662 Y22.5897
G01 X31.7747 Y22.5317
G01 X31.7900 Y22.4701
G01 X31.8115 Y22.4104
G01 X31.8366 Y22.3575
G01 X31.8673 Y22.3062
G01 X31.9044 Y22.2561
G01 X31.9453 Y22.2109
G01 X35.6798 Y18.4765
G01 X35.7241 Y18.4364
G01 X35.7732 Y18.4000
G01 X35.8255 Y18.3686
G01 X35.8784 Y18.3435
G01 X35.9405 Y18.3213
G01 X35.9973 Y18.3072
G01 X36.0577 Y18.2982
G01 X36.1186 Y18.2952
G01 X76.7431 Y18.2952
G01 X76.8028 Y18.2981
G01 X76.8644 Y18.3072
G01 X76.9212 Y18.3213
G01 X76.9833 Y18.3435
G01 X77.0362 Y18.3686
G01 X77.0885 Y18.4000
G01 X77.1376 Y18.4364
G01 X77.1819 Y18.4765
G01 X81.1521 Y22.4466
G01 X102.2826 Y22.4466
G01 X107.7837 Y16.9455
G01 X107.8309 Y16.9030
G01 X107.8780 Y16.8682
G01 X107.9282 Y16.8380
G01 X107.9855 Y16.8107
G01 X108.0441 Y16.7898
G01 X108.1021 Y16.7754
G01 X108.1600 Y16.7667
G01 X108.2234 Y16.7634
G01 X119.5837 Y16.7634
G01 X119.6174 Y16.7181
G01 X119.6850 Y16.6436
G01 X119.7612 Y16.5743
G01 X119.8450 Y16.5122
G01 X119.9344 Y16.4586
G01 X120.0288 Y16.4142
G01 X120.1235 Y16.3804
G01 X120.2211 Y16.3559
G01 X120.3254 Y16.3403
G01 X120.4295 Y16.3352
G01 X120.5312 Y16.3403
G01 X120.6331 Y16.3554
G01 X120.7331 Y16.3804
G01 X120.8301 Y16.4151
G01 X120.9233 Y16.4592
G01 X121.0116 Y16.5122
G01 X121.0944 Y16.5735
G01 X121.1690 Y16.6410
G01 X121.2400 Y16.7191
G01 X121.2999 Y16.7998
G01 X121.3554 Y16.8924
G01 X121.3984 Y16.9834
G01 X121.4331 Y17.0804
G01 X121.4581 Y17.1804
G01 X121.4732 Y17.2823
G01 X121.4783 Y17.3852
G01 X121.4732 Y17.4881
G01 X121.4581 Y17.5900
G01 X121.4331 Y17.6900
G01 X121.3984 Y17.7870
G01 X121.3543 Y17.8802
G01 X121.3013 Y17.9685
G01 X121.2400 Y18.0513
G01 X121.1708 Y18.1277
G01 X121.0944 Y18.1969
G01 X121.0116 Y18.2582
G01 X120.9233 Y18.3112
G01 X120.8301 Y18.3553
G01 X120.7331 Y18.3900
G01 X120.6331 Y18.4150
G01 X120.5288 Y18.4303
G01 X120.4283 Y18.4352
G01 X120.3278 Y18.4303
G01 X120.2259 Y18.4154
G01 X120.1235 Y18.3900
G01 X120.0254 Y18.3548
G01 X119.9333 Y18.3112
G01 X119.8470 Y18.2596
G01 X119.7631 Y18.1976
G01 X119.6850 Y18.1268
G01 X119.6174 Y18.0523
G01 X119.5837 Y18.0070
G01 X108.4810 Y18.0070
G01 X102.9790 Y23.5089
G01 X102.9347 Y23.5490
G01 X102.8877 Y23.5840
G01 X102.8333 Y23.6168
G01 X102.7759 Y23.6437
G01 X102.7207 Y23.6634
G01 X102.6615 Y23.6782
G01 X102.6011 Y23.6872
G01 X102.5402 Y23.6902
G01 X87.6168 Y23.6902
G01 X87.6168 Y24.8208
G01 X87.6199 Y24.8254
G01 X87.6575 Y24.8886
G01 X87.6879 Y24.9530
G01 X87.7127 Y25.0223
G01 X87.7310 Y25.0961
G01 X87.7414 Y25.1665
G01 X87.7450 Y25.2388
G01 X87.7450 Y27.8400
G01 X87.7413 Y27.9147
G01 X87.7306 Y27.9863
G01 X87.7127 Y28.0577
G01 X87.6879 Y28.1270
G01 X87.6575 Y28.1914
G01 X87.6172 Y28.2587
G01 X87.5748 Y28.3158
G01 X87.5253 Y28.3703
G01 X87.4708 Y28.4198
G01 X87.4117 Y28.4636
G01 X87.3485 Y28.5014
G01 X87.2843 Y28.5319
G01 X87.2103 Y28.5584
G01 X87.1413 Y28.5756
G01 X87.0685 Y28.5864
G01 X86.9950 Y28.5900
G01 X86.9215 Y28.5864
G01 X86.8487 Y28.5756
G01 X86.7773 Y28.5577
G01 X86.7080 Y28.5329
G01 X86.6415 Y28.5014
G01 X86.5783 Y28.4636
G01 X86.5192 Y28.4198
G01 X86.4647 Y28.3703
G01 X86.4152 Y28.3158
G01 X86.3714 Y28.2567
G01 X86.3336 Y28.1935
G01 X86.3021 Y28.1270
G01 X86.2773 Y28.0577
G01 X86.2594 Y27.9863
G01 X86.2489 Y27.9159
G01 X86.2450 Y27.8400
G01 X86.2450 Y25.2388
G01 X86.2486 Y25.1665
G01 X86.2590 Y25.0961
G01 X86.2773 Y25.0223
G01 X86.3021 Y24.9530
G01 X86.3325 Y24.8886
G01 X86.3701 Y24.8254
G01 X86.3732 Y24.8208
G01 X86.3732 Y23.6902
G01 X80.8945 Y23.6902
G01 X80.8336 Y23.6872
G01 X80.7732 Y23.6782
G01 X80.7140 Y23.6634
G01 X80.6566 Y23.6429
G01 X80.6014 Y23.6168
G01 X80.5491 Y23.5854
G01 X80.5000 Y23.5490
G01 X80.4548 Y23.5081
G01 X76.4855 Y19.5388
G01 X36.3762 Y19.5388
G01 X33.0068 Y22.9082
G01 X33.0068 Y24.8208
G01 X33.0099 Y24.8254
G01 X33.0475 Y24.8886
G01 X33.0779 Y24.9530
G01 X33.1027 Y25.0223
G01 X33.1210 Y25.0961
G01 X33.1314 Y25.1665
G01 X33.1350 Y25.2388
G01 X33.1350 Y27.8400
G01 X33.1315 Y27.9123
G01 X33.1201 Y27.9887
G01 X33.1027 Y28.0577
G01 X33.0779 Y28.1270
G01 X33.0464 Y28.1935
G01 X33.0099 Y28.2546
G01 X32.9648 Y28.3158
G01 X32.9136 Y28.3720
G01 X32.8608 Y28.4198
G01 X32.8017 Y28.4636
G01 X32.7385 Y28.5014
G01 X32.6743 Y28.5319
G01 X32.6015 Y28.5580
G01 X32.5313 Y28.5756
G01 X32.4585 Y28.5864
G01 X32.3850 Y28.5900
G01 X32.3115 Y28.5864
G01 X32.2387 Y28.5756
G01 X32.1673 Y28.5577
G01 X32.0980 Y28.5329
G01 X32.0315 Y28.5014
G01 X31.9683 Y28.4636
G01 X31.9092 Y28.4198
G01 X31.8547 Y28.3703
G01 X31.8052 Y28.3158
G01 X31.7614 Y28.2567
G01 X31.7236 Y28.1935
G01 X31.6921 Y28.1270
G01 X31.6670 Y28.0565
G01 X31.6494 Y27.9863
G01 X31.6389 Y27.9159
G01 X31.6350 Y27.8400
G01 X31.6350 Y25.2400
G01 X31.6389 Y25.1641
G00 Z2.0000
G00 X34.1196 Y25.1552
G01 F60.00
G01 Z-0.0000
G01 F120.00
G01 X34.1306 Y25.0820
G01 X34.1484 Y25.0101
G01 X34.1516 Y24.9997
G01 X34.1747 Y24.9351
G01 X34.1788 Y24.9251
G01 X34.2106 Y24.8582
G01 X34.2432 Y24.8036
G01 X34.2432 Y23.0684
G01 X34.2465 Y23.0016
G01 X34.2563 Y22.9354
G01 X34.2711 Y22.8757
G01 X34.2743 Y22.8654
G01 X34.2951 Y22.8075
G01 X34.3213 Y22.7518
G01 X34.3264 Y22.7423
G01 X34.3581 Y22.6896
G01 X34.3980 Y22.6359
G01 X34.4392 Y22.5902
G01 X34.4468 Y22.5826
G01 X34.4925 Y22.5414
G01 X34.5418 Y22.5046
G01 X34.5508 Y22.4986
G01 X34.6036 Y22.4671
G01 X34.6592 Y22.4407
G01 X34.6666 Y22.4375
G01 X34.7271 Y22.4160
G01 X34.7920 Y22.3997
G01 X34.8582 Y22.3899
G01 X34.9250 Y22.3866
G01 X41.2554 Y22.3866
G01 X41.3222 Y22.3899
G01 X41.3884 Y22.3997
G01 X41.4481 Y22.4145
G01 X41.4584 Y22.4177
G01 X41.5113 Y22.4366
G01 X41.5212 Y22.4407
G01 X41.5768 Y22.4671
G01 X41.6342 Y22.5015
G01 X41.6879 Y22.5414
G01 X41.7356 Y22.5844
G01 X45.1394 Y25.9882
G01 X50.5950 Y25.9882
G01 X50.5950 Y25.9200
G01 X50.5958 Y25.9065
G01 X50.5977 Y25.8959
G01 X50.6014 Y25.8829
G01 X50.6056 Y25.8730
G01 X50.6106 Y25.8634
G01 X50.6183 Y25.8523
G01 X50.6272 Y25.8422
G01 X50.6373 Y25.8333
G01 X50.6484 Y25.8256
G01 X50.6604 Y25.8194
G01 X50.6731 Y25.8147
G01 X50.6862 Y25.8116
G01 X50.6996 Y25.8101
G01 X54.7050 Y25.8100
G01 X54.7131 Y25.8103
G01 X54.7211 Y25.8112
G01 X54.7317 Y25.8133
G01 X54.7395 Y25.8156
G01 X54.7496 Y25.8194
G01 X54.7569 Y25.8230
G01 X54.7661 Y25.8285
G01 X54.7727 Y25.8333
G01 X54.7808 Y25.8403
G01 X54.7865 Y25.8461
G01 X54.7917 Y25.8523
G01 X54.7979 Y25.8612
G01 X54.8033 Y25.8705
G01 X54.8066 Y25.8779
G01 X54.8094 Y25.8855
G01 X54.8123 Y25.8959
G01 X54.8138 Y25.9039
G01 X54.8149 Y25.9146
G01 X54.8150 Y27.4200
G01 X54.8145 Y27.4308
G01 X54.8129 Y27.4415
G01 X54.8110 Y27.4493
G01 X54.8086 Y27.4571
G01 X54.8044 Y27.4670
G01 X54.7994 Y27.4766
G01 X54.7949 Y27.4833
G01 X54.7883 Y27.4918
G01 X54.7808 Y27.4997
G01 X54.7748 Y27.5050
G01 X54.7661 Y27.5115
G01 X54.7569 Y27.5170
G01 X54.7471 Y27.5216
G01 X54.7395 Y27.5244
G01 X54.7291 Y27.5273
G01 X54.7185 Y27.5292
G01 X54.7077 Y27.5300
G01 X50.7050 Y27.5300
G01 X50.6915 Y27.5292
G01 X50.6783 Y27.5267
G01 X50.6705 Y27.5244
G01 X50.6629 Y27.5216
G01 X50.6508 Y27.5157
G01 X50.6395 Y27.5084
G01 X50.6292 Y27.4997
G01 X50.6200 Y27.4898
G01 X50.6121 Y27.4788
G01 X50.6056 Y27.4670
G01 X50.6014 Y27.4571
G01 X50.5983 Y27.4467
G01 X50.5958 Y27.4335
G01 X50.5950 Y27.4200
G01 X50.5950 Y27.3518
G01 X44.8570 Y27.3518
G01 X44.7902 Y27.3485
G01 X44.7240 Y27.3387
G01 X44.6591 Y27.3224
G01 X44.6011 Y27.3018
G01 X44.5912 Y27.2977
G01 X44.5356 Y27.2713
G01 X44.4828 Y27.2398
G01 X44.4738 Y27.2338
G01 X44.4245 Y27.1970
G01 X44.3768 Y27.1540
G01 X40.9730 Y23.7502
G01 X35.6068 Y23.7502
G01 X35.6068 Y24.8036
G01 X35.6394 Y24.8582
G01 X35.6712 Y24.9251
G01 X35.6753 Y24.9351
G01 X35.7001 Y25.0049
G01 X35.7183 Y25.0767
G01 X35.7204 Y25.0873
G01 X35.7311 Y25.1606
G01 X35.7350 Y25.2373
G01 X35.7350 Y27.8400
G01 X35.7311 Y27.9194
G01 X35.7204 Y27.9927
G01 X35.7183 Y28.0033
G01 X35.7001 Y28.0751
G01 X35.6733 Y28.1500
G01 X35.6394 Y28.2218
G01 X35.6014 Y28.2855
G01 X35.5954 Y28.2944
G01 X35.5511 Y28.3539
G01 X35.5015 Y28.4088
G01 X35.4938 Y28.4165
G01 X35.4429 Y28.4626
G01 X35.4346 Y28.4695
G01 X35.3750 Y28.5135
G01 X35.3068 Y28.5544
G01 X35.2350 Y28.5883
G01 X35.1601 Y28.6151
G01 X35.0830 Y28.6344
G01 X35.0044 Y28.6461
G01 X34.9250 Y28.6500
G01 X34.8456 Y28.6461
G01 X34.7670 Y28.6344
G01 X34.6951 Y28.6166
G01 X34.6847 Y28.6134
G01 X34.6201 Y28.5903
G01 X34.6101 Y28.5862
G01 X34.5432 Y28.5544
G01 X34.4750 Y28.5135
G01 X34.4111 Y28.4661
G01 X34.3562 Y28.4165
G01 X34.3485 Y28.4088
G01 X34.3024 Y28.3579
G01 X34.2955 Y28.3496
G01 X34.2515 Y28.2900
G01 X34.2106 Y28.2218
G01 X34.1788 Y28.1549
G01 X34.1747 Y28.1449
G01 X34.1499 Y28.0751
G01 X34.1306 Y27.9980
G01 X34.1189 Y27.9194
G01 X34.1150 Y27.8400
G01 X34.1150 Y25.2400
G01 X34.1185 Y25.1660
G01 X34.1196 Y25.1552
G00 Z2.0000
G00 X34.1789 Y25.1641
G01 F60.00
G01 Z-0.0000
G01 F120.00
G01 X34.1899 Y25.0913
G01 X34.2073 Y25.0223
G01 X34.2312 Y24.9553
G01 X34.2636 Y24.8865
G01 X34.3001 Y24.8254
G01 X34.3032 Y24.8208
G01 X34.3032 Y23.0684
G01 X34.3062 Y23.0075
G01 X34.3152 Y22.9471
G01 X34.3308 Y22.8856
G01 X34.3505 Y22.8305
G01 X34.3755 Y22.7775
G01 X34.4080 Y22.7230
G01 X34.4444 Y22.6739
G01 X34.4871 Y22.6270
G01 X34.5305 Y22.5878
G01 X34.5775 Y22.5528
G01 X34.6319 Y22.5200
G01 X34.6882 Y22.4935
G01 X34.7445 Y22.4734
G01 X34.8037 Y22.4586
G01 X34.8641 Y22.4496
G01 X34.9250 Y22.4466
G01 X41.2554 Y22.4466
G01 X41.3163 Y22.4496
G01 X41.3767 Y22.4586
G01 X41.4335 Y22.4727
G01 X41.4956 Y22.4949
G01 X41.5485 Y22.5200
G01 X41.6008 Y22.5514
G01 X41.6499 Y22.5878
G01 X41.6942 Y22.6279
G01 X45.1146 Y26.0482
G01 X50.6550 Y26.0482
G01 X50.6550 Y25.9188
G01 X50.6555 Y25.9127
G01 X50.6568 Y25.9067
G01 X50.6598 Y25.8986
G01 X50.6634 Y25.8922
G01 X50.6680 Y25.8864
G01 X50.6742 Y25.8806
G01 X50.6804 Y25.8765
G01 X50.6882 Y25.8729
G01 X50.6952 Y25.8710
G01 X50.7025 Y25.8701
G01 X54.7050 Y25.8700
G01 X54.7123 Y25.8705
G01 X54.7207 Y25.8725
G01 X54.7286 Y25.8759
G01 X54.7358 Y25.8806
G01 X54.7420 Y25.8864
G01 X54.7472 Y25.8933
G01 X54.7516 Y25.9020
G01 X54.7540 Y25.9102
G01 X54.7550 Y25.9188
G01 X54.7548 Y27.4249
G01 X54.7528 Y27.4345
G01 X54.7497 Y27.4425
G01 X54.7452 Y27.4498
G01 X54.7386 Y27.4570
G01 X54.7317 Y27.4622
G01 X54.7230 Y27.4666
G01 X54.7148 Y27.4690
G01 X54.7050 Y27.4700
G01 X50.7038 Y27.4700
G01 X50.6965 Y27.4693
G01 X50.6882 Y27.4671
G01 X50.6814 Y27.4641
G01 X50.6742 Y27.4594
G01 X50.6688 Y27.4545
G01 X50.6634 Y27.4478
G01 X50.6598 Y27.4414
G01 X50.6568 Y27.4333
G01 X50.6555 Y27.4273
G01 X50.6550 Y27.4212
G01 X50.6550 Y27.2918
G01 X44.8570 Y27.2918
G01 X44.7961 Y27.2888
G01 X44.7357 Y27.2798
G01 X44.6765 Y27.2650
G01 X44.6213 Y27.2453
G01 X44.5639 Y27.2184
G01 X44.5095 Y27.1856
G01 X44.4625 Y27.1506
G01 X44.4182 Y27.1105
G01 X40.9978 Y23.6902
G01 X35.5468 Y23.6902
G01 X35.5468 Y24.8208
G01 X35.5499 Y24.8254
G01 X35.5875 Y24.8886
G01 X35.6179 Y24.9530
G01 X35.6427 Y25.0223
G01 X35.6610 Y25.0961
G01 X35.6714 Y25.1665
G01 X35.6750 Y25.2388
G01 X35.6750 Y27.8400
G01 X35.6711 Y27.9159
G01 X35.6606 Y27.9863
G01 X35.6427 Y28.0577
G01 X35.6179 Y28.1270
G01 X35.5864 Y28.1935
G01 X35.5486 Y28.2567
G01 X35.5048 Y28.3158
G01 X35.4553 Y28.3703
G01 X35.4008 Y28.4198
G01 X35.3417 Y28.4636
G01 X35.2785 Y28.5014
G01 X35.2120 Y28.5329
G01 X35.1427 Y28.5577
G01 X35.0713 Y28.5756
G01 X34.9985 Y28.5864
G01 X34.9250 Y28.5900
G01 X34.8515 Y28.5864
G01 X34.7787 Y28.5756
G01 X34.7097 Y28.5584
G01 X34.6357 Y28.5319
G01 X34.5715 Y28.5014
G01 X34.5083 Y28.4636
G01 X34.4492 Y28.4198
G01 X34.3964 Y28.3720
G01 X34.3437 Y28.3139
G01 X34.3014 Y28.2567
G01 X34.2636 Y28.1935
G01 X34.2312 Y28.1247
G01 X34.2073 Y28.0577
G01 X34.1894 Y27.9863
G01 X34.1786 Y27.9135
G01 X34.1750 Y27.8400
G01 X34.1750 Y25.2400
G01 X34.1789 Y25.1641
G00 Z2.0000
G00 X36.6596 Y25.1552
G01 F60.00
G01 Z-0.0000
G01 F120.00
G01 X36.6706 Y25.0820
G01 X36.6884 Y25.0101
G01 X36.6916 Y24.9997
G01 X36.7167 Y24.9300
G01 X36.7506 Y24.8582
G01 X36.7886 Y24.7945
G01 X36.7946 Y24.7856
G01 X36.8389 Y24.7261
G01 X36.8885 Y24.6712
G01 X36.8962 Y24.6635
G01 X36.9511 Y24.6139
G01 X37.0150 Y24.5665
G01 X37.0785 Y24.5283
G01 X37.0880 Y24.5232
G01 X37.1550 Y24.4917
G01 X37.2247 Y24.4666
G01 X37.2351 Y24.4634
G01 X37.3017 Y24.4467
G01 X37.3123 Y24.4446
G01 X37.3856 Y24.4339
G01 X37.4596 Y24.4301
G01 X37.4704 Y24.4301
G01 X37.5444 Y24.4339
G01 X37.6177 Y24.4446
G01 X37.6283 Y24.4467
G01 X37.7001 Y24.4649
G01 X37.7699 Y24.4897
G01 X37.7799 Y24.4938
G01 X37.8468 Y24.5256
G01 X37.9150 Y24.5665
G01 X37.9746 Y24.6105
G01 X37.9829 Y24.6174
G01 X38.0338 Y24.6635
G01 X38.0415 Y24.6712
G01 X38.0911 Y24.7261
G01 X38.1385 Y24.7900
G01 X38.1794 Y24.8582
G01 X38.2112 Y24.9251
G01 X38.2153 Y24.9351
G01 X38.2384 Y24.9997
G01 X38.2416 Y25.0101
G01 X38.2594 Y25.0820
G01 X38.2711 Y25.1606
G01 X38.2750 Y25.2400
G01 X38.2750 Y27.3407
G01 X38.3288 Y27.3731
G01 X38.3783 Y27.4097
G01 X38.3866 Y27.4165
G01 X38.4321 Y27.4579
G01 X42.0424 Y31.0682
G01 X50.9321 Y31.0682
G01 X50.9772 Y31.0349
G01 X51.0472 Y30.9928
G01 X51.0544 Y30.9891
G01 X51.1210 Y30.9577
G01 X51.1284 Y30.9545
G01 X51.2054 Y30.9270
G01 X51.2820 Y30.9077
G01 X51.2925 Y30.9056
G01 X51.3653 Y30.8948
G01 X51.3761 Y30.8937
G01 X51.4550 Y30.8900
G01 X53.9550 Y30.8900
G01 X54.0366 Y30.8939
G01 X54.0447 Y30.8948
G01 X54.1228 Y30.9065
G01 X54.1994 Y30.9256
G01 X54.2098 Y30.9287
G01 X54.2841 Y30.9555
G01 X54.3556 Y30.9891
G01 X54.3651 Y30.9942
G01 X54.4282 Y31.0320
G01 X54.4372 Y31.0380
G01 X54.5006 Y31.0852
G01 X54.5631 Y31.1419
G01 X54.6198 Y31.2044
G01 X54.6670 Y31.2678
G01 X54.6730 Y31.2768
G01 X54.7108 Y31.3399
G01 X54.7159 Y31.3494
G01 X54.7495 Y31.4209
G01 X54.7763 Y31.4952
G01 X54.7794 Y31.5056
G01 X54.7985 Y31.5822
G01 X54.8109 Y31.6657
G01 X54.8150 Y31.7500
G01 X54.8113 Y31.8289
G01 X54.8102 Y31.8397
G01 X54.7985 Y31.9178
G01 X54.7794 Y31.9944
G01 X54.7763 Y32.0048
G01 X54.7505 Y32.0766
G01 X54.7473 Y32.0840
G01 X54.7159 Y32.1506
G01 X54.7108 Y32.1601
G01 X54.6701 Y32.2278
G01 X54.6198 Y32.2956
G01 X54.5668 Y32.3542
G01 X54.5592 Y32.3618
G01 X54.5006 Y32.4148
G01 X54.4328 Y32.4651
G01 X54.3651 Y32.5058
G01 X54.3556 Y32.5109
G01 X54.2841 Y32.5445
G01 X54.2046 Y32.5730
G01 X54.1280 Y32.5923
G01 X54.1175 Y32.5944
G01 X54.0393 Y32.6059
G01 X53.9577 Y32.6100
G01 X51.4550 Y32.6100
G01 X51.3761 Y32.6063
G01 X51.3653 Y32.6052
G01 X51.2925 Y32.5944
G01 X51.2820 Y32.5923
G01 X51.2054 Y32.5730
G01 X51.1284 Y32.5455
G01 X51.1210 Y32.5423
G01 X51.0544 Y32.5109
G01 X51.0472 Y32.5072
G01 X50.9772 Y32.4651
G01 X50.9321 Y32.4318
G01 X41.7600 Y32.4318
G01 X41.6932 Y32.4285
G01 X41.6270 Y32.4187
G01 X41.5621 Y32.4024
G01 X41.5016 Y32.3809
G01 X41.4942 Y32.3777
G01 X41.4386 Y32.3513
G01 X41.3812 Y32.3169
G01 X41.3275 Y32.2770
G01 X41.2779 Y32.2321
G01 X37.6689 Y28.6231
G01 X37.6204 Y28.6349
G01 X37.5498 Y28.6454
G01 X37.5417 Y28.6463
G01 X37.4650 Y28.6500
G01 X37.3883 Y28.6463
G01 X37.3802 Y28.6454
G01 X37.3123 Y28.6354
G01 X37.3017 Y28.6333
G01 X37.2299 Y28.6151
G01 X37.1575 Y28.5893
G01 X37.1501 Y28.5862
G01 X37.0880 Y28.5568
G01 X37.0785 Y28.5517
G01 X37.0150 Y28.5135
G01 X36.9511 Y28.4661
G01 X36.8962 Y28.4165
G01 X36.8885 Y28.4088
G01 X36.8389 Y28.3539
G01 X36.7915 Y28.2900
G01 X36.7506 Y28.2218
G01 X36.7188 Y28.1549
G01 X36.7147 Y28.1449
G01 X36.6899 Y28.0751
G01 X36.6717 Y28.0033
G01 X36.6696 Y27.9927
G01 X36.6589 Y27.9194
G01 X36.6551 Y27.8454
G01 X36.6550 Y25.2400
G01 X36.6585 Y25.1660
G01 X36.6596 Y25.1552
G00 Z2.0000
G00 X36.7189 Y25.1641
G01 F60.00
G01 Z-0.0000
G01 F120.00
G01 X36.7294 Y25.0937
G01 X36.7466 Y25.0247
G01 X36.7721 Y24.9530
G01 X36.8036 Y24.8865
G01 X36.8401 Y24.8254
G01 X36.8852 Y24.7642
G01 X36.9364 Y24.7080
G01 X36.9892 Y24.6602
G01 X37.0483 Y24.6164
G01 X37.1115 Y24.5786
G01 X37.1757 Y24.5481
G01 X37.2473 Y24.5223
G01 X37.3187 Y24.5044
G01 X37.3891 Y24.4939
G01 X37.4650 Y24.4900
G01 X37.5409 Y24.4939
G01 X37.6113 Y24.5044
G01 X37.6827 Y24.5223
G01 X37.7543 Y24.5481
G01 X37.8185 Y24.5786
G01 X37.8817 Y24.6164
G01 X37.9427 Y24.6618
G01 X37.9953 Y24.7097
G01 X38.0432 Y24.7623
G01 X38.0899 Y24.8254
G01 X38.1264 Y24.8865
G01 X38.1579 Y24.9530
G01 X38.1827 Y25.0223
G01 X38.2001 Y25.0913
G01 X38.2115 Y25.1677
G01 X38.2150 Y25.2400
G01 X38.2150 Y27.3783
G01 X38.2442 Y27.3922
G01 X38.2965 Y27.4237
G01 X38.3445 Y27.4594
G01 X38.3897 Y27.5003
G01 X42.0176 Y31.1282
G01 X50.9519 Y31.1282
G01 X51.0105 Y31.0848
G01 X51.0757 Y31.0457
G01 X51.1489 Y31.0109
G01 X51.2228 Y30.9844
G01 X51.2965 Y30.9659
G01 X51.3790 Y30.9537
G01 X51.4550 Y30.9500
G01 X53.9550 Y30.9500
G01 X54.0322 Y30.9537
G01 X54.1111 Y30.9654
G01 X54.1896 Y30.9852
G01 X54.2611 Y31.0109
G01 X54.3299 Y31.0434
G01 X54.3974 Y31.0835
G01 X54.4625 Y31.1316
G01 X54.5207 Y31.1843
G01 X54.5734 Y31.2425
G01 X54.6215 Y31.3076
G01 X54.6616 Y31.3751
G01 X54.6941 Y31.4439
G01 X54.7198 Y31.5154
G01 X54.7396 Y31.5939
G01 X54.7511 Y31.6716
G01 X54.7550 Y31.7500
G01 X54.7508 Y31.8308
G01 X54.7396 Y31.9061
G01 X54.7212 Y31.9799
G01 X54.6946 Y32.0550
G01 X54.6593 Y32.1293
G01 X54.6202 Y32.1945
G01 X54.5734 Y32.2575
G01 X54.5189 Y32.3174
G01 X54.4625 Y32.3684
G01 X54.3995 Y32.4152
G01 X54.3299 Y32.4566
G01 X54.2611 Y32.4891
G01 X54.1872 Y32.5156
G01 X54.1087 Y32.5350
G01 X54.0334 Y32.5461
G01 X53.9562 Y32.5500
G01 X51.4550 Y32.5500
G01 X51.3790 Y32.5463
G01 X51.2965 Y32.5341
G01 X51.2228 Y32.5156
G01 X51.1489 Y32.4891
G01 X51.0757 Y32.4543
G01 X51.0105 Y32.4152
G01 X50.9519 Y32.3718
G01 X41.7600 Y32.3718
G01 X41.6991 Y32.3688
G01 X41.6387 Y32.3598
G01 X41.5795 Y32.3450
G01 X41.5232 Y32.3249
G01 X41.4669 Y32.2984
G01 X41.4146 Y32.2670
G01 X41.3655 Y32.2306
G01 X41.3203 Y32.1897
G01 X37.6924 Y28.5618
G01 X37.6667 Y28.5618
G01 X37.6113 Y28.5756
G01 X37.5373 Y28.5865
G01 X37.4650 Y28.5900
G01 X37.3939 Y28.5866
G01 X37.3163 Y28.5751
G01 X37.2473 Y28.5577
G01 X37.1803 Y28.5338
G01 X37.1093 Y28.5002
G01 X37.0483 Y28.4636
G01 X36.9892 Y28.4198
G01 X36.9330 Y28.3686
G01 X36.8852 Y28.3158
G01 X36.8414 Y28.2567
G01 X36.8036 Y28.1935
G01 X36.7731 Y28.1293
G01 X36.7473 Y28.0577
G01 X36.7290 Y27.9839
G01 X36.7186 Y27.9135
G01 X36.7151 Y27.8425
G01 X36.7150 Y25.2400
G01 X36.7189 Y25.1641
G00 Z2.0000
G00 X36.6596 Y30.4952
G01 F60.00
G01 Z-0.0000
G01 F120.00
G01 X36.6706 Y30.4220
G01 X36.6899 Y30.3449
G01 X36.7167 Y30.2700
G01 X36.7482 Y30.2030
G01 X36.7533 Y30.1935
G01 X36.7886 Y30.1345
G01 X36.7946 Y30.1256
G01 X36.8389 Y30.0661
G01 X36.8922 Y30.0072
G01 X36.9511 Y29.9539
G01 X37.0150 Y29.9065
G01 X37.0832 Y29.8656
G01 X37.1501 Y29.8338
G01 X37.1601 Y29.8297
G01 X37.2247 Y29.8066
G01 X37.2351 Y29.8034
G01 X37.3070 Y29.7856
G01 X37.3856 Y29.7739
G01 X37.4650 Y29.7700
G01 X37.5390 Y29.7735
G01 X37.5498 Y29.7746
G01 X37.6177 Y29.7846
G01 X37.6283 Y29.7867
G01 X37.7001 Y29.8049
G01 X37.7750 Y29.8317
G01 X37.8468 Y29.8656
G01 X37.9150 Y29.9065
G01 X37.9789 Y29.9539
G01 X38.0378 Y30.0072
G01 X38.0911 Y30.0661
G01 X38.1354 Y30.1256
G01 X38.1414 Y30.1345
G01 X38.1767 Y30.1935
G01 X38.1818 Y30.2030
G01 X38.2133 Y30.2700
G01 X38.2401 Y30.3449
G01 X38.2594 Y30.4220
G01 X38.2704 Y30.4952
G01 X38.2715 Y30.5060
G01 X38.2750 Y30.5800
G01 X38.2750 Y33.1800
G01 X38.2711 Y33.2594
G01 X38.2604 Y33.3327
G01 X38.2583 Y33.3433
G01 X38.2401 Y33.4151
G01 X38.2153 Y33.4849
G01 X38.2112 Y33.4949
G01 X38.1794 Y33.5618
G01 X38.1414 Y33.6255
G01 X38.1354 Y33.6344
G01 X38.0945 Y33.6896
G01 X38.0876 Y33.6979
G01 X38.0378 Y33.7528
G01 X37.9829 Y33.8026
G01 X37.9746 Y33.8095
G01 X37.9150 Y33.8535
G01 X37.8468 Y33.8944
G01 X37.7799 Y33.9262
G01 X37.7699 Y33.9303
G01 X37.7001 Y33.9551
G01 X37.6230 Y33.9744
G01 X37.5444 Y33.9861
G01 X37.4650 Y33.9900
G01 X37.3856 Y33.9861
G01 X37.3070 Y33.9744
G01 X37.2299 Y33.9551
G01 X37.1550 Y33.9283
G01 X37.0832 Y33.8944
G01 X37.0150 Y33.8535
G01 X36.9511 Y33.8061
G01 X36.8922 Y33.7528
G01 X36.8389 Y33.6939
G01 X36.7915 Y33.6300
G01 X36.7506 Y33.5618
G01 X36.7167 Y33.4900
G01 X36.6899 Y33.4151
G01 X36.6706 Y33.3380
G01 X36.6596 Y33.2648
G01 X36.6585 Y33.2540
G01 X36.6550 Y33.1800
G01 X36.6550 Y30.5800
G01 X36.6585 Y30.5060
G01 X36.6596 Y30.4952
G00 Z2.0000
G00 X36.7189 Y30.5041
G01 F60.00
G01 Z-0.0000
G01 F120.00
G01 X36.7294 Y30.4337
G01 X36.7473 Y30.3623
G01 X36.7721 Y30.2930
G01 X36.8025 Y30.2286
G01 X36.8428 Y30.1613
G01 X36.8852 Y30.1042
G01 X36.9347 Y30.0497
G01 X36.9892 Y30.0002
G01 X37.0483 Y29.9564
G01 X37.1115 Y29.9186
G01 X37.1757 Y29.8881
G01 X37.2497 Y29.8616
G01 X37.3187 Y29.8444
G01 X37.3915 Y29.8336
G01 X37.4650 Y29.8300
G01 X37.5361 Y29.8334
G01 X37.6137 Y29.8449
G01 X37.6827 Y29.8623
G01 X37.7520 Y29.8871
G01 X37.8185 Y29.9186
G01 X37.8817 Y29.9564
G01 X37.9408 Y30.0002
G01 X37.9953 Y30.0497
G01 X38.0448 Y30.1042
G01 X38.0872 Y30.1613
G01 X38.1275 Y30.2286
G01 X38.1579 Y30.2930
G01 X38.1830 Y30.3635
G01 X38.2006 Y30.4337
G01 X38.2111 Y30.5041
G01 X38.2150 Y30.5800
G01 X38.2150 Y33.1800
G01 X38.2111 Y33.2559
G01 X38.2006 Y33.3263
G01 X38.1834 Y33.3953
G01 X38.1579 Y33.4670
G01 X38.1264 Y33.5335
G01 X38.0899 Y33.5946
G01 X38.0448 Y33.6558
G01 X37.9936 Y33.7120
G01 X37.9408 Y33.7598
G01 X37.8817 Y33.8036
G01 X37.8185 Y33.8414
G01 X37.7543 Y33.8719
G01 X37.6815 Y33.8980
G01 X37.6113 Y33.9156
G01 X37.5385 Y33.9264
G01 X37.4650 Y33.9300
G01 X37.3915 Y33.9264
G01 X37.3187 Y33.9156
G01 X37.2473 Y33.8977
G01 X37.1780 Y33.8729
G01 X37.1115 Y33.8414
G01 X37.0483 Y33.8036
G01 X36.9892 Y33.7598
G01 X36.9347 Y33.7103
G01 X36.8852 Y33.6558
G01 X36.8414 Y33.5967
G01 X36.8036 Y33.5335
G01 X36.7721 Y33.4670
G01 X36.7470 Y33.3965
G01 X36.7294 Y33.3263
G01 X36.7189 Y33.2559
G01 X36.7150 Y33.1800
G01 X36.7150 Y30.5800
G01 X36.7189 Y30.5041
G00 Z2.0000
G00 X34.1789 Y30.5041
G01 F60.00
G01 Z-0.0000
G01 F120.00
G01 X34.1894 Y30.4337
G01 X34.2073 Y30.3623
G01 X34.2321 Y30.2930
G01 X34.2625 Y30.2286
G01 X34.3028 Y30.1613
G01 X34.3452 Y30.1042
G01 X34.3947 Y30.0497
G01 X34.4492 Y30.0002
G01 X34.5083 Y29.9564
G01 X34.5715 Y29.9186
G01 X34.6357 Y29.8881
G01 X34.7097 Y29.8616
G01 X34.7787 Y29.8444
G01 X34.8515 Y29.8336
G01 X34.9250 Y29.8300
G01 X34.9985 Y29.8336
G01 X35.0713 Y29.8444
G01 X35.1403 Y29.8616
G01 X35.2143 Y29.8881
G01 X35.2785 Y29.9186
G01 X35.3417 Y29.9564
G01 X35.4008 Y30.0002
G01 X35.4553 Y30.0497
G01 X35.5048 Y30.1042
G01 X35.5472 Y30.1613
G01 X35.5875 Y30.2286
G01 X35.6179 Y30.2930
G01 X35.6430 Y30.3635
G01 X35.6606 Y30.4337
G01 X35.6711 Y30.5041
G01 X35.6750 Y30.5800
G01 X35.6750 Y33.1800
G01 X35.6711 Y33.2559
G01 X35.6606 Y33.3263
G01 X35.6434 Y33.3953
G01 X35.6179 Y33.4670
G01 X35.5864 Y33.5335
G01 X35.5499 Y33.5946
G01 X35.5048 Y33.6558
G01 X35.4536 Y33.7120
G01 X35.4008 Y33.7598
G01 X35.3417 Y33.8036
G01 X35.2785 Y33.8414
G01 X35.2143 Y33.8719
G01 X35.1415 Y33.8980
G01 X35.0713 Y33.9156
G01 X34.9985 Y33.9264
G01 X34.9250 Y33.9300
G01 X34.8515 Y33.9264
G01 X34.7787 Y33.9156
G01 X34.7073 Y33.8977
G01 X34.6380 Y33.8729
G01 X34.5715 Y33.8414
G01 X34.5083 Y33.8036
G01 X34.4492 Y33.7598
G01 X34.3947 Y33.7103
G01 X34.3452 Y33.6558
G01 X34.3014 Y33.5967
G01 X34.2636 Y33.5335
G01 X34.2321 Y33.4670
G01 X34.2070 Y33.3965
G01 X34.1894 Y33.3263
G01 X34.1789 Y33.2559
G01 X34.1750 Y33.1800
G01 X34.1750 Y30.5800
G01 X34.1789 Y30.5041
G00 Z2.0000
G00 X34.1196 Y30.4952
G01 F60.00
G01 Z-0.0000
G01 F120.00
G01 X34.1306 Y30.4220
G01 X34.1499 Y30.3449
G01 X34.1767 Y30.2700
G01 X34.2082 Y30.2030
G01 X34.2133 Y30.1935
G01 X34.2486 Y30.1345
G01 X34.2546 Y30.1256
G01 X34.2989 Y30.0661
G01 X34.3522 Y30.0072
G01 X34.4111 Y29.9539
G01 X34.4750 Y29.9065
G01 X34.5432 Y29.8656
G01 X34.6101 Y29.8338
G01 X34.6201 Y29.8297
G01 X34.6847 Y29.8066
G01 X34.6951 Y29.8034
G01 X34.7670 Y29.7856
G01 X34.8456 Y29.7739
G01 X34.9250 Y29.7700
G01 X35.0044 Y29.7739
G01 X35.0830 Y29.7856
G01 X35.1549 Y29.8034
G01 X35.1653 Y29.8066
G01 X35.2299 Y29.8297
G01 X35.2399 Y29.8338
G01 X35.3068 Y29.8656
G01 X35.3750 Y29.9065
G01 X35.4389 Y29.9539
G01 X35.4978 Y30.0072
G01 X35.5511 Y30.0661
G01 X35.5954 Y30.1256
G01 X35.6014 Y30.1345
G01 X35.6367 Y30.1935
G01 X35.6418 Y30.2030
G01 X35.6733 Y30.2700
G01 X35.7001 Y30.3449
G01 X35.7194 Y30.4220
G01 X35.7304 Y30.4952
G01 X35.7315 Y30.5060
G01 X35.7350 Y30.5800
G01 X35.7350 Y33.1800
G01 X35.7311 Y33.2594
G01 X35.7204 Y33.3327
G01 X35.7183 Y33.3433
G01 X35.7001 Y33.4151
G01 X35.6753 Y33.4849
G01 X35.6712 Y33.4949
G01 X35.6394 Y33.5618
G01 X35.6014 Y33.6255
G01 X35.5954 Y33.6344
G01 X35.5545 Y33.6896
G01 X35.5476 Y33.6979
G01 X35.4978 Y33.7528
G01 X35.4429 Y33.8026
G01 X35.4346 Y33.8095
G01 X35.3750 Y33.8535
G01 X35.3068 Y33.8944
G01 X35.2399 Y33.9262
G01 X35.2299 Y33.9303
G01 X35.1601 Y33.9551
G01 X35.0830 Y33.9744
G01 X35.0044 Y33.9861
G01 X34.9250 Y33.9900
G01 X34.8456 Y33.9861
G01 X34.7670 Y33.9744
G01 X34.6899 Y33.9551
G01 X34.6150 Y33.9283
G01 X34.5432 Y33.8944
G01 X34.4750 Y33.8535
G01 X34.4111 Y33.8061
G01 X34.3522 Y33.7528
G01 X34.2989 Y33.6939
G01 X34.2515 Y33.6300
G01 X34.2106 Y33.5618
G01 X34.1767 Y33.4900
G01 X34.1499 Y33.4151
G01 X34.1306 Y33.3380
G01 X34.1196 Y33.2648
G01 X34.1185 Y33.2540
G01 X34.1150 Y33.1800
G01 X34.1150 Y30.5800
G01 X34.1185 Y30.5060
G01 X34.1196 Y30.4952
G00 Z2.0000
G00 X31.6389 Y30.5041
G01 F60.00
G01 Z-0.0000
G01 F120.00
G01 X31.6494 Y30.4337
G01 X31.6673 Y30.3623
G01 X31.6921 Y30.2930
G01 X31.7225 Y30.2286
G01 X31.7628 Y30.1613
G01 X31.8052 Y30.1042
G01 X31.8547 Y30.0497
G01 X31.9092 Y30.0002
G01 X31.9683 Y29.9564
G01 X32.0315 Y29.9186
G01 X32.0957 Y29.8881
G01 X32.1697 Y29.8616
G01 X32.2387 Y29.8444
G01 X32.3115 Y29.8336
G01 X32.3850 Y29.8300
G01 X32.4585 Y29.8336
G01 X32.5313 Y29.8444
G01 X32.6003 Y29.8616
G01 X32.6743 Y29.8881
G01 X32.7385 Y29.9186
G01 X32.8017 Y29.9564
G01 X32.8608 Y30.0002
G01 X32.9153 Y30.0497
G01 X32.9648 Y30.1042
G01 X33.0072 Y30.1613
G01 X33.0475 Y30.2286
G01 X33.0779 Y30.2930
G01 X33.1030 Y30.3635
G01 X33.1206 Y30.4337
G01 X33.1311 Y30.5041
G01 X33.1350 Y30.5800
G01 X33.1350 Y33.1800
G01 X33.1311 Y33.2559
G01 X33.1206 Y33.3263
G01 X33.1034 Y33.3953
G01 X33.0779 Y33.4670
G01 X33.0464 Y33.5335
G01 X33.0099 Y33.5946
G01 X32.9648 Y33.6558
G01 X32.9136 Y33.7120
G01 X32.8608 Y33.7598
G01 X32.8017 Y33.8036
G01 X32.7385 Y33.8414
G01 X32.6743 Y33.8719
G01 X32.6015 Y33.8980
G01 X32.5313 Y33.9156
G01 X32.4585 Y33.9264
G01 X32.3850 Y33.9300
G01 X32.3115 Y33.9264
G01 X32.2387 Y33.9156
G01 X32.1673 Y33.8977
G01 X32.0980 Y33.8729
G01 X32.0315 Y33.8414
G01 X31.9683 Y33.8036
G01 X31.9092 Y33.7598
G01 X31.8547 Y33.7103
G01 X31.8052 Y33.6558
G01 X31.7614 Y33.5967
G01 X31.7236 Y33.5335
G01 X31.6921 Y33.4670
G01 X31.6670 Y33.3965
G01 X31.6494 Y33.3263
G01 X31.6389 Y33.2559
G01 X31.6350 Y33.1800
G01 X31.6350 Y30.5800
G01 X31.6389 Y30.5041
G00 Z2.0000
G00 X31.5796 Y30.4952
G01 F60.00
G01 Z-0.0000
G01 F120.00
G01 X31.5906 Y30.4220
G01 X31.6099 Y30.3449
G01 X31.6367 Y30.2700
G01 X31.6682 Y30.2030
G01 X31.6733 Y30.1935
G01 X31.7086 Y30.1345
G01 X31.7146 Y30.1256
G01 X31.7589 Y30.0661
G01 X31.8122 Y30.0072
G01 X31.8711 Y29.9539
G01 X31.9350 Y29.9065
G01 X32.0032 Y29.8656
G01 X32.0701 Y29.8338
G01 X32.0801 Y29.8297
G01 X32.1447 Y29.8066
G01 X32.1551 Y29.8034
G01 X32.2270 Y29.7856
G01 X32.3056 Y29.7739
G01 X32.3850 Y29.7700
G01 X32.4644 Y29.7739
G01 X32.5430 Y29.7856
G01 X32.6149 Y29.8034
G01 X32.6253 Y29.8066
G01 X32.6899 Y29.8297
G01 X32.6999 Y29.8338
G01 X32.7668 Y29.8656
G01 X32.8350 Y29.9065
G01 X32.8989 Y29.9539
G01 X32.9578 Y30.0072
G01 X33.0111 Y30.0661
G01 X33.0554 Y30.1256
G01 X33.0614 Y30.1345
G01 X33.0967 Y30.1935
G01 X33.1018 Y30.2030
G01 X33.1333 Y30.2700
G01 X33.1601 Y30.3449
G01 X33.1794 Y30.4220
G01 X33.1904 Y30.4952
G01 X33.1915 Y30.5060
G01 X33.1950 Y30.5800
G01 X33.1950 Y33.1800
G01 X33.1911 Y33.2594
G01 X33.1804 Y33.3327
G01 X33.1783 Y33.3433
G01 X33.1601 Y33.4151
G01 X33.1353 Y33.4849
G01 X33.1312 Y33.4949
G01 X33.0994 Y33.5618
G01 X33.0614 Y33.6255
G01 X33.0554 Y33.6344
G01 X33.0145 Y33.6896
G01 X33.0076 Y33.6979
G01 X32.9578 Y33.7528
G01 X32.9029 Y33.8026
G01 X32.8946 Y33.8095
G01 X32.8350 Y33.8535
G01 X32.7668 Y33.8944
G01 X32.6999 Y33.9262
G01 X32.6899 Y33.9303
G01 X32.6201 Y33.9551
G01 X32.5430 Y33.9744
G01 X32.4644 Y33.9861
G01 X32.3850 Y33.9900
G01 X32.3056 Y33.9861
G01 X32.2270 Y33.9744
G01 X32.1499 Y33.9551
G01 X32.0750 Y33.9283
G01 X32.0032 Y33.8944
G01 X31.9350 Y33.8535
G01 X31.8711 Y33.8061
G01 X31.8122 Y33.7528
G01 X31.7589 Y33.6939
G01 X31.7115 Y33.6300
G01 X31.6706 Y33.5618
G01 X31.6367 Y33.4900
G01 X31.6099 Y33.4151
G01 X31.5906 Y33.3380
G01 X31.5796 Y33.2648
G01 X31.5785 Y33.2540
G01 X31.5750 Y33.1800
G01 X31.5750 Y30.5800
G01 X31.5785 Y30.5060
G01 X31.5796 Y30.4952
G00 Z2.0000
G00 X29.0989 Y30.5041
G01 F60.00
G01 Z-0.0000
G01 F120.00
G01 X29.1094 Y30.4337
G01 X29.1273 Y30.3623
G01 X29.1521 Y30.2930
G01 X29.1825 Y30.2286
G01 X29.2228 Y30.1613
G01 X29.2652 Y30.1042
G01 X29.3147 Y30.0497
G01 X29.3692 Y30.0002
G01 X29.4263 Y29.9578
G01 X29.4936 Y29.9175
G01 X29.5580 Y29.8871
G01 X29.6273 Y29.8623
G01 X29.6987 Y29.8444
G01 X29.7715 Y29.8336
G01 X29.8450 Y29.8300
G01 X29.9185 Y29.8336
G01 X29.9913 Y29.8444
G01 X30.0603 Y29.8616
G01 X30.1343 Y29.8881
G01 X30.1985 Y29.9186
G01 X30.2617 Y29.9564
G01 X30.3208 Y30.0002
G01 X30.3753 Y30.0497
G01 X30.4248 Y30.1042
G01 X30.4672 Y30.1613
G01 X30.5075 Y30.2286
G01 X30.5379 Y30.2930
G01 X30.5630 Y30.3635
G01 X30.5806 Y30.4337
G01 X30.5911 Y30.5041
G01 X30.5950 Y30.5800
G01 X30.5950 Y33.1800
G01 X30.5911 Y33.2559
G01 X30.5806 Y33.3263
G01 X30.5634 Y33.3953
G01 X30.5379 Y33.4670
G01 X30.5064 Y33.5335
G01 X30.4699 Y33.5946
G01 X30.4248 Y33.6558
G01 X30.3736 Y33.7120
G01 X30.3208 Y33.7598
G01 X30.2617 Y33.8036
G01 X30.1985 Y33.8414
G01 X30.1343 Y33.8719
G01 X30.0615 Y33.8980
G01 X29.9913 Y33.9156
G01 X29.9185 Y33.9264
G01 X29.8450 Y33.9300
G01 X29.7715 Y33.9264
G01 X29.6987 Y33.9156
G01 X29.6273 Y33.8977
G01 X29.5580 Y33.8729
G01 X29.4915 Y33.8414
G01 X29.4283 Y33.8036
G01 X29.3692 Y33.7598
G01 X29.3147 Y33.7103
G01 X29.2652 Y33.6558
G01 X29.2214 Y33.5967
G01 X29.1836 Y33.5335
G01 X29.1521 Y33.4670
G01 X29.1270 Y33.3965
G01 X29.1094 Y33.3263
G01 X29.0989 Y33.2559
G01 X29.0950 Y33.1800
G01 X29.0950 Y30.5800
G01 X29.0989 Y30.5041
G00 Z2.0000
G00 X29.0396 Y30.4952
G01 F60.00
G01 Z-0.0000
G01 F120.00
G01 X29.0506 Y30.4220
G01 X29.0699 Y30.3449
G01 X29.0967 Y30.2700
G01 X29.1282 Y30.2030
G01 X29.1333 Y30.1935
G01 X29.1686 Y30.1345
G01 X29.1746 Y30.1256
G01 X29.2189 Y30.0661
G01 X29.2722 Y30.0072
G01 X29.3311 Y29.9539
G01 X29.3906 Y29.9096
G01 X29.3995 Y29.9036
G01 X29.4585 Y29.8683
G01 X29.4680 Y29.8632
G01 X29.5350 Y29.8317
G01 X29.6099 Y29.8049
G01 X29.6870 Y29.7856
G01 X29.7656 Y29.7739
G01 X29.8450 Y29.7700
G01 X29.9244 Y29.7739
G01 X30.0030 Y29.7856
G01 X30.0749 Y29.8034
G01 X30.0853 Y29.8066
G01 X30.1499 Y29.8297
G01 X30.1599 Y29.8338
G01 X30.2268 Y29.8656
G01 X30.2950 Y29.9065
G01 X30.3589 Y29.9539
G01 X30.4178 Y30.0072
G01 X30.4711 Y30.0661
G01 X30.5154 Y30.1256
G01 X30.5214 Y30.1345
G01 X30.5567 Y30.1935
G01 X30.5618 Y30.2030
G01 X30.5933 Y30.2700
G01 X30.6201 Y30.3449
G01 X30.6394 Y30.4220
G01 X30.6504 Y30.4952
G01 X30.6515 Y30.5060
G01 X30.6550 Y30.5800
G01 X30.6550 Y33.1800
G01 X30.6511 Y33.2594
G01 X30.6404 Y33.3327
G01 X30.6383 Y33.3433
G01 X30.6201 Y33.4151
G01 X30.5953 Y33.4849
G01 X30.5912 Y33.4949
G01 X30.5594 Y33.5618
G01 X30.5214 Y33.6255
G01 X30.5154 Y33.6344
G01 X30.4745 Y33.6896
G01 X30.4676 Y33.6979
G01 X30.4178 Y33.7528
G01 X30.3629 Y33.8026
G01 X30.3546 Y33.8095
G01 X30.2950 Y33.8535
G01 X30.2268 Y33.8944
G01 X30.1599 Y33.9262
G01 X30.1499 Y33.9303
G01 X30.0801 Y33.9551
G01 X30.0030 Y33.9744
G01 X29.9244 Y33.9861
G01 X29.8450 Y33.9900
G01 X29.7656 Y33.9861
G01 X29.6870 Y33.9744
G01 X29.6099 Y33.9551
G01 X29.5350 Y33.9283
G01 X29.4632 Y33.8944
G01 X29.3950 Y33.8535
G01 X29.3311 Y33.8061
G01 X29.2722 Y33.7528
G01 X29.2189 Y33.6939
G01 X29.1715 Y33.6300
G01 X29.1306 Y33.5618
G01 X29.0967 Y33.4900
G01 X29.0699 Y33.4151
G01 X29.0506 Y33.3380
G01 X29.0396 Y33.2648
G01 X29.0385 Y33.2540
G01 X29.0350 Y33.1800
G01 X29.0350 Y30.5800
G01 X29.0385 Y30.5060
G01 X29.0396 Y30.4952
G00 Z2.0000
G00 X26.5589 Y30.5041
G01 F60.00
G01 Z-0.0000
G01 F120.00
G01 X26.5694 Y30.4337
G01 X26.5873 Y30.3623
G01 X26.6121 Y30.2930
G01 X26.6425 Y30.2286
G01 X26.6828 Y30.1613
G01 X26.7252 Y30.1042
G01 X26.7747 Y30.0497
G01 X26.8292 Y30.0002
G01 X26.8863 Y29.9578
G01 X26.9536 Y29.9175
G01 X27.0180 Y29.8871
G01 X27.0873 Y29.8623
G01 X27.1587 Y29.8444
G01 X27.2315 Y29.8336
G01 X27.3050 Y29.8300
G01 X27.3785 Y29.8336
G01 X27.4513 Y29.8444
G01 X27.5203 Y29.8616
G01 X27.5943 Y29.8881
G01 X27.6585 Y29.9186
G01 X27.7217 Y29.9564
G01 X27.7808 Y30.0002
G01 X27.8353 Y30.0497
G01 X27.8848 Y30.1042
G01 X27.9272 Y30.1613
G01 X27.9675 Y30.2286
G01 X27.9979 Y30.2930
G01 X28.0230 Y30.3635
G01 X28.0406 Y30.4337
G01 X28.0511 Y30.5041
G01 X28.0550 Y30.5800
G01 X28.0550 Y33.1800
G01 X28.0511 Y33.2559
G01 X28.0406 Y33.3263
G01 X28.0234 Y33.3953
G01 X27.9979 Y33.4670
G01 X27.9664 Y33.5335
G01 X27.9299 Y33.5946
G01 X27.8848 Y33.6558
G01 X27.8336 Y33.7120
G01 X27.7808 Y33.7598
G01 X27.7217 Y33.8036
G01 X27.6585 Y33.8414
G01 X27.5943 Y33.8719
G01 X27.5215 Y33.8980
G01 X27.4513 Y33.9156
G01 X27.3785 Y33.9264
G01 X27.3050 Y33.9300
G01 X27.2315 Y33.9264
G01 X27.1587 Y33.9156
G01 X27.0873 Y33.8977
G01 X27.0180 Y33.8729
G01 X26.9515 Y33.8414
G01 X26.8883 Y33.8036
G01 X26.8292 Y33.7598
G01 X26.7747 Y33.7103
G01 X26.7252 Y33.6558
G01 X26.6814 Y33.5967
G01 X26.6436 Y33.5335
G01 X26.6121 Y33.4670
G01 X26.5870 Y33.3965
G01 X26.5694 Y33.3263
G01 X26.5589 Y33.2559
G01 X26.5550 Y33.1800
G01 X26.5550 Y30.5800
G01 X26.5589 Y30.5041
G00 Z2.0000
G00 X26.4996 Y30.4952
G01 F60.00
G01 Z-0.0000
G01 F120.00
G01 X26.5106 Y30.4220
G01 X26.5299 Y30.3449
G01 X26.5567 Y30.2700
G01 X26.5882 Y30.2030
G01 X26.5933 Y30.1935
G01 X26.6286 Y30.1345
G01 X26.6346 Y30.1256
G01 X26.6789 Y30.0661
G01 X26.7322 Y30.0072
G01 X26.7911 Y29.9539
G01 X26.8506 Y29.9096
G01 X26.8595 Y29.9036
G01 X26.9185 Y29.8683
G01 X26.9280 Y29.8632
G01 X26.9950 Y29.8317
G01 X27.0699 Y29.8049
G01 X27.1470 Y29.7856
G01 X27.2256 Y29.7739
G01 X27.3050 Y29.7700
G01 X27.3844 Y29.7739
G01 X27.4630 Y29.7856
G01 X27.5349 Y29.8034
G01 X27.5453 Y29.8066
G01 X27.6099 Y29.8297
G01 X27.6199 Y29.8338
G01 X27.6868 Y29.8656
G01 X27.7550 Y29.9065
G01 X27.8189 Y29.9539
G01 X27.8778 Y30.0072
G01 X27.9311 Y30.0661
G01 X27.9754 Y30.1256
G01 X27.9814 Y30.1345
G01 X28.0167 Y30.1935
G01 X28.0218 Y30.2030
G01 X28.0533 Y30.2700
G01 X28.0801 Y30.3449
G01 X28.0994 Y30.4220
G01 X28.1104 Y30.4952
G01 X28.1115 Y30.5060
G01 X28.1150 Y30.5800
G01 X28.1150 Y33.1800
G01 X28.1111 Y33.2594
G01 X28.1004 Y33.3327
G01 X28.0983 Y33.3433
G01 X28.0801 Y33.4151
G01 X28.0553 Y33.4849
G01 X28.0512 Y33.4949
G01 X28.0194 Y33.5618
G01 X27.9814 Y33.6255
G01 X27.9754 Y33.6344
G01 X27.9345 Y33.6896
G01 X27.9276 Y33.6979
G01 X27.8778 Y33.7528
G01 X27.8229 Y33.8026
G01 X27.8146 Y33.8095
G01 X27.7550 Y33.8535
G01 X27.6868 Y33.8944
G01 X27.6199 Y33.9262
G01 X27.6099 Y33.9303
G01 X27.5401 Y33.9551
G01 X27.4630 Y33.9744
G01 X27.3844 Y33.9861
G01 X27.3050 Y33.9900
G01 X27.2256 Y33.9861
G01 X27.1470 Y33.9744
G01 X27.0699 Y33.9551
G01 X26.9950 Y33.9283
G01 X26.9232 Y33.8944
G01 X26.8550 Y33.8535
G01 X26.7911 Y33.8061
G01 X26.7322 Y33.7528
G01 X26.6789 Y33.6939
G01 X26.6315 Y33.6300
G01 X26.5906 Y33.5618
G01 X26.5567 Y33.4900
G01 X26.5299 Y33.4151
G01 X26.5106 Y33.3380
G01 X26.4996 Y33.2648
G01 X26.4985 Y33.2540
G01 X26.4950 Y33.1800
G01 X26.4950 Y30.5800
G01 X26.4985 Y30.5060
G01 X26.4996 Y30.4952
G00 Z2.0000
G00 X24.0189 Y30.5041
G01 F60.00
G01 Z-0.0000
G01 F120.00
G01 X24.0294 Y30.4337
G01 X24.0473 Y30.3623
G01 X24.0721 Y30.2930
G01 X24.1025 Y30.2286
G01 X24.1428 Y30.1613
G01 X24.1852 Y30.1042
G01 X24.2347 Y30.0497
G01 X24.2892 Y30.0002
G01 X24.3463 Y29.9578
G01 X24.4136 Y29.9175
G01 X24.4780 Y29.8871
G01 X24.5473 Y29.8623
G01 X24.6187 Y29.8444
G01 X24.6915 Y29.8336
G01 X24.7650 Y29.8300
G01 X24.8385 Y29.8336
G01 X24.9113 Y29.8444
G01 X24.9803 Y29.8616
G01 X25.0543 Y29.8881
G01 X25.1185 Y29.9186
G01 X25.1817 Y29.9564
G01 X25.2408 Y30.0002
G01 X25.2936 Y30.0480
G01 X25.3463 Y30.1061
G01 X25.3886 Y30.1633
G01 X25.4264 Y30.2265
G01 X25.4579 Y30.2930
G01 X25.4823 Y30.3611
G01 X25.5010 Y30.4361
G01 X25.5114 Y30.5065
G01 X25.5150 Y30.5800
G01 X25.5150 Y33.1812
G01 X25.5114 Y33.2535
G01 X25.5010 Y33.3239
G01 X25.4827 Y33.3977
G01 X25.4579 Y33.4670
G01 X25.4275 Y33.5314
G01 X25.3899 Y33.5946
G01 X25.3868 Y33.5992
G01 X25.3868 Y34.7298
G01 X53.2487 Y34.7298
G01 X55.5548 Y32.4237
G01 X55.5548 Y29.8318
G01 X54.4581 Y29.8318
G01 X54.3995 Y29.8752
G01 X54.3321 Y29.9155
G01 X54.2611 Y29.9491
G01 X54.1896 Y29.9748
G01 X54.1087 Y29.9950
G01 X54.0334 Y30.0061
G01 X53.9575 Y30.0099
G01 X51.4550 Y30.0100
G01 X51.3742 Y30.0058
G01 X51.2989 Y29.9946
G01 X51.2228 Y29.9756
G01 X51.1489 Y29.9491
G01 X51.0779 Y29.9155
G01 X51.0105 Y29.8752
G01 X50.9475 Y29.8284
G01 X50.8893 Y29.7757
G01 X50.8366 Y29.7175
G01 X50.7898 Y29.6545
G01 X50.7495 Y29.5871
G01 X50.7159 Y29.5161
G01 X50.6894 Y29.4422
G01 X50.6704 Y29.3661
G01 X50.6589 Y29.2884
G01 X50.6550 Y29.2100
G01 X50.6590 Y29.1304
G01 X50.6704 Y29.0539
G01 X50.6888 Y28.9801
G01 X50.7169 Y28.9016
G01 X50.7495 Y28.8329
G01 X50.7898 Y28.7655
G01 X50.8366 Y28.7025
G01 X50.8876 Y28.6461
G01 X50.9494 Y28.5901
G01 X51.0105 Y28.5448
G01 X51.0779 Y28.5045
G01 X51.1511 Y28.4700
G01 X51.2228 Y28.4444
G01 X51.2977 Y28.4256
G01 X51.3766 Y28.4139
G01 X51.4550 Y28.4100
G01 X53.9550 Y28.4100
G01 X54.0322 Y28.4137
G01 X54.1135 Y28.4259
G01 X54.1872 Y28.4444
G01 X54.2611 Y28.4709
G01 X54.3343 Y28.5057
G01 X54.3995 Y28.5448
G01 X54.4581 Y28.5882
G01 X56.1766 Y28.5882
G01 X56.2375 Y28.5912
G01 X56.2967 Y28.5999
G01 X56.3571 Y28.6150
G01 X56.4145 Y28.6355
G01 X56.4697 Y28.6616
G01 X56.5220 Y28.6930
G01 X56.5711 Y28.7294
G01 X56.6163 Y28.7703
G01 X56.6572 Y28.8155
G01 X56.6943 Y28.8656
G01 X56.7250 Y28.9169
G01 X56.7501 Y28.9698
G01 X56.7716 Y29.0295
G01 X56.7869 Y29.0911
G01 X56.7954 Y29.1491
G01 X56.7984 Y29.2088
G01 X56.7984 Y32.6813
G01 X56.7955 Y32.7410
G01 X56.7864 Y32.8026
G01 X56.7723 Y32.8594
G01 X56.7501 Y32.9215
G01 X56.7250 Y32.9744
G01 X56.6936 Y33.0267
G01 X56.6572 Y33.0758
G01 X56.6163 Y33.1210
G01 X53.9451 Y35.7921
G01 X53.9008 Y35.8322
G01 X53.8517 Y35.8686
G01 X53.7994 Y35.9000
G01 X53.7465 Y35.9251
G01 X53.6844 Y35.9473
G01 X53.6276 Y35.9614
G01 X53.5672 Y35.9704
G01 X53.5063 Y35.9734
G01 X24.7650 Y35.9734
G01 X24.7053 Y35.9705
G01 X24.6437 Y35.9614
G01 X24.5869 Y35.9473
G01 X24.5248 Y35.9251
G01 X24.4719 Y35.9000
G01 X24.4196 Y35.8686
G01 X24.3705 Y35.8322
G01 X24.3253 Y35.7913
G01 X24.2844 Y35.7461
G01 X24.2494 Y35.6991
G01 X24.2155 Y35.6425
G01 X24.1905 Y35.5895
G01 X24.1700 Y35.5321
G01 X24.1552 Y35.4729
G01 X24.1463 Y35.4138
G01 X24.1432 Y35.3516
G01 X24.1432 Y33.5992
G01 X24.1401 Y33.5946
G01 X24.1025 Y33.5314
G01 X24.0721 Y33.4670
G01 X24.0473 Y33.3977
G01 X24.0290 Y33.3239
G01 X24.0186 Y33.2535
G01 X24.0150 Y33.1812
G01 X24.0150 Y30.5800
G01 X24.0189 Y30.5041
G00 Z2.0000
G00 X23.9596 Y30.4952
G01 F60.00
G01 Z-0.0000
G01 F120.00
G01 X23.9706 Y30.4220
G01 X23.9899 Y30.3449
G01 X24.0167 Y30.2700
G01 X24.0482 Y30.2030
G01 X24.0533 Y30.1935
G01 X24.0886 Y30.1345
G01 X24.0946 Y30.1256
G01 X24.1389 Y30.0661
G01 X24.1922 Y30.0072
G01 X24.2511 Y29.9539
G01 X24.3106 Y29.9096
G01 X24.3195 Y29.9036
G01 X24.3785 Y29.8683
G01 X24.3880 Y29.8632
G01 X24.4550 Y29.8317
G01 X24.5299 Y29.8049
G01 X24.6070 Y29.7856
G01 X24.6856 Y29.7739
G01 X24.7650 Y29.7700
G01 X24.8444 Y29.7739
G01 X24.9230 Y29.7856
G01 X24.9949 Y29.8034
G01 X25.0053 Y29.8066
G01 X25.0699 Y29.8297
G01 X25.0799 Y29.8338
G01 X25.1468 Y29.8656
G01 X25.2150 Y29.9065
G01 X25.2789 Y29.9539
G01 X25.3338 Y30.0035
G01 X25.3415 Y30.0112
G01 X25.3876 Y30.0621
G01 X25.3945 Y30.0704
G01 X25.4385 Y30.1300
G01 X25.4794 Y30.1982
G01 X25.5133 Y30.2700
G01 X25.5384 Y30.3397
G01 X25.5416 Y30.3501
G01 X25.5583 Y30.4167
G01 X25.5604 Y30.4273
G01 X25.5711 Y30.5006
G01 X25.5750 Y30.5773
G01 X25.5750 Y33.1827
G01 X25.5711 Y33.2594
G01 X25.5604 Y33.3327
G01 X25.5583 Y33.3433
G01 X25.5401 Y33.4151
G01 X25.5153 Y33.4849
G01 X25.5112 Y33.4949
G01 X25.4794 Y33.5618
G01 X25.4468 Y33.6164
G01 X25.4468 Y34.6698
G01 X53.2239 Y34.6698
G01 X55.4948 Y32.3989
G01 X55.4948 Y29.8918
G01 X54.4779 Y29.8918
G01 X54.4328 Y29.9251
G01 X54.3604 Y29.9685
G01 X54.2841 Y30.0045
G01 X54.2098 Y30.0313
G01 X54.1994 Y30.0344
G01 X54.1280 Y30.0523
G01 X54.1175 Y30.0544
G01 X54.0393 Y30.0659
G01 X53.9604 Y30.0699
G01 X51.4550 Y30.0700
G01 X51.3707 Y30.0659
G01 X51.2925 Y30.0544
G01 X51.2820 Y30.0523
G01 X51.2106 Y30.0344
G01 X51.2002 Y30.0313
G01 X51.1259 Y30.0045
G01 X51.0544 Y29.9709
G01 X51.0449 Y29.9658
G01 X50.9772 Y29.9251
G01 X50.9094 Y29.8748
G01 X50.8469 Y29.8181
G01 X50.7937 Y29.7597
G01 X50.7869 Y29.7513
G01 X50.7399 Y29.6878
G01 X50.6965 Y29.6154
G01 X50.6605 Y29.5391
G01 X50.6320 Y29.4596
G01 X50.6115 Y29.3778
G01 X50.5991 Y29.2943
G01 X50.5950 Y29.2100
G01 X50.5987 Y29.1311
G01 X50.5994 Y29.1230
G01 X50.6115 Y29.0422
G01 X50.6306 Y28.9656
G01 X50.6337 Y28.9552
G01 X50.6585 Y28.8859
G01 X50.6627 Y28.8760
G01 X50.6965 Y28.8046
G01 X50.7399 Y28.7322
G01 X50.7902 Y28.6644
G01 X50.8432 Y28.6058
G01 X50.8508 Y28.5982
G01 X50.9053 Y28.5487
G01 X50.9137 Y28.5419
G01 X50.9772 Y28.4949
G01 X51.0496 Y28.4515
G01 X51.1210 Y28.4177
G01 X51.1309 Y28.4135
G01 X51.2054 Y28.3870
G01 X51.2846 Y28.3671
G01 X51.2925 Y28.3656
G01 X51.3707 Y28.3541
G01 X51.4550 Y28.3500
G01 X53.9550 Y28.3500
G01 X54.0366 Y28.3539
G01 X54.0447 Y28.3548
G01 X54.1175 Y28.3656
G01 X54.1280 Y28.3677
G01 X54.2046 Y28.3870
G01 X54.2816 Y28.4145
G01 X54.2890 Y28.4177
G01 X54.3556 Y28.4491
G01 X54.3628 Y28.4528
G01 X54.4328 Y28.4949
G01 X54.4779 Y28.5282
G01 X56.1766 Y28.5282
G01 X56.2434 Y28.5315
G01 X56.3070 Y28.5408
G01 X56.3149 Y28.5425
G01 X56.3745 Y28.5576
G01 X56.4375 Y28.5801
G01 X56.4980 Y28.6087
G01 X56.5554 Y28.6431
G01 X56.6091 Y28.6830
G01 X56.6587 Y28.7279
G01 X56.7036 Y28.7775
G01 X56.7404 Y28.8268
G01 X56.7450 Y28.8335
G01 X56.7779 Y28.8886
G01 X56.8043 Y28.9442
G01 X56.8084 Y28.9541
G01 X56.8290 Y29.0121
G01 X56.8441 Y29.0717
G01 X56.8462 Y29.0823
G01 X56.8551 Y29.1432
G01 X56.8584 Y29.2073
G01 X56.8584 Y32.6813
G01 X56.8553 Y32.7454
G01 X56.8544 Y32.7535
G01 X56.8453 Y32.8143
G01 X56.8305 Y32.8740
G01 X56.8273 Y32.8843
G01 X56.8084 Y32.9372
G01 X56.8043 Y32.9471
G01 X56.7779 Y33.0027
G01 X56.7435 Y33.0601
G01 X56.7036 Y33.1138
G01 X56.6587 Y33.1634
G01 X53.9865 Y35.8356
G01 X53.9388 Y35.8786
G01 X53.8851 Y35.9185
G01 X53.8277 Y35.9529
G01 X53.7721 Y35.9793
G01 X53.7622 Y35.9834
G01 X53.7093 Y36.0023
G01 X53.6990 Y36.0055
G01 X53.6393 Y36.0203
G01 X53.5731 Y36.0301
G01 X53.5063 Y36.0334
G01 X24.7650 Y36.0334
G01 X24.7009 Y36.0303
G01 X24.6928 Y36.0294
G01 X24.6320 Y36.0203
G01 X24.5723 Y36.0055
G01 X24.5620 Y36.0023
G01 X24.5091 Y35.9834
G01 X24.4992 Y35.9793
G01 X24.4436 Y35.9529
G01 X24.3862 Y35.9185
G01 X24.3325 Y35.8786
G01 X24.2829 Y35.8337
G01 X24.2380 Y35.7841
G01 X24.2012 Y35.7348
G01 X24.1952 Y35.7258
G01 X24.1664 Y35.6777
G01 X24.1613 Y35.6682
G01 X24.1351 Y35.6125
G01 X24.1126 Y35.5495
G01 X24.0963 Y35.4846
G01 X24.0868 Y35.4211
G01 X24.0861 Y35.4130
G01 X24.0832 Y35.3516
G01 X24.0832 Y33.6164
G01 X24.0506 Y33.5618
G01 X24.0188 Y33.4949
G01 X24.0147 Y33.4849
G01 X23.9899 Y33.4151
G01 X23.9717 Y33.3433
G01 X23.9696 Y33.3327
G01 X23.9589 Y33.2594
G01 X23.9550 Y33.1827
G01 X23.9550 Y30.5800
G01 X23.9585 Y30.5060
G01 X23.9596 Y30.4952
G00 Z2.0000
G00 X21.4789 Y30.5041
G01 F60.00
G01 Z-0.0000
G01 F120.00
G01 X21.4894 Y30.4337
G01 X21.5073 Y30.3623
G01 X21.5321 Y30.2930
G01 X21.5625 Y30.2286
G01 X21.6028 Y30.1613
G01 X21.6452 Y30.1042
G01 X21.6947 Y30.0497
G01 X21.7492 Y30.0002
G01 X21.8063 Y29.9578
G01 X21.8736 Y29.9175
G01 X21.9380 Y29.8871
G01 X22.0073 Y29.8623
G01 X22.0787 Y29.8444
G01 X22.1515 Y29.8336
G01 X22.2250 Y29.8300
G01 X22.2985 Y29.8336
G01 X22.3713 Y29.8444
G01 X22.4403 Y29.8616
G01 X22.5143 Y29.8881
G01 X22.5785 Y29.9186
G01 X22.6417 Y29.9564
G01 X22.7008 Y30.0002
G01 X22.7553 Y30.0497
G01 X22.8048 Y30.1042
G01 X22.8472 Y30.1613
G01 X22.8875 Y30.2286
G01 X22.9179 Y30.2930
G01 X22.9430 Y30.3635
G01 X22.9606 Y30.4337
G01 X22.9711 Y30.5041
G01 X22.9750 Y30.5800
G01 X22.9750 Y33.1800
G01 X22.9711 Y33.2559
G01 X22.9606 Y33.3263
G01 X22.9434 Y33.3953
G01 X22.9179 Y33.4670
G01 X22.8864 Y33.5335
G01 X22.8499 Y33.5946
G01 X22.8048 Y33.6558
G01 X22.7536 Y33.7120
G01 X22.7008 Y33.7598
G01 X22.6417 Y33.8036
G01 X22.5785 Y33.8414
G01 X22.5143 Y33.8719
G01 X22.4415 Y33.8980
G01 X22.3713 Y33.9156
G01 X22.2985 Y33.9264
G01 X22.2250 Y33.9300
G01 X22.1515 Y33.9264
G01 X22.0787 Y33.9156
G01 X22.0073 Y33.8977
G01 X21.9380 Y33.8729
G01 X21.8715 Y33.8414
G01 X21.8083 Y33.8036
G01 X21.7492 Y33.7598
G01 X21.6947 Y33.7103
G01 X21.6452 Y33.6558
G01 X21.6014 Y33.5967
G01 X21.5636 Y33.5335
G01 X21.5321 Y33.4670
G01 X21.5070 Y33.3965
G01 X21.4894 Y33.3263
G01 X21.4789 Y33.2559
G01 X21.4750 Y33.1800
G01 X21.4750 Y30.5800
G01 X21.4789 Y30.5041
G00 Z2.0000
G00 X21.4196 Y30.4952
G01 F60.00
G01 Z-0.0000
G01 F120.00
G01 X21.4306 Y30.4220
G01 X21.4499 Y30.3449
G01 X21.4767 Y30.2700
G01 X21.5082 Y30.2030
G01 X21.5133 Y30.1935
G01 X21.5486 Y30.1345
G01 X21.5546 Y30.1256
G01 X21.5989 Y30.0661
G01 X21.6522 Y30.0072
G01 X21.7111 Y29.9539
G01 X21.7706 Y29.9096
G01 X21.7795 Y29.9036
G01 X21.8385 Y29.8683
G01 X21.8480 Y29.8632
G01 X21.9150 Y29.8317
G01 X21.9899 Y29.8049
G01 X22.0670 Y29.7856
G01 X22.1456 Y29.7739
G01 X22.2250 Y29.7700
G01 X22.3044 Y29.7739
G01 X22.3830 Y29.7856
G01 X22.4549 Y29.8034
G01 X22.4653 Y29.8066
G01 X22.5299 Y29.8297
G01 X22.5399 Y29.8338
G01 X22.6068 Y29.8656
G01 X22.6750 Y29.9065
G01 X22.7389 Y29.9539
G01 X22.7978 Y30.0072
G01 X22.8511 Y30.0661
G01 X22.8954 Y30.1256
G01 X22.9014 Y30.1345
G01 X22.9367 Y30.1935
G01 X22.9418 Y30.2030
G01 X22.9733 Y30.2700
G01 X23.0001 Y30.3449
G01 X23.0194 Y30.4220
G01 X23.0304 Y30.4952
G01 X23.0315 Y30.5060
G01 X23.0350 Y30.5800
G01 X23.0350 Y33.1800
G01 X23.0311 Y33.2594
G01 X23.0204 Y33.3327
G01 X23.0183 Y33.3433
G01 X23.0001 Y33.4151
G01 X22.9753 Y33.4849
G01 X22.9712 Y33.4949
G01 X22.9394 Y33.5618
G01 X22.9014 Y33.6255
G01 X22.8954 Y33.6344
G01 X22.8545 Y33.6896
G01 X22.8476 Y33.6979
G01 X22.7978 Y33.7528
G01 X22.7429 Y33.8026
G01 X22.7346 Y33.8095
G01 X22.6750 Y33.8535
G01 X22.6068 Y33.8944
G01 X22.5399 Y33.9262
G01 X22.5299 Y33.9303
G01 X22.4601 Y33.9551
G01 X22.3830 Y33.9744
G01 X22.3044 Y33.9861
G01 X22.2250 Y33.9900
G01 X22.1456 Y33.9861
G01 X22.0670 Y33.9744
G01 X21.9899 Y33.9551
G01 X21.9150 Y33.9283
G01 X21.8432 Y33.8944
G01 X21.7750 Y33.8535
G01 X21.7111 Y33.8061
G01 X21.6522 Y33.7528
G01 X21.5989 Y33.6939
G01 X21.5515 Y33.6300
G01 X21.5106 Y33.5618
G01 X21.4767 Y33.4900
G01 X21.4499 Y33.4151
G01 X21.4306 Y33.3380
G01 X21.4196 Y33.2648
G01 X21.4185 Y33.2540
G01 X21.4150 Y33.1800
G01 X21.4150 Y30.5800
G01 X21.4185 Y30.5060
G01 X21.4196 Y30.4952
G00 Z2.0000
G00 X18.9389 Y30.5041
G01 F60.00
G01 Z-0.0000
G01 F120.00
G01 X18.9494 Y30.4337
G01 X18.9673 Y30.3623
G01 X18.9921 Y30.2930
G01 X19.0225 Y30.2286
G01 X19.0628 Y30.1613
G01 X19.1052 Y30.1042
G01 X19.1547 Y30.0497
G01 X19.2092 Y30.0002
G01 X19.2663 Y29.9578
G01 X19.3336 Y29.9175
G01 X19.3980 Y29.8871
G01 X19.4673 Y29.8623
G01 X19.5387 Y29.8444
G01 X19.6115 Y29.8336
G01 X19.6850 Y29.8300
G01 X19.7561 Y29.8334
G01 X19.8337 Y29.8449
G01 X19.9027 Y29.8623
G01 X19.9720 Y29.8871
G01 X20.0385 Y29.9186
G01 X20.1017 Y29.9564
G01 X20.1608 Y30.0002
G01 X20.2153 Y30.0497
G01 X20.2648 Y30.1042
G01 X20.3072 Y30.1613
G01 X20.3475 Y30.2286
G01 X20.3779 Y30.2930
G01 X20.4030 Y30.3635
G01 X20.4206 Y30.4337
G01 X20.4311 Y30.5041
G01 X20.4350 Y30.5800
G01 X20.4350 Y33.1800
G01 X20.4311 Y33.2559
G01 X20.4206 Y33.3263
G01 X20.4034 Y33.3953
G01 X20.3779 Y33.4670
G01 X20.3464 Y33.5335
G01 X20.3099 Y33.5946
G01 X20.2648 Y33.6558
G01 X20.2136 Y33.7120
G01 X20.1608 Y33.7598
G01 X20.1017 Y33.8036
G01 X20.0385 Y33.8414
G01 X19.9743 Y33.8719
G01 X19.9015 Y33.8980
G01 X19.8313 Y33.9156
G01 X19.7585 Y33.9264
G01 X19.6850 Y33.9300
G01 X19.6115 Y33.9264
G01 X19.5387 Y33.9156
G01 X19.4673 Y33.8977
G01 X19.3980 Y33.8729
G01 X19.3315 Y33.8414
G01 X19.2683 Y33.8036
G01 X19.2092 Y33.7598
G01 X19.1547 Y33.7103
G01 X19.1052 Y33.6558
G01 X19.0614 Y33.5967
G01 X19.0236 Y33.5335
G01 X18.9921 Y33.4670
G01 X18.9670 Y33.3965
G01 X18.9494 Y33.3263
G01 X18.9389 Y33.2559
G01 X18.9350 Y33.1800
G01 X18.9350 Y30.5800
G01 X18.9389 Y30.5041
G00 Z2.0000
G00 X18.8796 Y30.4952
G01 F60.00
G01 Z-0.0000
G01 F120.00
G01 X18.8906 Y30.4220
G01 X18.9099 Y30.3449
G01 X18.9367 Y30.2700
G01 X18.9682 Y30.2030
G01 X18.9733 Y30.1935
G01 X19.0086 Y30.1345
G01 X19.0146 Y30.1256
G01 X19.0589 Y30.0661
G01 X19.1122 Y30.0072
G01 X19.1711 Y29.9539
G01 X19.2306 Y29.9096
G01 X19.2395 Y29.9036
G01 X19.2985 Y29.8683
G01 X19.3080 Y29.8632
G01 X19.3750 Y29.8317
G01 X19.4499 Y29.8049
G01 X19.5270 Y29.7856
G01 X19.6056 Y29.7739
G01 X19.6850 Y29.7700
G01 X19.7590 Y29.7735
G01 X19.7698 Y29.7746
G01 X19.8377 Y29.7846
G01 X19.8483 Y29.7867
G01 X19.9201 Y29.8049
G01 X19.9950 Y29.8317
G01 X20.0668 Y29.8656
G01 X20.1350 Y29.9065
G01 X20.1989 Y29.9539
G01 X20.2578 Y30.0072
G01 X20.3111 Y30.0661
G01 X20.3554 Y30.1256
G01 X20.3614 Y30.1345
G01 X20.3967 Y30.1935
G01 X20.4018 Y30.2030
G01 X20.4333 Y30.2700
G01 X20.4601 Y30.3449
G01 X20.4794 Y30.4220
G01 X20.4904 Y30.4952
G01 X20.4915 Y30.5060
G01 X20.4950 Y30.5800
G01 X20.4950 Y33.1800
G01 X20.4911 Y33.2594
G01 X20.4804 Y33.3327
G01 X20.4783 Y33.3433
G01 X20.4601 Y33.4151
G01 X20.4353 Y33.4849
G01 X20.4312 Y33.4949
G01 X20.3994 Y33.5618
G01 X20.3614 Y33.6255
G01 X20.3554 Y33.6344
G01 X20.3145 Y33.6896
G01 X20.3076 Y33.6979
G01 X20.2578 Y33.7528
G01 X20.2029 Y33.8026
G01 X20.1946 Y33.8095
G01 X20.1350 Y33.8535
G01 X20.0668 Y33.8944
G01 X19.9999 Y33.9262
G01 X19.9899 Y33.9303
G01 X19.9201 Y33.9551
G01 X19.8430 Y33.9744
G01 X19.7644 Y33.9861
G01 X19.6850 Y33.9900
G01 X19.6056 Y33.9861
G01 X19.5270 Y33.9744
G01 X19.4499 Y33.9551
G01 X19.3750 Y33.9283
G01 X19.3032 Y33.8944
G01 X19.2350 Y33.8535
G01 X19.1711 Y33.8061
G01 X19.1122 Y33.7528
G01 X19.0589 Y33.6939
G01 X19.0115 Y33.6300
G01 X18.9706 Y33.5618
G01 X18.9367 Y33.4900
G01 X18.9099 Y33.4151
G01 X18.8906 Y33.3380
G01 X18.8796 Y33.2648
G01 X18.8785 Y33.2540
G01 X18.8750 Y33.1800
G01 X18.8750 Y30.5800
G01 X18.8785 Y30.5060
G01 X18.8796 Y30.4952
G00 Z2.0000
G00 X16.3989 Y30.5041
G01 F60.00
G01 Z-0.0000
G01 F120.00
G01 X16.4094 Y30.4337
G01 X16.4273 Y30.3623
G01 X16.4521 Y30.2930
G01 X16.4825 Y30.2286
G01 X16.5228 Y30.1613
G01 X16.5652 Y30.1042
G01 X16.6147 Y30.0497
G01 X16.6692 Y30.0002
G01 X16.7263 Y29.9578
G01 X16.7936 Y29.9175
G01 X16.8580 Y29.8871
G01 X16.9273 Y29.8623
G01 X16.9987 Y29.8444
G01 X17.0715 Y29.8336
G01 X17.1450 Y29.8300
G01 X17.2185 Y29.8336
G01 X17.2913 Y29.8444
