(This GCode script was designed to adjust the Z height of a CNC machine according)
(to the minute variations in the surface height in order to achieve a better result in the milling/etching process)
(This script is the output of AutoLevellerAE, 0.9.5u2 Changeset: ...2d0387 @ http://autoleveller.co.uk)
(Author: James Hawthorne PhD. File creation date: 02-05-2021 16:03)
(This program and any of its output is licensed under GPLv2 and as such...)
(AutoLevellerAE comes with ABSOLUTELY NO WARRANTY; for details, see sections 11 and 12 of the GPLv2 @ http://www.gnu.org/licenses/old-licenses/gpl-2.0.html)

(The following is a checklist which can be used before the probe routine starts)
(The checklist may not be entirely correct given your machine, therefore you should make your own adaptations as appropriate)
(1. Make sure wires/clips are attached and the probe is working correctly)
(Test probe connections within control software before starting)
(2. Home all axis)
(3. Load GCode file that contains the probe routine into your software controller)
(4. Jog tool tip close to surface and touch off Z)
(5. Jog Z up a fraction to make sure surface is cleared)
(6. Jog to and touch off X and Y at the desired bottom left corner of the probe area)
(Note: The first probe will touch off Z to 0.0 when it first touches to the surface,)
(all other probe values are relative to this first point)

G90 G21 S20000 G17

M0 (Attach probe wires and clips that need attaching)
(Initialize probe routine)
G0 Z25 (Move clear of the board first)
G1 X7.6633 Y4.7554 F600 (Move to bottom left corner)
G0 Z2 (Quick move to probe clearance height)
G38.2 Z-1 F100 (Probe to a maximum of the specified probe height at the specified feed rate)
G92 Z0 (Touch off Z to 0 once contact is made)
G0 Z2 (Move Z to above the contact point)
G38.2 Z-1 F50 (Repeat at a more accurate slower rate)
G92 Z0
G0 Z2

(PROBEOPEN RawProbeLog.txt)
G0 Z2
G1 X7.6633 Y4.7554 F600
G38.2 Z-1 F100
G0 Z2
G1 X17.93546 Y4.7554 F600
G38.2 Z-1 F100
G0 Z2
G1 X28.20762 Y4.7554 F600
G38.2 Z-1 F100
G0 Z2
G1 X38.47978 Y4.7554 F600
G38.2 Z-1 F100
G0 Z2
G1 X48.75194 Y4.7554 F600
G38.2 Z-1 F100
G0 Z2
G1 X59.0241 Y4.7554 F600
G38.2 Z-1 F100
G0 Z2
G1 X69.29626 Y4.7554 F600
G38.2 Z-1 F100
G0 Z2
G1 X79.56842 Y4.7554 F600
G38.2 Z-1 F100
G0 Z2
G1 X89.84058 Y4.7554 F600
G38.2 Z-1 F100
G0 Z2
G1 X100.11274 Y4.7554 F600
G38.2 Z-1 F100
G0 Z2
G1 X110.3849 Y4.7554 F600
G38.2 Z-1 F100
G0 Z2
G1 X120.65706 Y4.7554 F600
G38.2 Z-1 F100
G0 Z2
G1 X130.92922 Y4.7554 F600
G38.2 Z-1 F100
G0 Z2
G1 X141.20138 Y4.7554 F600
G38.2 Z-1 F100
G0 Z2
G1 X151.47354 Y4.7554 F600
G38.2 Z-1 F100
G0 Z2
G1 X161.7457 Y4.7554 F600
G38.2 Z-1 F100
G0 Z2
G1 X172.01786 Y4.7554 F600
G38.2 Z-1 F100
G0 Z2
G1 X172.01786 Y15.47138 F600
G38.2 Z-1 F100
G0 Z2
G1 X161.7457 Y15.47138 F600
G38.2 Z-1 F100
G0 Z2
G1 X151.47354 Y15.47138 F600
G38.2 Z-1 F100
G0 Z2
G1 X141.20138 Y15.47138 F600
G38.2 Z-1 F100
G0 Z2
G1 X130.92922 Y15.47138 F600
G38.2 Z-1 F100
G0 Z2
G1 X120.65706 Y15.47138 F600
G38.2 Z-1 F100
G0 Z2
G1 X110.3849 Y15.47138 F600
G38.2 Z-1 F100
G0 Z2
G1 X100.11274 Y15.47138 F600
G38.2 Z-1 F100
G0 Z2
G1 X89.84058 Y15.47138 F600
G38.2 Z-1 F100
G0 Z2
G1 X79.56842 Y15.47138 F600
G38.2 Z-1 F100
G0 Z2
G1 X69.29626 Y15.47138 F600
G38.2 Z-1 F100
G0 Z2
G1 X59.0241 Y15.47138 F600
G38.2 Z-1 F100
G0 Z2
G1 X48.75194 Y15.47138 F600
G38.2 Z-1 F100
G0 Z2
G1 X38.47978 Y15.47138 F600
G38.2 Z-1 F100
G0 Z2
G1 X28.20762 Y15.47138 F600
G38.2 Z-1 F100
G0 Z2
G1 X17.93546 Y15.47138 F600
G38.2 Z-1 F100
G0 Z2
G1 X7.6633 Y15.47138 F600
G38.2 Z-1 F100
G0 Z2
G1 X7.6633 Y26.18736 F600
G38.2 Z-1 F100
G0 Z2
G1 X17.93546 Y26.18736 F600
G38.2 Z-1 F100
G0 Z2
G1 X28.20762 Y26.18736 F600
G38.2 Z-1 F100
G0 Z2
G1 X38.47978 Y26.18736 F600
G38.2 Z-1 F100
G0 Z2
G1 X48.75194 Y26.18736 F600
G38.2 Z-1 F100
G0 Z2
G1 X59.0241 Y26.18736 F600
G38.2 Z-1 F100
G0 Z2
G1 X69.29626 Y26.18736 F600
G38.2 Z-1 F100
G0 Z2
G1 X79.56842 Y26.18736 F600
G38.2 Z-1 F100
G0 Z2
G1 X89.84058 Y26.18736 F600
G38.2 Z-1 F100
G0 Z2
G1 X100.11274 Y26.18736 F600
G38.2 Z-1 F100
G0 Z2
G1 X110.3849 Y26.18736 F600
G38.2 Z-1 F100
G0 Z2
G1 X120.65706 Y26.18736 F600
G38.2 Z-1 F100
G0 Z2
G1 X130.92922 Y26.18736 F600
G38.2 Z-1 F100
G0 Z2
G1 X141.20138 Y26.18736 F600
G38.2 Z-1 F100
G0 Z2
G1 X151.47354 Y26.18736 F600
G38.2 Z-1 F100
G0 Z2
G1 X161.7457 Y26.18736 F600
G38.2 Z-1 F100
G0 Z2
G1 X172.01786 Y26.18736 F600
G38.2 Z-1 F100
G0 Z2
G1 X172.01786 Y36.90334 F600
G38.2 Z-1 F100
G0 Z2
G1 X161.7457 Y36.90334 F600
G38.2 Z-1 F100
G0 Z2
G1 X151.47354 Y36.90334 F600
G38.2 Z-1 F100
G0 Z2
G1 X141.20138 Y36.90334 F600
G38.2 Z-1 F100
G0 Z2
G1 X130.92922 Y36.90334 F600
G38.2 Z-1 F100
G0 Z2
G1 X120.65706 Y36.90334 F600
G38.2 Z-1 F100
G0 Z2
G1 X110.3849 Y36.90334 F600
G38.2 Z-1 F100
G0 Z2
G1 X100.11274 Y36.90334 F600
G38.2 Z-1 F100
G0 Z2
G1 X89.84058 Y36.90334 F600
G38.2 Z-1 F100
G0 Z2
G1 X79.56842 Y36.90334 F600
G38.2 Z-1 F100
G0 Z2
G1 X69.29626 Y36.90334 F600
G38.2 Z-1 F100
G0 Z2
G1 X59.0241 Y36.90334 F600
G38.2 Z-1 F100
G0 Z2
G1 X48.75194 Y36.90334 F600
G38.2 Z-1 F100
G0 Z2
G1 X38.47978 Y36.90334 F600
G38.2 Z-1 F100
G0 Z2
G1 X28.20762 Y36.90334 F600
G38.2 Z-1 F100
G0 Z2
G1 X17.93546 Y36.90334 F600
G38.2 Z-1 F100
G0 Z2
G1 X7.6633 Y36.90334 F600
G38.2 Z-1 F100
G0 Z2
G1 X7.6633 Y47.61932 F600
G38.2 Z-1 F100
G0 Z2
G1 X17.93546 Y47.61932 F600
G38.2 Z-1 F100
G0 Z2
G1 X28.20762 Y47.61932 F600
G38.2 Z-1 F100
G0 Z2
G1 X38.47978 Y47.61932 F600
G38.2 Z-1 F100
G0 Z2
G1 X48.75194 Y47.61932 F600
G38.2 Z-1 F100
G0 Z2
G1 X59.0241 Y47.61932 F600
G38.2 Z-1 F100
G0 Z2
G1 X69.29626 Y47.61932 F600
G38.2 Z-1 F100
G0 Z2
G1 X79.56842 Y47.61932 F600
G38.2 Z-1 F100
G0 Z2
G1 X89.84058 Y47.61932 F600
G38.2 Z-1 F100
G0 Z2
G1 X100.11274 Y47.61932 F600
G38.2 Z-1 F100
G0 Z2
G1 X110.3849 Y47.61932 F600
G38.2 Z-1 F100
G0 Z2
G1 X120.65706 Y47.61932 F600
G38.2 Z-1 F100
G0 Z2
G1 X130.92922 Y47.61932 F600
G38.2 Z-1 F100
G0 Z2
G1 X141.20138 Y47.61932 F600
G38.2 Z-1 F100
G0 Z2
G1 X151.47354 Y47.61932 F600
G38.2 Z-1 F100
G0 Z2
G1 X161.7457 Y47.61932 F600
G38.2 Z-1 F100
G0 Z2
G1 X172.01786 Y47.61932 F600
G38.2 Z-1 F100
G0 Z2
G1 X172.01786 Y58.3353 F600
G38.2 Z-1 F100
G0 Z2
G1 X161.7457 Y58.3353 F600
G38.2 Z-1 F100
G0 Z2
G1 X151.47354 Y58.3353 F600
G38.2 Z-1 F100
G0 Z2
G1 X141.20138 Y58.3353 F600
G38.2 Z-1 F100
G0 Z2
G1 X130.92922 Y58.3353 F600
G38.2 Z-1 F100
G0 Z2
G1 X120.65706 Y58.3353 F600
G38.2 Z-1 F100
G0 Z2
G1 X110.3849 Y58.3353 F600
G38.2 Z-1 F100
G0 Z2
G1 X100.11274 Y58.3353 F600
G38.2 Z-1 F100
G0 Z2
G1 X89.84058 Y58.3353 F600
G38.2 Z-1 F100
G0 Z2
G1 X79.56842 Y58.3353 F600
G38.2 Z-1 F100
G0 Z2
G1 X69.29626 Y58.3353 F600
G38.2 Z-1 F100
G0 Z2
G1 X59.0241 Y58.3353 F600
G38.2 Z-1 F100
G0 Z2
G1 X48.75194 Y58.3353 F600
G38.2 Z-1 F100
G0 Z2
G1 X38.47978 Y58.3353 F600
G38.2 Z-1 F100
G0 Z2
G1 X28.20762 Y58.3353 F600
G38.2 Z-1 F100
G0 Z2
G1 X17.93546 Y58.3353 F600
G38.2 Z-1 F100
G0 Z2
G1 X7.6633 Y58.3353 F600
G38.2 Z-1 F100
G0 Z2
G1 X7.6633 Y69.05128 F600
G38.2 Z-1 F100
G0 Z2
G1 X17.93546 Y69.05128 F600
G38.2 Z-1 F100
G0 Z2
G1 X28.20762 Y69.05128 F600
G38.2 Z-1 F100
G0 Z2
G1 X38.47978 Y69.05128 F600
G38.2 Z-1 F100
G0 Z2
G1 X48.75194 Y69.05128 F600
G38.2 Z-1 F100
G0 Z2
G1 X59.0241 Y69.05128 F600
G38.2 Z-1 F100
G0 Z2
G1 X69.29626 Y69.05128 F600
G38.2 Z-1 F100
G0 Z2
G1 X79.56842 Y69.05128 F600
G38.2 Z-1 F100
G0 Z2
G1 X89.84058 Y69.05128 F600
G38.2 Z-1 F100
G0 Z2
G1 X100.11274 Y69.05128 F600
G38.2 Z-1 F100
G0 Z2
G1 X110.3849 Y69.05128 F600
G38.2 Z-1 F100
G0 Z2
G1 X120.65706 Y69.05128 F600
G38.2 Z-1 F100
G0 Z2
G1 X130.92922 Y69.05128 F600
G38.2 Z-1 F100
G0 Z2
G1 X141.20138 Y69.05128 F600
G38.2 Z-1 F100
G0 Z2
G1 X151.47354 Y69.05128 F600
G38.2 Z-1 F100
G0 Z2
G1 X161.7457 Y69.05128 F600
G38.2 Z-1 F100
G0 Z2
G1 X172.01786 Y69.05128 F600
G38.2 Z-1 F100
G0 Z2
G1 X172.01786 Y79.76726 F600
G38.2 Z-1 F100
G0 Z2
G1 X161.7457 Y79.76726 F600
G38.2 Z-1 F100
G0 Z2
G1 X151.47354 Y79.76726 F600
G38.2 Z-1 F100
G0 Z2
G1 X141.20138 Y79.76726 F600
G38.2 Z-1 F100
G0 Z2
G1 X130.92922 Y79.76726 F600
G38.2 Z-1 F100
G0 Z2
G1 X120.65706 Y79.76726 F600
G38.2 Z-1 F100
G0 Z2
G1 X110.3849 Y79.76726 F600
G38.2 Z-1 F100
G0 Z2
G1 X100.11274 Y79.76726 F600
G38.2 Z-1 F100
G0 Z2
G1 X89.84058 Y79.76726 F600
G38.2 Z-1 F100
G0 Z2
G1 X79.56842 Y79.76726 F600
G38.2 Z-1 F100
G0 Z2
G1 X69.29626 Y79.76726 F600
G38.2 Z-1 F100
G0 Z2
G1 X59.0241 Y79.76726 F600
G38.2 Z-1 F100
G0 Z2
G1 X48.75194 Y79.76726 F600
G38.2 Z-1 F100
G0 Z2
G1 X38.47978 Y79.76726 F600
G38.2 Z-1 F100
G0 Z2
G1 X28.20762 Y79.76726 F600
G38.2 Z-1 F100
G0 Z2
G1 X17.93546 Y79.76726 F600
G38.2 Z-1 F100
G0 Z2
G1 X7.6633 Y79.76726 F600
G38.2 Z-1 F100
G0 Z2
G1 X7.6633 Y90.48324 F600
G38.2 Z-1 F100
G0 Z2
G1 X17.93546 Y90.48324 F600
G38.2 Z-1 F100
G0 Z2
G1 X28.20762 Y90.48324 F600
G38.2 Z-1 F100
G0 Z2
G1 X38.47978 Y90.48324 F600
G38.2 Z-1 F100
G0 Z2
G1 X48.75194 Y90.48324 F600
G38.2 Z-1 F100
G0 Z2
G1 X59.0241 Y90.48324 F600
G38.2 Z-1 F100
G0 Z2
G1 X69.29626 Y90.48324 F600
G38.2 Z-1 F100
G0 Z2
G1 X79.56842 Y90.48324 F600
G38.2 Z-1 F100
G0 Z2
G1 X89.84058 Y90.48324 F600
G38.2 Z-1 F100
G0 Z2
G1 X100.11274 Y90.48324 F600
G38.2 Z-1 F100
G0 Z2
G1 X110.3849 Y90.48324 F600
G38.2 Z-1 F100
G0 Z2
G1 X120.65706 Y90.48324 F600
G38.2 Z-1 F100
G0 Z2
G1 X130.92922 Y90.48324 F600
G38.2 Z-1 F100
G0 Z2
G1 X141.20138 Y90.48324 F600
G38.2 Z-1 F100
G0 Z2
G1 X151.47354 Y90.48324 F600
G38.2 Z-1 F100
G0 Z2
G1 X161.7457 Y90.48324 F600
G38.2 Z-1 F100
G0 Z2
G1 X172.01786 Y90.48324 F600
G38.2 Z-1 F100
G0 Z2
G1 X172.01786 Y101.19922 F600
G38.2 Z-1 F100
G0 Z2
G1 X161.7457 Y101.19922 F600
G38.2 Z-1 F100
G0 Z2
G1 X151.47354 Y101.19922 F600
G38.2 Z-1 F100
G0 Z2
G1 X141.20138 Y101.19922 F600
G38.2 Z-1 F100
G0 Z2
G1 X130.92922 Y101.19922 F600
G38.2 Z-1 F100
G0 Z2
G1 X120.65706 Y101.19922 F600
G38.2 Z-1 F100
G0 Z2
G1 X110.3849 Y101.19922 F600
G38.2 Z-1 F100
G0 Z2
G1 X100.11274 Y101.19922 F600
G38.2 Z-1 F100
G0 Z2
G1 X89.84058 Y101.19922 F600
G38.2 Z-1 F100
G0 Z2
G1 X79.56842 Y101.19922 F600
G38.2 Z-1 F100
G0 Z2
G1 X69.29626 Y101.19922 F600
G38.2 Z-1 F100
G0 Z2
G1 X59.0241 Y101.19922 F600
G38.2 Z-1 F100
G0 Z2
G1 X48.75194 Y101.19922 F600
G38.2 Z-1 F100
G0 Z2
G1 X38.47978 Y101.19922 F600
G38.2 Z-1 F100
G0 Z2
G1 X28.20762 Y101.19922 F600
G38.2 Z-1 F100
G0 Z2
G1 X17.93546 Y101.19922 F600
G38.2 Z-1 F100
G0 Z2
G1 X7.6633 Y101.19922 F600
G38.2 Z-1 F100
G0 Z2
(PROBECLOSE)
G0 X7.6633 Y4.7554 Z25
M0 (Detach any clips used for probing)
M30
