(Back copper)
(cutout)
(Machine)
(  vendor: Autodesk)
(  description: Generic 3-axis)
(T2  D=3.175 CR=0 TAPER=30deg - ZMIN=-0.165 - chamfer mill)
G90 G94
G17
G21
(When using Fusion 360 for Personal Use, the feedrate of)
(rapid moves is reduced to match the feedrate of cutting)
(moves, which can increase machining time. Unrestricted rapid)
(moves are available with a Fusion 360 Subscription.)
G28 G91 Z0
G90

(Contour2)
T2
S1000 M3
G54
G0 X0.965 Y1.464
Z15
G1 Z2.035 F60
Z0
G3 X0.974 Y1.987 I-0.175 J0.265
G1 X0.971 Y1.99
X0.968 Y1.993
X0.965 Y1.996
X0.963 Y1.998
X0.96 Y2.003
X0.957 Y2.007
X0.955 Y2.012
X0.953 Y2.016
X0.951 Y2.021
X0.95 Y2.025
X0.949 Y2.03
Y2.034
Y2.053
Y3.035
Y3.043
Y3.047
X0.95 Y3.051
Y3.055
X0.951 Y3.059
X0.953 Y3.063
X0.954 Y3.067
X0.956 Y3.071
X0.959 Y3.075
X0.961 Y3.079
X0.965 Y3.084
X0.967 Y3.086
X0.97 Y3.089
X0.975 Y3.093
X0.98 Y3.097
X0.985 Y3.1
X0.991 Y3.102
X0.996 Y3.104
X1.002 Y3.106
X1.008 Y3.107
X1.013
X1.019
X7.016
X7.021
X7.027 Y3.106
X7.032 Y3.105
X7.038 Y3.104
X7.044 Y3.101
X7.049 Y3.099
X7.055 Y3.095
X7.058 Y3.093
X7.06 Y3.091
X7.064 Y3.087
X7.067 Y3.084
X7.07 Y3.08
X7.072 Y3.077
X7.075 Y3.073
X7.076 Y3.07
X7.078 Y3.066
X7.079 Y3.063
X7.081 Y3.059
Y3.056
X7.082 Y3.052
X7.083 Y3.049
Y3.045
Y3.042
Y3.035
Y2.76
X7.085 Y2.757
X9.997
X10.003
X10.009
X10.098 Y2.745
X10.109 Y2.743
X10.115 Y2.742
X10.12 Y2.74
X10.143 Y2.731
X10.187 Y2.713
X10.218 Y2.7
X10.222 Y2.698
X10.226 Y2.695
X10.234 Y2.689
X10.305 Y2.634
X10.31 Y2.631
X10.314 Y2.626
X10.807 Y2.133
X10.809 Y2.132
X57.316
X57.317 Y2.133
X60.092 Y4.907
X60.093 Y4.909
Y5.411
Y5.417
Y5.422
X60.095 Y5.428
X60.096 Y5.434
X60.099 Y5.439
X60.101 Y5.445
X60.104 Y5.449
X60.107 Y5.452
X60.11 Y5.456
X60.113 Y5.46
X60.581 Y5.928
X60.584 Y5.93
X60.587 Y5.933
X60.589 Y5.935
X60.592 Y5.937
X60.598 Y5.94
X60.603 Y5.942
X60.609 Y5.944
X60.614 Y5.946
X60.62 Y5.947
X60.626
X60.631
X61.29
X61.295
X61.301
X61.306 Y5.946
X61.311 Y5.944
X61.317 Y5.942
X61.322 Y5.94
X61.327 Y5.937
X61.333 Y5.933
X61.336 Y5.931
X61.338 Y5.929
X61.344 Y5.923
X61.801 Y5.466
X61.811 Y5.455
X61.815 Y5.45
X61.819 Y5.445
X61.821 Y5.44
X61.823 Y5.435
X61.825 Y5.43
X61.826 Y5.424
X61.827 Y5.42
Y5.416
Y5.407
Y4.757
Y4.746
Y4.741
X61.826 Y4.736
X61.825 Y4.731
X61.823 Y4.725
X61.821 Y4.719
X61.818 Y4.714
X61.814 Y4.708
X61.812 Y4.706
X61.809 Y4.703
X61.804 Y4.697
X61.379 Y4.273
X61.335 Y4.228
X61.332 Y4.226
X61.329 Y4.224
X61.324 Y4.221
X61.318 Y4.218
X61.312 Y4.216
X61.307 Y4.214
X61.301 Y4.213
X61.296
X61.29
X60.65
X60.648 Y4.212
X57.813 Y1.377
X57.809 Y1.374
X57.806 Y1.371
X57.728 Y1.312
X57.725 Y1.309
X57.722 Y1.308
X57.716 Y1.304
X57.627 Y1.267
X57.622 Y1.265
X57.616 Y1.263
X57.61 Y1.262
X57.605 Y1.261
X57.516 Y1.249
X57.507 Y1.248
X57.503
X57.499
X10.634
X10.622
X10.609 Y1.249
X10.522 Y1.261
X10.517
X10.511 Y1.263
X10.506 Y1.264
X10.5 Y1.267
X10.455 Y1.285
X10.411 Y1.304
X10.405 Y1.306
X10.399 Y1.31
X10.388 Y1.318
X10.319 Y1.371
X10.314 Y1.376
X10.309 Y1.381
X9.817 Y1.872
X9.816 Y1.873
X4.38
X4.357 Y1.874
X4.299 Y1.879
X4.295 Y1.88
X4.291 Y1.881
X4.246 Y1.894
X4.224 Y1.9
X4.218 Y1.902
X4.213 Y1.904
X4.201 Y1.909
X4.112 Y1.958
X4.089 Y1.972
X4.088 Y1.973
X1.019
X1.013
X1.008
X1.002 Y1.974
X0.996 Y1.976
X0.991 Y1.978
X0.985 Y1.98
X0.98 Y1.983
X0.974 Y1.987
X0.92 Y2.018
X0.861 Y2.038
X0.8 Y2.046
X0.737 Y2.042
G2 X0.413 Y2.519 I-0.052 J0.313
G1 X1.327 Y4.034
G3 X1.097 Y4.513 I-0.272 J0.164
G1 X1.091 Y4.514
X1.086 Y4.515
X1.075 Y4.519
X1.042 Y4.531
X1.034 Y4.534
X1.03 Y4.536
X1.026 Y4.538
X1.022 Y4.541
X1.018 Y4.544
X1.009 Y4.552
X0.985 Y4.576
X0.981 Y4.58
X0.978 Y4.584
X0.975 Y4.589
X0.972 Y4.593
X0.97 Y4.597
X0.968 Y4.601
X0.965 Y4.609
X0.954 Y4.641
X0.952 Y4.647
X0.95 Y4.653
X0.949 Y4.658
Y4.664
Y4.686
Y5.489
Y5.495
Y5.501
X0.95 Y5.506
X0.951 Y5.512
X0.959 Y5.534
X0.968 Y5.559
X0.97 Y5.562
X0.971 Y5.565
X0.973 Y5.568
X0.975 Y5.571
X0.977 Y5.574
X0.979 Y5.577
X0.985 Y5.584
X1.007 Y5.605
X1.017 Y5.616
X1.02 Y5.618
X1.023 Y5.62
X1.028 Y5.623
X1.034 Y5.626
X1.04 Y5.629
X1.075 Y5.641
X1.086 Y5.645
X1.091 Y5.646
X1.097 Y5.647
X1.119
X6.926
X6.932
X6.937
X6.943 Y5.646
X6.949 Y5.644
X6.971 Y5.636
X6.987 Y5.63
X6.996 Y5.627
X7 Y5.626
X7.004 Y5.623
X7.008 Y5.621
X7.012 Y5.618
X7.016 Y5.615
X7.02 Y5.611
X7.036 Y5.595
X7.05 Y5.58
X7.053 Y5.577
X7.056 Y5.573
X7.058 Y5.57
X7.06 Y5.566
X7.062 Y5.562
X7.064 Y5.558
X7.073 Y5.534
X7.081 Y5.512
X7.082 Y5.506
X7.083 Y5.501
Y5.495
Y5.489
Y5.26
X7.085 Y5.257
X9.372
X9.378
X9.383
X9.473 Y5.245
X9.484 Y5.244
X9.489 Y5.242
X9.495 Y5.241
X9.517 Y5.231
X9.562 Y5.213
X9.593 Y5.2
X9.597 Y5.197
X9.601 Y5.195
X9.609 Y5.189
X9.68 Y5.134
X9.685 Y5.131
X9.69 Y5.126
X11.433 Y3.383
X11.435 Y3.382
X37.315
X37.317 Y3.383
X43.958 Y10.024
X43.959 Y10.025
X43.944 Y10.131
X43.943 Y10.143
X43.942 Y10.148
X43.943 Y10.154
X43.954 Y10.265
X43.958 Y10.308
X43.959 Y10.313
X43.961 Y10.319
X44.008 Y10.453
X44.009 Y10.458
X44.011 Y10.463
X44.014 Y10.468
X44.017 Y10.473
X44.084 Y10.578
X44.098 Y10.6
X44.101 Y10.603
X44.103 Y10.606
X44.109 Y10.611
X44.213 Y10.712
X44.216 Y10.715
X44.219 Y10.717
X44.226 Y10.721
X44.352 Y10.795
X44.358 Y10.798
X44.364 Y10.801
X44.405 Y10.814
X44.505 Y10.844
X44.511 Y10.846
X44.516 Y10.847
X44.522 Y10.848
X44.528
X44.583 Y10.852
X44.673 Y10.857
X44.678
X44.684
X44.751 Y10.849
X44.757
X44.762 Y10.847
X44.851 Y10.82
X44.916 Y10.801
X44.922 Y10.799
X44.925 Y10.797
X44.928 Y10.796
X44.941 Y10.788
X45.03 Y10.734
X45.068 Y10.712
X45.071 Y10.709
X45.074 Y10.707
X45.077 Y10.704
X45.081 Y10.701
X45.188 Y10.592
X45.191 Y10.588
X45.195 Y10.584
X45.197 Y10.58
X45.2 Y10.576
X45.277 Y10.444
X45.281 Y10.436
X45.283 Y10.432
X45.284 Y10.428
X45.289 Y10.412
X45.327 Y10.276
X45.329 Y10.271
X45.33 Y10.265
X45.331 Y10.26
Y10.254
X45.335 Y10.109
Y10.098
Y10.092
X45.334 Y10.087
X45.314 Y9.998
X45.298 Y9.929
X45.297 Y9.924
X45.295 Y9.919
X45.29 Y9.908
X45.22 Y9.773
X45.218 Y9.769
X45.215 Y9.765
X45.212 Y9.761
X45.209 Y9.757
X45.119 Y9.656
X45.105 Y9.64
X45.101 Y9.636
X45.096 Y9.632
X45.086 Y9.626
X44.976 Y9.551
X44.959 Y9.539
X44.954 Y9.537
X44.95 Y9.535
X44.941 Y9.532
X44.807 Y9.484
X44.796 Y9.48
X44.79 Y9.479
X44.784 Y9.478
X44.762 Y9.476
X44.652 Y9.465
X44.651
X37.828 Y2.643
X37.811 Y2.625
X37.794 Y2.612
X37.734 Y2.566
X37.726 Y2.56
X37.723 Y2.558
X37.719 Y2.556
X37.704 Y2.549
X37.626 Y2.517
X37.62 Y2.515
X37.615 Y2.513
X37.609 Y2.512
X37.604 Y2.511
X37.514 Y2.499
X37.504 Y2.498
X37.494
X11.259
X11.248
X11.236 Y2.499
X11.148 Y2.511
X11.142
X11.137 Y2.512
X11.131 Y2.514
X11.125 Y2.516
X11.036 Y2.553
X11.03 Y2.556
X11.025 Y2.559
X11.014 Y2.568
X10.945 Y2.621
X10.939 Y2.625
X10.934 Y2.631
X9.192 Y4.373
X9.191
X4.38
X4.372
X4.363 Y4.374
X4.291 Y4.381
X4.285 Y4.382
X4.28 Y4.383
X4.268 Y4.387
X4.201 Y4.409
X4.196 Y4.411
X4.19 Y4.413
X4.179 Y4.42
X4.118 Y4.456
X4.112 Y4.459
X4.04 Y4.513
X4.039
X1.119
X1.097
X1.035 Y4.508
X0.975 Y4.49
X0.92 Y4.462
X0.871 Y4.423
G2 X0.374 Y4.808 I-0.222 J0.227
G1 X1.391 Y6.577
G3 X1.119 Y7.053 I-0.275 J0.158
G1 X1.097
X1.091 Y7.054
X1.086 Y7.055
X1.075 Y7.059
X1.041 Y7.071
X1.035 Y7.073
X1.03 Y7.076
X1.024 Y7.079
X1.021 Y7.081
X1.019 Y7.083
X1.008 Y7.094
X0.985 Y7.116
X0.979 Y7.122
X0.977 Y7.126
X0.975 Y7.129
X0.973 Y7.132
X0.971 Y7.135
X0.968 Y7.141
X0.952 Y7.186
X0.951 Y7.191
X0.949 Y7.197
Y7.202
Y7.208
Y8.034
Y8.039
X0.95 Y8.045
X0.951 Y8.05
X0.953 Y8.056
X0.961 Y8.078
X0.969 Y8.101
X0.972 Y8.106
X0.975 Y8.112
X0.977 Y8.115
X0.979 Y8.117
X0.984 Y8.123
X1.008 Y8.146
X1.019 Y8.157
X1.021 Y8.159
X1.024 Y8.161
X1.03 Y8.164
X1.035 Y8.167
X1.041 Y8.169
X1.075 Y8.181
X1.086 Y8.185
X1.091 Y8.186
X1.097 Y8.187
X1.119
X6.926
X6.932
X6.937
X6.943 Y8.186
X6.949 Y8.184
X6.971 Y8.176
X6.99 Y8.169
X6.995 Y8.168
X7 Y8.166
X7.005 Y8.163
X7.009 Y8.16
X7.014 Y8.156
X7.019 Y8.152
X7.048 Y8.123
X7.052 Y8.119
X7.055 Y8.114
X7.058 Y8.11
X7.06 Y8.106
X7.063 Y8.102
X7.064 Y8.097
X7.074 Y8.07
X7.081 Y8.052
X7.082 Y8.047
X7.083 Y8.043
Y8.038
Y8.034
Y7.759
X7.085 Y7.757
X8.747
X8.752
X8.758
X8.847 Y7.745
X8.858 Y7.744
X8.864 Y7.742
X8.869 Y7.741
X8.892 Y7.732
X8.936 Y7.713
X8.968 Y7.7
X8.972 Y7.697
X8.976 Y7.695
X8.984 Y7.689
X9.055 Y7.635
X9.06 Y7.631
X9.065 Y7.626
X12.058 Y4.632
X12.06
X18.566
X18.568 Y4.634
X24.557 Y10.622
X24.558 Y10.624
Y10.979
Y11.069
X24.569 Y11.158
X24.571 Y11.171
X24.572 Y11.176
X24.573 Y11.181
X24.575 Y11.186
X24.577 Y11.19
X24.609 Y11.27
X24.614 Y11.281
X24.617 Y11.286
X24.621 Y11.292
X24.66 Y11.344
X24.676 Y11.364
X24.684 Y11.375
X24.694 Y11.385
X28.434 Y15.125
X28.439 Y15.13
X28.445 Y15.134
X28.502 Y15.178
X28.524 Y15.195
X28.53 Y15.199
X28.536 Y15.201
X28.547 Y15.206
X28.625 Y15.238
X28.631 Y15.241
X28.636 Y15.242
X28.642 Y15.244
X28.647
X28.725 Y15.255
X28.748 Y15.257
X28.77
X33.565
X33.567 Y15.258
X35.807 Y17.498
X35.808 Y17.499
Y18.38
Y18.382
X34.819 Y19.371
X34.817 Y19.373
X33.309
X33.308 Y19.372
X32.311 Y18.375
X32.309 Y18.373
X32.363 Y18.3
X32.367 Y18.294
X32.37 Y18.288
X32.375 Y18.277
X32.404 Y18.21
X32.433 Y18.14
X32.434 Y18.135
X32.435 Y18.13
X32.459 Y17.987
X32.461 Y17.976
Y17.97
Y17.965
X32.453 Y17.853
X32.449 Y17.809
X32.448 Y17.803
X32.447 Y17.797
X32.408 Y17.675
X32.401 Y17.652
X32.399 Y17.647
X32.396 Y17.641
X32.389 Y17.63
X32.317 Y17.511
X32.315 Y17.507
X32.312 Y17.503
X32.309 Y17.5
X32.306 Y17.496
X32.205 Y17.393
X32.198 Y17.387
X32.195 Y17.384
X32.191 Y17.382
X32.165 Y17.365
X32.065 Y17.302
X32.059 Y17.299
X32.053 Y17.296
X32.048 Y17.294
X32.042 Y17.292
X31.986 Y17.273
X31.897 Y17.243
X31.891 Y17.242
X31.886
X31.808 Y17.235
X31.733 Y17.228
X31.727
X31.723 Y17.229
X31.718
X31.573 Y17.251
X31.568 Y17.252
X31.562 Y17.253
X31.556 Y17.255
X31.551 Y17.257
X31.416 Y17.312
X31.41 Y17.314
X31.404 Y17.318
X31.361 Y17.348
X31.279 Y17.407
X31.275 Y17.409
X31.272 Y17.412
X31.269 Y17.415
X31.267 Y17.418
X31.182 Y17.514
X31.167 Y17.532
X31.163 Y17.536
X31.16 Y17.541
X31.156 Y17.55
X31.09 Y17.675
X31.087 Y17.68
X31.085 Y17.686
X31.082 Y17.697
X31.047 Y17.831
X31.045 Y17.842
X31.044 Y17.848
Y17.853
X31.041 Y17.998
Y18.004
Y18.009
X31.042 Y18.015
X31.043 Y18.021
X31.074 Y18.164
X31.076 Y18.169
X31.078 Y18.174
X31.083 Y18.185
X31.138 Y18.3
X31.145 Y18.316
X31.148 Y18.32
X31.15 Y18.323
X31.157 Y18.331
X31.243 Y18.438
X31.247 Y18.444
X31.25 Y18.447
X31.253 Y18.449
X31.272 Y18.465
X31.315 Y18.498
X31.314 Y18.5
X30.444 Y19.371
X30.442 Y19.373
X27.519
X27.497
X27.475 Y19.375
X27.396 Y19.386
X27.391 Y19.387
X27.385 Y19.388
X27.38 Y19.39
X27.374 Y19.392
X27.296 Y19.424
X27.285 Y19.429
X27.279 Y19.432
X27.274 Y19.435
X27.251 Y19.452
X27.202 Y19.49
X27.192 Y19.498
X27.182 Y19.508
X22.229 Y24.461
X22.228 Y24.462
X22.092 Y24.421
X22.081 Y24.417
X22.075 Y24.416
X22.07
X21.88 Y24.397
X21.874
X21.869
X21.846 Y24.399
X21.679 Y24.416
X21.673 Y24.417
X21.668 Y24.418
X21.623 Y24.431
X21.488 Y24.472
X21.477 Y24.476
X21.471 Y24.478
X21.466 Y24.481
X21.303 Y24.568
X21.298 Y24.571
X21.294 Y24.574
X21.284 Y24.581
X21.146 Y24.695
X21.138 Y24.702
X21.134 Y24.706
X21.13 Y24.711
X21.012 Y24.855
X21.009 Y24.859
X21.006 Y24.863
X20.997 Y24.879
X20.914 Y25.036
X20.912 Y25.039
X20.91 Y25.043
X20.908 Y25.049
X20.854 Y25.229
X20.852 Y25.235
X20.851 Y25.24
X20.849 Y25.263
X20.833 Y25.43
X20.832 Y25.436
Y25.441
X20.84 Y25.53
X20.849 Y25.62
X20.852 Y25.642
X20.853 Y25.648
X20.854 Y25.653
X20.908 Y25.83
X20.91 Y25.837
X20.912 Y25.841
X20.914 Y25.844
X20.921 Y25.859
X20.997 Y26.001
X21.006 Y26.017
X21.009 Y26.022
X21.012 Y26.026
X21.131 Y26.171
X21.135 Y26.175
X21.139 Y26.18
X21.147 Y26.186
X21.285 Y26.299
X21.295 Y26.307
X21.3 Y26.31
X21.305 Y26.313
X21.466 Y26.399
X21.472 Y26.402
X21.478 Y26.405
X21.489 Y26.408
X21.612 Y26.449
X21.617 Y26.451
X21.623 Y26.452
X21.712 Y26.468
X21.757 Y26.476
X21.768 Y26.478
X21.779
X21.913 Y26.482
X21.919
X21.924
X22.003 Y26.475
X22.014 Y26.474
X22.025 Y26.472
X22.189 Y26.434
X22.197 Y26.432
X22.204 Y26.43
X22.338 Y26.372
X22.373 Y26.357
X22.408 Y26.334
X22.516 Y26.261
X22.527 Y26.254
X22.53 Y26.252
X22.533 Y26.25
X22.538 Y26.245
X22.63 Y26.155
X22.668 Y26.118
X22.695 Y26.08
X22.768 Y25.977
X22.778 Y25.963
X22.779 Y25.96
X22.781 Y25.956
X22.854 Y25.798
X22.858 Y25.79
X22.86 Y25.781
X22.902 Y25.62
X22.904 Y25.608
X22.905 Y25.603
X22.906 Y25.597
X22.916 Y25.441
X22.918 Y25.419
Y25.413
X22.917 Y25.408
X22.898 Y25.24
X22.897 Y25.229
X22.895 Y25.223
X22.894 Y25.218
X22.854 Y25.088
Y25.086
X27.682 Y20.258
X27.684 Y20.257
X30.624
X30.63
X30.635
X30.646 Y20.255
X30.736 Y20.243
X30.741 Y20.242
X30.747 Y20.24
X30.758 Y20.235
X30.838 Y20.202
X30.842 Y20.2
X30.845 Y20.199
X30.848 Y20.197
X30.852 Y20.195
X30.878 Y20.174
X30.931 Y20.134
X30.935 Y20.13
X30.939 Y20.126
X31.875 Y19.191
X32.811 Y20.126
X32.816 Y20.131
X32.821 Y20.135
X32.897 Y20.193
X32.899 Y20.195
X32.902 Y20.197
X32.908 Y20.2
X32.913 Y20.203
X33.003 Y20.24
X33.008 Y20.242
X33.014 Y20.243
X33.058 Y20.249
X33.114 Y20.256
X33.12 Y20.257
X33.125
X34.979
X35.002
X35.007
X35.013 Y20.256
X35.102 Y20.244
X35.108
X35.113 Y20.243
X35.119 Y20.241
X35.124 Y20.239
X35.203 Y20.206
X35.215 Y20.201
X35.218 Y20.2
X35.222 Y20.198
X35.225 Y20.196
X35.228 Y20.194
X35.292 Y20.144
X35.308 Y20.132
X35.324 Y20.117
X36.558 Y18.882
X36.566 Y18.874
X36.572 Y18.866
X36.628 Y18.794
X36.63 Y18.791
X36.632 Y18.788
X36.635 Y18.783
X36.637 Y18.777
X36.673 Y18.69
X36.676 Y18.685
X36.677 Y18.679
X36.679 Y18.673
Y18.668
X36.681 Y18.657
X36.692 Y18.567
Y18.478
Y17.318
Y17.312
Y17.306
X36.681 Y17.228
X36.678 Y17.206
X36.677 Y17.2
X36.675 Y17.195
X36.671 Y17.184
X36.638 Y17.104
X36.635 Y17.098
X36.632 Y17.092
X36.628 Y17.087
X36.574 Y17.016
X36.568 Y17.008
X36.564 Y17.003
X36.56 Y16.999
X34.076 Y14.515
X34.059 Y14.498
X34.041 Y14.485
X33.981 Y14.439
X33.974 Y14.433
X33.97 Y14.431
X33.966 Y14.429
X33.952 Y14.423
X33.874 Y14.391
X33.868 Y14.389
X33.863 Y14.387
X33.857 Y14.386
X33.851 Y14.385
X33.762 Y14.374
X33.756 Y14.373
X33.751
X33.505
X28.934
X28.932 Y14.372
X25.442 Y10.882
Y10.88
Y10.444
Y10.438
Y10.433
X25.44 Y10.422
X25.432 Y10.355
X25.429 Y10.332
X25.428 Y10.327
X25.426 Y10.321
X25.421 Y10.31
X25.391 Y10.236
X25.385 Y10.222
X25.383 Y10.218
X25.381 Y10.215
X25.375 Y10.208
X25.322 Y10.138
X25.314 Y10.129
X25.305 Y10.119
X19.062 Y3.877
X19.057 Y3.872
X19.052 Y3.868
X19.013 Y3.838
X18.978 Y3.811
X18.973 Y3.808
X18.969 Y3.806
X18.96 Y3.802
X18.876 Y3.767
X18.87 Y3.765
X18.864 Y3.763
X18.859 Y3.761
X18.853
X18.762 Y3.749
X18.757 Y3.748
X18.751
X18.74
X11.885
X11.874
X11.868
X11.863 Y3.749
X11.773 Y3.761
X11.767
X11.762 Y3.762
X11.756 Y3.764
X11.751 Y3.766
X11.661 Y3.803
X11.656 Y3.806
X11.65 Y3.809
X11.639 Y3.818
X11.57 Y3.871
X11.565 Y3.875
X11.559 Y3.88
X8.568 Y6.872
X8.567 Y6.873
X4.38
X4.374
X4.367
X4.28 Y6.883
X4.274 Y6.884
X4.268 Y6.886
X4.246 Y6.894
X4.201 Y6.91
X4.179 Y6.919
X4.174 Y6.921
X4.168 Y6.925
X4.095 Y6.973
X4.092 Y6.975
X4.089 Y6.978
X4.002 Y7.052
X4 Y7.053
X1.119
X1.057 Y7.047
X0.998 Y7.029
X0.943 Y6.999
X0.895 Y6.96
G2 X0.393 Y7.34 I-0.225 J0.225
G1 X1.392 Y9.12
G3 X1.119 Y9.593 I-0.277 J0.155
G1 X1.097
X1.091 Y9.594
X1.086 Y9.595
X1.075 Y9.599
X1.038 Y9.612
X1.033 Y9.614
X1.029 Y9.616
X1.024 Y9.619
X1.019 Y9.623
X1.015 Y9.627
X1.001 Y9.64
X0.985 Y9.656
X0.981 Y9.661
X0.977 Y9.666
X0.974 Y9.67
X0.971 Y9.675
X0.969 Y9.679
X0.967 Y9.684
X0.964 Y9.693
X0.951 Y9.73
X0.95 Y9.735
X0.949 Y9.741
Y9.752
Y10.533
Y10.578
Y10.583
X0.951 Y10.589
X0.952 Y10.595
X0.954 Y10.6
X0.962 Y10.622
X0.97 Y10.643
X0.973 Y10.648
X0.976 Y10.653
X0.98 Y10.658
X0.985 Y10.664
X1.017 Y10.695
X1.021 Y10.698
X1.024 Y10.701
X1.028 Y10.703
X1.032 Y10.706
X1.036 Y10.707
X1.04 Y10.709
X1.075 Y10.721
X1.086 Y10.725
X1.091 Y10.726
X1.097 Y10.727
X1.119
X6.926
X6.932
X6.937
X6.943 Y10.726
X6.949 Y10.724
X6.971 Y10.718
X6.975 Y10.717
X6.979 Y10.716
X6.984 Y10.714
X6.988 Y10.712
X7.006 Y10.7
X7.024 Y10.689
X7.027 Y10.686
X7.03 Y10.684
X7.033 Y10.681
X7.036 Y10.678
X7.044 Y10.667
X7.06 Y10.646
X7.062 Y10.643
X7.064 Y10.64
X7.067 Y10.634
X7.069 Y10.628
X7.071 Y10.622
X7.078 Y10.6
X7.081 Y10.589
X7.083 Y10.583
Y10.578
Y10.533
Y10.259
X7.085 Y10.257
X8.121
X8.127
X8.132
X8.222 Y10.245
X8.233 Y10.244
X8.239 Y10.242
X8.244 Y10.241
X8.266 Y10.232
X8.311 Y10.213
X8.343 Y10.2
X8.347 Y10.197
X8.352 Y10.195
X8.36 Y10.188
X8.43 Y10.135
X8.435 Y10.131
X8.44 Y10.126
X10.183 Y8.383
X10.184 Y8.382
X12.482
X12.484
X12.488 Y8.384
X12.51 Y8.39
X12.513 Y8.391
X12.666 Y8.411
X12.678 Y8.413
X12.683
X12.689
X12.778 Y8.405
X12.845 Y8.399
X12.856 Y8.398
X12.862 Y8.396
X12.867 Y8.395
X13.001 Y8.351
X13.024 Y8.344
X13.029 Y8.342
X13.035 Y8.339
X13.135 Y8.278
X13.179 Y8.252
X13.181 Y8.25
X13.184 Y8.248
X13.19 Y8.243
X13.304 Y8.134
X13.309 Y8.128
X13.311 Y8.126
X13.313 Y8.123
X13.314 Y8.121
X13.404 Y7.986
X13.407 Y7.98
X13.409 Y7.975
X13.413 Y7.965
X13.467 Y7.822
X13.469 Y7.816
X13.47 Y7.81
X13.476 Y7.766
X13.488 Y7.677
X13.493 Y7.64
Y7.635
Y7.63
X13.489 Y7.587
X13.479 Y7.476
X13.478 Y7.465
X13.477 Y7.459
X13.475 Y7.453
X13.427 Y7.305
X13.424 Y7.297
X13.423 Y7.293
X13.421 Y7.29
X13.404 Y7.26
X13.386 Y7.23
X13.332 Y7.141
X13.328 Y7.136
X13.324 Y7.131
X13.214 Y7.016
X13.208 Y7.011
X13.205 Y7.009
X13.203 Y7.007
X13.18 Y6.992
X13.068 Y6.918
X13.063 Y6.915
X13.057 Y6.912
X13.046 Y6.907
X12.9 Y6.853
X12.895 Y6.851
X12.889 Y6.85
X12.867 Y6.847
X12.733 Y6.828
X12.728
X12.722 Y6.827
X12.717
X12.711 Y6.828
X12.599 Y6.837
X12.555 Y6.84
X12.549 Y6.841
X12.544 Y6.843
X12.398 Y6.888
X12.387 Y6.891
X12.382 Y6.894
X12.376 Y6.897
X12.242 Y6.973
X12.237 Y6.977
X12.234 Y6.979
X12.231 Y6.981
X12.117 Y7.084
X12.11 Y7.09
X12.108 Y7.093
X12.105 Y7.096
X12.073 Y7.141
X12.063 Y7.155
X12.01 Y7.23
X12.007 Y7.235
X12.005 Y7.24
X11.952 Y7.364
X11.943 Y7.386
X11.941 Y7.392
X11.94 Y7.398
X11.921 Y7.496
X11.92 Y7.498
X10.009
X9.994
X9.919 Y7.508
X9.897 Y7.511
X9.891
X9.886 Y7.513
X9.88 Y7.514
X9.875 Y7.517
X9.83 Y7.535
X9.785 Y7.554
X9.78 Y7.556
X9.774 Y7.56
X9.763 Y7.568
X9.695 Y7.621
X9.689 Y7.625
X9.684 Y7.631
X7.942 Y9.373
X7.939
X4.38
X4.369
X4.358 Y9.374
X4.291 Y9.383
X4.268 Y9.386
X4.263 Y9.387
X4.257 Y9.389
X4.246 Y9.393
X4.169 Y9.425
X4.163 Y9.427
X4.158 Y9.43
X4.152 Y9.433
X4.079 Y9.488
X4.073 Y9.492
X4.067 Y9.497
X3.97 Y9.591
X3.967 Y9.593
X1.119
X1.057 Y9.587
X0.998 Y9.569
X0.943 Y9.539
X0.895 Y9.5
G2 X0.393 Y9.88 I-0.225 J0.225
G1 X1.392 Y11.66
G3 X1.119 Y12.133 I-0.277 J0.155
G1 X1.097
X1.091 Y12.134
X1.086 Y12.135
X1.075 Y12.139
X1.039 Y12.152
X1.033 Y12.154
X1.028 Y12.157
X1.023 Y12.16
X1.02 Y12.162
X1.017 Y12.164
X1.007 Y12.175
X0.985 Y12.196
X0.981 Y12.2
X0.978 Y12.205
X0.975 Y12.209
X0.972 Y12.213
X0.97 Y12.217
X0.968 Y12.221
X0.965 Y12.229
X0.953 Y12.263
X0.951 Y12.268
X0.95 Y12.274
X0.949 Y12.279
Y12.285
Y12.296
Y13.111
Y13.116
Y13.122
X0.95 Y13.127
X0.951 Y13.132
X0.955 Y13.142
X0.962 Y13.163
X0.97 Y13.183
X0.973 Y13.188
X0.976 Y13.193
X0.98 Y13.199
X0.985 Y13.204
X1.013 Y13.232
X1.018 Y13.236
X1.023 Y13.24
X1.029 Y13.244
X1.034 Y13.246
X1.075 Y13.261
X1.086 Y13.265
X1.091 Y13.266
X1.097 Y13.267
X1.119
X6.926
X6.932
X6.937
X6.943 Y13.266
X6.949 Y13.264
X6.971 Y13.258
X6.975 Y13.257
X6.98 Y13.256
X6.984 Y13.254
X6.988 Y13.251
X7.006 Y13.24
X7.023 Y13.229
X7.028 Y13.225
X7.031 Y13.223
X7.033 Y13.22
X7.041 Y13.211
X7.06 Y13.186
X7.063 Y13.182
X7.065 Y13.178
X7.067 Y13.174
X7.069 Y13.17
X7.074 Y13.154
X7.079 Y13.138
X7.081 Y13.13
X7.082 Y13.126
X7.083 Y13.122
Y13.116
Y13.111
Y12.296
Y12.285
Y12.279
X7.082 Y12.274
X7.081 Y12.268
X7.079 Y12.263
X7.067 Y12.229
X7.064 Y12.222
X7.062 Y12.218
X7.06 Y12.214
X7.059 Y12.211
X7.057 Y12.208
X7.054 Y12.205
X7.052 Y12.202
X7.04 Y12.19
X7.016 Y12.165
X7.013 Y12.163
X7.01 Y12.161
X7.004 Y12.157
X6.999 Y12.154
X6.993 Y12.152
X6.961 Y12.14
X6.951 Y12.136
X6.946 Y12.135
X6.941 Y12.134
X6.936 Y12.133
X6.931
X6.921
X1.119
X1.057 Y12.127
X0.998 Y12.109
X0.943 Y12.079
X0.895 Y12.04
G2 X0.393 Y12.42 I-0.225 J0.225
G1 X1.392 Y14.2
G3 X1.119 Y14.673 I-0.277 J0.155
G1 X1.097
X1.091 Y14.674
X1.086 Y14.675
X1.075 Y14.679
X1.034 Y14.694
X1.029 Y14.696
X1.023 Y14.7
X1.018 Y14.704
X1.013 Y14.708
X0.985 Y14.736
X0.98 Y14.741
X0.976 Y14.747
X0.973 Y14.752
X0.97 Y14.757
X0.962 Y14.777
X0.955 Y14.798
X0.951 Y14.808
X0.95 Y14.813
X0.949 Y14.818
Y14.824
Y14.829
Y15.644
Y15.655
Y15.661
X0.95 Y15.666
X0.951 Y15.672
X0.953 Y15.677
X0.965 Y15.711
X0.968 Y15.719
X0.97 Y15.723
X0.972 Y15.727
X0.975 Y15.731
X0.978 Y15.735
X0.981 Y15.74
X0.985 Y15.744
X1.007 Y15.765
X1.017 Y15.776
X1.02 Y15.778
X1.023 Y15.78
X1.028 Y15.783
X1.033 Y15.786
X1.039 Y15.788
X1.075 Y15.801
X1.086 Y15.805
X1.091 Y15.806
X1.097 Y15.807
X1.119
X6.921
X6.931
X6.936
X6.941 Y15.806
X6.946 Y15.805
X6.951 Y15.804
X6.971 Y15.796
X6.993 Y15.788
X6.999 Y15.786
X7.004 Y15.783
X7.01 Y15.779
X7.013 Y15.777
X7.016 Y15.775
X7.04 Y15.75
X7.052 Y15.738
X7.054 Y15.735
X7.057 Y15.732
X7.059 Y15.729
X7.06 Y15.726
X7.062 Y15.722
X7.064 Y15.718
X7.067 Y15.711
X7.079 Y15.677
X7.081 Y15.672
X7.082 Y15.666
X7.083 Y15.661
Y15.655
Y15.644
Y15.259
X7.085 Y15.257
X8.121
X8.127
X8.132
X8.222 Y15.245
X8.233 Y15.244
X8.239 Y15.242
X8.244 Y15.241
X8.266 Y15.232
X8.311 Y15.213
X8.344 Y15.199
X8.348 Y15.197
X8.352 Y15.194
X8.361 Y15.188
X8.43 Y15.134
X8.435 Y15.13
X8.44 Y15.125
X17.683 Y5.882
X17.685
X17.941
X17.942
X19.557 Y7.498
X19.558 Y7.499
Y15.621
X19.555 Y15.623
X16.877
X16.871
X16.865
X16.776 Y15.635
X16.765 Y15.637
X16.759 Y15.638
X16.754 Y15.64
X16.709 Y15.658
X16.664 Y15.677
X16.659 Y15.679
X16.653 Y15.682
X16.648 Y15.686
X16.642 Y15.69
X16.573 Y15.743
X16.568 Y15.747
X16.565 Y15.75
X16.562 Y15.752
X12.816 Y19.498
X12.797 Y19.519
X12.788 Y19.529
X12.785 Y19.532
X12.784 Y19.533
X12.783 Y19.534
X12.666 Y19.529
X12.655 Y19.528
X12.65 Y19.529
X12.644
X12.488 Y19.556
X12.482 Y19.558
X12.477 Y19.559
X12.465 Y19.564
X12.331 Y19.619
X12.323 Y19.622
X12.319 Y19.625
X12.315 Y19.627
X12.191 Y19.714
X12.182 Y19.72
X12.178 Y19.723
X12.173 Y19.728
X12.091 Y19.817
X12.063 Y19.847
X12.061 Y19.851
X12.058 Y19.855
X12.028 Y19.906
X11.976 Y19.996
X11.974 Y20.001
X11.947 Y20.085
X11.926 Y20.152
X11.924 Y20.157
X11.923 Y20.163
X11.921 Y20.174
X11.909 Y20.308
X11.907 Y20.33
Y20.336
X11.908 Y20.342
X11.927 Y20.498
X11.928 Y20.503
X11.93 Y20.509
X11.938 Y20.531
X11.981 Y20.652
X11.984 Y20.662
X11.986 Y20.666
X11.989 Y20.671
X12.013 Y20.71
X12.069 Y20.799
X12.077 Y20.81
X12.079 Y20.813
X12.081 Y20.816
X12.086 Y20.821
X12.153 Y20.888
X12.197 Y20.934
X12.2 Y20.936
X12.203 Y20.938
X12.209 Y20.942
X12.331 Y21.021
X12.343 Y21.028
X12.348 Y21.031
X12.354 Y21.033
X12.494 Y21.085
X12.502 Y21.088
X12.506 Y21.089
X12.51 Y21.09
X12.599 Y21.103
X12.666 Y21.112
X12.672 Y21.113
X12.678
X12.689 Y21.112
X12.834 Y21.101
X12.84
X12.845 Y21.1
X12.867 Y21.093
X12.957 Y21.067
X13.001 Y21.053
X13.007 Y21.051
X13.013 Y21.049
X13.024 Y21.042
X13.141 Y20.978
X13.151 Y20.972
X13.157 Y20.968
X13.162 Y20.964
X13.278 Y20.863
X13.28 Y20.86
X13.283 Y20.857
X13.285 Y20.855
X13.287 Y20.852
X13.38 Y20.727
X13.384 Y20.721
X13.387 Y20.715
X13.39 Y20.71
X13.45 Y20.576
X13.452 Y20.57
X13.454 Y20.565
X13.457 Y20.554
X13.487 Y20.409
X13.488 Y20.403
X13.489 Y20.397
Y20.353
X13.488 Y20.241
Y20.236
Y20.23
X13.487 Y20.224
X13.485 Y20.219
X13.46 Y20.106
X13.461 Y20.104
X17.057 Y16.509
X17.059 Y16.507
X32.315
X32.317 Y16.508
X33.307 Y17.498
X33.308 Y17.499
Y17.853
Y17.942
Y17.948
X33.309 Y17.954
X33.326 Y18.061
X33.329 Y18.076
X33.33 Y18.08
X33.332 Y18.084
X33.333 Y18.087
X33.335 Y18.091
X33.386 Y18.188
X33.392 Y18.199
X33.395 Y18.205
X33.398 Y18.207
X33.4 Y18.21
X33.416 Y18.226
X33.493 Y18.3
X33.496 Y18.302
X33.499 Y18.304
X33.502 Y18.306
X33.505 Y18.308
X33.595 Y18.351
X33.617 Y18.361
X33.622 Y18.364
X33.628 Y18.365
X33.634 Y18.367
X33.639 Y18.368
X33.73 Y18.378
X33.732 Y18.379
X33.825 Y18.478
X33.835 Y18.487
X33.839 Y18.491
X33.844 Y18.494
X33.958 Y18.567
X33.979 Y18.58
X33.984 Y18.583
X33.989 Y18.585
X34.131 Y18.633
X34.142 Y18.636
X34.147 Y18.638
X34.153
X34.22 Y18.644
X34.309 Y18.652
X34.315
X34.32 Y18.651
X34.332 Y18.649
X34.466 Y18.629
X34.477 Y18.627
X34.482 Y18.626
X34.488 Y18.624
X34.577 Y18.587
X34.634 Y18.563
X34.64 Y18.56
X34.645 Y18.557
X34.667 Y18.541
X34.756 Y18.475
X34.779 Y18.458
X34.782 Y18.455
X34.785 Y18.452
X34.79 Y18.445
X34.878 Y18.339
X34.886 Y18.329
X34.89 Y18.324
X34.892 Y18.319
X34.902 Y18.3
X34.961 Y18.177
X34.963 Y18.171
X34.965 Y18.166
X34.975 Y18.121
X34.998 Y18.009
X34.999 Y18.004
X35 Y17.998
X34.999 Y17.987
X34.994 Y17.842
Y17.836
Y17.831
X34.993 Y17.825
X34.991 Y17.82
X34.95 Y17.675
X34.948 Y17.667
X34.946 Y17.663
X34.944 Y17.659
X34.935 Y17.642
X34.877 Y17.541
X34.864 Y17.519
X34.861 Y17.514
X34.856 Y17.508
X34.756 Y17.403
X34.75 Y17.397
X34.748 Y17.394
X34.745 Y17.392
X34.734 Y17.385
X34.618 Y17.309
X34.611 Y17.304
X34.608 Y17.303
X34.604 Y17.301
X34.577 Y17.291
X34.466 Y17.251
X34.454 Y17.247
X34.449 Y17.246
X34.443 Y17.245
X34.399 Y17.24
X34.291 Y17.228
X34.287
X34.284
X34.28
X34.276
X34.187 Y17.24
X34.185
X34.183 Y17.238
X34.182 Y17.228
X34.179 Y17.206
X34.177 Y17.2
X34.175 Y17.195
X34.171 Y17.184
X34.137 Y17.102
X34.136 Y17.099
X34.134 Y17.096
X34.133 Y17.093
X34.131 Y17.09
X34.1 Y17.05
X34.073 Y17.015
X34.067 Y17.007
X34.058 Y16.998
X32.826 Y15.765
X32.808 Y15.748
X32.79 Y15.734
X32.73 Y15.688
X32.723 Y15.683
X32.719 Y15.681
X32.716 Y15.679
X32.701 Y15.673
X32.623 Y15.641
X32.617 Y15.639
X32.612 Y15.637
X32.522 Y15.625
X32.511 Y15.624
X32.506 Y15.623
X32.5
X20.445
X20.442 Y15.621
Y7.319
Y7.308
X20.441 Y7.297
X20.432 Y7.23
X20.429 Y7.208
X20.428 Y7.202
X20.426 Y7.197
X20.422 Y7.186
X20.387 Y7.102
X20.385 Y7.098
X20.383 Y7.094
X20.381 Y7.09
X20.378 Y7.086
X20.321 Y7.012
X20.317 Y7.007
X20.313 Y7.002
X18.447 Y5.137
X18.437 Y5.126
X18.432 Y5.122
X18.427 Y5.118
X18.387 Y5.088
X18.352 Y5.061
X18.348 Y5.058
X18.343 Y5.055
X18.335 Y5.052
X18.25 Y5.017
X18.245 Y5.014
X18.239 Y5.013
X18.233 Y5.011
X18.228
X18.135 Y4.998
X18.13
X18.125
X17.501
X17.496
X17.49
X17.402 Y5.01
X17.39 Y5.012
X17.385 Y5.013
X17.379 Y5.015
X17.335 Y5.033
X17.29 Y5.052
X17.284 Y5.054
X17.279 Y5.057
X17.273 Y5.061
X17.268 Y5.065
X17.197 Y5.119
X17.192 Y5.123
X17.187 Y5.128
X7.943 Y14.372
X7.94 Y14.373
X4.38
X4.369
X4.358 Y14.374
X4.257 Y14.389
X4.252 Y14.39
X4.246 Y14.392
X4.241 Y14.394
X4.235 Y14.397
X4.157 Y14.433
X4.136 Y14.443
X4.13 Y14.447
X4.125 Y14.451
X4.067 Y14.502
X4.042 Y14.524
X4.039 Y14.527
X4.037 Y14.53
X3.917 Y14.672
X3.915 Y14.673
X1.119
X1.057 Y14.667
X0.998 Y14.649
X0.943 Y14.619
X0.895 Y14.58
G2 X0.393 Y14.96 I-0.225 J0.225
G1 X1.392 Y16.74
G3 X1.119 Y17.213 I-0.277 J0.155
G1 X1.097
X1.091 Y17.214
X1.086 Y17.215
X1.075 Y17.219
X1.04 Y17.231
X1.036 Y17.233
X1.032 Y17.234
X1.028 Y17.237
X1.024 Y17.239
X1.021 Y17.242
X1.017 Y17.245
X0.985 Y17.276
X0.98 Y17.282
X0.976 Y17.287
X0.973 Y17.292
X0.97 Y17.297
X0.962 Y17.318
X0.954 Y17.34
X0.952 Y17.345
X0.951 Y17.351
X0.949 Y17.357
Y17.362
Y17.407
Y18.188
Y18.199
X0.95 Y18.205
X0.951 Y18.21
X0.964 Y18.247
X0.967 Y18.256
X0.969 Y18.261
X0.971 Y18.265
X0.974 Y18.27
X0.977 Y18.274
X0.981 Y18.279
X0.985 Y18.284
X1.01 Y18.309
X1.015 Y18.313
X1.019 Y18.317
X1.024 Y18.321
X1.029 Y18.324
X1.033 Y18.326
X1.038 Y18.328
X1.075 Y18.341
X1.086 Y18.345
X1.091 Y18.346
X1.097 Y18.347
X1.119
X6.926
X6.932
X6.937
X6.943 Y18.346
X6.949 Y18.344
X6.971 Y18.338
X6.975 Y18.337
X6.979 Y18.336
X6.983 Y18.334
X6.987 Y18.332
X7.003 Y18.322
X7.018 Y18.312
X7.022 Y18.31
X7.026 Y18.307
X7.03 Y18.304
X7.034 Y18.3
X7.047 Y18.283
X7.06 Y18.266
X7.063 Y18.262
X7.065 Y18.259
X7.066 Y18.255
X7.068 Y18.252
X7.072 Y18.238
X7.081 Y18.21
X7.082 Y18.205
X7.083 Y18.199
Y18.188
Y17.407
Y17.362
Y17.357
X7.081 Y17.351
X7.08 Y17.345
X7.078 Y17.34
X7.065 Y17.306
X7.063 Y17.3
X7.06 Y17.294
X7.057 Y17.289
X7.053 Y17.283
X7.051 Y17.281
X7.049 Y17.278
X7.017 Y17.247
X7.013 Y17.243
X7.008 Y17.239
X7.003 Y17.236
X6.998 Y17.234
X6.994 Y17.232
X6.971 Y17.224
X6.949 Y17.216
X6.943 Y17.214
X6.937 Y17.213
X6.932
X6.926
X1.119
X1.057 Y17.207
X0.998 Y17.189
X0.943 Y17.159
X0.895 Y17.12
G2 X0.393 Y17.5 I-0.225 J0.225
G1 X1.392 Y19.28
G3 X1.119 Y19.753 I-0.277 J0.155
G1 X1.097
X1.091 Y19.754
X1.086 Y19.755
X1.075 Y19.759
X1.041 Y19.771
X1.035 Y19.773
X1.03 Y19.776
X1.024 Y19.779
X1.021 Y19.781
X1.019 Y19.783
X1.008 Y19.794
X0.985 Y19.816
X0.984 Y19.817
X0.979 Y19.823
X0.977 Y19.826
X0.975 Y19.828
X0.972 Y19.834
X0.969 Y19.839
X0.961 Y19.862
X0.953 Y19.884
X0.951 Y19.89
X0.95 Y19.895
X0.949 Y19.901
Y19.906
Y20.732
Y20.738
Y20.743
X0.951 Y20.749
X0.952 Y20.754
X0.968 Y20.799
X0.971 Y20.805
X0.973 Y20.808
X0.975 Y20.811
X0.977 Y20.814
X0.979 Y20.818
X0.985 Y20.824
X1.008 Y20.846
X1.019 Y20.857
X1.021 Y20.859
X1.024 Y20.861
X1.03 Y20.864
X1.035 Y20.867
X1.041 Y20.869
X1.075 Y20.881
X1.086 Y20.885
X1.091 Y20.886
X1.097 Y20.887
X1.119
X6.882
X6.971 Y20.882
X8.566
X8.568 Y20.883
X10.31 Y22.626
X10.316 Y22.631
X10.321 Y22.635
X10.392 Y22.69
X10.397 Y22.694
X10.403 Y22.697
X10.408 Y22.7
X10.413 Y22.703
X10.5 Y22.738
X10.506 Y22.741
X10.511 Y22.742
X10.517 Y22.744
X10.522
X10.612 Y22.756
X10.623 Y22.757
X10.634
X15.548
X15.637
X15.648 Y22.756
X15.659 Y22.754
X15.726 Y22.743
X15.749 Y22.739
X15.754 Y22.737
X15.76 Y22.735
X15.771 Y22.73
X15.816 Y22.711
X15.848 Y22.697
X15.852 Y22.695
X15.856 Y22.692
X15.863 Y22.686
X15.924 Y22.639
X15.934 Y22.632
X15.943 Y22.622
X17.504 Y21.061
X17.506 Y21.06
X17.614 Y21.094
X17.619 Y21.096
X17.625 Y21.097
X17.647 Y21.099
X17.781 Y21.112
X17.792
X17.798
X17.804
X17.871 Y21.103
X17.96 Y21.092
X17.964 Y21.091
X17.969 Y21.089
X17.978 Y21.086
X18.116 Y21.037
X18.122 Y21.035
X18.127 Y21.032
X18.139 Y21.025
X18.261 Y20.949
X18.267 Y20.945
X18.27 Y20.943
X18.273 Y20.941
X18.317 Y20.897
X18.37 Y20.845
X18.392 Y20.824
X18.394 Y20.821
X18.396 Y20.818
X18.4 Y20.813
X18.467 Y20.71
X18.485 Y20.682
X18.486 Y20.679
X18.488 Y20.676
X18.491 Y20.669
X18.543 Y20.531
X18.547 Y20.52
X18.548 Y20.515
X18.549 Y20.509
X18.559 Y20.442
X18.572 Y20.353
Y20.347
Y20.342
X18.566 Y20.259
X18.567 Y20.257
X24.37
X24.381
X24.392 Y20.256
X24.482 Y20.244
X24.487 Y20.243
X24.493 Y20.241
X24.504 Y20.237
X24.585 Y20.203
X24.593 Y20.2
X24.596 Y20.198
X24.6 Y20.196
X24.628 Y20.174
X24.678 Y20.136
X24.682 Y20.133
X24.687 Y20.129
X24.696 Y20.12
X26.282 Y18.533
X26.284
X26.358 Y18.578
X26.369 Y18.584
X26.375 Y18.587
X26.38 Y18.59
X26.403 Y18.597
X26.525 Y18.636
X26.531 Y18.638
X26.537 Y18.639
X26.626 Y18.646
X26.693 Y18.651
X26.699
X26.704
X26.715 Y18.649
X26.849 Y18.627
X26.86 Y18.625
X26.866 Y18.624
X26.872 Y18.622
X26.894 Y18.613
X27.002 Y18.567
X27.02 Y18.56
X27.024 Y18.557
X27.029 Y18.554
X27.147 Y18.467
X27.154 Y18.461
X27.159 Y18.458
X27.162 Y18.454
X27.251 Y18.348
X27.261 Y18.336
X27.264 Y18.333
X27.266 Y18.33
X27.269 Y18.324
X27.334 Y18.194
X27.338 Y18.187
X27.339 Y18.183
X27.341 Y18.179
X27.354 Y18.121
X27.375 Y18.032
X27.377 Y18.021
X27.378 Y18.015
Y18.009
Y17.942
X27.377 Y17.853
X27.376 Y17.848
X27.375 Y17.842
X27.341 Y17.705
X27.337 Y17.69
X27.335 Y17.686
X27.334 Y17.682
X27.33 Y17.675
X27.269 Y17.558
X27.261 Y17.544
X27.259 Y17.54
X27.257 Y17.537
X27.251 Y17.53
X27.162 Y17.427
X27.152 Y17.416
X27.149 Y17.413
X27.146 Y17.411
X27.141 Y17.407
X27.073 Y17.358
X27.015 Y17.318
X27.011 Y17.315
X27.007 Y17.313
X26.999 Y17.31
X26.86 Y17.254
X26.855 Y17.252
X26.849 Y17.251
X26.805 Y17.244
X26.715 Y17.232
X26.69 Y17.228
X26.684
X26.677
X26.525 Y17.243
X26.52 Y17.244
X26.514 Y17.245
X26.492 Y17.253
X26.447 Y17.268
X26.358 Y17.3
X26.354 Y17.302
X26.351 Y17.304
X26.344 Y17.308
X26.234 Y17.379
X26.217 Y17.39
X26.213 Y17.394
X26.209 Y17.398
X26.116 Y17.496
X26.101 Y17.512
X26.098 Y17.516
X26.095 Y17.52
X26.09 Y17.528
X26.088 Y17.529
X26.045 Y17.548
X26.04 Y17.551
X26.034 Y17.554
X26.001 Y17.576
X25.986 Y17.585
X25.948 Y17.617
X25.911 Y17.653
X24.194 Y19.371
X24.192 Y19.373
X18.127
X18.122
X18.116
X18.094 Y19.377
X18.005 Y19.391
X17.993 Y19.393
X17.988 Y19.395
X17.982 Y19.397
X17.96 Y19.408
X17.871 Y19.454
X17.866 Y19.457
X17.862 Y19.46
X17.859 Y19.462
X17.857 Y19.465
X17.794 Y19.528
X17.793 Y19.529
X17.671 Y19.536
X17.66
X17.655 Y19.537
X17.649 Y19.538
X17.603 Y19.55
X17.502 Y19.578
X17.496 Y19.579
X17.491 Y19.582
X17.469 Y19.593
X17.357 Y19.65
X17.351 Y19.653
X17.346 Y19.656
X17.335 Y19.665
X17.225 Y19.754
X17.221 Y19.757
X17.218 Y19.76
X17.213 Y19.766
X17.12 Y19.88
X17.117 Y19.885
X17.114 Y19.889
X17.105 Y19.906
X17.048 Y20.018
X17.042 Y20.029
X17.04 Y20.035
X17.038 Y20.04
X16.999 Y20.185
X16.997 Y20.191
Y20.197
X16.995 Y20.219
X16.989 Y20.323
Y20.326
X15.442 Y21.873
X15.435
X10.809
X10.808 Y21.872
X9.063 Y20.127
X9.06 Y20.125
X9.057 Y20.122
X9.047 Y20.114
X8.982 Y20.064
X8.977 Y20.061
X8.973 Y20.058
X8.968 Y20.055
X8.964 Y20.053
X8.892 Y20.023
X8.869 Y20.014
X8.864 Y20.013
X8.858 Y20.011
X8.847 Y20.01
X8.758 Y19.998
X8.752
X8.747
X7.085
X7.083 Y19.996
Y19.906
Y19.902
Y19.897
X7.082 Y19.893
X7.081 Y19.888
X7.074 Y19.87
X7.064 Y19.843
X7.063 Y19.838
X7.06 Y19.834
X7.058 Y19.83
X7.055 Y19.826
X7.052 Y19.821
X7.048 Y19.817
X7.019 Y19.788
X7.014 Y19.784
X7.009 Y19.78
X7.005 Y19.777
X7 Y19.774
X6.995 Y19.772
X6.99 Y19.771
X6.971 Y19.764
X6.949 Y19.756
X6.943 Y19.754
X6.937 Y19.753
X6.932
X6.926
X1.119
X1.057 Y19.747
X0.998 Y19.729
X0.943 Y19.699
X0.895 Y19.66
G2 X0.393 Y20.04 I-0.225 J0.225
G1 X1.392 Y21.82
G3 X1.119 Y22.293 I-0.277 J0.155
G1 X1.097
X1.091 Y22.294
X1.086 Y22.295
X1.075 Y22.299
X1.04 Y22.311
X1.034 Y22.314
X1.028 Y22.317
X1.023 Y22.32
X1.02 Y22.322
X1.017 Y22.324
X1.007 Y22.335
X0.985 Y22.356
X0.979 Y22.363
X0.977 Y22.366
X0.975 Y22.369
X0.973 Y22.372
X0.971 Y22.375
X0.97 Y22.378
X0.968 Y22.381
X0.959 Y22.406
X0.951 Y22.428
X0.95 Y22.434
X0.949 Y22.439
Y22.445
Y22.451
Y23.254
Y23.276
Y23.282
X0.95 Y23.287
X0.952 Y23.293
X0.954 Y23.299
X0.965 Y23.331
X0.968 Y23.339
X0.97 Y23.343
X0.972 Y23.347
X0.975 Y23.351
X0.978 Y23.356
X0.981 Y23.36
X0.985 Y23.364
X1.009 Y23.388
X1.018 Y23.396
X1.022 Y23.399
X1.026 Y23.402
X1.03 Y23.404
X1.034 Y23.406
X1.042 Y23.409
X1.075 Y23.421
X1.086 Y23.425
X1.091 Y23.426
X1.097 Y23.427
X1.119
X6.926
X6.932
X6.937
X6.943 Y23.426
X6.949 Y23.424
X6.971 Y23.418
X6.978 Y23.416
X6.981 Y23.415
X6.984 Y23.414
X6.988 Y23.412
X6.991 Y23.41
X6.998 Y23.405
X7.025 Y23.388
X7.028 Y23.386
X7.03 Y23.383
X7.033 Y23.38
X7.036 Y23.377
X7.044 Y23.367
X7.06 Y23.346
X7.062 Y23.343
X7.064 Y23.34
X7.067 Y23.334
X7.069 Y23.328
X7.071 Y23.322
X7.079 Y23.299
X7.082 Y23.287
X7.083 Y23.282
Y23.276
Y23.254
Y22.451
Y22.445
Y22.439
X7.082 Y22.434
X7.081 Y22.428
X7.073 Y22.406
X7.064 Y22.382
X7.062 Y22.378
X7.06 Y22.374
X7.058 Y22.37
X7.056 Y22.367
X7.053 Y22.363
X7.05 Y22.36
X7.036 Y22.345
X7.02 Y22.329
X7.016 Y22.325
X7.012 Y22.322
X7.008 Y22.319
X7.004 Y22.317
X7 Y22.314
X6.996 Y22.313
X6.987 Y22.31
X6.971 Y22.304
X6.949 Y22.296
X6.943 Y22.294
X6.937 Y22.293
X6.932
X6.926
X1.119
X1.057 Y22.287
X0.998 Y22.269
X0.943 Y22.239
X0.895 Y22.2
G2 X0.393 Y22.58 I-0.225 J0.225
G1 X1.392 Y24.36
G3 X1.119 Y24.833 I-0.277 J0.155
G1 X1.097
X1.091 Y24.834
X1.086 Y24.835
X1.075 Y24.839
X1.041 Y24.851
X1.035 Y24.853
X1.03 Y24.856
X1.024 Y24.859
X1.021 Y24.861
X1.019 Y24.863
X1.008 Y24.874
X0.985 Y24.896
X0.981 Y24.901
X0.977 Y24.905
X0.973 Y24.911
X0.97 Y24.917
X0.966 Y24.928
X0.954 Y24.961
X0.952 Y24.967
X0.95 Y24.972
X0.949 Y24.978
Y24.984
Y24.995
Y25.809
Y25.815
Y25.82
X0.95 Y25.826
X0.951 Y25.832
X0.955 Y25.843
X0.967 Y25.876
X0.97 Y25.882
X0.972 Y25.887
X0.975 Y25.891
X0.978 Y25.896
X0.981 Y25.9
X0.985 Y25.904
X1.008 Y25.926
X1.019 Y25.937
X1.021 Y25.939
X1.024 Y25.941
X1.03 Y25.944
X1.035 Y25.947
X1.041 Y25.949
X1.075 Y25.961
X1.086 Y25.965
X1.091 Y25.966
X1.097 Y25.967
X1.119
X6.926
X6.932
X6.937
X6.943 Y25.966
X6.949 Y25.964
X6.971 Y25.958
X6.976 Y25.957
X6.982 Y25.955
X6.988 Y25.952
X6.993 Y25.949
X7.015 Y25.935
X7.021 Y25.93
X7.025 Y25.928
X7.028 Y25.925
X7.032 Y25.922
X7.035 Y25.918
X7.041 Y25.911
X7.059 Y25.887
X7.06 Y25.886
X7.061 Y25.884
X7.063 Y25.882
X15.615
X15.626
X15.631
X15.637 Y25.881
X15.726 Y25.87
X15.732 Y25.869
X15.738 Y25.868
X15.743 Y25.866
X15.749 Y25.864
X15.832 Y25.83
X15.84 Y25.826
X15.844 Y25.824
X15.848 Y25.822
X15.852 Y25.82
X15.856 Y25.817
X15.924 Y25.764
X15.934 Y25.756
X15.943 Y25.747
X17.771 Y23.92
X17.772 Y23.918
X17.915 Y23.961
X17.921 Y23.963
X17.926 Y23.964
X17.938 Y23.965
X18.116 Y23.982
X18.122 Y23.983
X18.127
X18.139 Y23.982
X18.317 Y23.964
X18.328 Y23.963
X18.334 Y23.962
X18.34 Y23.96
X18.518 Y23.906
X18.524 Y23.904
X18.529 Y23.901
X18.541 Y23.896
X18.697 Y23.812
X18.703 Y23.809
X18.708 Y23.805
X18.719 Y23.796
X18.853 Y23.686
X18.861 Y23.679
X18.865 Y23.675
X18.869 Y23.671
X18.954 Y23.566
X18.991 Y23.522
X18.995 Y23.516
X18.998 Y23.511
X19.063 Y23.388
X19.087 Y23.343
X19.089 Y23.338
X19.091 Y23.332
X19.145 Y23.154
X19.147 Y23.148
X19.148 Y23.142
X19.151 Y23.12
X19.16 Y23.031
X19.168 Y22.942
Y22.936
Y22.93
X19.151 Y22.763
X19.149 Y22.741
X19.148 Y22.735
X19.146 Y22.73
X19.092 Y22.551
X19.091 Y22.545
X19.088 Y22.54
X19.065 Y22.495
X19.017 Y22.406
X18.993 Y22.361
X18.991 Y22.359
X18.989 Y22.356
X18.984 Y22.35
X18.87 Y22.211
X18.866 Y22.206
X18.862 Y22.201
X18.853 Y22.194
X18.719 Y22.084
X18.708 Y22.075
X18.705 Y22.073
X18.703 Y22.071
X18.697 Y22.068
X18.541 Y21.985
X18.529 Y21.979
X18.524 Y21.976
X18.518 Y21.974
X18.34 Y21.92
X18.334 Y21.918
X18.328 Y21.917
X18.317 Y21.915
X18.139 Y21.898
X18.127 Y21.897
X18.122
X18.116
X17.938 Y21.915
X17.926 Y21.916
X17.921 Y21.917
X17.915 Y21.918
X17.736 Y21.973
X17.73 Y21.975
X17.725 Y21.977
X17.714 Y21.982
X17.551 Y22.069
X17.546 Y22.072
X17.542 Y22.075
X17.532 Y22.083
X17.395 Y22.195
X17.391 Y22.199
X17.386 Y22.203
X17.38 Y22.211
X17.266 Y22.35
X17.259 Y22.358
X17.256 Y22.362
X17.254 Y22.367
X17.164 Y22.534
X17.162 Y22.538
X17.161 Y22.542
X17.156 Y22.558
X17.103 Y22.73
X17.102 Y22.735
X17.101 Y22.741
X17.099 Y22.763
X17.082 Y22.93
Y22.936
Y22.942
X17.09 Y23.031
X17.1 Y23.131
X17.101 Y23.137
X17.102 Y23.142
X17.108 Y23.165
X17.146 Y23.292
Y23.293
X15.442 Y24.997
X15.44 Y24.998
X7.085
X7.083 Y24.996
Y24.985
Y24.98
X7.082 Y24.975
X7.081 Y24.969
X7.079 Y24.964
X7.065 Y24.924
X7.063 Y24.919
X7.06 Y24.914
X7.058 Y24.91
X7.055 Y24.905
X7.053 Y24.903
X7.051 Y24.9
X7.045 Y24.895
X7.035 Y24.884
X7.013 Y24.863
X7.008 Y24.859
X7.002 Y24.856
X6.997 Y24.853
X6.992 Y24.851
X6.971 Y24.844
X6.949 Y24.836
X6.943 Y24.834
X6.937 Y24.833
X6.932
X6.926
X1.119
G3 X0.802 Y24.511 I0 J-0.318
G1 Z5
X9.329 Y19.672
Z2.035
Z0
G3 X9.77 Y19.786 I0.165 J0.271
G1 X9.773 Y19.792
X9.776 Y19.797
X9.794 Y19.817
X9.905 Y19.945
X9.909 Y19.948
X9.912 Y19.952
X9.919 Y19.957
X10.071 Y20.073
X10.076 Y20.077
X10.081 Y20.08
X10.254 Y20.165
X10.26 Y20.167
X10.265 Y20.169
X10.277 Y20.172
X10.455 Y20.219
X10.461 Y20.22
X10.466 Y20.221
X10.478 Y20.222
X10.656 Y20.232
X10.667
X10.679
X10.757 Y20.225
X10.762 Y20.224
X10.768 Y20.223
X10.953 Y20.179
X10.962 Y20.177
X10.966 Y20.176
X10.97 Y20.174
X10.991 Y20.165
X11.141 Y20.096
X11.151 Y20.091
X11.156 Y20.088
X11.161 Y20.085
X11.315 Y19.971
X11.32 Y19.968
X11.324 Y19.964
X11.334 Y19.954
X11.458 Y19.817
X11.463 Y19.812
X11.465 Y19.809
X11.467 Y19.806
X11.474 Y19.795
X11.566 Y19.639
X11.569 Y19.633
X11.572 Y19.627
X11.576 Y19.616
X11.638 Y19.438
X11.64 Y19.432
X11.641 Y19.427
X11.642 Y19.415
X11.666 Y19.237
X11.668 Y19.226
Y19.22
X11.667 Y19.215
X11.66 Y19.103
X11.653 Y19.014
X11.652 Y19.008
X11.65 Y19.003
X11.604 Y18.835
X11.598 Y18.813
X11.595 Y18.807
X11.592 Y18.802
X11.507 Y18.634
X11.504 Y18.629
X11.501 Y18.623
X11.492 Y18.612
X11.377 Y18.468
X11.372 Y18.462
X11.37 Y18.46
X11.367 Y18.457
X11.349 Y18.442
X11.259 Y18.367
X11.215 Y18.33
X11.212 Y18.328
X11.209 Y18.326
X11.204 Y18.322
X11.069 Y18.25
X11.067 Y18.249
Y14.999
X11.068 Y14.998
X17.664 Y8.402
X17.665 Y8.401
X17.792 Y8.412
X17.798
X17.804
X17.826 Y8.409
X17.96 Y8.391
X17.971 Y8.389
X17.977 Y8.387
X17.982 Y8.386
X18.127 Y8.331
X18.133 Y8.329
X18.139 Y8.327
X18.178 Y8.301
X18.275 Y8.238
X18.28 Y8.235
X18.285 Y8.231
X18.303 Y8.212
X18.399 Y8.114
X18.403 Y8.11
X18.407 Y8.105
X18.451 Y8.034
X18.496 Y7.96
X18.498 Y7.956
X18.499 Y7.952
X18.502 Y7.944
X18.548 Y7.81
X18.552 Y7.799
X18.553 Y7.794
X18.555 Y7.788
X18.557 Y7.766
X18.572 Y7.632
X18.573 Y7.621
Y7.615
X18.572 Y7.61
X18.555 Y7.453
X18.554 Y7.448
X18.553 Y7.442
X18.549 Y7.431
X18.5 Y7.289
X18.498 Y7.284
X18.496 Y7.279
X18.466 Y7.23
X18.411 Y7.141
X18.407 Y7.134
X18.403 Y7.129
X18.398 Y7.124
X18.295 Y7.018
X18.284 Y7.007
X18.281 Y7.005
X18.278 Y7.003
X18.273 Y6.999
X18.216 Y6.962
X18.139 Y6.913
X18.133 Y6.91
X18.127 Y6.908
X17.997 Y6.859
X17.979 Y6.852
X17.974 Y6.851
X17.969 Y6.85
X17.96 Y6.848
X17.804 Y6.828
X17.792 Y6.827
X17.787
X17.781
X17.614 Y6.845
X17.608 Y6.846
X17.603 Y6.847
X17.528 Y6.873
X17.446 Y6.902
X17.435 Y6.906
X17.429 Y6.909
X17.424 Y6.912
X17.29 Y6.999
X17.279 Y7.006
X17.276 Y7.008
X17.273 Y7.011
X17.268 Y7.016
X17.156 Y7.133
X17.152 Y7.137
X17.148 Y7.141
X17.146 Y7.144
X17.145 Y7.146
X17.141 Y7.152
X17.066 Y7.279
X17.055 Y7.299
X17.053 Y7.304
X17.051 Y7.309
X17.007 Y7.453
X17.001 Y7.476
X17 Y7.481
X16.999 Y7.487
X16.989 Y7.654
Y7.66
Y7.665
X16.991 Y7.677
X17.012 Y7.802
X17.011 Y7.804
X10.353 Y14.461
X10.31 Y14.504
X10.277 Y14.548
X10.249 Y14.584
X10.245 Y14.589
X10.241 Y14.595
X10.239 Y14.6
X10.236 Y14.606
X10.204 Y14.684
X10.199 Y14.695
X10.198 Y14.701
X10.196 Y14.706
X10.193 Y14.729
X10.184 Y14.797
X10.183 Y14.807
Y14.813
Y14.818
Y18.248
X10.181 Y18.25
X10.049 Y18.321
X10.044 Y18.324
X10.039 Y18.327
X10.029 Y18.336
X9.892 Y18.449
X9.885 Y18.455
X9.88 Y18.459
X9.877 Y18.464
X9.757 Y18.613
X9.753 Y18.617
X9.75 Y18.622
X9.741 Y18.64
X9.667 Y18.782
X9.657 Y18.801
X9.655 Y18.805
X9.654 Y18.81
X9.651 Y18.819
X9.602 Y18.991
X9.599 Y19.003
X9.598 Y19.008
X9.597 Y19.014
X9.582 Y19.203
Y19.209
Y19.215
X9.585 Y19.237
X9.601 Y19.371
X9.606 Y19.415
X9.608 Y19.421
X9.61 Y19.427
X9.669 Y19.606
X9.671 Y19.612
X9.673 Y19.617
X9.685 Y19.639
X9.77 Y19.786
G3 X9.643 Y20.224 I-0.276 J0.157
G1 Z5
X10.649 Y19.537
Z2.035
Z0
G3 X10.174 Y19.493 I-0.218 J-0.231
G1 X10.146 Y19.454
X10.145 Y19.453
X10.095 Y19.327
Y19.325
X10.078 Y19.191
Y19.189
X10.095 Y19.055
Y19.054
X10.145 Y18.927
X10.146 Y18.926
X10.225 Y18.817
X10.226 Y18.815
X10.331 Y18.729
X10.333 Y18.728
X10.455 Y18.67
X10.457 Y18.669
X10.589 Y18.644
X10.591
X10.728 Y18.653
X10.732 Y18.654
X10.857 Y18.695
X10.859
X10.973 Y18.768
X10.975 Y18.769
X11.067 Y18.867
X11.068 Y18.869
X11.133 Y18.987
X11.134 Y18.989
X11.168 Y19.121
Y19.123
Y19.258
Y19.259
X11.134 Y19.39
Y19.392
X11.068 Y19.511
X11.066 Y19.513
X10.974 Y19.611
X10.973 Y19.612
X10.859 Y19.685
X10.857
X10.729 Y19.727
X10.727
X10.591 Y19.736
X10.589
X10.457 Y19.711
X10.455 Y19.71
X10.333 Y19.652
X10.331
X10.227 Y19.565
X10.225 Y19.563
X10.174 Y19.493
X10.157 Y19.464
X10.149 Y19.454
X10.147 Y19.45
X10.141 Y19.434
X10.125 Y19.394
X10.109 Y19.354
X10.099 Y19.326 Z-0.001
X10.098 Y19.322
X10.094 Y19.289
X10.088 Y19.246
X10.082 Y19.191
Y19.186 Z-0.002
X10.084 Y19.17
X10.089 Y19.137
X10.094 Y19.094 Z-0.003
X10.099 Y19.057
X10.101 Y19.053
X10.11 Y19.029
X10.126 Y18.989 Z-0.004
X10.15 Y18.93 Z-0.005
X10.153 Y18.927
X10.158 Y18.92
X10.177 Y18.893 Z-0.006
X10.203 Y18.858
X10.23 Y18.822 Z-0.007
X10.233 Y18.819
X10.246 Y18.809 Z-0.008
X10.28 Y18.781 Z-0.009
X10.336 Y18.736 Z-0.01
X10.339 Y18.734
X10.369 Y18.721 Z-0.011
X10.408 Y18.703 Z-0.012
X10.459 Y18.68 Z-0.013
X10.463 Y18.679
X10.479 Y18.676 Z-0.014
X10.511 Y18.671 Z-0.015
X10.59 Y18.657 Z-0.017
X10.594
X10.618 Y18.659
X10.661 Y18.662 Z-0.019
X10.724 Y18.667 Z-0.02
X10.728 Y18.668 Z-0.021
X10.736 Y18.671
X10.766 Y18.681 Z-0.022
X10.848 Y18.71 Z-0.024
X10.852 Y18.711 Z-0.025
X10.865 Y18.72
X10.901 Y18.744 Z-0.026
X10.96 Y18.783 Z-0.029
X10.963 Y18.786
X10.984 Y18.809 Z-0.03
X11.028 Y18.858 Z-0.032
X11.048 Y18.88 Z-0.033
X11.05 Y18.883
X11.059 Y18.9 Z-0.034
X11.094 Y18.965 Z-0.037
X11.11 Y18.996 Z-0.038
X11.111 Y19
X11.116 Y19.022 Z-0.039
X11.14 Y19.121 Z-0.042
Y19.125
Y19.137 Z-0.043
X11.138 Y19.252 Z-0.047
Y19.255
X11.122 Y19.312 Z-0.049
X11.103 Y19.379 Z-0.051
X11.102 Y19.382 Z-0.052
X11.04 Y19.489 Z-0.056
X11.038 Y19.492
X11.025 Y19.505 Z-0.057
X10.951 Y19.581 Z-0.06
X10.948 Y19.583
X10.929 Y19.594 Z-0.061
X10.843 Y19.647 Z-0.065
X10.84 Y19.649
X10.83 Y19.652
X10.72 Y19.685 Z-0.069
X10.716
X10.705 Y19.686 Z-0.07
X10.594 Y19.69 Z-0.074
X10.591
X10.521 Y19.675 Z-0.076
X10.472 Y19.665 Z-0.078
X10.468 Y19.663
X10.428 Y19.643 Z-0.08
X10.361 Y19.61 Z-0.082
X10.358 Y19.608
X10.342 Y19.595 Z-0.083
X10.267 Y19.529 Z-0.087
X10.264 Y19.527
X10.243 Y19.496 Z-0.088
X10.195 Y19.427 Z-0.091
X10.194 Y19.424
X10.19 Y19.415
X10.152 Y19.312 Z-0.095
X10.151 Y19.309
X10.144 Y19.239 Z-0.098
X10.139 Y19.193 Z-0.099
Y19.19
X10.145 Y19.144 Z-0.101
X10.156 Y19.072 Z-0.104
X10.157 Y19.069
X10.164 Y19.051
X10.203 Y18.959 Z-0.108
X10.204 Y18.956
X10.226 Y18.928 Z-0.109
X10.275 Y18.863 Z-0.112
X10.277 Y18.861
X10.285 Y18.855
X10.369 Y18.788 Z-0.116
X10.372 Y18.786
X10.395 Y18.776 Z-0.117
X10.477 Y18.74 Z-0.12
X10.48 Y18.739
X10.593 Y18.72 Z-0.124
X10.596 Y18.719 Z-0.125
X10.614 Y18.721
X10.712 Y18.729 Z-0.129
X10.715 Y18.73
X10.788 Y18.755 Z-0.131
X10.822 Y18.767 Z-0.133
X10.824 Y18.768
X10.832 Y18.773
X10.868 Y18.797 Z-0.135
X10.919 Y18.83 Z-0.137
X10.921 Y18.832
X10.923 Y18.834
X10.939 Y18.852 Z-0.138
X10.968 Y18.884 Z-0.139
X10.999 Y18.918 Z-0.141
X11 Y18.921
X11.019 Y18.957 Z-0.142
X11.04 Y18.995 Z-0.143
X11.053 Y19.021 Z-0.144
X11.057 Y19.037 Z-0.145
X11.067 Y19.08 Z-0.146
X11.079 Y19.13 Z-0.148
X11.08 Y19.133
X11.079 Y19.167 Z-0.149
X11.078 Y19.21 Z-0.15
Y19.247 Z-0.151
X11.077 Y19.25
X11.076 Y19.255
X11.064 Y19.297 Z-0.152
X11.049 Y19.355 Z-0.154
X11.048 Y19.358
X11.035 Y19.379
X11.014 Y19.417 Z-0.155
X10.993 Y19.455 Z-0.156
X10.991 Y19.457
X10.978 Y19.471 Z-0.157
X10.962 Y19.487
X10.913 Y19.538 Z-0.158
X10.911 Y19.54 Z-0.159
X10.899 Y19.547
X10.863 Y19.57 Z-0.16
X10.819 Y19.597
X10.816 Y19.598
X10.785 Y19.608 Z-0.161
X10.723 Y19.628 Z-0.162
X10.71 Y19.632
X10.707
X10.702
X10.659 Y19.635 Z-0.163
X10.599 Y19.638
X10.597
X10.573 Y19.634 Z-0.164
X10.53 Y19.625
X10.488 Y19.617
X10.485 Y19.616
X10.468 Y19.608
X10.449 Y19.599
X10.41 Y19.58 Z-0.165
X10.385 Y19.569
X10.383 Y19.567
X10.373 Y19.558
X10.339 Y19.531
X10.3 Y19.498
X10.298 Y19.497
X10.297 Y19.495
X10.253 Y19.435
X10.233 Y19.407
X10.232 Y19.406
X10.191 Y19.302
Y19.301
X10.177 Y19.191
Y19.19
X10.187 Y19.107
X10.191 Y19.079
Y19.078
X10.232 Y18.975
X10.233 Y18.973
X10.298 Y18.884
X10.299 Y18.882
X10.384 Y18.812
X10.385 Y18.811
X10.486 Y18.764
X10.487
X10.597 Y18.743
X10.598
X10.707 Y18.75
X10.709
X10.815 Y18.784
X10.817 Y18.785
X10.91 Y18.844
X10.912 Y18.846
X10.986 Y18.924
X10.988 Y18.927
X11.042 Y19.025
Y19.026
X11.07 Y19.134
Y19.135
Y19.245
Y19.247
X11.042 Y19.354
X11.041 Y19.355
X10.988 Y19.453
X10.986 Y19.455
X10.911 Y19.535
X10.91 Y19.536
X10.817 Y19.595
X10.815 Y19.596
X10.709 Y19.63
X10.708
X10.598 Y19.637
X10.596
X10.487 Y19.616
X10.486
X10.385 Y19.569
X10.384 Y19.568
X10.299 Y19.497
X10.298
G3 X10.35 Y19.049 I0.248 J-0.198
G1 Z5
X12.429 Y20.327
Z2.035
Z0
X12.405 Y20.308
X12.389 Y20.281
X12.386 Y20.25
X12.394 Y20.22
X12.421 Y20.168
X12.439 Y20.132
X12.44 Y20.13
X12.51 Y20.06
X12.512 Y20.059
X12.599 Y20.014
X12.601
X12.7 Y19.998
X12.701
X12.799 Y20.014
X12.8
X12.888 Y20.059
X12.89 Y20.06
X12.96 Y20.13
X12.961 Y20.132
X13.006 Y20.22
Y20.222
X13.022 Y20.319
Y20.321
X13.006 Y20.418
Y20.42
X12.961 Y20.508
X12.959 Y20.511
X12.89 Y20.58
X12.887 Y20.581
X12.8 Y20.626
X12.798
X12.701 Y20.642
X12.7
X12.601 Y20.626
X12.599
X12.513 Y20.581
X12.51 Y20.58
X12.441 Y20.511
X12.44 Y20.509
X12.394 Y20.42
Y20.418
X12.378 Y20.321
Y20.319
X12.394 Y20.222
Y20.22
X12.41 Y20.196
X12.423 Y20.171
X12.441 Y20.135
X12.444 Y20.131
X12.463 Y20.112
X12.493 Y20.082
X12.512 Y20.063 Z-0.001
X12.516 Y20.061
X12.52 Y20.059
X12.552 Y20.042
X12.6 Y20.018
X12.605 Y20.017
X12.618 Y20.015
X12.66 Y20.009 Z-0.002
X12.7 Y20.002
X12.713 Y20.005
X12.731 Y20.008 Z-0.003
X12.79 Y20.017
X12.795 Y20.018
X12.799 Y20.019 Z-0.004
X12.807 Y20.023
X12.839 Y20.04
X12.882 Y20.063 Z-0.005
X12.886 Y20.065
X12.899 Y20.078
X12.947 Y20.127 Z-0.006
X12.953 Y20.133 Z-0.007
X12.956 Y20.137
X12.97 Y20.165
X12.998 Y20.222 Z-0.009
X12.999 Y20.227
X13 Y20.235
X13.005 Y20.27 Z-0.01
X13.012 Y20.318 Z-0.011
Y20.322
X13.009 Y20.34
X12.996 Y20.416 Z-0.013
X12.994 Y20.42
X12.98 Y20.447 Z-0.014
X12.952 Y20.5 Z-0.015
X12.95 Y20.503
X12.94 Y20.512 Z-0.016
X12.915 Y20.537 Z-0.017
X12.881 Y20.569 Z-0.018
X12.877 Y20.571
X12.862 Y20.579 Z-0.019
X12.797 Y20.611 Z-0.021
X12.793 Y20.612
X12.759 Y20.617 Z-0.022
X12.7 Y20.625 Z-0.024
X12.696 Y20.624
X12.683 Y20.622
X12.65 Y20.616 Z-0.025
X12.609 Y20.609 Z-0.026
X12.605 Y20.608 Z-0.027
X12.586 Y20.598
X12.527 Y20.566 Z-0.03
X12.523 Y20.564
X12.52 Y20.561
X12.497 Y20.537 Z-0.031
X12.459 Y20.498 Z-0.033
X12.457 Y20.494
X12.449 Y20.479 Z-0.034
X12.435 Y20.449 Z-0.035
X12.417 Y20.413 Z-0.036
X12.416 Y20.408
X12.413 Y20.388 Z-0.037
X12.405 Y20.326 Z-0.039
X12.404 Y20.322
Y20.318
X12.405 Y20.314 Z-0.04
X12.42 Y20.232 Z-0.042
X12.421 Y20.228 Z-0.043
X12.43 Y20.211
X12.445 Y20.182 Z-0.044
X12.462 Y20.151 Z-0.046
X12.465 Y20.147
X12.482 Y20.131 Z-0.047
X12.527 Y20.088 Z-0.049
X12.53 Y20.085
X12.537 Y20.081
X12.608 Y20.047 Z-0.052
X12.611 Y20.046
X12.623 Y20.044
X12.695 Y20.034 Z-0.055
X12.699 Y20.033
X12.703 Y20.034
X12.726 Y20.038 Z-0.056
X12.787 Y20.049 Z-0.058
X12.79 Y20.05
X12.797 Y20.054 Z-0.059
X12.865 Y20.09 Z-0.061
X12.868 Y20.092
X12.876 Y20.101 Z-0.062
X12.926 Y20.153 Z-0.064
X12.928 Y20.156
X12.94 Y20.18 Z-0.065
X12.965 Y20.231 Z-0.067
X12.966 Y20.235
X12.968 Y20.246 Z-0.068
X12.978 Y20.32 Z-0.07
X12.977 Y20.323 Z-0.071
X12.975 Y20.334
X12.963 Y20.401 Z-0.073
Y20.405
X12.961 Y20.408 Z-0.074
X12.949 Y20.431
X12.922 Y20.481 Z-0.076
X12.911 Y20.491 Z-0.077
X12.862 Y20.539 Z-0.079
X12.859 Y20.541
X12.846 Y20.547 Z-0.08
X12.785 Y20.577 Z-0.082
X12.782 Y20.578
X12.753 Y20.582 Z-0.083
X12.701 Y20.589 Z-0.085
X12.697
X12.618 Y20.574 Z-0.088
X12.614 Y20.573
X12.602 Y20.566 Z-0.089
X12.546 Y20.536 Z-0.091
X12.543 Y20.535
X12.522 Y20.512 Z-0.092
X12.488 Y20.477 Z-0.094
X12.486 Y20.474
X12.478 Y20.458 Z-0.095
X12.451 Y20.403 Z-0.097
X12.45 Y20.4
X12.448 Y20.383
X12.439 Y20.321 Z-0.1
X12.44 Y20.317
X12.445 Y20.287 Z-0.101
X12.453 Y20.242 Z-0.102
X12.454 Y20.239
X12.476 Y20.198 Z-0.104
X12.492 Y20.169 Z-0.105
X12.506 Y20.155 Z-0.106
X12.548 Y20.114 Z-0.108
X12.551 Y20.112
X12.581 Y20.098 Z-0.109
X12.619 Y20.08 Z-0.111
X12.622 Y20.078
X12.628 Y20.077
X12.699 Y20.068 Z-0.113
X12.702 Z-0.114
X12.721 Y20.071
X12.775 Y20.081 Z-0.116
X12.778 Y20.082
X12.809 Y20.098 Z-0.117
X12.845 Y20.118 Z-0.119
X12.848 Y20.12
X12.852 Y20.124
X12.899 Y20.173 Z-0.122
X12.901 Y20.175
X12.91 Y20.195
X12.933 Y20.241 Z-0.124
X12.934 Y20.244
X12.939 Y20.281 Z-0.126
X12.944 Y20.317 Z-0.127
X12.945 Y20.32
X12.943 Y20.329
X12.931 Y20.395 Z-0.13
X12.93 Y20.398
X12.92 Y20.416
X12.896 Y20.462 Z-0.132
X12.894 Y20.464
X12.842 Y20.513 Z-0.135
X12.839 Y20.515
X12.775 Y20.546 Z-0.137
X12.772 Y20.547 Z-0.138
X12.748 Y20.55
X12.701 Y20.557 Z-0.14
X12.698
X12.629 Y20.545 Z-0.142
X12.627 Y20.544
X12.616 Y20.538 Z-0.143
X12.579 Y20.518 Z-0.144
X12.564 Y20.51 Z-0.145
X12.561 Y20.509
X12.544 Y20.49 Z-0.146
X12.512 Y20.458 Z-0.147
X12.511 Y20.455
X12.493 Y20.42 Z-0.148
X12.48 Y20.392 Z-0.149
X12.479 Y20.389
X12.478 Y20.378
X12.472 Y20.336 Z-0.151
X12.47 Y20.322
X12.469 Y20.319
X12.474 Y20.292 Z-0.152
X12.481 Y20.25 Z-0.153
X12.482 Y20.248
X12.491 Y20.231
X12.513 Y20.189 Z-0.155
X12.515 Y20.187
X12.516 Y20.184
X12.526 Y20.175
X12.564 Y20.138 Z-0.156
X12.566 Y20.136
X12.613 Y20.113 Z-0.157
X12.63 Y20.104 Z-0.158
X12.632
X12.698 Y20.094 Z-0.159
X12.701
X12.717 Y20.097
X12.769 Y20.106 Z-0.16
X12.772 Y20.107
X12.798 Y20.12 Z-0.161
X12.831 Y20.138
X12.833 Y20.139
X12.835 Y20.141
X12.88 Y20.187 Z-0.162
X12.881 Y20.189
X12.89 Y20.205 Z-0.163
X12.912 Y20.25
X12.913 Y20.253
X12.918 Y20.284
X12.923 Y20.318 Z-0.164
Y20.321
X12.922 Y20.326
X12.912 Y20.386
Y20.389
X12.911 Y20.391
X12.902 Y20.407
X12.881 Y20.45 Z-0.165
X12.879 Y20.452
X12.87 Y20.461
X12.855 Y20.476
X12.833 Y20.498
X12.831 Y20.5
X12.823 Y20.504
X12.773 Y20.529
X12.77 Y20.531
X12.767 Y20.532
X12.76 Y20.533
X12.7 Y20.542
X12.699
X12.632 Y20.532
X12.631 Y20.531
X12.569 Y20.5
X12.568 Y20.499
X12.521 Y20.452
X12.52 Y20.451
X12.489 Y20.39
X12.488 Y20.387
X12.478 Y20.321
Y20.319
X12.488 Y20.251
X12.489 Y20.25
X12.51 Y20.209
X12.52 Y20.189
X12.522 Y20.187
X12.567 Y20.142
X12.569 Y20.14
X12.63 Y20.109
X12.632 Y20.108
X12.7 Y20.098
X12.701
X12.768 Y20.108
X12.77 Y20.109
X12.83 Y20.139
X12.831 Y20.14
X12.88 Y20.189
X12.881 Y20.19
X12.911 Y20.25
X12.912 Y20.251
X12.922 Y20.319
Y20.321
X12.912 Y20.388
X12.911 Y20.389
X12.88 Y20.45
X12.879 Y20.451
X12.831 Y20.5
X12.83
X12.769 Y20.531
X12.768 Y20.532
X12.76 Y20.533
G3 X12.52 Y20.357 I-0.033 J-0.207
G1 Z5
X17.738 Y20.601
Z2.035
Z0
G3 X17.458 Y20.321 I-0.002 J-0.278
G1 Y20.319
X17.474 Y20.222
Y20.22
X17.513 Y20.143
X17.519 Y20.132
X17.52 Y20.131
X17.589 Y20.062
X17.591 Y20.06
X17.679 Y20.015
X17.681 Y20.014
X17.78 Y19.998
X17.781
X17.879 Y20.014
X17.88
X17.969 Y20.059
X17.971 Y20.061
X18.04 Y20.13
X18.041 Y20.132
X18.086 Y20.22
Y20.222
X18.102 Y20.319
Y20.321
X18.086 Y20.418
Y20.42
X18.04 Y20.509
X18.038 Y20.512
X17.971 Y20.579
X17.969 Y20.58
X17.88 Y20.626
X17.878
X17.781 Y20.642
X17.78
X17.681 Y20.626
X17.679 Y20.625
X17.591 Y20.581
X17.589 Y20.579
X17.52 Y20.51
X17.519 Y20.507
X17.474 Y20.42
Y20.418
X17.458 Y20.321
X17.462 Y20.317
X17.465 Y20.292
X17.47 Y20.264
X17.476 Y20.224
X17.478 Y20.22
X17.49 Y20.196
X17.509 Y20.158
X17.522 Y20.134 Z-0.001
X17.525 Y20.13
X17.528 Y20.127
X17.553 Y20.102
X17.587 Y20.068
X17.593 Y20.063
X17.597 Y20.061
X17.623 Y20.048 Z-0.002
X17.645 Y20.036
X17.681 Y20.018
X17.686 Y20.017
X17.713 Y20.013 Z-0.003
X17.772 Y20.004
X17.776
X17.781 Y20.003 Z-0.004
X17.79 Y20.005
X17.825 Y20.011
X17.873 Y20.019 Z-0.005
X17.878 Y20.02
X17.894 Y20.028
X17.955 Y20.06 Z-0.006
X17.963 Y20.064 Z-0.007
X17.966 Y20.066
X17.988 Y20.089
X18.033 Y20.135 Z-0.009
X18.035 Y20.138
X18.039 Y20.146
X18.055 Y20.178 Z-0.01
X18.076 Y20.221 Z-0.011
X18.078 Y20.225
X18.08 Y20.243
X18.091 Y20.319 Z-0.013
Y20.324
X18.086 Y20.354 Z-0.014
X18.075 Y20.413 Z-0.015
X18.074 Y20.417
X18.068 Y20.428 Z-0.016
X18.052 Y20.459 Z-0.017
X18.03 Y20.501 Z-0.018
X18.027 Y20.504
X18.014 Y20.516 Z-0.019
X17.962 Y20.566 Z-0.021
X17.959 Y20.569
X17.928 Y20.584 Z-0.022
X17.875 Y20.61 Z-0.024
X17.871 Y20.611
X17.858 Y20.612
X17.825 Y20.617 Z-0.025
X17.783 Y20.623 Z-0.026
X17.779 Z-0.027
X17.758 Y20.619
X17.692 Y20.608 Z-0.03
X17.687 Y20.607
X17.684 Y20.605
X17.654 Y20.589 Z-0.031
X17.606 Y20.564 Z-0.033
X17.603 Y20.561
X17.591 Y20.549 Z-0.034
X17.568 Y20.525 Z-0.035
X17.54 Y20.496 Z-0.036
X17.538 Y20.492
X17.529 Y20.474 Z-0.037
X17.501 Y20.417 Z-0.039
X17.5 Y20.414
X17.498 Y20.41
Y20.406 Z-0.04
X17.486 Y20.324 Z-0.042
Y20.32 Z-0.043
X17.49 Y20.3
X17.495 Y20.268 Z-0.044
X17.502 Y20.233 Z-0.046
X17.503 Y20.229
X17.514 Y20.208 Z-0.047
X17.543 Y20.153 Z-0.049
X17.545 Y20.149
X17.548 Y20.147
X17.551 Y20.144
X17.61 Y20.087 Z-0.052
X17.613 Y20.086
X17.637 Y20.074 Z-0.053
X17.659 Y20.063 Z-0.054
X17.69 Y20.048 Z-0.055
X17.694 Y20.047
X17.717 Y20.044 Z-0.056
X17.778 Y20.035 Z-0.058
X17.782 Y20.036
X17.79 Y20.037 Z-0.059
X17.865 Y20.05 Z-0.061
X17.869 Y20.051
X17.879 Y20.057 Z-0.062
X17.943 Y20.091 Z-0.064
X17.946 Y20.093
X17.964 Y20.112 Z-0.065
X18.004 Y20.154 Z-0.067
X18.006 Y20.156
X18.011 Y20.167 Z-0.068
X18.044 Y20.234 Z-0.07
X18.045 Y20.237 Z-0.071
X18.046 Y20.248
X18.055 Y20.316 Z-0.073
X18.056 Y20.319
X18.055 Y20.323 Z-0.074
X18.051 Y20.348
X18.041 Y20.404 Z-0.076
X18.039 Y20.408 Z-0.077
X18.02 Y20.443 Z-0.078
X18.002 Y20.478 Z-0.079
X18 Y20.481
X17.989 Y20.491 Z-0.08
X17.941 Y20.538 Z-0.082
X17.938 Y20.54
X17.912 Y20.552 Z-0.083
X17.865 Y20.575 Z-0.085
X17.861 Y20.576
X17.819 Y20.582 Z-0.087
X17.781 Y20.587 Z-0.088
X17.777
X17.763 Y20.584 Z-0.089
X17.701 Y20.573 Z-0.091
X17.698
X17.695 Y20.571
X17.67 Y20.558 Z-0.092
X17.627 Y20.535 Z-0.094
X17.624 Y20.533
X17.612 Y20.52 Z-0.095
X17.569 Y20.476 Z-0.097
X17.567 Y20.473
X17.56 Y20.458
X17.533 Y20.402 Z-0.1
X17.532 Y20.398
X17.528 Y20.368 Z-0.101
X17.521 Y20.323 Z-0.102
Y20.32
X17.525 Y20.3 Z-0.103
X17.535 Y20.241 Z-0.105
X17.537 Y20.238
X17.544 Y20.223 Z-0.106
X17.572 Y20.171 Z-0.108
X17.574 Y20.169
X17.598 Y20.146 Z-0.109
X17.629 Y20.116 Z-0.111
X17.631 Y20.114
X17.634 Y20.113
X17.7 Y20.081 Z-0.113
X17.704 Y20.08 Z-0.114
X17.723 Y20.077
X17.777 Y20.069 Z-0.116
X17.78
X17.79 Y20.071 Z-0.117
X17.855 Y20.083 Z-0.119
X17.858
X17.864 Y20.086
X17.923 Y20.118 Z-0.122
X17.926 Y20.12
X17.941 Y20.136
X17.979 Y20.175 Z-0.124
X17.98 Y20.178
X17.995 Y20.208 Z-0.126
X18.013 Y20.244 Z-0.127
Y20.247
X18.014 Y20.253
X18.023 Y20.319 Z-0.13
Y20.322
X18.019 Y20.343
X18.01 Y20.394 Z-0.132
X18.009 Y20.397
X17.975 Y20.46 Z-0.135
X17.973 Y20.462
X17.921 Y20.512 Z-0.137
X17.919 Y20.514 Z-0.138
X17.898 Y20.524
X17.854 Y20.545 Z-0.14
X17.852 Y20.546
X17.783 Y20.555 Z-0.142
X17.78 Y20.556
X17.768 Y20.554 Z-0.143
X17.727 Y20.546 Z-0.144
X17.71 Y20.543 Z-0.145
X17.707
X17.684 Y20.53 Z-0.146
X17.644 Y20.509 Z-0.147
X17.642 Y20.508
X17.614 Y20.479 Z-0.148
X17.593 Y20.457 Z-0.149
X17.592 Y20.454
X17.587 Y20.444
X17.568 Y20.406 Z-0.151
X17.562 Y20.394
X17.561 Y20.391
X17.557 Y20.364 Z-0.152
X17.551 Y20.322 Z-0.153
Y20.319
X17.558 Y20.278 Z-0.154
X17.562 Y20.251 Z-0.155
X17.563 Y20.248
X17.57 Y20.236
X17.596 Y20.187 Z-0.156
X17.598 Y20.185
X17.617 Y20.166 Z-0.157
X17.646 Y20.137 Z-0.158
X17.648 Y20.136
X17.667 Y20.126
X17.708 Y20.106 Z-0.159
X17.711 Y20.105
X17.727 Y20.103
X17.779 Y20.095 Z-0.16
X17.782
X17.811 Y20.1 Z-0.161
X17.848 Y20.106
X17.85 Y20.107
X17.853 Y20.108
X17.912 Y20.139 Z-0.162
X17.913 Y20.141
X17.925 Y20.152 Z-0.163
X17.96 Y20.188
X17.962 Y20.19
X17.976 Y20.218
X17.991 Y20.249 Z-0.164
X17.992 Y20.251
X17.993 Y20.257
X18.002 Y20.317
X18.003 Y20.319
Y20.322
X18 Y20.34
X17.992 Y20.387 Z-0.165
X17.991 Y20.39
X17.985 Y20.401
X17.976 Y20.42
X17.96 Y20.451
X17.958 Y20.453
X17.955 Y20.456
X17.915 Y20.496
X17.912 Y20.498
X17.91 Y20.501
X17.903 Y20.504
X17.849 Y20.531
X17.847 Y20.532
X17.781 Y20.542
X17.779
X17.713 Y20.532
X17.711 Y20.531
X17.65 Y20.5
X17.649 Y20.499
X17.601 Y20.452
X17.6 Y20.45
X17.569 Y20.389
X17.568 Y20.388
X17.558 Y20.321
Y20.319
X17.568 Y20.251
X17.57 Y20.249
X17.599 Y20.192
X17.6 Y20.189
X17.649 Y20.141
X17.651 Y20.139
X17.71 Y20.109
X17.711 Y20.108
X17.78 Y20.098
X17.781
X17.848 Y20.108
X17.85 Y20.109
X17.91 Y20.14
X17.912 Y20.142
X17.96 Y20.189
X17.961 Y20.191
X17.991 Y20.25
X17.992 Y20.252
X18.002 Y20.319
Y20.321
X17.992 Y20.388
X17.991 Y20.389
X17.961 Y20.449
X17.96 Y20.451
X17.911 Y20.5
X17.91 Y20.501
X17.903 Y20.504
G3 X17.621 Y20.41 I-0.095 J-0.187
G1 Z5
X17.965 Y22.51
Z2.035
Z0
X17.972 Y22.473
X17.99 Y22.439
X18.018 Y22.413
X18.053 Y22.398
X18.091 Y22.394
X18.227 Y22.402
X18.228 Y22.403
X18.358 Y22.445
X18.359 Y22.446
X18.472 Y22.517
X18.474 Y22.519
X18.567 Y22.617
X18.568 Y22.62
X18.633 Y22.738
X18.634 Y22.739
X18.668 Y22.87
Y22.872
Y23.009
X18.667 Y23.01
X18.634 Y23.141
X18.633 Y23.142
X18.569 Y23.26
X18.567 Y23.262
X18.474 Y23.361
X18.472 Y23.363
X18.359 Y23.434
X18.358 Y23.435
X18.228 Y23.477
X18.227 Y23.478
X18.091 Y23.486
X18.09
X17.957 Y23.461
X17.956 Y23.46
X17.832 Y23.402
X17.83 Y23.401
X17.727 Y23.316
X17.725 Y23.313
X17.646 Y23.204
X17.645 Y23.202
X17.595 Y23.077
Y23.075
X17.578 Y22.94
Y22.939
X17.595 Y22.804
X17.603 Y22.785
X17.645 Y22.677
X17.646 Y22.675
X17.725 Y22.566
X17.727 Y22.565
X17.832 Y22.478
X17.833 Y22.477
X17.956 Y22.42
X17.957 Y22.419
X18.09 Y22.394
X18.091
X18.119 Y22.399
X18.146 Y22.4
X18.189 Y22.403
X18.227 Y22.406
X18.231 Y22.407
X18.255 Y22.415
X18.296 Y22.428 Z-0.001
X18.337 Y22.442
X18.353 Y22.447
X18.357 Y22.448
X18.368 Y22.455
X18.396 Y22.473
X18.432 Y22.497 Z-0.002
X18.471 Y22.522
X18.474 Y22.525
X18.485 Y22.537 Z-0.003
X18.514 Y22.569
X18.555 Y22.613 Z-0.004
X18.561 Y22.619
X18.563 Y22.622
X18.565 Y22.625
X18.581 Y22.655 Z-0.005
X18.602 Y22.693
X18.614 Y22.716 Z-0.006
X18.626 Y22.739
X18.628 Y22.742
X18.634 Y22.766 Z-0.007
X18.641 Y22.794
X18.651 Y22.836 Z-0.008
X18.66 Y22.872 Z-0.009
Y22.876
X18.659 Y22.901 Z-0.01
Y22.944 Z-0.011
X18.658 Y23.004 Z-0.012
Y23.008
X18.655 Y23.02
X18.646 Y23.052 Z-0.013
X18.623 Y23.136 Z-0.015
X18.621 Y23.14
X18.613 Y23.154 Z-0.016
X18.592 Y23.192 Z-0.017
X18.558 Y23.25 Z-0.019
X18.556 Y23.254
X18.553 Y23.257
X18.531 Y23.28 Z-0.02
X18.484 Y23.328 Z-0.022
X18.465 Y23.348 Z-0.023
X18.462 Y23.35
X18.443 Y23.362 Z-0.024
X18.418 Y23.377 Z-0.025
X18.35 Y23.418 Z-0.027
X18.346 Y23.419
X18.324 Y23.426 Z-0.028
X18.282 Y23.439 Z-0.03
X18.226 Y23.456 Z-0.032
X18.222 Y23.457
X18.21
X18.179 Y23.458 Z-0.033
X18.093 Y23.462 Z-0.036
X18.09
X17.967 Y23.436 Z-0.041
X17.964 Y23.435
X17.96 Y23.433
X17.848 Y23.377 Z-0.045
X17.845 Y23.375
X17.808 Y23.343 Z-0.047
X17.75 Y23.293 Z-0.05
X17.748 Y23.29
X17.735 Y23.272 Z-0.051
X17.677 Y23.188 Z-0.054
X17.675 Y23.185
X17.661 Y23.147 Z-0.056
X17.632 Y23.069 Z-0.059
X17.631 Y23.065
X17.625 Y23.007 Z-0.061
X17.618 Y22.943 Z-0.063
Y22.939
X17.622 Y22.907 Z-0.064
X17.636 Y22.817 Z-0.068
Y22.814
X17.685 Y22.699 Z-0.072
X17.687 Y22.696
X17.699 Y22.679 Z-0.073
X17.76 Y22.599 Z-0.076
X17.763 Y22.596 Z-0.077
X17.793 Y22.572 Z-0.078
X17.857 Y22.522 Z-0.081
X17.859 Y22.52
X17.872 Y22.514
X17.97 Y22.47 Z-0.085
X17.973 Y22.469
X18.004 Y22.464 Z-0.086
X18.093 Y22.449 Z-0.089
X18.096
X18.1 Z-0.09
X18.216 Y22.459 Z-0.094
X18.219 Y22.46
X18.238 Y22.466
X18.332 Y22.499 Z-0.098
X18.335 Y22.501
X18.365 Y22.521 Z-0.099
X18.431 Y22.565 Z-0.102
X18.434 Y22.567
X18.443 Y22.576 Z-0.103
X18.514 Y22.655 Z-0.106
X18.516 Y22.658
X18.529 Y22.683 Z-0.107
X18.571 Y22.763 Z-0.111
X18.572 Y22.765
X18.598 Y22.876 Z-0.115
Y22.879
X18.599 Y22.882
X18.598 Y22.901 Z-0.116
X18.596 Y22.997 Z-0.119
Y23
X18.574 Y23.078 Z-0.122
X18.565 Y23.113 Z-0.123
X18.563 Y23.116
X18.559 Y23.124
X18.506 Y23.215 Z-0.127
X18.504 Y23.217
X18.485 Y23.237 Z-0.128
X18.424 Y23.3 Z-0.131
X18.422 Y23.301
X18.384 Y23.324 Z-0.133
X18.324 Y23.36 Z-0.135
X18.322 Y23.362
X18.304 Y23.367 Z-0.136
X18.263 Y23.379 Z-0.137
X18.213 Y23.395 Z-0.139
X18.21
X18.175 Y23.397 Z-0.141
X18.132 Y23.398 Z-0.142
X18.097 Y23.4 Z-0.143
X18.094
X18.086 Y23.398
X18.044 Y23.389 Z-0.145
X18.001 Y23.38 Z-0.146
X17.984 Y23.377
X17.982 Y23.376 Z-0.147
X17.959 Y23.364
X17.885 Y23.329 Z-0.15
X17.88 Y23.326
X17.878 Y23.324
X17.863 Y23.312
X17.846 Y23.297 Z-0.151
X17.813 Y23.269 Z-0.152
X17.794 Y23.253 Z-0.153
X17.792 Y23.251
X17.783 Y23.237
X17.758 Y23.201 Z-0.154
X17.728 Y23.159 Z-0.155
X17.727 Y23.157
X17.715 Y23.126 Z-0.156
X17.687 Y23.054 Z-0.158
Y23.052
X17.686 Y23.043
X17.681 Y23 Z-0.159
X17.674 Y22.941 Z-0.16
Y22.938
X17.677 Y22.914
X17.686 Y22.849 Z-0.161
X17.689 Y22.831
Y22.828 Z-0.162
X17.697 Y22.808
X17.705 Y22.788
X17.731 Y22.725 Z-0.163
X17.732 Y22.722
X17.742 Y22.709
X17.767 Y22.675 Z-0.164
X17.798 Y22.633
X17.8 Y22.631
X17.825 Y22.611
X17.858 Y22.583
X17.883 Y22.563 Z-0.165
X17.885 Y22.561
X17.893 Y22.558
X17.932 Y22.539
X17.983 Y22.515
X17.986 Y22.514
X17.988 Y22.513
X18.012 Y22.509
X18.026 Y22.506
X18.095 Y22.493
X18.097
X18.208 Y22.5
X18.21
X18.316 Y22.534
X18.411 Y22.595
X18.412 Y22.596
X18.487 Y22.676
X18.489 Y22.678
X18.541 Y22.774
X18.542 Y22.776
X18.569 Y22.883
X18.57 Y22.884
Y22.996
X18.569 Y22.997
X18.542 Y23.105
X18.541 Y23.106
X18.488 Y23.203
X18.487 Y23.204
X18.412 Y23.284
X18.41 Y23.286
X18.316 Y23.346
X18.21 Y23.38
X18.208
X18.098 Y23.387
X18.097
X17.988 Y23.367
X17.986 Y23.366
X17.886 Y23.319
X17.885 Y23.318
X17.8 Y23.248
X17.798 Y23.246
X17.733 Y23.156
X17.732 Y23.155
X17.691 Y23.053
Y23.051
X17.677 Y22.94
Y22.939
X17.691 Y22.829
Y22.828
X17.732 Y22.725
Y22.724
X17.798 Y22.633
X17.8 Y22.632
X17.885 Y22.562
X17.886 Y22.561
X17.986 Y22.514
X17.988 Y22.513
X18.026 Y22.506
G3 X18.399 Y22.773 I0.059 J0.312
G1 Z5
X21.47 Y25.357
Z2.035
Z0
G3 X21.476 Y25.066 I0.138 J-0.143
G1 X21.477 Y25.064
X21.581 Y24.979
X21.583 Y24.978
X21.705 Y24.92
X21.707
X21.841 Y24.894
X21.977 Y24.903
X21.979
X22.107 Y24.945
X22.109
X22.223 Y25.018
X22.225 Y25.02
X22.316 Y25.117
X22.318 Y25.119
X22.383 Y25.237
X22.384 Y25.239
X22.418 Y25.371
Y25.373
Y25.508
Y25.509
X22.384 Y25.641
X22.383 Y25.642
X22.319 Y25.759
X22.318 Y25.762
X22.224 Y25.862
X22.22 Y25.864
X22.109 Y25.935
X22.107
X21.978 Y25.977
X21.977
X21.841 Y25.986
X21.707 Y25.96
X21.705
X21.583 Y25.902
X21.581 Y25.901
X21.478 Y25.816
X21.475 Y25.814
X21.396 Y25.705
X21.395 Y25.703
X21.345 Y25.577
Y25.574
X21.328 Y25.441
Y25.44
X21.345 Y25.304
X21.346 Y25.302
X21.395 Y25.177
X21.396 Y25.176
X21.476 Y25.066
X21.481 Y25.065
X21.5 Y25.05
X21.521 Y25.032
X21.555 Y25.004
X21.58 Y24.983
X21.584 Y24.98
X21.61 Y24.968
X21.65 Y24.95 Z-0.001
X21.689 Y24.932
X21.704 Y24.924
X21.708 Y24.923
X21.72 Y24.921
X21.753 Y24.914
X21.796 Y24.907 Z-0.002
X21.841 Y24.898
X21.845 Y24.899
X21.862 Y24.9 Z-0.003
X21.905 Y24.903
X21.965 Y24.907 Z-0.004
X21.973 Y24.908
X21.977
X21.981 Y24.909
X22.013 Y24.92 Z-0.005
X22.054 Y24.934
X22.103 Y24.95 Z-0.006
X22.106 Y24.952
X22.13 Y24.967 Z-0.007
X22.151 Y24.981
X22.188 Y25.005 Z-0.008
X22.215 Y25.023 Z-0.009
X22.219 Y25.025
X22.238 Y25.046 Z-0.01
X22.267 Y25.078 Z-0.011
X22.308 Y25.122 Z-0.012
X22.31 Y25.125
X22.316 Y25.136
X22.331 Y25.165 Z-0.013
X22.372 Y25.243 Z-0.015
X22.374 Y25.247 Z-0.016
X22.377 Y25.262
X22.387 Y25.304 Z-0.017
X22.403 Y25.37 Z-0.019
X22.404 Y25.374
Y25.378
X22.403 Y25.41 Z-0.02
X22.402 Y25.494 Z-0.023
Y25.504
X22.401 Y25.507
X22.394 Y25.533 Z-0.024
X22.387 Y25.559 Z-0.025
X22.366 Y25.635 Z-0.027
X22.352 Y25.659 Z-0.028
X22.331 Y25.696 Z-0.03
X22.301 Y25.747 Z-0.032
X22.299 Y25.75
X22.291 Y25.759
X22.239 Y25.812 Z-0.035
X22.209 Y25.842 Z-0.036
X22.206 Y25.845
X22.099 Y25.909 Z-0.041
X22.096 Y25.911
X22.092 Y25.912
X21.974 Y25.948 Z-0.045
X21.97 Y25.949
X21.843 Y25.954 Z-0.05
X21.839 Y25.953
X21.775 Y25.94 Z-0.052
X21.718 Y25.928 Z-0.054
X21.714 Y25.926
X21.678 Y25.908 Z-0.056
X21.603 Y25.871 Z-0.059
X21.6 Y25.869
X21.556 Y25.831 Z-0.061
X21.507 Y25.789 Z-0.063
X21.504 Y25.786
X21.486 Y25.76 Z-0.064
X21.434 Y25.686 Z-0.068
X21.432 Y25.683
X21.43 Y25.676
X21.389 Y25.565 Z-0.072
X21.388 Y25.562
X21.386 Y25.541 Z-0.073
X21.375 Y25.441 Z-0.076
X21.376 Y25.437 Z-0.077
X21.381 Y25.399 Z-0.078
X21.393 Y25.319 Z-0.081
X21.394 Y25.315
X21.399 Y25.302
X21.441 Y25.204 Z-0.085
X21.442 Y25.201
X21.461 Y25.176 Z-0.086
X21.514 Y25.105 Z-0.089
X21.516 Y25.103
X21.612 Y25.027 Z-0.094
X21.615 Y25.025
X21.634 Y25.017 Z-0.095
X21.722 Y24.978 Z-0.098
X21.725 Y24.977
X21.764 Y24.97 Z-0.099
X21.842 Y24.957 Z-0.102
X21.845 Y24.956
X21.858 Y24.957 Z-0.103
X21.964 Y24.966 Z-0.106
X21.967 Y24.967
X21.994 Y24.976 Z-0.107
X22.078 Y25.005 Z-0.111
X22.081 Y25.007
X22.155 Y25.056 Z-0.114
X22.179 Y25.072 Z-0.115
X22.181 Y25.074
X22.194 Y25.088 Z-0.116
X22.258 Y25.159 Z-0.119
X22.26 Y25.162
X22.297 Y25.233 Z-0.122
X22.314 Y25.266 Z-0.123
X22.315 Y25.269
X22.317 Y25.278 Z-0.124
X22.341 Y25.38 Z-0.127
Y25.383
Y25.41 Z-0.128
X22.339 Y25.496 Z-0.131
Y25.499
X22.327 Y25.543 Z-0.133
X22.308 Y25.61 Z-0.135
X22.307 Y25.613
X22.298 Y25.629 Z-0.136
X22.276 Y25.666 Z-0.138
X22.25 Y25.711 Z-0.139
X22.249 Y25.713
X22.224 Y25.739 Z-0.141
X22.194 Y25.77 Z-0.142
X22.17 Y25.794 Z-0.143
X22.167 Y25.796
X22.16 Y25.801
X22.123 Y25.823 Z-0.145
X22.086 Y25.846 Z-0.146
X22.071 Y25.855
X22.069 Y25.856 Z-0.147
X22.044 Y25.863
X22.003 Y25.876 Z-0.149
X21.962 Y25.888 Z-0.15
X21.96 Y25.889
X21.938 Y25.89
X21.916 Y25.891 Z-0.151
X21.873 Y25.893 Z-0.152
X21.848 Y25.894 Z-0.153
X21.845
X21.828 Y25.891
X21.786 Y25.882 Z-0.154
X21.735 Y25.872 Z-0.155
X21.733 Y25.871
X21.703 Y25.856 Z-0.156
X21.634 Y25.823 Z-0.158
X21.632 Y25.821
X21.625 Y25.816
X21.592 Y25.788 Z-0.159
X21.547 Y25.749 Z-0.16
X21.545 Y25.747
X21.531 Y25.727
X21.486 Y25.665 Z-0.161
X21.482 Y25.659 Z-0.162
X21.48 Y25.656
X21.472 Y25.636
X21.465 Y25.616
X21.44 Y25.553 Z-0.163
Y25.55
X21.438 Y25.534
X21.432 Y25.491 Z-0.164
X21.426 Y25.44
X21.427 Y25.437
X21.431 Y25.405
X21.436 Y25.362
X21.44 Y25.33 Z-0.165
X21.441 Y25.328
X21.444 Y25.32
X21.46 Y25.28
X21.481 Y25.227
X21.482 Y25.225
X21.483 Y25.222
X21.498 Y25.203
X21.505 Y25.192
X21.548 Y25.134
X21.549 Y25.133
X21.634 Y25.062
X21.635 Y25.061
X21.736 Y25.014
X21.737
X21.846 Y24.993
X21.847
X21.958 Y25
X21.959
X22.065 Y25.034
X22.067 Y25.035
X22.16 Y25.094
X22.161 Y25.095
X22.237 Y25.176
X22.238 Y25.178
X22.291 Y25.274
X22.292 Y25.275
X22.319 Y25.383
X22.32 Y25.384
Y25.495
Y25.497
X22.292 Y25.604
X22.291 Y25.606
X22.238 Y25.703
X22.237 Y25.704
X22.161 Y25.785
X22.159 Y25.786
X22.067 Y25.845
X22.065 Y25.846
X21.959 Y25.88
X21.958
X21.848 Y25.887
X21.846
X21.737 Y25.866
X21.736
X21.635 Y25.819
X21.634 Y25.818
X21.549 Y25.748
X21.548 Y25.746
X21.483 Y25.657
X21.482 Y25.656
X21.441 Y25.552
Y25.551
X21.427 Y25.441
Y25.44
X21.441 Y25.33
Y25.328
X21.482 Y25.225
X21.483 Y25.223
X21.505 Y25.192
G3 X21.96 Y25.131 I0.257 J0.187
G1 Z5
X25.804 Y23.009
Z2.035
Z0
G3 X26.234 Y23.17 I0.138 J0.286
G1 X26.237 Y23.176
X26.245 Y23.187
X26.318 Y23.299
X26.321 Y23.304
X26.325 Y23.309
X26.336 Y23.319
X26.428 Y23.407
X26.437 Y23.416
X26.442 Y23.42
X26.447 Y23.423
X26.573 Y23.496
X26.578 Y23.499
X26.583 Y23.501
X26.626 Y23.514
X26.726 Y23.545
X26.732 Y23.546
X26.738 Y23.548
X26.743
X26.749 Y23.549
X26.805 Y23.552
X26.894 Y23.557
X26.9
X26.905
X26.972 Y23.549
X26.978 Y23.548
X26.983 Y23.547
X27.073 Y23.521
X27.128 Y23.504
X27.134 Y23.502
X27.14 Y23.5
X27.162 Y23.487
X27.251 Y23.435
X27.282 Y23.416
X27.286 Y23.414
X27.289 Y23.41
X27.396 Y23.307
X27.4 Y23.303
X27.403 Y23.299
X27.407 Y23.293
X27.411 Y23.288
X27.487 Y23.165
X27.491 Y23.159
X27.494 Y23.154
X27.498 Y23.142
X27.541 Y23.009
X27.545 Y22.997
X27.546 Y22.992
Y22.986
X27.556 Y22.852
X27.558 Y22.83
X27.557 Y22.824
Y22.819
X27.532 Y22.674
X27.53 Y22.664
X27.529 Y22.66
X27.527 Y22.655
X27.519 Y22.637
X27.468 Y22.518
X27.465 Y22.512
X27.462 Y22.506
X27.458 Y22.501
X27.454 Y22.495
X27.367 Y22.381
X27.361 Y22.374
X27.358 Y22.37
X27.354 Y22.367
X27.24 Y22.275
X27.235 Y22.271
X27.232 Y22.269
X27.229 Y22.267
X27.223 Y22.264
X27.218 Y22.261
X27.091 Y22.202
X27.082 Y22.198
X27.077 Y22.196
X27.073 Y22.195
X26.983 Y22.177
X26.939 Y22.168
X26.916 Y22.164
X26.911
X26.905 Y22.163
X26.894 Y22.164
X26.76 Y22.17
X26.749 Y22.171
X26.743 Y22.172
X26.738 Y22.173
X26.715 Y22.179
X26.597 Y22.214
X26.59 Y22.216
X26.586 Y22.218
X26.583 Y22.219
X26.568 Y22.227
X26.537 Y22.245
X26.447 Y22.297
X26.444 Y22.299
X26.442 Y22.301
X26.436 Y22.306
X26.358 Y22.379
X26.33 Y22.406
X26.327 Y22.409
X26.325 Y22.412
X26.321 Y22.417
X26.269 Y22.496
X26.239 Y22.54
X26.236 Y22.546
X26.234 Y22.551
X26.189 Y22.674
X26.183 Y22.691
X26.181 Y22.696
X26.18 Y22.7
X26.179 Y22.709
X26.173 Y22.763
X26.162 Y22.852
Y22.858
Y22.863
X26.163 Y22.875
X26.171 Y22.942
X26.179 Y23.015
X26.18 Y23.019
X26.181 Y23.023
X26.184 Y23.031
X26.232 Y23.165
X26.234 Y23.17
G3 X26.053 Y23.592 I-0.292 J0.125
G1 Z5
X26.758 Y22.97
Z2.035
Z0
X26.728 Y22.98
X26.696 Y22.978
X26.668 Y22.963
X26.648 Y22.939
X26.647 Y22.937
X26.633 Y22.861
Y22.859
X26.647 Y22.783
X26.648 Y22.781
X26.686 Y22.715
X26.688 Y22.713
X26.746 Y22.665
X26.748 Y22.663
X26.82 Y22.637
X26.821
X26.898
X26.9
X26.972 Y22.663
X26.974 Y22.664
X27.032 Y22.713
X27.034 Y22.715
X27.073 Y22.782
Y22.784
X27.086 Y22.859
X27.087 Y22.86
X27.073 Y22.937
Y22.938
X27.034 Y23.004
Y23.006
X26.974 Y23.056
X26.972 Y23.057
X26.9 Y23.083
X26.898
X26.821
X26.82
X26.747 Y23.056
X26.687 Y23.007
X26.686 Y23.005
X26.648 Y22.939
X26.649 Y22.934
X26.645 Y22.909
X26.637 Y22.865
X26.636 Y22.861
X26.637 Y22.856
X26.64 Y22.842
X26.649 Y22.791
Y22.787
X26.651 Y22.782
X26.658 Y22.77
X26.677 Y22.737 Z-0.001
X26.689 Y22.717
X26.692 Y22.714
X26.7 Y22.708
X26.743 Y22.672
X26.746 Y22.669
X26.75 Y22.666
X26.759 Y22.663 Z-0.002
X26.812 Y22.644
X26.821 Y22.641
X26.826
X26.83
X26.886 Z-0.003
X26.896
X26.9 Y22.642
X26.905 Y22.644
X26.957 Y22.663 Z-0.004
X26.97 Y22.668
X26.974 Y22.671
X27.016 Y22.707 Z-0.005
X27.027 Y22.716
X27.03 Y22.72
X27.039 Y22.736 Z-0.006
X27.062 Y22.776
X27.066 Y22.784 Z-0.007
X27.067 Y22.789
X27.073 Y22.821
X27.078 Y22.857 Z-0.008
X27.079 Y22.862
X27.076 Y22.875
X27.073 Y22.893 Z-0.009
X27.065 Y22.934 Z-0.01
X27.063 Y22.938
X27.049 Y22.962
X27.028 Y22.997 Z-0.011
X27.025 Y23.001
X27.004 Y23.018 Z-0.012
X26.969 Y23.047 Z-0.013
X26.964 Y23.048
X26.943 Y23.056 Z-0.014
X26.9 Y23.071 Z-0.015
X26.896 Y23.072
X26.873 Y23.071 Z-0.016
X26.824 Z-0.017
X26.82 Y23.069
X26.803 Y23.063
X26.757 Y23.045 Z-0.019
X26.753 Y23.043
X26.739 Y23.032
X26.699 Y22.997 Z-0.021
X26.697 Y22.993
X26.69 Y22.981
X26.663 Y22.933 Z-0.023
X26.662 Y22.929
X26.659 Y22.911 Z-0.024
X26.652 Y22.864 Z-0.025
X26.651 Y22.859
X26.655 Y22.842 Z-0.026
X26.665 Y22.791 Z-0.028
X26.667 Y22.787
X26.673 Y22.775
X26.7 Y22.731 Z-0.03
X26.703 Y22.727
X26.713 Y22.719 Z-0.031
X26.756 Y22.684 Z-0.032
X26.76 Y22.682 Z-0.033
X26.768 Y22.679
X26.817 Y22.663 Z-0.035
X26.821 Y22.661
X26.825 Y22.66
X26.834
X26.885 Y22.661 Z-0.037
X26.893
X26.897 Y22.662
X26.901 Y22.664 Z-0.038
X26.956 Y22.685 Z-0.04
X26.96 Y22.686
X26.963 Y22.689
X27.011 Y22.73 Z-0.042
X27.013 Y22.734
X27.045 Y22.792 Z-0.044
X27.046 Y22.796 Z-0.045
X27.056 Y22.857 Z-0.047
Y22.861
X27.05 Y22.89 Z-0.048
X27.043 Y22.926 Z-0.049
X27.042 Y22.929
X27.01 Y22.981 Z-0.051
X27.008 Y22.985 Z-0.052
X26.989 Y23
X26.958 Y23.025 Z-0.054
X26.954 Y23.027
X26.935 Y23.034 Z-0.055
X26.893 Y23.048 Z-0.056
X26.889
X26.83 Y23.047 Z-0.058
X26.826 Y23.046
X26.767 Y23.023 Z-0.061
X26.764 Y23.021
X26.755 Y23.013
X26.72 Y22.983 Z-0.063
X26.717 Y22.98
X26.711 Y22.969
X26.687 Y22.926 Z-0.065
X26.685 Y22.922
X26.682 Y22.903 Z-0.066
X26.676 Y22.861 Z-0.067
Y22.857
X26.679 Y22.842 Z-0.068
X26.687 Y22.801 Z-0.069
X26.688 Y22.797 Z-0.07
X26.696 Y22.784
X26.72 Y22.745 Z-0.072
X26.723 Y22.742
X26.731 Y22.735
X26.77 Y22.704 Z-0.074
X26.773 Y22.703
X26.781 Y22.7
X26.827 Y22.684 Z-0.076
X26.83
X26.838
X26.89 Y22.685 Z-0.078
X26.894 Y22.686
X26.897 Y22.687
X26.945 Y22.706 Z-0.08
X26.949 Y22.707
X26.952 Y22.71
X26.993 Y22.746 Z-0.082
X26.995 Y22.749
X27.023 Y22.8 Z-0.084
X27.024 Y22.804 Z-0.085
X27.033 Y22.857 Z-0.086
Y22.861 Z-0.087
X27.028 Y22.886
X27.022 Y22.917 Z-0.089
X27.02 Y22.92
X27.009 Y22.939
X26.991 Y22.969 Z-0.091
X26.988 Y22.972
X26.974 Y22.983
X26.947 Y23.005 Z-0.093
X26.944 Y23.007
X26.927 Y23.013
X26.891 Y23.025 Z-0.095
X26.887 Y23.026
X26.873 Y23.025
X26.832 Y23.024 Z-0.097
X26.828 Y23.023
X26.818 Y23.02
X26.78 Y23.005 Z-0.099
X26.777 Y23.003
X26.769 Y22.996
X26.735 Y22.967 Z-0.101
X26.733 Y22.965
X26.73 Y22.959
X26.706 Y22.916 Z-0.103
X26.703 Y22.896
X26.698 Y22.862 Z-0.105
Y22.859
X26.701 Y22.842
X26.708 Y22.806 Z-0.107
X26.71 Y22.803
X26.736 Y22.76 Z-0.108
X26.738 Y22.757
X26.779 Y22.724 Z-0.11
X26.782 Y22.722
X26.791 Y22.719 Z-0.111
X26.832 Y22.705 Z-0.112
X26.835
X26.868 Z-0.114
X26.887 Y22.706
X26.893 Y22.708
X26.936 Y22.724 Z-0.116
X26.939 Y22.726
X26.96 Y22.745 Z-0.117
X26.977 Y22.76 Z-0.118
X26.979 Y22.762
X27.004 Y22.807 Z-0.12
X27.005 Y22.81
X27.012 Y22.857 Z-0.121
Y22.86 Z-0.122
X27.008 Y22.882
X27.003 Y22.91 Z-0.123
X27.002 Y22.913
X26.992 Y22.929 Z-0.124
X26.976 Y22.955 Z-0.125
X26.974 Y22.958
X26.962 Y22.968 Z-0.126
X26.935 Y22.989 Z-0.127
X26.932 Y22.99
X26.92 Y22.994
X26.889 Y23.005 Z-0.129
X26.886 Y23.006
X26.873
X26.837 Y23.005 Z-0.13
X26.834 Z-0.131
X26.825 Y23.001
X26.789 Y22.987 Z-0.132
X26.786 Y22.986
X26.781 Y22.982 Z-0.133
X26.75 Y22.954 Z-0.134
X26.748 Y22.952
X26.725 Y22.91 Z-0.136
X26.724 Y22.907
X26.717 Y22.863 Z-0.137
Y22.86 Z-0.138
X26.726 Y22.813 Z-0.139
X26.727 Y22.81
X26.751 Y22.77 Z-0.141
X26.753 Y22.768
X26.79 Y22.739 Z-0.143
X26.792 Y22.738
X26.833 Y22.724 Z-0.144
X26.836 Y22.723
X26.882 Y22.724 Z-0.146
X26.885
X26.927 Y22.74 Z-0.147
X26.93 Y22.742
X26.964 Y22.772 Z-0.149
X26.966 Y22.774
X26.982 Y22.803 Z-0.15
X26.987 Y22.813
X26.988 Y22.816
X26.991 Y22.835 Z-0.151
X26.995 Y22.86
Y22.863
X26.987 Y22.904 Z-0.152
X26.986 Y22.906
X26.963 Y22.944 Z-0.154
X26.962 Y22.946
X26.928 Y22.974 Z-0.155
X26.925 Y22.976
X26.889 Y22.988 Z-0.156
X26.884 Y22.99
X26.881
X26.841 Z-0.157
X26.838
X26.835 Y22.989
X26.8 Y22.976 Z-0.158
X26.795 Y22.974
X26.793 Y22.972
X26.762 Y22.946 Z-0.159
X26.76 Y22.944
X26.759 Y22.942
X26.738 Y22.905 Z-0.16
X26.737 Y22.903
X26.734 Y22.884
X26.73 Y22.861
X26.731 Y22.858
X26.737 Y22.821 Z-0.161
X26.738 Y22.816
X26.74 Y22.814
X26.76 Y22.779 Z-0.162
X26.761 Y22.777
X26.794 Y22.75
X26.796 Y22.748
X26.826 Y22.738 Z-0.163
X26.836 Y22.734
X26.839
X26.868
X26.881
X26.883
X26.908 Y22.744 Z-0.164
X26.923 Y22.749
X26.925 Y22.75
X26.951 Y22.772
X26.957 Y22.778
X26.959 Y22.78
X26.969 Y22.798
X26.979 Y22.816
X26.98 Y22.819
X26.983 Y22.837 Z-0.165
X26.987 Y22.86
Y22.862
X26.984 Y22.878
X26.98 Y22.901
X26.979 Y22.904
X26.972 Y22.917
X26.958 Y22.94
X26.957 Y22.942
X26.947 Y22.95
X26.925 Y22.969
X26.923 Y22.97
X26.903 Y22.977
X26.883 Y22.985
X26.881
X26.838
X26.837
X26.797 Y22.97
X26.795 Y22.969
X26.764 Y22.943
X26.763 Y22.942
X26.741 Y22.904
Y22.902
X26.733 Y22.861
Y22.859
X26.741 Y22.817
Y22.816
X26.762 Y22.779
X26.764 Y22.777
X26.793 Y22.753
X26.796 Y22.751
X26.797 Y22.75
X26.837 Y22.735
X26.838
X26.881
X26.883
X26.923 Y22.75
X26.957 Y22.778
X26.958 Y22.779
X26.979 Y22.815
X26.98 Y22.818
X26.987 Y22.859
Y22.861
X26.98 Y22.902
X26.979 Y22.904
X26.957 Y22.942
X26.955 Y22.943
X26.924 Y22.97
X26.922 Y22.971
X26.903 Y22.977
X26.867 Y22.984
X26.832 Y22.98
X26.799 Y22.965
X26.773 Y22.94
X26.755 Y22.908
Z5
X26.779 Y18.153
Z2.035
Z0
X26.77 Y18.183
X26.751 Y18.207
X26.724 Y18.222
X26.693 Y18.226
X26.6 Y18.218
X26.599 Y18.217
X26.513 Y18.18
X26.512 Y18.179
X26.444 Y18.117
X26.443 Y18.115
X26.399 Y18.033
X26.383 Y17.941
Y17.94
X26.399 Y17.848
Y17.846
X26.444 Y17.764
X26.445 Y17.762
X26.513 Y17.7
X26.514 Y17.699
X26.598 Y17.663
X26.6 Y17.662
X26.693 Y17.654
X26.694
X26.784 Y17.677
X26.786 Y17.678
X26.863 Y17.728
X26.864 Y17.729
X26.922 Y17.804
X26.953 Y17.892
Y17.894
Y17.987
X26.952 Y17.989
X26.922 Y18.076
Y18.077
X26.865 Y18.15
X26.862 Y18.152
X26.786 Y18.202
X26.784 Y18.203
X26.694 Y18.226
X26.693
X26.665 Y18.22
X26.636 Y18.218
X26.604 Y18.215
X26.6
X26.583 Y18.207
X26.566 Y18.2
X26.52 Y18.18
X26.516 Y18.178 Z-0.001
X26.512 Y18.175
X26.502 Y18.165
X26.471 Y18.137
X26.448 Y18.115
X26.445 Y18.111
X26.437 Y18.095
X26.428 Y18.079
X26.404 Y18.035 Z-0.002
X26.402 Y18.03
X26.4 Y18.012
X26.39 Y17.953 Z-0.003
X26.389 Y17.944
X26.388 Y17.939
X26.389 Y17.935
X26.395 Y17.899 Z-0.004
X26.404 Y17.85
X26.406 Y17.846
X26.414 Y17.83 Z-0.005
X26.448 Y17.769 Z-0.006
X26.451 Y17.766
X26.454 Y17.763
X26.481 Y17.739 Z-0.007
X26.514 Y17.709
X26.518 Y17.706 Z-0.008
X26.539 Y17.697
X26.598 Y17.672 Z-0.009
X26.602 Y17.67
X26.611 Z-0.01
X26.647 Y17.667
X26.691 Y17.664 Z-0.011
X26.696 Y17.665
X26.717 Y17.67 Z-0.012
X26.779 Y17.687 Z-0.014
X26.783 Y17.689
X26.791 Y17.694
X26.82 Y17.714 Z-0.015
X26.853 Y17.736 Z-0.016
X26.856 Y17.739
X26.872 Y17.76 Z-0.017
X26.908 Y17.807 Z-0.018
X26.91 Y17.811
X26.915 Y17.823 Z-0.019
X26.925 Y17.857 Z-0.02
X26.937 Y17.894 Z-0.021
X26.938 Y17.898
X26.937 Y17.924 Z-0.022
X26.936 Y17.983 Z-0.024
X26.935 Y17.988
X26.931 Y18
X26.919 Y18.032 Z-0.025
X26.907 Y18.064 Z-0.026
X26.906 Y18.068
X26.898 Y18.078 Z-0.027
X26.887 Y18.092
X26.852 Y18.134 Z-0.029
X26.849 Y18.137
X26.835 Y18.146 Z-0.03
X26.778 Y18.182 Z-0.032
X26.774 Y18.183
X26.745 Y18.19 Z-0.033
X26.692 Y18.202 Z-0.035
X26.688
X26.671 Y18.2 Z-0.036
X26.638 Y18.197 Z-0.037
X26.609 Y18.194 Z-0.038
X26.605 Y18.193
X26.531 Y18.159 Z-0.041
X26.527 Y18.157
X26.518 Y18.148 Z-0.042
X26.476 Y18.108 Z-0.044
X26.467 Y18.099
X26.465 Y18.096
X26.428 Y18.024 Z-0.047
X26.427 Y18.02
X26.425 Y18.008
X26.416 Y17.947 Z-0.05
Y17.943
Y17.939
Y17.935
X26.43 Y17.861 Z-0.053
X26.431 Y17.857
X26.439 Y17.843
X26.47 Y17.79 Z-0.055
X26.471 Y17.786 Z-0.056
X26.474 Y17.783
X26.477 Y17.781
X26.533 Y17.732 Z-0.058
X26.536 Y17.73 Z-0.059
X26.551 Y17.724
X26.607 Y17.7 Z-0.061
X26.611
X26.619 Y17.699 Z-0.062
X26.688 Y17.695 Z-0.064
X26.691
X26.71 Y17.7 Z-0.065
X26.765 Y17.715 Z-0.067
X26.769 Y17.716
X26.778 Y17.723
X26.834 Y17.761 Z-0.07
X26.837 Y17.764
X26.848 Y17.779
X26.882 Y17.824 Z-0.072
X26.883 Y17.828 Z-0.073
X26.887 Y17.839
X26.906 Y17.898 Z-0.075
X26.907 Y17.902
X26.906 Y17.924 Z-0.076
X26.905 Y17.977 Z-0.078
X26.904 Y17.981
X26.889 Y18.022 Z-0.079
X26.878 Y18.053 Z-0.081
X26.876 Y18.055
X26.862 Y18.072
X26.831 Y18.11 Z-0.083
X26.829 Y18.113
X26.814 Y18.123 Z-0.084
X26.765 Y18.153 Z-0.086
X26.762 Y18.154
X26.737 Y18.16 Z-0.087
X26.69 Y18.171 Z-0.089
X26.686
X26.669 Y18.169
X26.616 Y18.164 Z-0.091
X26.613 Y18.163
X26.562 Y18.14 Z-0.093
X26.547 Y18.132 Z-0.094
X26.544 Y18.13
X26.539 Y18.126
X26.491 Y18.08 Z-0.096
X26.489 Y18.077 Z-0.097
X26.458 Y18.016 Z-0.099
X26.456 Y18.013
X26.455 Y18.003
X26.446 Y17.942 Z-0.102
Y17.938
X26.452 Y17.908 Z-0.103
X26.459 Y17.869 Z-0.104
X26.46 Y17.866
X26.465 Y17.857 Z-0.105
X26.494 Y17.806 Z-0.107
X26.496 Y17.804
X26.521 Y17.782 Z-0.108
X26.548 Y17.758 Z-0.109
X26.55 Y17.756
X26.562 Y17.751 Z-0.11
X26.616 Y17.728 Z-0.112
X26.62
X26.652 Y17.726 Z-0.113
X26.687 Y17.724 Z-0.114
X26.69
X26.703 Y17.728 Z-0.115
X26.756 Y17.742 Z-0.117
X26.758 Y17.744
X26.787 Y17.764 Z-0.118
X26.813 Y17.781 Z-0.119
X26.816 Y17.784
X26.825 Y17.796 Z-0.12
X26.856 Y17.837 Z-0.121
X26.858 Y17.84 Z-0.122
X26.878 Y17.902 Z-0.124
Y17.906
Y17.924 Z-0.125
X26.877 Y17.972 Z-0.126
Y17.975
X26.871 Y17.99 Z-0.127
X26.854 Y18.039 Z-0.129
X26.852 Y18.041
X26.84 Y18.055
X26.812 Y18.09 Z-0.131
X26.81 Y18.092
X26.754 Y18.128 Z-0.133
X26.751 Y18.129 Z-0.134
X26.687 Y18.144 Z-0.136
X26.684 Y18.143
X26.622 Y18.137 Z-0.138
X26.62 Y18.136
X26.561 Y18.11 Z-0.14
X26.559 Y18.108
X26.557 Y18.106 Z-0.141
X26.526 Y18.077 Z-0.142
X26.512 Y18.063 Z-0.143
X26.483 Y18.007 Z-0.145
X26.482 Y18.004
X26.481 Y17.999
X26.475 Y17.957 Z-0.146
X26.472 Y17.941 Z-0.147
Y17.938
X26.484 Y17.877 Z-0.149
X26.485 Y17.874
X26.488 Y17.869
X26.508 Y17.833 Z-0.15
X26.515 Y17.821
X26.517 Y17.819
X26.554 Y17.785 Z-0.152
X26.562 Y17.778
X26.565 Y17.776
X26.572 Y17.773
X26.621 Y17.753 Z-0.154
X26.624 Y17.752
X26.654 Y17.75
X26.684 Y17.748 Z-0.155
X26.686
X26.697 Y17.751
X26.745 Y17.764 Z-0.157
X26.748 Y17.765
X26.775 Y17.783
X26.8 Y17.799 Z-0.158
X26.801 Y17.801
X26.808 Y17.81
X26.836 Y17.848 Z-0.159
X26.838 Y17.85
X26.849 Y17.883 Z-0.16
X26.857 Y17.908
Y17.911
Y17.924
Y17.969 Z-0.161
Y17.971
X26.844 Y18.006 Z-0.162
X26.837 Y18.029
X26.835 Y18.031
X26.825 Y18.044
X26.798 Y18.079 Z-0.163
X26.796 Y18.08
X26.782 Y18.089
X26.749 Y18.11
X26.747 Y18.111
X26.744 Y18.113
X26.727 Y18.117 Z-0.164
X26.686 Y18.127
X26.683
X26.665 Y18.125
X26.626 Y18.122
X26.623
X26.604 Y18.113 Z-0.165
X26.568 Y18.097
X26.566 Y18.096
X26.551 Y18.081
X26.524 Y18.057
X26.522 Y18.055
X26.511 Y18.034
X26.494 Y18.002
X26.493 Y17.999
X26.491 Y17.988
X26.483 Y17.941
Y17.94
X26.493 Y17.88
Y17.878
X26.522 Y17.826
X26.523 Y17.825
X26.567 Y17.784
X26.569 Y17.782
X26.622 Y17.759
X26.624 Y17.758
X26.685 Y17.753
X26.686 Y17.754
X26.744 Y17.768
X26.746 Y17.769
X26.796 Y17.802
X26.798 Y17.804
X26.834 Y17.851
X26.835 Y17.852
X26.855 Y17.909
Y17.91
Y17.97
X26.854 Y17.972
X26.835 Y18.029
X26.834 Y18.03
X26.798 Y18.076
X26.797 Y18.078
X26.746 Y18.111
X26.745 Y18.112
X26.686 Y18.127
X26.685
X26.624 Y18.122
X26.623 Y18.121
X26.568 Y18.097
X26.566 Y18.096
X26.524 Y18.057
X26.522 Y18.055
X26.493 Y18.001
Y18
X26.491 Y17.988
X26.489 Y17.942
X26.499 Y17.897
X26.521 Y17.857
X26.552 Y17.824
X26.591 Y17.8
X26.635 Y17.787
Z5
X28.16 Y17.61
Z2.035
Z0
G3 X28.498 Y17.93 I0.021 J0.317
G1 X28.499 Y17.942
X28.512 Y18.076
X28.514 Y18.088
X28.515 Y18.093
X28.516 Y18.099
X28.524 Y18.121
X28.555 Y18.21
X28.568 Y18.248
X28.57 Y18.253
X28.573 Y18.258
X28.653 Y18.383
X28.655 Y18.386
X28.657 Y18.389
X28.66 Y18.392
X28.662 Y18.395
X28.669 Y18.401
X28.77 Y18.499
X28.776 Y18.504
X28.778 Y18.506
X28.781 Y18.508
X28.792 Y18.515
X28.88 Y18.567
X28.915 Y18.588
X28.919 Y18.59
X28.923 Y18.592
X28.932 Y18.595
X29.072 Y18.638
X29.077 Y18.64
X29.083 Y18.641
X29.127 Y18.644
X29.217 Y18.65
X29.239 Y18.651
X29.245
X29.25
X29.306 Y18.645
X29.317 Y18.644
X29.328 Y18.641
X29.463 Y18.604
X29.474 Y18.601
X29.479 Y18.599
X29.485 Y18.597
X29.537 Y18.567
X29.619 Y18.522
X29.624 Y18.519
X29.63 Y18.515
X29.633 Y18.513
X29.636 Y18.51
X29.67 Y18.478
X29.753 Y18.401
X29.755 Y18.398
X29.758 Y18.395
X29.762 Y18.389
X29.842 Y18.266
X29.847 Y18.259
X29.849 Y18.255
X29.85 Y18.252
X29.855 Y18.238
X29.896 Y18.121
X29.904 Y18.099
X29.905 Y18.093
X29.906 Y18.088
X29.908 Y18.076
X29.921 Y17.931
X29.922 Y17.926
Y17.92
X29.921 Y17.915
Y17.909
X29.899 Y17.764
X29.897 Y17.753
X29.895 Y17.747
X29.893 Y17.742
X29.836 Y17.601
X29.834 Y17.597
X29.832 Y17.593
X29.83 Y17.589
X29.827 Y17.585
X29.737 Y17.462
X29.732 Y17.455
X29.729 Y17.452
X29.725 Y17.449
X29.714 Y17.44
X29.608 Y17.35
X29.602 Y17.346
X29.597 Y17.342
X29.574 Y17.331
X29.463 Y17.276
X29.451 Y17.27
X29.446 Y17.268
X29.44 Y17.266
X29.395 Y17.256
X29.306 Y17.237
X29.284 Y17.232
X29.278 Y17.231
X29.273
X29.261
X29.116 Y17.235
X29.111
X29.105 Y17.236
X29.1 Y17.237
X29.094 Y17.238
X29.038 Y17.253
X28.949 Y17.278
X28.944 Y17.279
X28.939 Y17.282
X28.93 Y17.287
X28.815 Y17.349
X28.804 Y17.356
X28.798 Y17.359
X28.795 Y17.361
X28.792 Y17.364
X28.681 Y17.464
X28.677 Y17.468
X28.673 Y17.472
X28.668 Y17.48
X28.591 Y17.59
X28.584 Y17.601
X28.581 Y17.606
X28.578 Y17.611
X28.57 Y17.633
X28.524 Y17.753
X28.522 Y17.758
X28.52 Y17.764
X28.508 Y17.853
X28.502 Y17.893
X28.499 Y17.918
X28.498 Y17.924
Y17.93
G3 X28.153 Y18.243 I-0.317 J-0.003
G1 Z5
X28.989 Y18.031
Z2.035
Z0
X28.96 Y18.02
X28.937 Y17.999
X28.924 Y17.971
X28.923 Y17.94
X28.939 Y17.847
X28.94 Y17.845
X28.984 Y17.764
X28.985 Y17.762
X29.052 Y17.701
X29.054 Y17.7
X29.139 Y17.662
X29.14
X29.234 Y17.654
X29.235 Y17.655
X29.325 Y17.677
X29.326 Y17.678
X29.403 Y17.729
X29.405 Y17.73
X29.462 Y17.803
Y17.804
X29.493 Y17.892
Y17.895
Y17.987
X29.492 Y17.989
X29.462 Y18.076
X29.461 Y18.078
X29.405 Y18.151
X29.402 Y18.152
X29.326 Y18.202
X29.324 Y18.203
X29.234 Y18.226
X29.231
X29.14 Y18.218
X29.139
X29.054 Y18.18
X29.053
X28.984 Y18.117
X28.983 Y18.115
X28.939 Y18.034
Y18.032
X28.923 Y17.941
Y17.94
X28.931 Y17.911
X28.936 Y17.883
X28.941 Y17.852
X28.942 Y17.847
X28.951 Y17.831
X28.96 Y17.815
X28.984 Y17.771
X28.986 Y17.766 Z-0.001
X28.989 Y17.763
X28.999 Y17.754
X29.03 Y17.726
X29.054 Y17.704
X29.058 Y17.702
X29.075 Y17.694
X29.092 Y17.687
X29.138 Y17.667 Z-0.002
X29.142 Y17.666
X29.16 Y17.664
X29.22 Y17.66 Z-0.003
X29.229 Y17.659
X29.234
X29.239 Y17.66
X29.274 Y17.67 Z-0.004
X29.322 Y17.682
X29.326 Y17.684
X29.341 Y17.695 Z-0.005
X29.399 Y17.733 Z-0.006
X29.402 Y17.736
X29.405 Y17.74
X29.426 Y17.769 Z-0.007
X29.454 Y17.804
X29.456 Y17.808 Z-0.008
X29.463 Y17.83
X29.483 Y17.891 Z-0.009
X29.485 Y17.895
X29.484 Y17.904 Z-0.01
Y17.94
X29.483 Y17.984 Z-0.011
X29.482 Y17.989
X29.475 Y18.01 Z-0.012
X29.453 Y18.07 Z-0.014
X29.451 Y18.074
X29.445 Y18.081
X29.423 Y18.108 Z-0.015
X29.398 Y18.139 Z-0.016
X29.395 Y18.142
X29.373 Y18.157 Z-0.017
X29.323 Y18.188 Z-0.018
X29.319 Y18.19
X29.306 Y18.193 Z-0.019
X29.272 Y18.201 Z-0.02
X29.234 Y18.21 Z-0.021
X29.229
X29.203 Y18.208 Z-0.022
X29.145 Y18.202 Z-0.024
X29.141 Y18.2
X29.129 Y18.195
X29.098 Y18.181 Z-0.025
X29.066 Y18.166 Z-0.026
X29.063 Y18.164
X29.053 Y18.155 Z-0.027
X29.041 Y18.143
X29.001 Y18.106 Z-0.029
X28.999 Y18.102
X28.991 Y18.087 Z-0.03
X28.96 Y18.027 Z-0.032
X28.959 Y18.023
X28.955 Y17.994 Z-0.033
X28.947 Y17.94 Z-0.035
X28.948 Y17.936
X28.951 Y17.919 Z-0.036
X28.957 Y17.887 Z-0.037
X28.962 Y17.858 Z-0.038
X28.963 Y17.854
X29.004 Y17.783 Z-0.041
X29.006 Y17.779
X29.015 Y17.771 Z-0.042
X29.059 Y17.733 Z-0.044
X29.068 Y17.725
X29.072 Y17.723
X29.146 Y17.692 Z-0.047
X29.15 Y17.691
X29.163 Z-0.048
X29.224 Y17.687 Z-0.05
X29.228 Y17.686
X29.232 Y17.687
X29.236 Y17.688
X29.309 Y17.708 Z-0.053
X29.313 Y17.709
X29.326 Y17.718
X29.377 Y17.753 Z-0.055
X29.38 Y17.755 Z-0.056
X29.382 Y17.758
X29.385 Y17.761
X29.429 Y17.821 Z-0.058
X29.431 Y17.824 Z-0.059
X29.435 Y17.839
X29.454 Y17.897 Z-0.061
X29.455 Y17.901
X29.454 Y17.909 Z-0.062
X29.453 Y17.978 Z-0.064
X29.452 Y17.982
X29.446 Y18 Z-0.065
X29.426 Y18.053 Z-0.067
X29.425 Y18.057
X29.418 Y18.066
X29.375 Y18.118 Z-0.07
X29.372 Y18.121
X29.356 Y18.131
X29.308 Y18.161 Z-0.072
X29.304 Y18.162 Z-0.073
X29.293 Y18.164
X29.232 Y18.179 Z-0.075
X29.228
X29.206 Y18.177 Z-0.076
X29.153 Y18.171 Z-0.078
X29.15 Y18.17
X29.11 Y18.152 Z-0.08
X29.084 Y18.14 Z-0.081
X29.081 Y18.138
X29.062 Y18.12 Z-0.082
X29.027 Y18.086 Z-0.083
X29.024 Y18.084
X29.016 Y18.068 Z-0.084
X28.99 Y18.017 Z-0.086
X28.989 Y18.014
X28.985 Y17.989 Z-0.087
X28.978 Y17.94 Z-0.089
X28.979 Y17.937
X28.982 Y17.919
X28.992 Y17.868 Z-0.091
X28.993 Y17.864
X29.02 Y17.816 Z-0.093
X29.029 Y17.801 Z-0.094
X29.031 Y17.798
X29.036 Y17.794
X29.085 Y17.75 Z-0.096
X29.089 Y17.748 Z-0.097
X29.152 Y17.722 Z-0.099
X29.155 Y17.721
X29.165 Y17.72
X29.227 Y17.717 Z-0.102
X29.23
X29.26 Y17.725 Z-0.103
X29.298 Y17.736 Z-0.104
X29.301 Y17.737
X29.31 Y17.743 Z-0.105
X29.358 Y17.776 Z-0.107
X29.361 Y17.778
X29.38 Y17.804 Z-0.108
X29.402 Y17.833 Z-0.109
X29.404 Y17.836
X29.408 Y17.849 Z-0.11
X29.425 Y17.904 Z-0.112
Y17.914
X29.424 Y17.975 Z-0.114
X29.423 Y17.978
X29.419 Y17.99 Z-0.115
X29.4 Y18.042 Z-0.117
X29.398 Y18.044
X29.376 Y18.072 Z-0.118
X29.356 Y18.096 Z-0.119
X29.354 Y18.098
X29.34 Y18.107 Z-0.12
X29.297 Y18.134 Z-0.121
X29.294 Y18.135 Z-0.122
X29.23 Y18.15 Z-0.124
X29.227
X29.208 Y18.149 Z-0.125
X29.161 Y18.144 Z-0.126
X29.158 Y18.143
X29.144 Y18.137 Z-0.127
X29.096 Y18.115 Z-0.129
X29.094 Y18.113
X29.081 Y18.1
X29.048 Y18.069 Z-0.131
X29.046 Y18.067
X29.016 Y18.008 Z-0.133
X29.015 Y18.005 Z-0.134
X29.006 Y17.94 Z-0.136
X29.007 Y17.931
X29.018 Y17.876 Z-0.138
Y17.873
X29.05 Y17.817 Z-0.14
X29.052 Y17.815
X29.054 Y17.813 Z-0.141
X29.085 Y17.785 Z-0.142
X29.098 Y17.774
X29.101 Y17.772 Z-0.143
X29.159 Y17.748 Z-0.145
X29.161 Y17.747
X29.167
X29.209 Y17.744 Z-0.146
X29.226 Y17.743 Z-0.147
X29.229
X29.289 Y17.76 Z-0.149
X29.291 Y17.761
X29.296 Y17.764
X29.33 Y17.788 Z-0.15
X29.342 Y17.795
X29.344 Y17.798
X29.374 Y17.837 Z-0.152
X29.381 Y17.846
X29.382 Y17.849
X29.384 Y17.857
X29.401 Y17.907 Z-0.154
Y17.91
Y17.94
X29.4 Y17.97 Z-0.155
Y17.972
X29.396 Y17.983
X29.38 Y18.03 Z-0.157
X29.378 Y18.032
X29.358 Y18.058
X29.341 Y18.079 Z-0.158
X29.34 Y18.081
X29.328 Y18.088
X29.288 Y18.114 Z-0.159
X29.286 Y18.115
X29.252 Y18.123 Z-0.16
X29.226 Y18.129
X29.223
X29.21 Y18.128
X29.166 Y18.124 Z-0.161
X29.163
X29.129 Y18.108 Z-0.162
X29.107 Y18.099
X29.105 Y18.097
X29.094 Y18.086
X29.063 Y18.058 Z-0.163
X29.061 Y18.056
X29.052 Y18.039
X29.034 Y18.005
X29.033 Y18.002
X29.032 Y18
X29.029 Y17.982 Z-0.164
X29.022 Y17.94
X29.023 Y17.938
X29.026 Y17.92
X29.032 Y17.881
X29.033 Y17.878
X29.043 Y17.86 Z-0.165
X29.062 Y17.825
X29.064 Y17.824
X29.106 Y17.785
X29.108 Y17.783
X29.13 Y17.774
X29.163 Y17.759
X29.166 Y17.758
X29.177 Y17.757
X29.225 Y17.753
X29.226 Y17.754
X29.284 Y17.768
X29.287 Y17.769
X29.336 Y17.802
X29.338 Y17.804
X29.373 Y17.849
X29.375 Y17.851
X29.395 Y17.909
Y17.91
Y17.97
X29.394 Y17.972
X29.375 Y18.029
X29.374 Y18.03
X29.338 Y18.077
X29.335 Y18.079
X29.286 Y18.111
X29.284 Y18.112
X29.226 Y18.126
X29.224 Y18.127
X29.165 Y18.122
X29.163 Y18.121
X29.108 Y18.097
X29.106 Y18.095
X29.063 Y18.055
X29.062 Y18.054
X29.034 Y18.002
X29.033 Y18
X29.023 Y17.94
Y17.938
X29.033 Y17.881
Y17.879
X29.062 Y17.826
X29.063 Y17.824
X29.107 Y17.783
X29.109
X29.164 Y17.759
X29.166 Y17.758
X29.177 Y17.757
X29.223 Y17.76
X29.267 Y17.774
X29.305 Y17.799
X29.336 Y17.833
X29.357 Y17.874
X29.366 Y17.919
Z5
X31.53 Y18.031
Z2.035
Z0
X31.5 Y18.02
X31.477 Y17.999
X31.464 Y17.971
X31.463 Y17.94
X31.479 Y17.848
Y17.846
X31.524 Y17.764
X31.526 Y17.762
X31.593 Y17.7
X31.594
X31.678 Y17.663
X31.68 Y17.662
X31.773 Y17.654
X31.774
X31.865 Y17.677
X31.866 Y17.678
X31.943 Y17.729
X31.945 Y17.73
X32.002 Y17.803
X32.003 Y17.805
X32.033 Y17.892
Y17.894
Y17.987
X32.032 Y17.989
X32.002 Y18.076
X31.946 Y18.149
X31.944 Y18.151
X31.866 Y18.202
X31.864 Y18.203
X31.774 Y18.226
X31.773
X31.68 Y18.218
X31.678 Y18.217
X31.594 Y18.18
X31.593
X31.525 Y18.117
X31.523 Y18.115
X31.479 Y18.033
Y18.032
X31.463 Y17.941
Y17.94
X31.471 Y17.911
X31.476 Y17.883
X31.481 Y17.851
X31.482 Y17.847
X31.491 Y17.83
X31.5 Y17.814
X31.524 Y17.77
X31.526 Y17.766 Z-0.001
X31.53 Y17.763
X31.54 Y17.753
X31.571 Y17.725
X31.594 Y17.704
X31.599 Y17.701
X31.632 Y17.687 Z-0.002
X31.678 Y17.667
X31.683 Y17.666
X31.701 Y17.664
X31.761 Y17.66 Z-0.003
X31.77 Y17.659
X31.775
X31.779 Y17.66
X31.814 Y17.67 Z-0.004
X31.863 Y17.682
X31.866 Y17.685
X31.882 Y17.695 Z-0.005
X31.939 Y17.733 Z-0.006
X31.942 Y17.737
X31.945 Y17.74
X31.967 Y17.769 Z-0.007
X31.994 Y17.805 Z-0.008
X31.996 Y17.809
X32.003 Y17.83
X32.024 Y17.891 Z-0.009
X32.025 Y17.896
X32.024 Y17.905 Z-0.01
Y17.94
X32.023 Y17.985 Z-0.011
X32.022 Y17.989 Z-0.012
X32.015 Y18.01
X31.993 Y18.071 Z-0.014
X31.99 Y18.074
X31.985 Y18.081
X31.963 Y18.109 Z-0.015
X31.938 Y18.14 Z-0.016
X31.935 Y18.143
X31.912 Y18.157 Z-0.017
X31.862 Y18.189 Z-0.018
X31.858 Y18.19
X31.845 Y18.194 Z-0.019
X31.811 Y18.202 Z-0.02
X31.773 Y18.21 Z-0.021
X31.769
X31.743 Y18.208 Z-0.022
X31.684 Y18.202 Z-0.024
X31.68 Y18.2
X31.668 Y18.195
X31.61 Y18.168 Z-0.026
X31.606 Y18.166
X31.602 Y18.164
X31.581 Y18.143 Z-0.027
X31.541 Y18.105 Z-0.029
X31.539 Y18.102
X31.531 Y18.087 Z-0.03
X31.5 Y18.027 Z-0.032
X31.499 Y18.023
X31.495 Y17.993 Z-0.033
X31.487 Y17.944 Z-0.035
Y17.94
X31.489 Y17.927 Z-0.036
X31.5 Y17.87 Z-0.038
X31.502 Y17.858
X31.503 Y17.854
X31.544 Y17.782 Z-0.041
X31.547 Y17.779
X31.556 Y17.771 Z-0.042
X31.599 Y17.732 Z-0.044
X31.609 Y17.724
X31.612 Y17.723
X31.687 Y17.692 Z-0.047
X31.691 Y17.691
X31.703 Z-0.048
X31.765 Y17.687 Z-0.05
X31.769 Y17.686
X31.773 Y17.687
X31.777 Y17.688
X31.849 Y17.708 Z-0.053
X31.853 Y17.709
X31.866 Y17.718
X31.917 Y17.753 Z-0.056
X31.92 Y17.755
X31.925 Y17.762
X31.969 Y17.821 Z-0.058
X31.971 Y17.825 Z-0.059
X31.975 Y17.84
X31.994 Y17.898 Z-0.061
Y17.902
Y17.91 Z-0.062
X31.993 Y17.978 Z-0.064
X31.992 Y17.982
X31.986 Y18 Z-0.065
X31.966 Y18.054 Z-0.067
X31.964 Y18.057
X31.957 Y18.066
X31.917 Y18.116 Z-0.07
X31.915 Y18.119
X31.895 Y18.131
X31.847 Y18.161 Z-0.072
X31.844 Y18.162 Z-0.073
X31.833 Y18.164
X31.771 Y18.179 Z-0.075
X31.768
X31.746 Y18.176 Z-0.076
X31.693 Y18.171 Z-0.078
X31.689 Y18.17
X31.623 Y18.139 Z-0.081
X31.62 Y18.138
X31.602 Y18.12 Z-0.082
X31.566 Y18.086 Z-0.083
X31.564 Y18.083
X31.556 Y18.067 Z-0.084
X31.53 Y18.017 Z-0.086
X31.529 Y18.013
X31.521 Y17.961 Z-0.088
X31.519 Y17.943 Z-0.089
X31.518 Y17.939
X31.519 Y17.932
X31.532 Y17.867 Z-0.091
X31.533 Y17.864
X31.569 Y17.8 Z-0.094
X31.571 Y17.798
X31.576 Y17.793
X31.623 Y17.752 Z-0.096
X31.626 Y17.75 Z-0.097
X31.629 Y17.748
X31.692 Y17.722 Z-0.099
X31.695 Y17.721
X31.706 Y17.72
X31.768 Y17.716 Z-0.102
X31.771 Y17.717
X31.8 Y17.725 Z-0.103
X31.839 Y17.736 Z-0.104
X31.842 Y17.737
X31.85 Y17.743 Z-0.105
X31.898 Y17.776 Z-0.107
X31.901 Y17.778
X31.921 Y17.805 Z-0.108
X31.942 Y17.834 Z-0.109
X31.944 Y17.837
X31.948 Y17.849 Z-0.11
X31.965 Y17.901 Z-0.112
Y17.905
Y17.914
X31.964 Y17.976 Z-0.114
X31.958 Y17.991 Z-0.115
X31.94 Y18.042 Z-0.117
