(Front holes 1mm end mill)
(cutout)
(Machine)
(  vendor: Autodesk)
(  description: Generic 3-axis)
(T1  D=1 CR=0 - ZMIN=-1.999 - flat end mill)
G90 G94
G17
G21
G28 G91 Z0
G90

(Drill1)
T1
S1000 M3
G54
G0 X10.625 Y8.75
Z15.24
X11.125 Y8.756
Z5.115
G1 Z0.035 F1016
G2 X10.125 Y8.744 Z-0.473 I-0.5 J-0.006
X11.125 Y8.756 Z-0.981 I0.5 J0.006
X10.125 Y8.744 Z-1.489 I-0.5 J-0.006
X10.622 Y9.25 Z-1.744 I0.5 J0.006
X11.125 Y8.75 Z-1.999 I0.003 J-0.5
X10.125 Y8.75 I-0.5 J0
X11.125 Y8.75 I0.5 J0
X10.625 Y8.75 I-0.25 J0
G0 Z5.115
X13.2 Y7.626
G1 Z0.035 F1016
G2 X12.2 Y7.614 Z-0.473 I-0.5 J-0.006
X13.2 Y7.626 Z-0.981 I0.5 J0.006
X12.2 Y7.614 Z-1.489 I-0.5 J-0.006
X12.697 Y8.12 Z-1.744 I0.5 J0.006
X13.2 Y7.62 Z-1.999 I0.003 J-0.5
X12.2 Y7.62 I-0.5 J0
X13.2 Y7.62 I0.5 J0
X12.7 Y7.62 I-0.25 J0
G0 Z5.115
X18.28 Y7.626
G1 Z0.035 F1016
G2 X17.28 Y7.614 Z-0.473 I-0.5 J-0.006
X18.28 Y7.626 Z-0.981 I0.5 J0.006
X17.28 Y7.614 Z-1.489 I-0.5 J-0.006
X17.777 Y8.12 Z-1.744 I0.5 J0.006
X18.28 Y7.62 Z-1.999 I0.003 J-0.5
X17.28 Y7.62 I-0.5 J0
X18.28 Y7.62 I0.5 J0
X17.78 Y7.62 I-0.25 J0
G0 Z5.115
Z5.15
X18.612 Y5.113
G1 Z0.07 F1016
G2 X17.638 Y4.887 Z-0.438 I-0.487 J-0.113
X18.612 Y5.113 Z-0.946 I0.487 J0.113
X17.638 Y4.887 Z-1.454 I-0.487 J-0.113
X18.068 Y5.497 Z-1.727 I0.487 J0.113
X18.625 Y5 Z-1.999 I0.057 J-0.497
X17.625 Y5 I-0.5 J0
X18.625 Y5 I0.5 J0
X18.125 Y5 I-0.25 J0
G0 Z5.15
X22.375 Y2.506
Z5.115
G1 Z0.035 F1016
G2 X21.375 Y2.494 Z-0.473 I-0.5 J-0.006
X22.375 Y2.506 Z-0.981 I0.5 J0.006
X21.375 Y2.494 Z-1.489 I-0.5 J-0.006
X21.872 Y3 Z-1.744 I0.5 J0.006
X22.375 Y2.5 Z-1.999 I0.003 J-0.5
X21.375 Y2.5 I-0.5 J0
X22.375 Y2.5 I0.5 J0
X21.875 Y2.5 I-0.25 J0
G0 Z5.115
X27.36 Y5.086
G1 Z0.035 F1016
G2 X26.36 Y5.074 Z-0.473 I-0.5 J-0.006
X27.36 Y5.086 Z-0.981 I0.5 J0.006
X26.36 Y5.074 Z-1.489 I-0.5 J-0.006
X26.857 Y5.58 Z-1.744 I0.5 J0.006
X27.36 Y5.08 Z-1.999 I0.003 J-0.5
X26.36 Y5.08 I-0.5 J0
X27.36 Y5.08 I0.5 J0
X26.86 Y5.08 I-0.25 J0
G0 Z5.115
X27.17 Y10.006
G1 Z0.035 F1016
G2 X26.17 Y9.994 Z-0.473 I-0.5 J-0.006
X27.17 Y10.006 Z-0.981 I0.5 J0.006
X26.17 Y9.994 Z-1.489 I-0.5 J-0.006
X26.667 Y10.5 Z-1.744 I0.5 J0.006
X27.17 Y10 Z-1.999 I0.003 J-0.5
X26.17 Y10 I-0.5 J0
X27.17 Y10 I0.5 J0
X26.67 Y10 I-0.25 J0
G0 Z5.115
X29.71 Y10.006
G1 Z0.035 F1016
G2 X28.71 Y9.994 Z-0.473 I-0.5 J-0.006
X29.71 Y10.006 Z-0.981 I0.5 J0.006
X28.71 Y9.994 Z-1.489 I-0.5 J-0.006
X29.207 Y10.5 Z-1.744 I0.5 J0.006
X29.71 Y10 Z-1.999 I0.003 J-0.5
X28.71 Y10 I-0.5 J0
X29.71 Y10 I0.5 J0
X29.21 Y10 I-0.25 J0
G0 Z5.115
X32.25 Y10.006
G1 Z0.035 F1016
G2 X31.25 Y9.994 Z-0.473 I-0.5 J-0.006
X32.25 Y10.006 Z-0.981 I0.5 J0.006
X31.25 Y9.994 Z-1.489 I-0.5 J-0.006
X31.747 Y10.5 Z-1.744 I0.5 J0.006
X32.25 Y10 Z-1.999 I0.003 J-0.5
X31.25 Y10 I-0.5 J0
X32.25 Y10 I0.5 J0
X31.75 Y10 I-0.25 J0
G0 Z5.115
Z5.15
X34.777 Y10.113
G1 Z0.07 F1016
G2 X33.803 Y9.887 Z-0.438 I-0.487 J-0.113
X34.777 Y10.113 Z-0.946 I0.487 J0.113
X33.803 Y9.887 Z-1.454 I-0.487 J-0.113
X34.233 Y10.497 Z-1.727 I0.487 J0.113
X34.79 Y10 Z-1.999 I0.057 J-0.497
X33.79 Y10 I-0.5 J0
X34.79 Y10 I0.5 J0
X34.29 Y10 I-0.25 J0
G0 Z5.15
X34.6 Y5.086
Z5.115
G1 Z0.035 F1016
G2 X33.6 Y5.074 Z-0.473 I-0.5 J-0.006
X34.6 Y5.086 Z-0.981 I0.5 J0.006
X33.6 Y5.074 Z-1.489 I-0.5 J-0.006
X34.097 Y5.58 Z-1.744 I0.5 J0.006
X34.6 Y5.08 Z-1.999 I0.003 J-0.5
X33.6 Y5.08 I-0.5 J0
X34.6 Y5.08 I0.5 J0
X34.1 Y5.08 I-0.25 J0
G0 Z5.115
X45.14 Y10.166
G1 Z0.035 F1016
G2 X44.14 Y10.154 Z-0.473 I-0.5 J-0.006
X45.14 Y10.166 Z-0.981 I0.5 J0.006
X44.14 Y10.154 Z-1.489 I-0.5 J-0.006
X44.637 Y10.66 Z-1.744 I0.5 J0.006
X45.14 Y10.16 Z-1.999 I0.003 J-0.5
X44.14 Y10.16 I-0.5 J0
X45.14 Y10.16 I0.5 J0
X44.64 Y10.16 I-0.25 J0
G0 Z5.115
X52.38 Y10.166
G1 Z0.035 F1016
G2 X51.38 Y10.154 Z-0.473 I-0.5 J-0.006
X52.38 Y10.166 Z-0.981 I0.5 J0.006
X51.38 Y10.154 Z-1.489 I-0.5 J-0.006
X51.877 Y10.66 Z-1.744 I0.5 J0.006
X52.38 Y10.16 Z-1.999 I0.003 J-0.5
X51.38 Y10.16 I-0.5 J0
X52.38 Y10.16 I0.5 J0
X51.88 Y10.16 I-0.25 J0
G0 Z5.115
X52.38 Y17.786
G1 Z0.035 F1016
G2 X51.38 Y17.774 Z-0.473 I-0.5 J-0.006
X52.38 Y17.786 Z-0.981 I0.5 J0.006
X51.38 Y17.774 Z-1.489 I-0.5 J-0.006
X51.877 Y18.28 Z-1.744 I0.5 J0.006
X52.38 Y17.78 Z-1.999 I0.003 J-0.5
X51.38 Y17.78 I-0.5 J0
X52.38 Y17.78 I0.5 J0
X51.88 Y17.78 I-0.25 J0
G0 Z5.115
X45.14 Y17.786
G1 Z0.035 F1016
G2 X44.14 Y17.774 Z-0.473 I-0.5 J-0.006
X45.14 Y17.786 Z-0.981 I0.5 J0.006
X44.14 Y17.774 Z-1.489 I-0.5 J-0.006
X44.637 Y18.28 Z-1.744 I0.5 J0.006
X45.14 Y17.78 Z-1.999 I0.003 J-0.5
X44.14 Y17.78 I-0.5 J0
X45.14 Y17.78 I0.5 J0
X44.64 Y17.78 I-0.25 J0
G0 Z5.115
X34.6 Y22.866
G1 Z0.035 F1016
G2 X33.6 Y22.854 Z-0.473 I-0.5 J-0.006
X34.6 Y22.866 Z-0.981 I0.5 J0.006
X33.6 Y22.854 Z-1.489 I-0.5 J-0.006
X34.097 Y23.36 Z-1.744 I0.5 J0.006
X34.6 Y22.86 Z-1.999 I0.003 J-0.5
X33.6 Y22.86 I-0.5 J0
X34.6 Y22.86 I0.5 J0
X34.1 Y22.86 I-0.25 J0
G0 Z5.115
X34.79 Y17.946
G1 Z0.035 F1016
G2 X33.79 Y17.934 Z-0.473 I-0.5 J-0.006
X34.79 Y17.946 Z-0.981 I0.5 J0.006
X33.79 Y17.934 Z-1.489 I-0.5 J-0.006
X34.287 Y18.44 Z-1.744 I0.5 J0.006
X34.79 Y17.94 Z-1.999 I0.003 J-0.5
X33.79 Y17.94 I-0.5 J0
X34.79 Y17.94 I0.5 J0
X34.29 Y17.94 I-0.25 J0
G0 Z5.115
X32.25 Y17.946
G1 Z0.035 F1016
G2 X31.25 Y17.934 Z-0.473 I-0.5 J-0.006
X32.25 Y17.946 Z-0.981 I0.5 J0.006
X31.25 Y17.934 Z-1.489 I-0.5 J-0.006
X31.747 Y18.44 Z-1.744 I0.5 J0.006
X32.25 Y17.94 Z-1.999 I0.003 J-0.5
X31.25 Y17.94 I-0.5 J0
X32.25 Y17.94 I0.5 J0
X31.75 Y17.94 I-0.25 J0
G0 Z5.115
Z5.15
X29.697 Y18.053
G1 Z0.07 F1016
G2 X28.723 Y17.827 Z-0.438 I-0.487 J-0.113
X29.697 Y18.053 Z-0.946 I0.487 J0.113
X28.723 Y17.827 Z-1.454 I-0.487 J-0.113
X29.153 Y18.437 Z-1.727 I0.487 J0.113
X29.71 Y17.94 Z-1.999 I0.057 J-0.497
X28.71 Y17.94 I-0.5 J0
X29.71 Y17.94 I0.5 J0
X29.21 Y17.94 I-0.25 J0
G0 Z5.15
X27.157 Y18.053
G1 Z0.07 F1016
G2 X26.183 Y17.827 Z-0.438 I-0.487 J-0.113
X27.157 Y18.053 Z-0.946 I0.487 J0.113
X26.183 Y17.827 Z-1.454 I-0.487 J-0.113
X26.613 Y18.437 Z-1.727 I0.487 J0.113
X27.17 Y17.94 Z-1.999 I0.057 J-0.497
X26.17 Y17.94 I-0.5 J0
X27.17 Y17.94 I0.5 J0
X26.67 Y17.94 I-0.25 J0
G0 Z5.15
X27.36 Y22.866
Z5.115
G1 Z0.035 F1016
G2 X26.36 Y22.854 Z-0.473 I-0.5 J-0.006
X27.36 Y22.866 Z-0.981 I0.5 J0.006
X26.36 Y22.854 Z-1.489 I-0.5 J-0.006
X26.857 Y23.36 Z-1.744 I0.5 J0.006
X27.36 Y22.86 Z-1.999 I0.003 J-0.5
X26.36 Y22.86 I-0.5 J0
X27.36 Y22.86 I0.5 J0
X26.86 Y22.86 I-0.25 J0
G0 Z5.115
Z5.15
X18.267 Y20.433
G1 Z0.07 F1016
G2 X17.293 Y20.207 Z-0.438 I-0.487 J-0.113
X18.267 Y20.433 Z-0.946 I0.487 J0.113
X17.293 Y20.207 Z-1.454 I-0.487 J-0.113
X17.723 Y20.817 Z-1.727 I0.487 J0.113
X18.28 Y20.32 Z-1.999 I0.057 J-0.497
X17.28 Y20.32 I-0.5 J0
X18.28 Y20.32 I0.5 J0
X17.78 Y20.32 I-0.25 J0
G0 Z5.15
X13.187 Y20.433
G1 Z0.07 F1016
G2 X12.213 Y20.207 Z-0.438 I-0.487 J-0.113
X13.187 Y20.433 Z-0.946 I0.487 J0.113
X12.213 Y20.207 Z-1.454 I-0.487 J-0.113
X12.643 Y20.817 Z-1.727 I0.487 J0.113
X13.2 Y20.32 Z-1.999 I0.057 J-0.497
X12.2 Y20.32 I-0.5 J0
X13.2 Y20.32 I0.5 J0
X12.7 Y20.32 I-0.25 J0
G0 Z5.15
X61.46 Y22.866
Z5.115
G1 Z0.035 F1016
G2 X60.46 Y22.854 Z-0.473 I-0.5 J-0.006
X61.46 Y22.866 Z-0.981 I0.5 J0.006
X60.46 Y22.854 Z-1.489 I-0.5 J-0.006
X60.957 Y23.36 Z-1.744 I0.5 J0.006
X61.46 Y22.86 Z-1.999 I0.003 J-0.5
X60.46 Y22.86 I-0.5 J0
X61.46 Y22.86 I0.5 J0
X60.96 Y22.86 I-0.25 J0
G0 Z5.115
X66.54 Y22.866
G1 Z0.035 F1016
G2 X65.54 Y22.854 Z-0.473 I-0.5 J-0.006
X66.54 Y22.866 Z-0.981 I0.5 J0.006
X65.54 Y22.854 Z-1.489 I-0.5 J-0.006
X66.037 Y23.36 Z-1.744 I0.5 J0.006
X66.54 Y22.86 Z-1.999 I0.003 J-0.5
X65.54 Y22.86 I-0.5 J0
X66.54 Y22.86 I0.5 J0
X66.04 Y22.86 I-0.25 J0
G0 Z5.115
X66.54 Y5.086
G1 Z0.035 F1016
G2 X65.54 Y5.074 Z-0.473 I-0.5 J-0.006
X66.54 Y5.086 Z-0.981 I0.5 J0.006
X65.54 Y5.074 Z-1.489 I-0.5 J-0.006
X66.037 Y5.58 Z-1.744 I0.5 J0.006
X66.54 Y5.08 Z-1.999 I0.003 J-0.5
X65.54 Y5.08 I-0.5 J0
X66.54 Y5.08 I0.5 J0
X66.04 Y5.08 I-0.25 J0
G0 Z5.115
X61.46 Y5.086
G1 Z0.035 F1016
G2 X60.46 Y5.074 Z-0.473 I-0.5 J-0.006
X61.46 Y5.086 Z-0.981 I0.5 J0.006
X60.46 Y5.074 Z-1.489 I-0.5 J-0.006
X60.957 Y5.58 Z-1.744 I0.5 J0.006
X61.46 Y5.08 Z-1.999 I0.003 J-0.5
X60.46 Y5.08 I-0.5 J0
X61.46 Y5.08 I0.5 J0
X60.96 Y5.08 I-0.25 J0
G0 Z5.115
Z15.24
G28 G91 Z0
G90
G28 G91 X0 Y0
G90
M5
M30
