(Front copper)
(cutout)
(Machine)
(  vendor: Autodesk)
(  description: Generic 3-axis)
(T2  D=3.175 CR=0 TAPER=30deg - ZMIN=-0.03 - chamfer mill)
G90 G94
G17
G21
(When using Fusion 360 for Personal Use, the feedrate of)
(rapid moves is reduced to match the feedrate of cutting)
(moves, which can increase machining time. Unrestricted rapid)
(moves are available with a Fusion 360 Subscription.)
G28 G91 Z0
G90

(Contour1)
T2
S1000 M3
G54
G0 X9.34 Y7.945
Z15.24
G1 Z2.086 F60
Z0.035
G3 X9.658 Y8.36 I0.016 J0.317
G1 X9.602 Y8.548
X9.6 Y8.554
Y8.559
X9.599 Y8.571
X9.583 Y8.752
X9.582 Y8.764
Y8.769
X9.583 Y8.775
X9.605 Y8.968
X9.606 Y8.973
X9.607 Y8.979
X9.622 Y9.024
X9.67 Y9.169
X9.672 Y9.174
X9.674 Y9.178
X9.679 Y9.188
X9.772 Y9.348
X9.777 Y9.358
X9.781 Y9.363
X9.785 Y9.368
X9.905 Y9.503
X9.918 Y9.517
X9.921 Y9.52
X9.924 Y9.522
X9.93 Y9.527
X10.066 Y9.628
X10.089 Y9.645
X10.095 Y9.648
X10.1 Y9.651
X10.27 Y9.73
X10.282 Y9.735
X10.287 Y9.737
X10.293 Y9.738
X10.475 Y9.781
X10.486 Y9.784
X10.492 Y9.785
X10.497
X10.679 Y9.791
X10.69
X10.696
X10.701 Y9.79
X10.886 Y9.759
X10.891
X10.896 Y9.757
X10.915 Y9.75
X11.076 Y9.69
X11.081 Y9.688
X11.087 Y9.685
X11.11 Y9.672
X11.252 Y9.583
X11.257 Y9.58
X11.261 Y9.577
X11.27 Y9.569
X11.402 Y9.445
X11.407 Y9.44
X11.411 Y9.435
X11.418 Y9.426
X11.511 Y9.297
X11.527 Y9.274
X11.53 Y9.268
X11.533 Y9.263
X11.61 Y9.093
X11.612 Y9.087
X11.614 Y9.081
X11.617 Y9.07
X11.658 Y8.893
X11.659 Y8.889
Y8.885
X11.66 Y8.877
X11.665 Y8.707
X11.666 Y8.684
Y8.678
X11.665 Y8.673
X11.648 Y8.571
X11.633 Y8.48
X11.599 Y8.389
X11.563 Y8.295
X11.561 Y8.289
X11.558 Y8.284
X11.551 Y8.273
X11.473 Y8.146
X11.454 Y8.117
X11.45 Y8.112
X11.446 Y8.107
X11.321 Y7.974
X11.316 Y7.969
X11.313 Y7.966
X11.311 Y7.964
X11.291 Y7.95
X11.158 Y7.854
X11.15 Y7.849
X11.147 Y7.847
X11.143 Y7.845
X11.11 Y7.829
X10.974 Y7.768
X10.962 Y7.763
X10.957 Y7.761
X10.951 Y7.76
X10.769 Y7.717
X10.764 Y7.716
X10.758 Y7.715
X10.679 Y7.708
X10.667
X10.656
X10.475 Y7.719
X10.463 Y7.72
X10.458
X10.452 Y7.722
X10.27 Y7.77
X10.259 Y7.773
X10.253 Y7.775
X10.248 Y7.778
X10.112 Y7.846
X10.066 Y7.869
X10.063 Y7.871
X10.061 Y7.873
X10.055 Y7.877
X9.904 Y7.997
X9.9 Y8
X9.896 Y8.004
X9.889 Y8.012
X9.771 Y8.152
X9.764 Y8.161
X9.761 Y8.166
X9.758 Y8.17
X9.664 Y8.345
X9.662 Y8.349
X9.661 Y8.352
X9.658 Y8.36
G3 X9.157 Y8.509 I-0.302 J-0.098
G1 Z5.08
X10.338 Y8.968
Z2.086
Z0.035
G3 X10.123 Y8.544 I0.08 J-0.307
G1 X10.145 Y8.487
X10.146 Y8.486
X10.226 Y8.376
X10.228 Y8.374
X10.331 Y8.288
X10.333 Y8.287
X10.455 Y8.23
X10.456
X10.59 Y8.204
X10.591
X10.727 Y8.212
X10.728 Y8.213
X10.857 Y8.255
X10.858
X10.974 Y8.328
X10.975 Y8.33
X11.067 Y8.428
X11.068 Y8.429
X11.133 Y8.548
X11.134 Y8.55
X11.168 Y8.681
Y8.683
Y8.817
Y8.819
X11.134 Y8.951
X11.133 Y8.953
X11.068 Y9.071
X11.067 Y9.073
X10.975 Y9.17
X10.974 Y9.172
X10.858 Y9.245
X10.857 Y9.246
X10.728 Y9.287
X10.727 Y9.288
X10.591 Y9.296
X10.589
X10.456 Y9.27
X10.455
X10.332 Y9.212
X10.33 Y9.211
X10.226 Y9.125
X10.224 Y9.122
X10.146 Y9.015
X10.145 Y9.013
X10.095 Y8.887
Y8.886
X10.078 Y8.751
Y8.749
X10.095 Y8.615
Y8.614
X10.112 Y8.572
X10.123 Y8.544
X10.141 Y8.505
X10.148 Y8.489
X10.15 Y8.486
X10.151 Y8.484
X10.165 Y8.465
X10.191 Y8.43 Z0.034
X10.217 Y8.395
X10.229 Y8.378 Z0.033
X10.231 Y8.376
X10.249 Y8.362
X10.283 Y8.334 Z0.032
X10.317 Y8.307 Z0.031
X10.333 Y8.295 Z0.03
X10.335 Y8.293
X10.356 Y8.283
X10.396 Y8.265 Z0.029
X10.435 Y8.248 Z0.027
X10.456 Y8.238
X10.459 Y8.237 Z0.026
X10.479 Y8.234
X10.521 Y8.226 Z0.024
X10.564 Y8.219 Z0.023
X10.589 Y8.215 Z0.022
X10.592 Y8.214
X10.609 Y8.216 Z0.021
X10.723 Y8.225 Z0.017
X10.726 Y8.226
X10.739 Y8.23
X10.849 Y8.269 Z0.013
X10.852 Y8.27
X10.861 Y8.276 Z0.012
X10.897 Y8.3 Z0.011
X10.96 Y8.342 Z0.008
X10.963 Y8.343
X10.968 Y8.349
X10.997 Y8.381 Z0.007
X11.026 Y8.413 Z0.006
X11.048 Y8.437 Z0.005
X11.05 Y8.439
X11.051 Y8.441
X11.054 Y8.446 Z0.004
X11.074 Y8.484 Z0.003
X11.094 Y8.522 Z0.002
X11.11 Y8.55
X11.112 Y8.555
X11.113 Y8.558
X11.114 Y8.56
X11.124 Y8.602 Z0.001
X11.135 Y8.644
X11.14 Y8.664 Z0
X11.144 Y8.682
X11.145 Y8.685
Y8.696
Y8.717
Y8.728
X11.148 Y8.749
Y8.816
X11.115 Y8.944
X11.114 Y8.946
X11.051 Y9.059
X11.05 Y9.061
X10.961 Y9.155
X10.959 Y9.157
X10.85 Y9.226
X10.849 Y9.227
X10.724 Y9.267
X10.723 Y9.268
X10.592 Y9.276
X10.591
X10.463 Y9.251
X10.462
X10.343 Y9.195
X10.341 Y9.194
X10.243 Y9.112
X10.241 Y9.11
X10.164 Y9.005
X10.163 Y9.003
X10.116 Y8.883
X10.115 Y8.881
X10.098 Y8.751
Y8.749
X10.112 Y8.643
X10.115 Y8.621
Y8.618
X10.141 Y8.552
X10.163 Y8.497
X10.164 Y8.496
X10.24 Y8.391
X10.241 Y8.389
X10.341 Y8.307
X10.343 Y8.305
X10.462 Y8.249
X10.463
X10.591 Y8.224
X10.592
X10.723 Y8.232
X10.724 Y8.233
X10.849 Y8.273
X10.85 Y8.274
X10.959 Y8.343
X10.961 Y8.344
X11.049 Y8.438
X11.051 Y8.441
X11.115 Y8.556
Y8.557
X11.147 Y8.683
X11.148 Y8.684
Y8.749
X11.145 Y8.792
Y8.813
Y8.816
X11.142 Y8.827
X11.139 Y8.839
X11.128 Y8.881 Z-0.001
X11.116 Y8.922
X11.112 Y8.94 Z-0.002
X11.111 Y8.943
X11.11 Y8.945
X11.098 Y8.966
X11.077 Y9.003 Z-0.003
X11.056 Y9.041 Z-0.004
X11.047 Y9.056
X11.045 Y9.059
X11.043 Y9.061
X11.026 Y9.078 Z-0.005
X10.996 Y9.109 Z-0.006
X10.958 Y9.148 Z-0.008
X10.956 Y9.15
X10.954 Y9.152
X10.949 Y9.155
X10.929 Y9.167 Z-0.009
X10.892 Y9.189 Z-0.01
X10.845 Y9.218 Z-0.012
X10.842 Y9.219
X10.812 Y9.228 Z-0.013
X10.721 Y9.255 Z-0.016
X10.641 Y9.259 Z-0.019
X10.595 Y9.261 Z-0.02
X10.593
X10.554 Y9.253 Z-0.021
X10.512 Y9.244 Z-0.023
X10.47 Y9.236 Z-0.024
X10.467 Y9.235
X10.45 Y9.226
X10.43 Y9.217 Z-0.025
X10.391 Y9.198 Z-0.026
X10.362 Y9.183 Z-0.027
X10.354 Y9.18
X10.352 Y9.179
X10.335 Y9.164
X10.319 Y9.15 Z-0.028
X10.286 Y9.123
X10.261 Y9.102 Z-0.029
X10.257 Y9.098
X10.255 Y9.096
X10.253 Y9.094
X10.228 Y9.059 Z-0.03
X10.203 Y9.024
X10.19 Y9.006
X10.182 Y8.995
X10.181 Y8.993
X10.179 Y8.988
X10.173 Y8.974
X10.135 Y8.877
X10.134 Y8.876
X10.119 Y8.751
Y8.749
X10.134 Y8.625
X10.135 Y8.623
X10.16 Y8.559
X10.181 Y8.507
X10.182 Y8.506
X10.255 Y8.405
X10.256 Y8.403
X10.353 Y8.323
X10.354 Y8.322
X10.468 Y8.269
X10.47 Y8.268
X10.592 Y8.245
X10.594
X10.72 Y8.253
X10.721
X10.839 Y8.291
X10.841 Y8.292
X10.947 Y8.36
X10.949 Y8.361
X11.035 Y8.452
Y8.454
X11.095 Y8.562
X11.096 Y8.564
X11.127 Y8.686
Y8.687
Y8.813
Y8.815
X11.096 Y8.935
Y8.937
X11.035 Y9.047
X11.033 Y9.049
X10.948 Y9.14
X10.947 Y9.141
X10.841 Y9.208
X10.839 Y9.209
X10.721 Y9.247
X10.72
X10.594 Y9.255
X10.592
X10.469 Y9.232
X10.467 Y9.231
X10.354 Y9.178
X10.353 Y9.177
X10.257 Y9.098
X10.255 Y9.096
X10.182 Y8.995
X10.181 Y8.994
X10.173 Y8.974
G3 X10.355 Y8.56 I0.295 J-0.117
G1 Z5.08
X11.643 Y7.885
Z2.086
Z0.035
G3 X12 Y7.992 I0.129 J0.219
G1 X12.003 Y7.997
X12.096 Y8.132
X12.101 Y8.14
X12.104 Y8.143
X12.108 Y8.147
X12.175 Y8.208
X12.232 Y8.259
X12.238 Y8.265
X12.241 Y8.267
X12.244 Y8.269
X12.289 Y8.294
X12.38 Y8.343
X12.402 Y8.355
X12.408 Y8.357
X12.414 Y8.359
X12.573 Y8.402
X12.578 Y8.404
X12.584 Y8.405
X12.59
X12.595
X12.754 Y8.411
X12.76
X12.765 Y8.41
X12.788 Y8.406
X12.924 Y8.38
X12.93 Y8.379
X12.935 Y8.377
X12.941 Y8.375
X12.947 Y8.373
X13.083 Y8.313
X13.094 Y8.308
X13.1 Y8.305
X13.106 Y8.301
X13.231 Y8.208
X13.24 Y8.201
X13.244 Y8.197
X13.248 Y8.193
X13.351 Y8.072
X13.356 Y8.066
X13.359 Y8.06
X13.365 Y8.049
X13.425 Y7.936
X13.437 Y7.913
X13.439 Y7.907
X13.441 Y7.901
X13.48 Y7.754
X13.483 Y7.743
X13.484 Y7.737
X13.485 Y7.731
X13.486 Y7.709
X13.491 Y7.573
Y7.561
X13.49 Y7.556
X13.489 Y7.55
X13.459 Y7.391
X13.458 Y7.385
X13.456 Y7.38
X13.451 Y7.368
X13.391 Y7.233
X13.389 Y7.227
X13.386 Y7.221
X13.382 Y7.216
X13.287 Y7.088
X13.284 Y7.083
X13.28 Y7.079
X13.275 Y7.074
X13.151 Y6.968
X13.148 Y6.966
X13.145 Y6.964
X13.14 Y6.96
X13.096 Y6.937
X13.015 Y6.895
X12.992 Y6.883
X12.987 Y6.88
X12.981 Y6.879
X12.833 Y6.84
X12.822 Y6.837
X12.816 Y6.835
X12.811
X12.743 Y6.828
X12.737
X12.731
X12.561 Y6.839
X12.558 Y6.84
X12.554
X12.551 Y6.841
X12.547 Y6.842
X12.471 Y6.866
X12.38 Y6.894
X12.375 Y6.896
X12.371 Y6.899
X12.244 Y6.974
X12.221 Y6.988
X12.218 Y6.99
X12.215 Y6.992
X12.21 Y6.998
X12.091 Y7.113
X12.088 Y7.116
X12.085 Y7.119
X12.083 Y7.122
X12.081 Y7.124
X12.077 Y7.13
X11.993 Y7.263
X11.987 Y7.272
X11.985 Y7.277
X11.983 Y7.282
X11.977 Y7.3
X11.945 Y7.391
X11.926 Y7.447
X11.925 Y7.451
X11.924 Y7.455
X11.923 Y7.464
X11.908 Y7.618
X11.907 Y7.629
Y7.635
Y7.641
X11.91 Y7.663
X11.931 Y7.812
Y7.816
X11.932 Y7.82
X11.935 Y7.828
X11.993 Y7.977
X11.997 Y7.987
X12 Y7.992
Y7.998
X12.003 Y8.002
X12.008 Y8.011
X12.02 Y8.028
X12.044 Y8.063
X12.069 Y8.099 Z0.034
X12.093 Y8.135
X12.099 Y8.143
X12.102 Y8.146 Z0.033
X12.105 Y8.15
X12.119 Y8.163
X12.151 Y8.193 Z0.032
X12.183 Y8.222 Z0.031
X12.215 Y8.251 Z0.03
X12.233 Y8.268
X12.237 Y8.271 Z0.029
X12.241 Y8.274
X12.245 Y8.277
X12.283 Y8.298 Z0.028
X12.32 Y8.319 Z0.027
X12.358 Y8.341 Z0.025
X12.395 Y8.362 Z0.024
X12.4 Y8.364
X12.404 Y8.366
X12.409 Y8.368 Z0.023
X12.434 Y8.375
X12.568 Y8.414 Z0.018
X12.578 Y8.417 Z0.017
X12.583 Y8.418
X12.588
X12.599 Y8.419
X12.728 Y8.426 Z0.012
X12.749 Y8.427 Z0.011
X12.76 Y8.428
X12.765 Y8.427
X12.77
X12.813 Y8.419 Z0.009
X12.855 Y8.412 Z0.008
X12.898 Y8.405 Z0.007
X12.93 Y8.399 Z0.006
X12.935 Y8.398
X12.94 Y8.397 Z0.005
X12.945 Y8.395
X12.95 Y8.393
X12.96 Y8.389
X12.98 Y8.381 Z0.004
X13.02 Y8.364 Z0.003
X13.06 Y8.347 Z0.002
X13.099 Y8.33
X13.104 Y8.328
X13.109 Y8.325
X13.114 Y8.322 Z0.001
X13.118 Y8.319
X13.136 Y8.306
X13.171 Y8.281
X13.206 Y8.255 Z0
X13.24 Y8.23
X13.249 Y8.223
X13.252 Y8.221
X13.254 Y8.22
X13.256 Y8.214
X13.258 Y8.212
X13.261 Y8.208
X13.36 Y8.093
X13.37 Y8.081
X13.374 Y8.075
X13.378 Y8.069
X13.448 Y7.936
X13.455 Y7.921
X13.458 Y7.914
X13.461 Y7.906
X13.501 Y7.754
X13.504 Y7.743
X13.505 Y7.737
Y7.731
X13.506 Y7.709
X13.511 Y7.573
Y7.561
Y7.556
X13.51 Y7.55
X13.506 Y7.527
X13.48 Y7.391
X13.478 Y7.383
X13.475 Y7.375
X13.468 Y7.358
X13.408 Y7.221
X13.405 Y7.215
X13.402 Y7.21
X13.378 Y7.176
X13.301 Y7.073
X13.298 Y7.069
X13.295 Y7.066
X13.291 Y7.061
X13.287 Y7.058
X13.168 Y6.956
X13.161 Y6.95
X13.154 Y6.945
X13.14 Y6.937
X13.005 Y6.867
X13.001 Y6.864
X12.996 Y6.862
X12.991 Y6.861
X12.986 Y6.859
X12.833 Y6.819
X12.822 Y6.816
X12.811 Y6.814
X12.743 Y6.808
X12.737
X12.731
X12.72
X12.561 Y6.819
X12.556 Y6.82
X12.55 Y6.821
X12.544 Y6.822
X12.539 Y6.824
X12.38 Y6.873
X12.374 Y6.875
X12.368 Y6.877
X12.363 Y6.88
X12.357 Y6.883
X12.215 Y6.968
X12.207 Y6.973
X12.203 Y6.977
X12.198 Y6.98
X12.082 Y7.094
X12.075 Y7.1
X12.069 Y7.106
X12.065 Y7.113
X12.061 Y7.119
X11.974 Y7.255
X11.971 Y7.261
X11.968 Y7.266
X11.965 Y7.272
X11.963 Y7.278
X11.926 Y7.384
X11.908 Y7.436
X11.906 Y7.442
X11.905 Y7.448
X11.904 Y7.459
X11.888 Y7.618
X11.887 Y7.629
Y7.635
Y7.641
X11.89 Y7.663
X11.909 Y7.799
X11.912 Y7.822
X11.914 Y7.828
X11.916 Y7.833
X11.977 Y7.992
X11.98 Y7.998
X11.982 Y8.002
X11.983 Y8.004
X11.998 Y8.026
X12.081 Y8.146
X12.086 Y8.153
X12.089 Y8.156
X12.092 Y8.16
X12.108 Y8.174
X12.198 Y8.256
X12.227 Y8.282
X12.234 Y8.287
X12.241 Y8.291
X12.388 Y8.371
X12.393 Y8.373
X12.397 Y8.375
X12.401 Y8.376
X12.405 Y8.378
X12.414 Y8.38
X12.561 Y8.42
X12.573 Y8.423
X12.578 Y8.424
X12.584 Y8.425
X12.607 Y8.426
X12.743 Y8.431
X12.754
X12.76
X12.765
X12.788 Y8.427
X12.924 Y8.401
X12.933 Y8.399
X12.938 Y8.398
X12.942 Y8.397
X12.946 Y8.395
X12.951 Y8.393
X13.015 Y8.365
X13.106 Y8.325
X13.11 Y8.322
X13.115 Y8.319
X13.124 Y8.312
X13.245 Y8.223
X13.253 Y8.216
X13.256 Y8.214
Z5.08
X12.886 Y7.509
Z2.086
Z0.035
G3 X12.906 Y7.864 I-0.148 J0.187
G1 X12.89 Y7.88
X12.889 Y7.881
X12.801 Y7.925
X12.799 Y7.926
X12.7 Y7.942
X12.601 Y7.926
X12.6
X12.511 Y7.881
X12.51 Y7.88
X12.441 Y7.811
X12.44 Y7.809
X12.394 Y7.72
Y7.719
X12.378 Y7.62
X12.38 Y7.609
X12.394 Y7.521
Y7.52
X12.439 Y7.432
X12.44 Y7.431
X12.51 Y7.36
X12.511 Y7.359
X12.6 Y7.314
X12.601
X12.7 Y7.298
X12.799 Y7.314
X12.801 Y7.315
X12.888 Y7.359
X12.889 Y7.36
X12.96 Y7.43
X12.961 Y7.431
X13.006 Y7.52
Y7.521
X13.022 Y7.619
Y7.621
X13.006 Y7.719
Y7.72
X12.961 Y7.808
X12.96 Y7.809
X12.906 Y7.864
X12.895 Y7.87
X12.889 Y7.877
X12.886 Y7.878
X12.876 Y7.884
X12.865 Y7.889
X12.826 Y7.909
X12.799 Y7.922 Z0.034
X12.796 Y7.923
X12.781 Y7.926
X12.739 Y7.932 Z0.033
X12.715 Y7.935
X12.703 Y7.937
X12.7 Y7.938
X12.691 Y7.936
X12.648 Y7.929 Z0.032
X12.603 Y7.921 Z0.031
X12.6 Y7.92
X12.584 Y7.911 Z0.03
X12.563 Y7.9 Z0.029
X12.517 Y7.876 Z0.028
X12.515 Y7.874
X12.506 Y7.866
X12.49 Y7.849 Z0.027
X12.46 Y7.818 Z0.026
X12.448 Y7.805 Z0.025
X12.446 Y7.803
X12.445 Y7.8
X12.416 Y7.74 Z0.022
X12.405 Y7.717
X12.404 Y7.714 Z0.021
X12.402 Y7.697
X12.391 Y7.62 Z0.018
Y7.617
X12.393 Y7.609
X12.408 Y7.525 Z0.015
X12.409 Y7.523
X12.43 Y7.484 Z0.013
X12.453 Y7.441 Z0.012
X12.454 Y7.439 Z0.011
X12.48 Y7.414 Z0.01
X12.521 Y7.375 Z0.008
X12.524 Y7.374
X12.548 Y7.362 Z0.007
X12.606 Y7.333 Z0.006
X12.609 Z0.005
X12.628 Y7.33
X12.671 Y7.324 Z0.004
X12.7 Y7.32 Z0.003
X12.702
X12.713 Y7.322
X12.755 Y7.329 Z0.002
X12.776 Y7.333
X12.792 Y7.335 Z0.001
X12.794 Y7.336
X12.797 Y7.338
X12.835 Y7.358
X12.874 Y7.377 Z0
X12.876 Y7.379
X12.889 Y7.392
X12.904 Y7.407
X12.936 Y7.435
X12.942 Y7.441
X12.944 Y7.443
X12.986 Y7.526
X12.987 Y7.527
X13.001 Y7.619
Y7.621
X12.987 Y7.713
X12.986 Y7.714
X12.945 Y7.795
X12.944 Y7.797
X12.892 Y7.849
X12.879 Y7.862
X12.877 Y7.864
X12.794 Y7.906
X12.792 Y7.907
X12.7 Y7.921
X12.699
X12.608 Y7.907
X12.607
X12.524 Y7.864
X12.522 Y7.863
X12.456 Y7.797
X12.414 Y7.714
X12.413 Y7.713
X12.399 Y7.621
Y7.619
X12.413 Y7.527
X12.414 Y7.526
X12.456 Y7.443
X12.457 Y7.442
X12.521 Y7.378
X12.523 Y7.376
X12.607 Y7.333
X12.608
X12.699 Y7.319
X12.7
X12.792 Y7.333
X12.794 Y7.334
X12.876 Y7.375
X12.877 Y7.376
X12.936 Y7.435
X12.938 Y7.442
X12.941 Y7.444
X12.942 Y7.446
X12.948 Y7.457
X12.959 Y7.479
X12.981 Y7.523
X12.982 Y7.526
X12.984 Y7.528
X12.986 Y7.541 Z-0.001
X12.989 Y7.564
X12.996 Y7.613 Z-0.002
X12.997 Y7.619
Y7.622
X12.996 Y7.631
X12.992 Y7.655
X12.983 Y7.704 Z-0.003
X12.982 Y7.709
Y7.712
X12.977 Y7.72 Z-0.004
X12.966 Y7.742
X12.946 Y7.78 Z-0.005
X12.939 Y7.793 Z-0.006
X12.937 Y7.795
X12.933 Y7.799
X12.916 Y7.816 Z-0.007
X12.876 Y7.854 Z-0.008
X12.874 Y7.856
X12.871 Y7.858
X12.866 Y7.861
X12.845 Y7.871 Z-0.009
X12.793 Y7.896 Z-0.011
X12.79 Y7.898
X12.787
X12.785 Y7.899
X12.702 Y7.91 Z-0.014
X12.699
X12.611 Y7.894 Z-0.017
X12.588 Y7.882 Z-0.018
X12.533 Y7.853 Z-0.02
X12.53 Y7.851
X12.515 Y7.835 Z-0.021
X12.469 Y7.788 Z-0.023
X12.459 Y7.768
X12.433 Y7.714 Z-0.025
X12.431 Y7.709
X12.43 Y7.706
X12.427 Y7.687
X12.421 Y7.644 Z-0.026
X12.417 Y7.62 Z-0.027
X12.418 Y7.617
X12.421 Y7.601
X12.428 Y7.558 Z-0.028
X12.432 Y7.534 Z-0.029
X12.433 Y7.532
X12.44 Y7.517
X12.46 Y7.479
X12.472 Y7.455 Z-0.03
X12.474 Y7.453
X12.484 Y7.443
X12.515 Y7.413
X12.533 Y7.395
X12.536 Y7.392
X12.54 Y7.39
X12.612 Y7.353
X12.614
X12.699 Y7.339
X12.7
X12.787 Y7.353
X12.788
X12.864 Y7.392
X12.866 Y7.393
X12.922 Y7.45
X12.926 Y7.454
X12.928 Y7.455
X12.967 Y7.533
Y7.534
X12.981 Y7.619
Y7.621
X12.967 Y7.706
Y7.707
X12.928 Y7.784
X12.926 Y7.786
X12.865 Y7.847
X12.863 Y7.848
X12.788 Y7.887
X12.787
X12.7 Y7.901
X12.699
X12.614 Y7.887
X12.612
X12.536 Y7.848
X12.534 Y7.847
X12.474 Y7.787
X12.473 Y7.785
X12.433 Y7.707
Y7.706
X12.419 Y7.621
Y7.619
X12.433 Y7.534
Y7.533
X12.471 Y7.459
X12.473 Y7.455
X12.475 Y7.453
X12.534 Y7.394
X12.536 Y7.392
X12.54 Y7.39
G3 X12.901 Y7.51 I0.121 J0.238
G1 Z5.08
X16.587 Y7.293
Z2.086
Z0.035
G3 X16.987 Y7.629 I0.084 J0.306
G1 Y7.635
Y7.641
X16.99 Y7.663
X17.007 Y7.783
X17.011 Y7.814
X17.012 Y7.818
X17.013 Y7.822
X17.016 Y7.829
X17.073 Y7.977
X17.077 Y7.987
X17.08 Y7.993
X17.083 Y7.998
X17.176 Y8.132
X17.181 Y8.14
X17.185 Y8.144
X17.188 Y8.148
X17.255 Y8.208
X17.313 Y8.26
X17.319 Y8.265
X17.321 Y8.267
X17.324 Y8.269
X17.37 Y8.294
X17.46 Y8.343
X17.483 Y8.355
X17.489 Y8.358
X17.494 Y8.359
X17.653 Y8.402
X17.659 Y8.404
X17.665 Y8.405
X17.687 Y8.406
X17.823 Y8.411
X17.835
X17.84
X17.846 Y8.41
X17.869 Y8.406
X18.005 Y8.38
X18.01 Y8.379
X18.016 Y8.377
X18.022 Y8.375
X18.027 Y8.373
X18.163 Y8.313
X18.175 Y8.308
X18.181 Y8.305
X18.186 Y8.301
X18.311 Y8.208
X18.32 Y8.201
X18.324 Y8.197
X18.328 Y8.192
X18.431 Y8.072
X18.436 Y8.066
X18.439 Y8.06
X18.445 Y8.049
X18.505 Y7.936
X18.517 Y7.913
X18.519 Y7.907
X18.521 Y7.901
X18.56 Y7.754
X18.563 Y7.743
X18.564 Y7.737
X18.565 Y7.731
X18.566 Y7.709
X18.571 Y7.573
Y7.561
X18.57 Y7.556
X18.569 Y7.55
X18.539 Y7.391
X18.538 Y7.385
X18.536 Y7.38
X18.531 Y7.368
X18.471 Y7.233
X18.469 Y7.228
X18.466 Y7.222
X18.462 Y7.216
X18.457 Y7.21
X18.368 Y7.089
X18.364 Y7.084
X18.361 Y7.08
X18.356 Y7.075
X18.351 Y7.071
X18.232 Y6.968
X18.229 Y6.966
X18.226 Y6.964
X18.22 Y6.961
X18.209 Y6.955
X18.095 Y6.895
X18.073 Y6.883
X18.067 Y6.881
X18.061 Y6.879
X17.914 Y6.84
X17.903 Y6.837
X17.897 Y6.836
X17.891 Y6.835
X17.823 Y6.828
X17.818
X17.812
X17.733 Y6.833
X17.642 Y6.839
X17.638 Y6.84
X17.635
X17.631 Y6.841
X17.627 Y6.842
X17.551 Y6.866
X17.46 Y6.894
X17.456 Y6.896
X17.451 Y6.899
X17.423 Y6.915
X17.324 Y6.974
X17.302 Y6.988
X17.299 Y6.99
X17.296 Y6.992
X17.29 Y6.997
X17.171 Y7.113
X17.168 Y7.116
X17.165 Y7.119
X17.163 Y7.122
X17.161 Y7.124
X17.157 Y7.13
X17.073 Y7.262
X17.067 Y7.272
X17.065 Y7.277
X17.063 Y7.281
X17.057 Y7.3
X17.025 Y7.391
X17.007 Y7.445
X17.005 Y7.449
Y7.454
X17.003 Y7.463
X16.988 Y7.618
X16.987 Y7.629
Y7.634
X16.986 Y7.639
X16.985 Y7.643
X16.983 Y7.65
X16.981 Y7.656
X16.979 Y7.662
X16.977 Y7.669
X16.975 Y7.675
X16.974 Y7.681
Y7.687
Y7.693
X16.976 Y7.704
X16.989 Y7.799 Z0.031
X16.992 Y7.822
X16.994 Y7.828 Z0.03
X16.996 Y7.833
X17.043 Y7.955 Z0.026
Y7.957
X16.528 Y8.472 Z0
X16.52 Y8.48
X14.818 Y10.182
X14.817 Y10.183
X7.085
X7.083 Y10.181
Y9.75
Y9.745
Y9.739
X7.082 Y9.733
X7.08 Y9.728
X7.072 Y9.705
X7.064 Y9.682
X7.062 Y9.677
X7.059 Y9.671
X7.057 Y9.668
X7.055 Y9.665
X7.053 Y9.662
X7.05 Y9.66
X7.027 Y9.637
X7.016 Y9.625
X7.013 Y9.623
X7.01 Y9.621
X7.007 Y9.619
X7.004 Y9.617
X6.999 Y9.614
X6.993 Y9.612
X6.959 Y9.599
X6.948 Y9.595
X6.942 Y9.594
X6.936 Y9.593
X6.931
X6.925
X1.107
X1.102
X1.096
X1.09 Y9.594
X1.085 Y9.595
X1.039 Y9.612
X1.036 Y9.613
X1.032 Y9.615
X1.028 Y9.617
X1.025 Y9.619
X1.021 Y9.621
X1.018 Y9.624
X1.011 Y9.631
X0.982 Y9.66
X0.979 Y9.662
X0.977 Y9.665
X0.975 Y9.668
X0.973 Y9.671
X0.97 Y9.677
X0.968 Y9.682
X0.96 Y9.705
X0.952 Y9.728
X0.95 Y9.733
X0.949 Y9.739
Y9.745
Y9.75
Y10.567
Y10.578
X0.95 Y10.584
X0.951 Y10.59
X0.959 Y10.612
X0.967 Y10.635
X0.969 Y10.641
X0.972 Y10.646
X0.975 Y10.652
X0.977 Y10.655
X0.98 Y10.658
X1.009 Y10.688
X1.017 Y10.695
X1.021 Y10.698
X1.024 Y10.701
X1.028 Y10.703
X1.032 Y10.705
X1.035 Y10.707
X1.039 Y10.708
X1.085 Y10.725
X1.09 Y10.726
X1.096 Y10.727
X1.102
X1.107
X3.895
X3.897 Y10.729
X4.019 Y10.888
X4.026 Y10.896
X4.029 Y10.9
X4.033 Y10.904
X4.108 Y10.975
X4.116 Y10.983
X4.12 Y10.986
X4.124 Y10.989
X4.128 Y10.991
X4.132 Y10.993
X4.215 Y11.034
X4.237 Y11.045
X4.243 Y11.047
X4.249 Y11.049
X4.26 Y11.05
X4.362 Y11.066
X4.368 Y11.067
X4.373
X4.396
X14.999
X15.005
X15.011 Y11.066
X15.102 Y11.054
X15.107
X15.113 Y11.053
X15.118 Y11.051
X15.124 Y11.049
X15.192 Y11.021
X15.215 Y11.011
X15.221 Y11.008
X15.226 Y11.005
X15.238 Y10.996
X15.302 Y10.947
X15.311 Y10.939
X15.32 Y10.93
X17.81 Y8.44
X17.817 Y8.434
X17.818 Y8.432
X17.82 Y8.431
X17.835
X17.84
X17.846
X17.869 Y8.427
X18.005 Y8.4
X18.014 Y8.399
X18.018 Y8.398
X18.022 Y8.396
X18.027 Y8.395
X18.031 Y8.393
X18.095 Y8.365
X18.186 Y8.325
X18.191 Y8.322
X18.195 Y8.319
X18.205 Y8.312
X18.325 Y8.222
X18.333 Y8.216
X18.338 Y8.212
X18.341 Y8.208
X18.44 Y8.092
X18.451 Y8.08
X18.455 Y8.074
X18.458 Y8.068
X18.528 Y7.936
X18.536 Y7.92
X18.539 Y7.913
X18.541 Y7.905
X18.581 Y7.754
X18.584 Y7.743
X18.585 Y7.737
Y7.731
X18.586 Y7.709
X18.591 Y7.573
Y7.561
Y7.556
X18.59 Y7.55
X18.586 Y7.527
X18.56 Y7.391
X18.558 Y7.383
X18.556 Y7.375
X18.549 Y7.36
X18.488 Y7.221
X18.485 Y7.215
X18.482 Y7.21
X18.458 Y7.177
X18.382 Y7.074
X18.379 Y7.07
X18.375 Y7.066
X18.372 Y7.062
X18.368 Y7.058
X18.248 Y6.956
X18.241 Y6.95
X18.234 Y6.945
X18.22 Y6.937
X18.086 Y6.867
X18.081 Y6.865
X18.076 Y6.863
X18.071 Y6.861
X18.067 Y6.859
X17.914 Y6.819
X17.903 Y6.816
X17.891 Y6.815
X17.823 Y6.808
X17.818
X17.812
X17.801
X17.642 Y6.819
X17.636 Y6.82
X17.63 Y6.821
X17.625 Y6.822
X17.619 Y6.823
X17.46 Y6.873
X17.455 Y6.875
X17.449 Y6.877
X17.443 Y6.88
X17.438 Y6.883
X17.296 Y6.967
X17.287 Y6.973
X17.283 Y6.976
X17.279 Y6.98
X17.188 Y7.068
X17.162 Y7.093
X17.155 Y7.1
X17.15 Y7.106
X17.145 Y7.112
X17.141 Y7.119
X17.054 Y7.255
X17.051 Y7.261
X17.048 Y7.266
X17.045 Y7.272
X17.043 Y7.278
X16.988 Y7.436
X16.986 Y7.442
X16.985 Y7.448
X16.984 Y7.459
X16.968 Y7.618
X16.967 Y7.627
Y7.629
Y7.635
Y7.641
X16.97 Y7.663
X16.989 Y7.799
X16.992 Y7.822
X16.994 Y7.828
X16.996 Y7.833
X17.043 Y7.955
Y7.957
X16.52 Y8.48
Z5.08
X17.806 Y7.862
Z2.086
Z0.035
G3 X17.52 Y7.81 I-0.119 J-0.159
G1 X17.519 Y7.808
X17.474 Y7.72
Y7.719
X17.458 Y7.62
X17.46 Y7.606
X17.474 Y7.521
Y7.52
X17.519 Y7.432
X17.52 Y7.43
X17.59 Y7.36
X17.592 Y7.359
X17.68 Y7.314
X17.682
X17.78 Y7.298
X17.879 Y7.314
X17.88
X17.968 Y7.359
X17.97 Y7.36
X18.04 Y7.43
X18.041 Y7.432
X18.086 Y7.52
Y7.521
X18.102 Y7.62
X18.086 Y7.719
Y7.72
X18.041 Y7.808
X18.04 Y7.809
X17.969 Y7.88
X17.968 Y7.881
X17.88 Y7.926
X17.879
X17.78 Y7.942
X17.682 Y7.926
X17.68
X17.592 Y7.881
X17.59 Y7.88
X17.52 Y7.81
X17.521 Y7.805
X17.517 Y7.798
X17.512 Y7.787
X17.501 Y7.767
X17.482 Y7.729
X17.478 Y7.72
X17.477 Y7.718
X17.475 Y7.705 Z0.034
X17.471 Y7.682
X17.465 Y7.639
X17.462 Y7.621 Z0.033
Y7.618
X17.463 Y7.615
X17.467 Y7.591
X17.474 Y7.549 Z0.032
X17.479 Y7.522 Z0.031
X17.483 Y7.514
X17.489 Y7.504
X17.509 Y7.465 Z0.03
X17.524 Y7.437 Z0.029
X17.526 Y7.434
X17.534 Y7.426 Z0.028
X17.565 Y7.396 Z0.027
X17.595 Y7.367 Z0.026
X17.597 Y7.366
X17.6 Y7.364 Z0.025
X17.639 Y7.346 Z0.024
X17.683 Y7.324 Z0.022
X17.686 Y7.323
X17.7 Y7.321
X17.766 Y7.312 Z0.019
X17.78 Y7.31
X17.783 Y7.311
X17.811 Y7.316 Z0.018
X17.873 Y7.327 Z0.016
X17.875 Y7.328
X17.895 Y7.338 Z0.015
X17.958 Y7.372 Z0.012
X17.96 Y7.373
X17.97 Y7.383
X18.024 Y7.44 Z0.009
X18.026 Y7.442
X18.029 Y7.447
X18.047 Y7.486 Z0.008
X18.066 Y7.525 Z0.006
X18.067 Y7.527
X18.07 Y7.546
X18.073 Y7.568 Z0.005
X18.08 Y7.618 Z0.004
Y7.621
X18.079 Y7.632 Z0.003
X18.075 Y7.653
X18.066 Y7.706 Z0.002
X18.065 Y7.711
X18.064 Y7.713
X18.063 Y7.716
X18.053 Y7.735 Z0.001
X18.033 Y7.773
X18.023 Y7.794
X18.021 Y7.796
X18.01 Y7.807 Z0
X17.979 Y7.838
X17.959 Y7.858
X17.957 Y7.86
X17.955 Y7.862
X17.948 Y7.865
X17.944 Y7.87
X17.874 Y7.906
X17.873 Y7.907
X17.781 Y7.921
X17.779
X17.687 Y7.907
X17.686 Y7.906
X17.604 Y7.864
X17.602 Y7.863
X17.537 Y7.798
X17.535 Y7.796
X17.494 Y7.714
X17.493 Y7.713
X17.479 Y7.621
Y7.62
Y7.619
X17.493 Y7.527
X17.494 Y7.526
X17.536 Y7.443
X17.538 Y7.441
X17.601 Y7.378
X17.603 Y7.376
X17.686 Y7.334
X17.687 Y7.333
X17.779 Y7.319
X17.781
X17.873 Y7.333
X17.874 Y7.334
X17.956 Y7.375
X17.958 Y7.377
X18.023 Y7.442
X18.024 Y7.444
X18.066 Y7.526
X18.067 Y7.527
X18.081 Y7.619
Y7.621
X18.067 Y7.713
X18.066 Y7.714
X18.024 Y7.797
X18.022 Y7.799
X17.959 Y7.862
X17.957 Y7.864
X17.944 Y7.87
X17.905 Y7.887
X17.875 Y7.902
X17.872 Y7.904
X17.86 Y7.906
X17.817 Y7.912 Z-0.001
X17.784 Y7.917
X17.781 Y7.918
X17.778 Y7.917
X17.769 Y7.916
X17.727 Y7.909 Z-0.002
X17.691 Y7.903 Z-0.003
X17.688 Y7.902
X17.68 Y7.898
X17.642 Y7.878 Z-0.004
X17.607 Y7.86 Z-0.005
X17.605 Y7.858
X17.601 Y7.853
X17.571 Y7.822 Z-0.006
X17.544 Y7.795 Z-0.007
X17.542 Y7.793 Z-0.008
X17.539 Y7.787
X17.52 Y7.748 Z-0.009
X17.502 Y7.712 Z-0.01
Y7.709
X17.501 Y7.706
X17.495 Y7.663 Z-0.012
X17.489 Y7.62 Z-0.013
X17.49 Y7.617
X17.505 Y7.531 Z-0.016
X17.506 Y7.529
X17.526 Y7.491 Z-0.018
X17.546 Y7.453 Z-0.019
X17.548 Y7.451
X17.578 Y7.421 Z-0.02
X17.612 Y7.389 Z-0.022
X17.614 Y7.388
X17.629 Y7.381
X17.649 Y7.371 Z-0.023
X17.69 Y7.351 Z-0.024
X17.693 Y7.35
X17.709 Y7.347 Z-0.025
X17.731 Y7.344
X17.78 Y7.337 Z-0.026
X17.782 Z-0.027
X17.796 Y7.34
X17.817 Y7.343
X17.865 Y7.352 Z-0.028
X17.868
X17.88 Y7.359
X17.899 Y7.369 Z-0.029
X17.943 Y7.391
X17.945 Y7.392
X17.947 Y7.394
X17.955 Y7.402 Z-0.03
X17.97 Y7.417
X18.004 Y7.451
X18.007 Y7.455
X18.012 Y7.464
X18.021 Y7.481
X18.047 Y7.533
Y7.534
X18.061 Y7.619
Y7.621
X18.047 Y7.706
Y7.707
X18.008 Y7.783
X18.007 Y7.786
X17.946 Y7.847
X17.943 Y7.848
X17.867 Y7.887
X17.866
X17.781 Y7.901
X17.779
X17.694 Y7.887
X17.693
X17.616 Y7.848
X17.614 Y7.847
X17.553 Y7.786
X17.552 Y7.784
X17.513 Y7.707
Y7.706
X17.499 Y7.621
Y7.62
Y7.619
X17.513 Y7.534
Y7.533
X17.551 Y7.458
X17.552 Y7.456
X17.554 Y7.454
X17.614 Y7.394
X17.616 Y7.392
X17.693 Y7.353
X17.694
X17.779 Y7.339
X17.781
X17.866 Y7.353
X17.867
X17.944 Y7.392
X17.946 Y7.393
X18.007 Y7.454
X18.008 Y7.456
X18.021 Y7.481
G3 X17.901 Y7.842 I-0.238 J0.121
G1 Z5.08
X17.741 Y6.375
Z2.086
Z0.035
G3 X18.068 Y6.037 I0.317 J-0.021
G1 X18.186 Y6.041
X18.191
X18.196
X18.205 Y6.039
X18.368 Y6.013
X18.39 Y6.009
X18.396 Y6.007
X18.402 Y6.006
X18.578 Y5.939
X18.586 Y5.936
X18.59 Y5.934
X18.593 Y5.932
X18.753 Y5.832
X18.759 Y5.829
X18.762 Y5.826
X18.765 Y5.824
X18.902 Y5.695
X18.908 Y5.69
X18.912 Y5.685
X18.925 Y5.667
X19.003 Y5.558
X19.028 Y5.522
X19.045 Y5.485
X19.11 Y5.341
X19.112 Y5.337
X19.114 Y5.332
X19.116 Y5.323
X19.158 Y5.145
X19.159 Y5.139
X19.16 Y5.134
Y5.122
X19.166 Y4.941
Y4.935
Y4.93
X19.164 Y4.918
X19.134 Y4.737
X19.133 Y4.731
X19.131 Y4.725
X19.127 Y4.714
X19.063 Y4.544
X19.06 Y4.538
X19.057 Y4.533
X18.961 Y4.378
X18.955 Y4.368
X18.951 Y4.363
X18.947 Y4.359
X18.821 Y4.224
X18.817 Y4.219
X18.812 Y4.215
X18.731 Y4.156
X18.663 Y4.108
X18.651 Y4.1
X18.646 Y4.096
X18.64 Y4.093
X18.471 Y4.017
X18.465 Y4.014
X18.458 Y4.012
X18.368 Y3.99
X18.277 Y3.969
X18.266 Y3.966
X18.26
X18.254 Y3.965
X18.175 Y3.958
X18.169
X18.163
X18.005 Y3.967
X17.959 Y3.97
X17.954 Y3.971
X17.948 Y3.973
X17.78 Y4.018
X17.758 Y4.024
X17.753 Y4.026
X17.747 Y4.028
X17.58 Y4.112
X17.569 Y4.117
X17.564 Y4.121
X17.559 Y4.124
X17.407 Y4.244
X17.401 Y4.249
X17.398 Y4.252
X17.395 Y4.255
X17.387 Y4.265
X17.267 Y4.408
X17.262 Y4.414
X17.259 Y4.419
X17.222 Y4.487
X17.173 Y4.578
X17.161 Y4.601
X17.159 Y4.606
X17.154 Y4.623
X17.102 Y4.796
X17.101 Y4.801
X17.1 Y4.806
X17.099 Y4.815
X17.097 Y4.833
X17.082 Y5.009
Y5.015
Y5.02
X17.083 Y5.032
X17.105 Y5.213
X17.106 Y5.225
X17.108 Y5.23
X17.11 Y5.236
X17.162 Y5.395
X17.172 Y5.424
X17.174 Y5.428
X17.175 Y5.432
X17.18 Y5.439
X17.259 Y5.576
X17.279 Y5.61
X17.282 Y5.614
X17.285 Y5.617
X17.415 Y5.764
X17.419 Y5.768
X17.422 Y5.771
X17.435 Y5.781
X17.585 Y5.892
X17.588 Y5.894
X17.591 Y5.896
X17.596 Y5.899
X17.733 Y5.962
X17.778 Y5.984
X17.784 Y5.986
X17.789 Y5.987
X17.881 Y6.009
X17.969 Y6.03
X17.987 Y6.034
X17.991 Y6.035
X17.996
X18.068 Y6.037
X18.111 Y6.042
X18.154 Y6.043
X18.175 Y6.044 Z0.034
X18.185
X18.19
X18.195
X18.201
X18.216 Y6.041
X18.237 Y6.038
X18.279 Y6.031 Z0.033
X18.322 Y6.025 Z0.032
X18.365 Y6.018 Z0.031
X18.384 Y6.015
X18.394 Y6.013
X18.399 Y6.012 Z0.03
X18.404 Y6.011
X18.445 Y5.996 Z0.029
X18.485 Y5.982 Z0.028
X18.526 Y5.967 Z0.027
X18.567 Y5.953 Z0.025
X18.586 Y5.946
X18.591 Y5.944 Z0.024
X18.595 Y5.941
X18.604 Y5.936
X18.641 Y5.914 Z0.022
X18.761 Y5.843 Z0.018
X18.766 Y5.84 Z0.017
X18.77 Y5.837
X18.778 Y5.83
X18.882 Y5.736 Z0.012
X18.914 Y5.707 Z0.01
X18.918 Y5.704
X18.922 Y5.7
X18.925 Y5.696
X18.928 Y5.692
X18.941 Y5.675 Z0.009
X18.967 Y5.64 Z0.008
X18.993 Y5.605 Z0.007
X19.018 Y5.571 Z0.005
X19.044 Y5.536 Z0.004
X19.047 Y5.531
X19.049 Y5.526
X19.054 Y5.517
X19.063 Y5.497 Z0.003
X19.081 Y5.458 Z0.002
X19.1 Y5.419
X19.118 Y5.38 Z0.001
X19.127 Y5.36
X19.131 Y5.35
X19.134 Y5.345
X19.135 Y5.34 Z0
X19.138 Y5.33
X19.141 Y5.319
X19.146 Y5.298
X19.151 Y5.277
X19.155 Y5.256
X19.157 Y5.238
X19.173 Y5.168
X19.178 Y5.145
X19.179 Y5.139
X19.18 Y5.134
Y5.122
X19.186 Y4.941
Y4.935
Y4.928
X19.184 Y4.916
X19.155 Y4.737
X19.152 Y4.725
X19.151 Y4.72
X19.149 Y4.714
X19.082 Y4.537
X19.08 Y4.532
X19.078 Y4.527
X19.053 Y4.487
X18.975 Y4.362
X18.972 Y4.357
X18.967 Y4.351
X18.925 Y4.306
X18.84 Y4.215
X18.831 Y4.205
X18.826 Y4.2
X18.821 Y4.196
X18.721 Y4.124
X18.68 Y4.095
X18.66 Y4.081
X18.655 Y4.078
X18.65 Y4.076
X18.481 Y3.999
X18.47 Y3.994
X18.464 Y3.992
X18.458 Y3.991
X18.277 Y3.948
X18.266 Y3.946
X18.254 Y3.945
X18.175 Y3.938
X18.169
X18.163
X18.005 Y3.947
X17.959 Y3.95
X17.954 Y3.951
X17.948 Y3.952
X17.937 Y3.955
X17.755 Y4.003
X17.75 Y4.005
X17.744 Y4.007
X17.733 Y4.013
X17.562 Y4.098
X17.557 Y4.101
X17.551 Y4.105
X17.526 Y4.124
X17.391 Y4.232
X17.385 Y4.237
X17.379 Y4.243
X17.37 Y4.254
X17.25 Y4.396
X17.246 Y4.402
X17.242 Y4.408
X17.236 Y4.419
X17.15 Y4.578
X17.144 Y4.589
X17.142 Y4.595
X17.14 Y4.601
X17.085 Y4.782
X17.082 Y4.793
X17.081 Y4.799
X17.08 Y4.805
X17.076 Y4.85
X17.064 Y4.986
X17.062 Y5.009
Y5.015
Y5.02
X17.063 Y5.032
X17.084 Y5.213
X17.086 Y5.226
X17.087 Y5.232
X17.089 Y5.239
X17.131 Y5.366
X17.132 Y5.368
X13.568 Y8.932
X13.566 Y8.933
X11.672
X11.67 Y8.931
X11.677 Y8.899
X11.679 Y8.893
Y8.888
X11.681 Y8.843
X11.686 Y8.707
Y8.684
Y8.678
X11.685 Y8.673
X11.654 Y8.483
X11.653 Y8.48
X11.652 Y8.474
X11.65 Y8.469
X11.646 Y8.457
X11.582 Y8.287
X11.58 Y8.282
X11.577 Y8.276
X11.563 Y8.254
X11.478 Y8.117
X11.473 Y8.108
X11.469 Y8.103
X11.465 Y8.098
X11.455 Y8.088
X11.335 Y7.959
X11.33 Y7.954
X11.325 Y7.949
X11.306 Y7.936
X11.179 Y7.845
X11.162 Y7.832
X11.158 Y7.83
X11.153 Y7.827
X11.144 Y7.823
X10.976 Y7.747
X10.968 Y7.743
X10.96 Y7.741
X10.928 Y7.734
X10.792 Y7.702
X10.769 Y7.697
X10.764 Y7.696
X10.758 Y7.695
X10.679 Y7.688
X10.667
X10.656
X10.475 Y7.699
X10.463
X10.458 Y7.7
X10.452 Y7.701
X10.429 Y7.707
X10.293 Y7.743
X10.253 Y7.754
X10.247 Y7.756
X10.24 Y7.759
X10.228 Y7.765
X10.069 Y7.845
X10.057 Y7.851
X10.051 Y7.855
X10.045 Y7.859
X9.89 Y7.982
X9.885 Y7.987
X9.879 Y7.993
X9.869 Y8.004
X9.775 Y8.117
X9.749 Y8.148
X9.746 Y8.152
X9.743 Y8.155
X9.739 Y8.163
X9.648 Y8.332
X9.643 Y8.342
X9.641 Y8.347
X9.64 Y8.351
X9.587 Y8.525
X9.581 Y8.548
X9.58 Y8.554
X9.579 Y8.559
X9.567 Y8.696
X9.562 Y8.752
Y8.76
Y8.768
X9.564 Y8.785
X9.581 Y8.934
X9.587 Y8.979
X9.588 Y8.985
X9.59 Y8.99
X9.65 Y9.173
X9.653 Y9.182
X9.656 Y9.187
X9.658 Y9.192
X9.666 Y9.206
X9.749 Y9.349
X9.76 Y9.368
X9.763 Y9.373
X9.767 Y9.378
X9.775 Y9.387
X9.899 Y9.526
X9.904 Y9.532
X9.91 Y9.537
X9.93 Y9.552
X10.021 Y9.62
X10.075 Y9.66
X10.079 Y9.663
X10.084 Y9.665
X10.093 Y9.67
X10.266 Y9.75
X10.273 Y9.753
X10.28 Y9.756
X10.293 Y9.759
X10.475 Y9.802
X10.486 Y9.804
X10.492 Y9.805
X10.497
X10.679 Y9.811
X10.69
X10.696
X10.701 Y9.81
X10.747 Y9.803
X10.883 Y9.78
X10.894 Y9.779
X10.9 Y9.777
X10.906 Y9.776
X10.928 Y9.767
X11.003 Y9.739
X11.004
X11.032 Y9.758
X11.037 Y9.762
X11.043 Y9.765
X11.065 Y9.774
X11.132 Y9.8
X11.138 Y9.803
X11.144 Y9.804
X11.155 Y9.806
X11.2 Y9.812
X11.246 Y9.817
X11.291
X13.741
X13.752
X13.758
X13.763 Y9.816
X13.854 Y9.804
X13.86 Y9.803
X13.865 Y9.802
X13.871 Y9.8
X13.877 Y9.798
X13.952 Y9.767
X13.967 Y9.76
X13.971 Y9.758
X13.975 Y9.756
X13.982 Y9.75
X14.057 Y9.693
X14.062 Y9.689
X14.071 Y9.679
X17.754 Y5.997
X17.755 Y5.995
X17.767 Y6.001
X17.772 Y6.003
X17.778 Y6.005
X17.823 Y6.016
X17.959 Y6.048
X17.982 Y6.054
X17.988 Y6.055
X17.993
X18.005
X18.186 Y6.061
X18.192
X18.198
X18.209 Y6.059
X18.386 Y6.03
X18.395 Y6.028
X18.4 Y6.027
X18.404 Y6.026
X18.422 Y6.019
X18.584 Y5.958
X18.593 Y5.955
X18.598 Y5.953
X18.602 Y5.95
X18.731 Y5.87
X18.766 Y5.848
X18.773 Y5.844
X18.779 Y5.838
X18.912 Y5.713
X18.924 Y5.702
X18.929 Y5.696
X18.933 Y5.69
X19.039 Y5.542
X19.043 Y5.536
X19.046 Y5.531
X19.067 Y5.485
X19.129 Y5.349
X19.131 Y5.344
X19.133 Y5.338
X19.136 Y5.327
X19.157 Y5.238
Z5.08
X18.389 Y4.716
Z2.086
Z0.035
G3 X18.657 Y5.11 I-0.039 J0.315
G1 X18.634 Y5.2
X18.633 Y5.202
X18.568 Y5.32
X18.567 Y5.323
X18.475 Y5.42
X18.474 Y5.422
X18.359 Y5.494
X18.358 Y5.495
X18.229 Y5.537
X18.227 Y5.538
X18.091 Y5.546
X18.09
X17.973 Y5.524
X17.957 Y5.521
X17.955 Y5.52
X17.832 Y5.462
X17.831 Y5.461
X17.727 Y5.375
X17.725 Y5.373
X17.646 Y5.264
X17.645 Y5.262
X17.595 Y5.137
Y5.135
X17.578 Y5.001
Y4.999
X17.595 Y4.864
Y4.863
X17.642 Y4.746
X17.645 Y4.738
X17.646 Y4.736
X17.726 Y4.626
X17.727 Y4.624
X17.832 Y4.538
X17.835 Y4.537
X17.954 Y4.481
X17.956 Y4.48
X18.09 Y4.454
X18.091
X18.227 Y4.462
X18.229 Y4.463
X18.358 Y4.505
X18.36 Y4.506
X18.473 Y4.578
X18.474 Y4.579
X18.567 Y4.677
X18.568 Y4.679
X18.633 Y4.797
X18.634 Y4.799
X18.668 Y4.931
Y4.932
Y5.069
X18.657 Y5.11
X18.644 Y5.151
X18.631 Y5.199
X18.63 Y5.201
X18.623 Y5.214 Z0.034
X18.611 Y5.235
X18.59 Y5.273
X18.566 Y5.315 Z0.033
X18.565 Y5.318
X18.563 Y5.32
X18.555 Y5.329 Z0.032
X18.538 Y5.346
X18.509 Y5.377 Z0.031
X18.472 Y5.414 Z0.03
X18.47 Y5.416
X18.468 Y5.418 Z0.029
X18.46 Y5.423
X18.441 Y5.435
X18.404 Y5.457 Z0.027
X18.367 Y5.48 Z0.026
X18.355 Y5.487
X18.352 Y5.488 Z0.025
X18.346 Y5.49
X18.324 Y5.497 Z0.024
X18.283 Y5.509 Z0.023
X18.228 Y5.526 Z0.021
X18.225 Y5.527
X18.197 Y5.528 Z0.02
X18.094 Y5.532 Z0.016
X18.091
X18.066 Y5.527 Z0.015
X17.963 Y5.505 Z0.012
X17.96 Y5.504
X17.941 Y5.495 Z0.011
X17.902 Y5.475 Z0.009
X17.844 Y5.447 Z0.007
X17.841 Y5.445
X17.827 Y5.433
X17.794 Y5.405 Z0.006
X17.761 Y5.377 Z0.004
X17.743 Y5.361
X17.741 Y5.359
X17.732 Y5.346 Z0.003
X17.707 Y5.311 Z0.002
X17.682 Y5.276
X17.666 Y5.254 Z0.001
X17.665 Y5.252
X17.66 Y5.239
X17.645 Y5.199
X17.629 Y5.159 Z0
X17.618 Y5.132
X17.617 Y5.129
X17.616 Y5.119
X17.611 Y5.098
X17.598 Y5.001
Y4.999
X17.615 Y4.87
Y4.869
X17.642 Y4.801
X17.663 Y4.747
X17.664 Y4.745
X17.74 Y4.64
X17.742 Y4.638
X17.842 Y4.556
X17.843 Y4.555
X17.962 Y4.499
X18.091 Y4.474
X18.093
X18.224 Y4.483
X18.225
X18.349 Y4.523
X18.351 Y4.524
X18.458 Y4.593
X18.461 Y4.594
X18.551 Y4.69
X18.552 Y4.693
X18.614 Y4.805
X18.615 Y4.806
X18.648 Y4.934
Y4.936
Y5.064
Y5.066
X18.615 Y5.193
X18.614 Y5.195
X18.552 Y5.308
X18.551 Y5.31
X18.462 Y5.405
X18.46 Y5.406
X18.351 Y5.476
X18.349 Y5.477
X18.224 Y5.517
X18.223 Y5.518
X18.093 Y5.526
X18.091
X17.976 Y5.504
X17.965 Y5.501
X17.962
X17.843 Y5.445
X17.842 Y5.444
X17.742 Y5.362
X17.741 Y5.36
X17.664 Y5.254
X17.663 Y5.253
X17.615 Y5.132
Y5.13
X17.611 Y5.098
X17.608 Y5.054
X17.602 Y5.005
Y5.002
X17.601 Y5
X17.603 Y4.988 Z-0.001
X17.606 Y4.964
X17.612 Y4.921
X17.618 Y4.873 Z-0.002
X17.619 Y4.87
X17.625 Y4.856
X17.633 Y4.834 Z-0.003
X17.65 Y4.794 Z-0.004
X17.668 Y4.751 Z-0.005
X17.669 Y4.749
X17.679 Y4.735 Z-0.006
X17.693 Y4.716
X17.719 Y4.681 Z-0.007
X17.745 Y4.648 Z-0.009
X17.746 Y4.646
X17.748 Y4.644
X17.764 Y4.631
X17.781 Y4.617 Z-0.01
X17.815 Y4.591 Z-0.011
X17.848 Y4.564 Z-0.013
X17.851 Y4.563
X17.93 Y4.527 Z-0.016
X17.966 Y4.511 Z-0.017
X17.969
X17.972 Y4.51
X18.014 Y4.503 Z-0.018
X18.093 Y4.489 Z-0.021
X18.095 Y4.49
X18.101
X18.144 Y4.493 Z-0.022
X18.187 Y4.497 Z-0.024
X18.22 Y4.499 Z-0.025
X18.223 Y4.5
X18.23 Y4.503
X18.271 Y4.517 Z-0.026
X18.312 Y4.531 Z-0.027
X18.341 Y4.54
X18.343 Y4.542 Z-0.028
X18.352 Y4.548
X18.389 Y4.571
X18.425 Y4.595 Z-0.029
X18.448 Y4.609
X18.45 Y4.611
X18.459 Y4.621 Z-0.03
X18.488 Y4.653
X18.518 Y4.684
X18.529 Y4.696
X18.535 Y4.702
X18.596 Y4.813
Y4.815
X18.627 Y4.935
Y4.937
Y5.063
Y5.064
X18.596 Y5.186
X18.595 Y5.188
X18.536 Y5.296
X18.535 Y5.298
X18.45 Y5.388
X18.447 Y5.39
X18.341 Y5.458
X18.339 Y5.459
X18.222 Y5.497
X18.219
X18.094 Y5.505
X18.093
X17.98 Y5.484
X17.97 Y5.482
X17.967 Y5.481
X17.854 Y5.428
X17.853 Y5.427
X17.758 Y5.348
X17.756 Y5.346
X17.682 Y5.244
X17.681 Y5.243
X17.635 Y5.127
X17.634 Y5.125
X17.619 Y5.001
Y4.999
X17.634 Y4.874
X17.635 Y4.873
X17.681 Y4.757
X17.682 Y4.755
X17.755 Y4.654
X17.757 Y4.653
X17.853 Y4.573
X17.855 Y4.572
X17.968 Y4.519
X17.969 Y4.518
X18.093 Y4.495
X18.094
X18.219 Y4.502
X18.22 Y4.503
X18.339 Y4.541
X18.341 Y4.542
X18.447 Y4.609
X18.449 Y4.611
X18.529 Y4.696
G3 X18.515 Y5.091 I-0.203 J0.19
G1 Z5.08
X20.578 Y3.007
Z2.086
Z0.035
G3 X21.028 Y3.109 I0.177 J0.264
G1 X21.031 Y3.113
X21.035 Y3.118
X21.165 Y3.264
X21.169 Y3.268
X21.173 Y3.271
X21.18 Y3.277
X21.326 Y3.386
X21.336 Y3.393
X21.34 Y3.396
X21.345 Y3.398
X21.362 Y3.406
X21.52 Y3.48
X21.532 Y3.485
X21.537 Y3.487
X21.543 Y3.488
X21.724 Y3.531
X21.736 Y3.534
X21.741 Y3.535
X21.747
X21.929 Y3.541
X21.94
X21.946
X21.951 Y3.54
X22.133 Y3.51
X22.144 Y3.508
X22.15 Y3.506
X22.155 Y3.504
X22.326 Y3.44
X22.331 Y3.438
X22.337 Y3.435
X22.36 Y3.422
X22.501 Y3.333
X22.506 Y3.33
X22.512 Y3.326
X22.532 Y3.308
X22.655 Y3.192
X22.658 Y3.189
X22.66 Y3.187
X22.665 Y3.181
X22.769 Y3.035
X22.777 Y3.024
X22.78 Y3.019
X22.783 Y3.013
X22.86 Y2.842
X22.862 Y2.837
X22.864 Y2.831
X22.869 Y2.808
X22.904 Y2.661
X22.908 Y2.641
X22.909 Y2.636
X22.91 Y2.631
Y2.621
X22.916 Y2.445
Y2.434
Y2.428
X22.915 Y2.423
X22.885 Y2.241
X22.883 Y2.23
X22.879 Y2.219
X22.813 Y2.044
X22.812 Y2.041
X22.81 Y2.037
X22.754 Y1.946
X22.71 Y1.876
X22.703 Y1.866
X22.699 Y1.861
X22.694 Y1.856
X22.575 Y1.728
X22.567 Y1.719
X22.562 Y1.715
X22.558 Y1.712
X22.409 Y1.605
X22.399 Y1.598
X22.394 Y1.595
X22.389 Y1.593
X22.223 Y1.518
X22.212 Y1.513
X22.206 Y1.511
X22.201 Y1.51
X22.019 Y1.467
X22.014 Y1.466
X22.008 Y1.465
X21.929 Y1.458
X21.917
X21.906
X21.724 Y1.469
X21.713 Y1.47
X21.707
X21.702 Y1.472
X21.52 Y1.52
X21.509 Y1.523
X21.503 Y1.525
X21.498 Y1.528
X21.362 Y1.596
X21.316 Y1.619
X21.313 Y1.621
X21.311 Y1.623
X21.305 Y1.627
X21.153 Y1.747
X21.15 Y1.75
X21.147 Y1.752
X21.137 Y1.765
X21.017 Y1.907
X21.013 Y1.912
X21.01 Y1.917
X20.999 Y1.938
X20.915 Y2.092
X20.913 Y2.097
X20.911 Y2.101
X20.908 Y2.111
X20.852 Y2.298
X20.85 Y2.304
Y2.309
X20.842 Y2.4
X20.834 Y2.491
X20.832 Y2.514
Y2.519
X20.833 Y2.525
X20.855 Y2.718
X20.856 Y2.723
X20.857 Y2.729
X20.861 Y2.74
X20.921 Y2.921
X20.922 Y2.925
X20.924 Y2.929
X20.933 Y2.945
X21.018 Y3.092
X21.028 Y3.109
X21.029 Y3.115
X21.032 Y3.119
X21.039 Y3.127
X21.053 Y3.142
X21.081 Y3.175
X21.11 Y3.207 Z0.034
X21.138 Y3.239
X21.159 Y3.263 Z0.033
X21.162 Y3.267
X21.166 Y3.271
X21.17 Y3.274
X21.174 Y3.277
X21.182 Y3.284
X21.198 Y3.296 Z0.032
X21.233 Y3.322 Z0.031
X21.267 Y3.349 Z0.03
X21.301 Y3.375 Z0.029
X21.331 Y3.398 Z0.028
X21.335 Y3.401
X21.34 Y3.404
X21.344 Y3.406
X21.372 Y3.419 Z0.027
X21.411 Y3.438 Z0.025
X21.449 Y3.457 Z0.024
X21.507 Y3.486 Z0.022
X21.517 Y3.49 Z0.021
X21.527 Y3.495
X21.531 Y3.497
X21.536 Y3.498
X21.692 Y3.538 Z0.015
X21.723 Y3.547 Z0.014
X21.734 Y3.549 Z0.013
X21.739 Y3.55
X21.744
X21.776 Y3.552 Z0.012
X21.819 Y3.554 Z0.011
X21.862 Y3.557 Z0.009
X21.905 Y3.559 Z0.008
X21.927 Y3.56 Z0.007
X21.938
X21.943
X21.948
X21.991 Y3.554 Z0.005
X22.034 Y3.547 Z0.004
X22.076 Y3.541 Z0.003
X22.119 Y3.534 Z0.002
X22.141 Y3.531
X22.146 Y3.53
X22.151 Y3.529
X22.156 Y3.527
X22.162 Y3.525
X22.202 Y3.511 Z0.001
X22.243 Y3.496
X22.283 Y3.481 Z0
X22.303 Y3.473
X22.323 Y3.466
X22.339 Y3.457
X22.343 Y3.455
X22.348 Y3.452
X22.36 Y3.445
X22.496 Y3.361
X22.518 Y3.347
X22.524 Y3.342
X22.53 Y3.337
X22.658 Y3.217
X22.669 Y3.207
X22.674 Y3.201
X22.678 Y3.196
X22.693 Y3.176
X22.729 Y3.126
X22.794 Y3.035
X22.797 Y3.03
X22.799 Y3.025
X22.804 Y3.015
X22.877 Y2.854
X22.882 Y2.842
X22.884 Y2.837
X22.885 Y2.831
X22.927 Y2.65
X22.928 Y2.644
X22.929 Y2.638
X22.93 Y2.627
X22.936 Y2.445
Y2.434
Y2.428
X22.935 Y2.423
X22.904 Y2.232
X22.902 Y2.226
X22.9 Y2.219
X22.866 Y2.128
X22.832 Y2.037
X22.83 Y2.033
X22.828 Y2.029
X22.824 Y2.02
X22.777 Y1.946
X22.722 Y1.858
X22.721 Y1.856
X22.717 Y1.85
X22.711 Y1.844
X22.586 Y1.711
X22.581 Y1.705
X22.575 Y1.699
X22.564 Y1.691
X22.414 Y1.583
X22.407 Y1.579
X22.4 Y1.576
X22.36 Y1.557
X22.229 Y1.498
X22.222 Y1.495
X22.216 Y1.493
X22.178 Y1.484
X22.042 Y1.452
X22.019 Y1.447
X22.014 Y1.446
X22.008 Y1.445
X21.929 Y1.438
X21.917
X21.906
X21.724 Y1.449
X21.713
X21.707 Y1.45
X21.702 Y1.451
X21.679 Y1.457
X21.507 Y1.503
X21.498 Y1.506
X21.493 Y1.508
X21.491 Y1.507
X21.471 Y1.493
X21.466 Y1.49
X21.461 Y1.487
X21.452 Y1.484
X21.384 Y1.455
X21.373 Y1.451
X21.367 Y1.449
X21.362 Y1.448
X21.271 Y1.434
X21.18 Y1.433
X11.291
X11.246
X11.2 Y1.439
X11.144 Y1.446
X11.138 Y1.447
X11.132 Y1.449
X11.11 Y1.458
X11.038 Y1.488
X11.033 Y1.49
X11.028 Y1.493
X11.023 Y1.496
X11.019 Y1.499
X10.951 Y1.551
X10.94 Y1.56
X10.928 Y1.571
X10.443 Y2.057
X10.44 Y2.058
X7.062
X7.061 Y2.056
Y2.055
X7.059 Y2.053
X7.056 Y2.047
X7.052 Y2.042
X7.05 Y2.04
X7.048 Y2.037
X7.027 Y2.017
X7.016 Y2.006
X7.013 Y2.003
X7.01 Y2.001
X7.007 Y1.999
X7.004 Y1.997
X6.999 Y1.994
X6.993 Y1.992
X6.959 Y1.979
X6.948 Y1.975
X6.942 Y1.974
X6.936 Y1.973
X6.931
X6.925
X1.107
X1.102
X1.096
X1.09 Y1.974
X1.085 Y1.975
X1.039 Y1.992
X1.036 Y1.993
X1.032 Y1.994
X1.029 Y1.996
X1.025 Y1.998
X1.022 Y2.001
X1.019 Y2.003
X1.012 Y2.01
X0.984 Y2.037
X0.979 Y2.043
X0.977 Y2.046
X0.975 Y2.048
X0.972 Y2.054
X0.969 Y2.06
X0.961 Y2.083
X0.952 Y2.105
X0.951 Y2.111
X0.95 Y2.117
X0.949 Y2.122
Y2.128
Y2.945
Y2.956
Y2.962
X0.95 Y2.967
X0.952 Y2.973
X0.954 Y2.979
X0.966 Y3.013
X0.968 Y3.018
X0.971 Y3.024
X0.974 Y3.03
X0.976 Y3.032
X0.978 Y3.035
X0.981 Y3.039
X0.985 Y3.043
X1.008 Y3.067
X1.016 Y3.074
X1.02 Y3.078
X1.024 Y3.081
X1.028 Y3.083
X1.031 Y3.085
X1.035 Y3.087
X1.039 Y3.088
X1.085 Y3.105
X1.09 Y3.106
X1.096 Y3.107
X1.102
X1.107
X3.93
X3.933 Y3.11
Y4.511
X3.93 Y4.513
X1.107
X1.102
X1.096
X1.09 Y4.514
X1.085 Y4.515
X1.039 Y4.532
X1.036 Y4.533
X1.032 Y4.535
X1.029 Y4.536
X1.025 Y4.538
X1.022 Y4.541
X1.018 Y4.544
X1.011 Y4.55
X0.984 Y4.578
X0.981 Y4.581
X0.979 Y4.584
X0.976 Y4.586
X0.974 Y4.589
X0.971 Y4.595
X0.969 Y4.601
X0.96 Y4.623
X0.952 Y4.646
X0.95 Y4.652
X0.949 Y4.657
Y4.663
Y4.669
Y5.485
Y5.497
Y5.502
X0.95 Y5.508
X0.952 Y5.514
X0.954 Y5.519
X0.966 Y5.553
X0.968 Y5.559
X0.971 Y5.565
X0.974 Y5.57
X0.976 Y5.573
X0.978 Y5.576
X0.982 Y5.58
X0.986 Y5.584
X1.009 Y5.607
X1.016 Y5.615
X1.02 Y5.618
X1.024 Y5.621
X1.028 Y5.623
X1.032 Y5.625
X1.035 Y5.627
X1.039 Y5.628
X1.085 Y5.645
X1.09 Y5.646
X1.096 Y5.647
X1.102
X1.107
X6.925
X6.931
X6.936
X6.942 Y5.646
X6.948 Y5.645
X6.959 Y5.641
X6.993 Y5.628
X6.999 Y5.626
X7.004 Y5.623
X7.007 Y5.621
X7.01 Y5.619
X7.013 Y5.617
X7.016 Y5.615
X7.027 Y5.603
X7.047 Y5.583
X7.051 Y5.58
X7.054 Y5.576
X7.056 Y5.573
X7.058 Y5.57
X7.061 Y5.565
X7.064 Y5.559
X7.066 Y5.553
X7.078 Y5.519
X7.08 Y5.514
X7.082 Y5.508
X7.083 Y5.502
Y5.497
Y5.485
Y4.669
Y4.663
Y4.657
X7.082 Y4.652
X7.08 Y4.646
X7.072 Y4.623
X7.063 Y4.601
X7.061 Y4.595
X7.058 Y4.589
X7.056 Y4.586
X7.053 Y4.584
X7.051 Y4.581
X7.048 Y4.578
X7.027 Y4.557
X7.016 Y4.545
X7.013 Y4.543
X7.01 Y4.541
X7.007 Y4.539
X7.004 Y4.537
X6.999 Y4.534
X6.993 Y4.532
X6.959 Y4.519
X6.948 Y4.515
X6.942 Y4.514
X6.936 Y4.513
X6.931
X6.925
X4.819
X4.817 Y4.511
Y3.11
X4.819 Y3.107
X6.925
X6.931
X6.936
X6.942 Y3.106
X6.948 Y3.105
X6.959 Y3.101
X6.993 Y3.088
X6.999 Y3.086
X7.004 Y3.083
X7.007 Y3.081
X7.01 Y3.079
X7.013 Y3.077
X7.016 Y3.075
X7.027 Y3.063
X7.048 Y3.042
X7.051 Y3.039
X7.054 Y3.035
X7.056 Y3.032
X7.058 Y3.03
X7.061 Y3.024
X7.064 Y3.018
X7.066 Y3.013
X7.078 Y2.979
X7.08 Y2.973
X7.082 Y2.967
X7.083 Y2.962
Y2.956
Y2.945
X7.085 Y2.942
X10.622
X10.628
X10.633
X10.724 Y2.93
X10.735 Y2.928
X10.741 Y2.927
X10.747 Y2.925
X10.837 Y2.887
X10.843 Y2.885
X10.846 Y2.883
X10.849 Y2.881
X10.861 Y2.872
X10.928 Y2.821
X10.936 Y2.815
X10.943 Y2.807
X11.433 Y2.318
X11.434 Y2.317
X20.827
X20.828 Y2.319
X20.813 Y2.491
X20.812 Y2.51
Y2.514
Y2.519
X20.813 Y2.529
X20.835 Y2.718
X20.837 Y2.729
X20.838 Y2.735
X20.84 Y2.74
X20.899 Y2.92
X20.903 Y2.931
X20.905 Y2.936
X20.908 Y2.942
X20.91 Y2.945
X21.007 Y3.112
X21.011 Y3.119
X21.015 Y3.125
X21.016 Y3.126
X21.089 Y3.209
X21.151 Y3.278
X21.154 Y3.282
X21.157 Y3.285
X21.18 Y3.302
X21.322 Y3.408
X21.329 Y3.412
X21.335 Y3.416
X21.362 Y3.428
X21.517 Y3.501
X21.524 Y3.504
X21.53 Y3.506
X21.543 Y3.509
X21.724 Y3.552
X21.736 Y3.554
X21.741 Y3.555
X21.747
X21.929 Y3.561
X21.94
X21.946
X21.951 Y3.56
X21.997 Y3.553
X22.133 Y3.53
X22.144 Y3.529
X22.15 Y3.527
X22.155 Y3.526
X22.178 Y3.517
X22.337 Y3.457
X22.339
Z5.08
X22.244 Y2.538
Z2.086
Z0.035
G3 X22.109 Y2.995 I-0.269 J0.169
G1 X22.107
X21.979 Y3.037
X21.977 Y3.038
X21.841 Y3.046
X21.839
X21.706 Y3.02
X21.705
X21.584 Y2.963
X21.581 Y2.962
X21.477 Y2.875
X21.475 Y2.874
X21.436 Y2.819
X21.397 Y2.766
X21.395 Y2.763
X21.345 Y2.637
Y2.635
X21.328 Y2.501
Y2.499
X21.345 Y2.366
Y2.364
X21.395 Y2.237
X21.396 Y2.236
X21.476 Y2.126
X21.477 Y2.124
X21.581 Y2.039
X21.584 Y2.037
X21.705 Y1.98
X21.706
X21.839 Y1.954
X21.841
X21.977 Y1.962
X21.978 Y1.963
X22.107 Y2.005
X22.11 Y2.006
X22.223 Y2.078
X22.225 Y2.08
X22.317 Y2.178
X22.318 Y2.179
X22.383 Y2.297
X22.384 Y2.299
X22.418 Y2.431
Y2.433
Y2.567
Y2.569
X22.384 Y2.7
X22.383 Y2.702
X22.318 Y2.821
X22.317 Y2.823
X22.224 Y2.921
X22.223 Y2.922
X22.109 Y2.995
X22.105 Y2.993
X22.096 Y2.996
X22.085 Y2.999
X22.063 Y3.006
X22.022 Y3.02
X21.978 Y3.034 Z0.034
X21.975
X21.958 Y3.035
X21.934 Y3.036
X21.891 Y3.039 Z0.033
X21.842 Y3.041 Z0.032
X21.839
X21.825 Y3.038 Z0.031
X21.802 Y3.033
X21.759 Y3.025 Z0.03
X21.708 Y3.014 Z0.028
X21.706 Y3.013
X21.695 Y3.008
X21.674 Y2.997 Z0.027
X21.636 Y2.978 Z0.026
X21.589 Y2.955 Z0.024
X21.587 Y2.954
X21.578 Y2.947
X21.528 Y2.903 Z0.021
X21.487 Y2.868 Z0.02
X21.485 Y2.866 Z0.019
X21.467 Y2.84 Z0.018
X21.41 Y2.758 Z0.015
X21.408 Y2.756
X21.383 Y2.689 Z0.012
X21.362 Y2.633 Z0.01
Y2.631
X21.359 Y2.606 Z0.009
X21.354 Y2.563 Z0.008
X21.348 Y2.501 Z0.006
Y2.499
X21.351 Y2.477 Z0.005
X21.357 Y2.435 Z0.004
X21.364 Y2.381 Z0.003
X21.366 Y2.371
X21.367 Y2.368
X21.374 Y2.351 Z0.002
X21.39 Y2.311
X21.406 Y2.271 Z0.001
X21.415 Y2.249
X21.416 Y2.246
X21.426 Y2.233
X21.451 Y2.199 Z0
X21.464 Y2.181
X21.477 Y2.164
X21.486 Y2.146
X21.491 Y2.14
X21.492 Y2.138
X21.593 Y2.055
X21.594
X21.712 Y1.999
X21.713
X21.841 Y1.974
X21.842
X21.973 Y1.982
X21.974 Y1.983
X22.098 Y2.023
X22.1 Y2.024
X22.21 Y2.094
X22.213 Y2.096
X22.3 Y2.189
X22.302 Y2.191
X22.364 Y2.305
X22.365 Y2.306
X22.397 Y2.433
X22.398 Y2.434
Y2.566
X22.365 Y2.694
X22.364 Y2.696
X22.302 Y2.809
X22.3 Y2.811
X22.211 Y2.905
X22.21 Y2.906
X22.101 Y2.976
X22.099 Y2.977
X21.974 Y3.017
X21.973 Y3.018
X21.842 Y3.026
X21.841
X21.713 Y3.001
X21.712
X21.594 Y2.945
X21.592
X21.492 Y2.861
X21.49 Y2.859
X21.414 Y2.755
X21.413 Y2.753
X21.365 Y2.633
Y2.631
X21.348 Y2.501
Y2.499
X21.362 Y2.394
X21.365 Y2.369
X21.413 Y2.247
X21.414 Y2.246
X21.486 Y2.146
X21.492 Y2.143
X21.494 Y2.141
X21.506 Y2.131
X21.524 Y2.116
X21.557 Y2.089
X21.593 Y2.059 Z-0.001
X21.596 Y2.058
X21.612 Y2.05
X21.633 Y2.04
X21.673 Y2.022 Z-0.002
X21.702 Y2.009 Z-0.003
X21.712 Y2.004
X21.715 Y2.003
X21.735 Y2
X21.758 Y1.996 Z-0.004
X21.801 Y1.988 Z-0.005
X21.838 Y1.981 Z-0.006
X21.841
X21.844
X21.847
X21.89 Y1.984 Z-0.007
X21.933 Y1.988 Z-0.009
X21.97 Y1.991 Z-0.01
X21.973
X21.979 Y1.993
X22.02 Y2.007 Z-0.011
X22.06 Y2.022 Z-0.013
X22.093 Y2.033 Z-0.014
X22.095 Y2.034
X22.193 Y2.099 Z-0.018
X22.2 Y2.103
X22.203 Y2.105
X22.21 Y2.113 Z-0.019
X22.239 Y2.145 Z-0.02
X22.287 Y2.198 Z-0.022
X22.289 Y2.2
X22.295 Y2.212 Z-0.023
X22.315 Y2.251 Z-0.024
X22.336 Y2.289 Z-0.025
X22.347 Y2.311 Z-0.026
X22.348 Y2.313
X22.352 Y2.329
X22.362 Y2.371 Z-0.027
X22.373 Y2.413 Z-0.028
X22.378 Y2.434
Y2.437
Y2.456 Z-0.029
Y2.499
Y2.542 Z-0.03
Y2.561
X22.377 Y2.564
X22.375 Y2.575
X22.372 Y2.585
X22.361 Y2.627
X22.358 Y2.639
X22.346 Y2.685
Y2.687
X22.285 Y2.797
X22.284 Y2.798
X22.198 Y2.89
X22.197 Y2.891
X22.092 Y2.957
X22.09 Y2.958
X21.971 Y2.997
X21.97
X21.844 Y3.005
X21.842
X21.719 Y2.982
X21.718 Y2.981
X21.604 Y2.928
X21.603 Y2.927
X21.507 Y2.848
X21.506 Y2.847
X21.469 Y2.796
X21.432 Y2.745
X21.431 Y2.743
X21.385 Y2.627
X21.384 Y2.626
X21.369 Y2.501
Y2.499
X21.384 Y2.375
X21.385 Y2.373
X21.431 Y2.257
X21.432 Y2.255
X21.503 Y2.158
X21.506 Y2.153
X21.507 Y2.152
X21.603 Y2.073
X21.604 Y2.072
X21.717 Y2.019
X21.719 Y2.018
X21.842 Y1.995
X21.844
X21.97 Y2.003
X21.971
X22.09 Y2.042
X22.092
X22.196 Y2.109
X22.199 Y2.111
X22.284 Y2.202
X22.286 Y2.204
X22.346 Y2.313
Y2.315
X22.377 Y2.436
Y2.437
Y2.563
Y2.565
X22.358 Y2.639
G3 X21.965 Y2.866 I-0.308 J-0.079
G1 Z5.08
X26.023 Y4.262
Z2.086
Z0.035
G3 X26.263 Y4.727 I-0.04 J0.315
G1 X26.221 Y4.805
X26.209 Y4.828
X26.207 Y4.833
X26.205 Y4.839
X26.17 Y4.984
X26.167 Y4.996
X26.166 Y5.002
Y5.008
Y5.032
X26.168 Y5.169
Y5.173
Y5.177
X26.169 Y5.181
X26.17 Y5.185
X26.178 Y5.213
X26.212 Y5.338
X26.214 Y5.344
X26.216 Y5.349
X26.241 Y5.395
X26.293 Y5.485
X26.298 Y5.494
X26.301 Y5.498
X26.304 Y5.502
X26.319 Y5.518
X26.417 Y5.619
X26.421 Y5.623
X26.425 Y5.627
X26.43 Y5.63
X26.434 Y5.632
X26.567 Y5.713
X26.573 Y5.716
X26.578 Y5.719
X26.624 Y5.733
X26.714 Y5.76
X26.737 Y5.767
X26.743 Y5.768
X26.748 Y5.769
X26.76 Y5.77
X26.896 Y5.776
X26.907 Y5.777
X26.913 Y5.776
X26.918 Y5.775
X27.069 Y5.746
X27.073 Y5.745
X27.077 Y5.744
X27.083 Y5.741
X27.089 Y5.739
X27.22 Y5.678
X27.224 Y5.676
X27.228 Y5.673
X27.233 Y5.67
X27.237 Y5.667
X27.35 Y5.576
X27.356 Y5.571
X27.359 Y5.568
X27.362 Y5.565
X27.371 Y5.553
X27.453 Y5.446
X27.46 Y5.438
X27.462 Y5.433
X27.465 Y5.429
X27.48 Y5.395
X27.526 Y5.288
X27.529 Y5.281
X27.53 Y5.277
X27.531 Y5.273
X27.541 Y5.213
X27.556 Y5.122
X27.557 Y5.117
X27.558 Y5.111
X27.557 Y5.1
X27.547 Y4.964
X27.546 Y4.952
X27.545 Y4.947
X27.544 Y4.941
X27.531 Y4.9
X27.496 Y4.793
X27.494 Y4.788
X27.491 Y4.782
X27.478 Y4.759
X27.409 Y4.649
X27.405 Y4.644
X27.401 Y4.639
X27.391 Y4.629
X27.299 Y4.539
X27.289 Y4.529
X27.284 Y4.525
X27.279 Y4.521
X27.259 Y4.51
X27.145 Y4.443
X27.14 Y4.44
X27.134 Y4.438
X27.123 Y4.434
X26.986 Y4.394
X26.981 Y4.392
X26.975 Y4.391
X26.964 Y4.39
X26.907 Y4.384
X26.901 Y4.383
X26.896
X26.805 Y4.389
X26.74 Y4.393
X26.729 Y4.394
X26.724 Y4.395
X26.718 Y4.396
X26.714 Y4.398
X26.567 Y4.447
X26.561 Y4.449
X26.556 Y4.452
X26.55 Y4.455
X26.442 Y4.525
X26.411 Y4.545
X26.407 Y4.549
X26.402 Y4.553
X26.296 Y4.669
X26.293 Y4.673
X26.29 Y4.676
X26.288 Y4.68
X26.285 Y4.684
X26.263 Y4.727
G3 X25.833 Y4.857 I-0.28 J-0.15
G1 X25.822 Y4.844
X25.821 Y4.826
X25.833 Y4.813
X25.941 Y4.753
X25.952 Y4.741
X25.953 Y4.724
X25.942 Y4.71
X25.926 Y4.706
X25.911 Y4.714
X25.903 Y4.721
X25.202 Y5.422 Z0
X25.194 Y5.43
X14.193 Y16.432
X14.191 Y16.433
X5.008
X4.997
X4.986 Y16.434
X4.895 Y16.446
X4.889 Y16.447
X4.884 Y16.448
X4.878 Y16.45
X4.79 Y16.487
X4.785 Y16.489
X4.78 Y16.492
X4.774 Y16.495
X4.769 Y16.499
X4.694 Y16.556
X4.691 Y16.559
X4.688 Y16.562
X4.083 Y17.166
X4.081 Y17.169
X4.025 Y17.212
X4.023 Y17.213
X1.107
X1.102
X1.096
X1.09 Y17.214
X1.085 Y17.215
X1.039 Y17.232
X1.035 Y17.233
X1.032 Y17.235
X1.028 Y17.237
X1.024 Y17.239
X1.021 Y17.242
X1.017 Y17.245
X1.009 Y17.252
X0.98 Y17.282
X0.977 Y17.285
X0.975 Y17.288
X0.972 Y17.294
X0.969 Y17.299
X0.967 Y17.305
X0.959 Y17.328
X0.951 Y17.35
X0.95 Y17.356
X0.949 Y17.362
Y17.373
Y18.19
Y18.195
Y18.201
X0.95 Y18.207
X0.952 Y18.212
X0.96 Y18.235
X0.968 Y18.258
X0.97 Y18.263
X0.973 Y18.269
X0.975 Y18.272
X0.977 Y18.275
X0.979 Y18.278
X0.982 Y18.28
X1.011 Y18.309
X1.018 Y18.316
X1.021 Y18.319
X1.025 Y18.321
X1.028 Y18.323
X1.032 Y18.325
X1.036 Y18.327
X1.039 Y18.328
X1.085 Y18.345
X1.09 Y18.346
X1.096 Y18.347
X1.102
X1.107
X6.925
X6.931
X6.936
X6.942 Y18.346
X6.948 Y18.345
X6.959 Y18.341
X6.993 Y18.328
X6.999 Y18.326
X7.004 Y18.323
X7.007 Y18.321
X7.01 Y18.319
X7.013 Y18.317
X7.016 Y18.315
X7.027 Y18.303
X7.05 Y18.28
X7.053 Y18.278
X7.055 Y18.275
X7.057 Y18.272
X7.059 Y18.269
X7.062 Y18.263
X7.064 Y18.258
X7.072 Y18.235
X7.08 Y18.212
X7.082 Y18.207
X7.083 Y18.201
Y18.195
Y18.19
Y17.373
Y17.366
Y17.362
Y17.359
X7.082 Y17.356
Y17.352
X7.081 Y17.349
X7.08 Y17.345
X7.072 Y17.324
X7.07 Y17.319
X7.072 Y17.317
X14.376
X14.381
X14.387 Y17.316
X14.466 Y17.306
X14.485 Y17.303
X14.489 Y17.302
X14.494 Y17.301
X14.503 Y17.297
X14.58 Y17.265
X14.591 Y17.261
X14.597 Y17.258
X14.6 Y17.256
X14.603 Y17.254
X14.648 Y17.219
X14.684 Y17.191
X14.739 Y17.137
X26.323 Y5.552
X26.325 Y5.553
X26.397 Y5.627
X26.408 Y5.638
X26.414 Y5.643
X26.419 Y5.647
X26.442 Y5.661
X26.556 Y5.73
X26.561 Y5.733
X26.567 Y5.736
X26.573 Y5.738
X26.578 Y5.74
X26.714 Y5.781
X26.737 Y5.788
X26.743 Y5.789
X26.748
X26.76 Y5.79
X26.896 Y5.796
X26.907 Y5.797
X26.913
X26.918 Y5.796
X26.941 Y5.792
X26.986 Y5.783
X27.077 Y5.765
X27.082 Y5.763
X27.087 Y5.762
X27.096 Y5.758
X27.213 Y5.703
X27.236 Y5.692
X27.242 Y5.689
X27.247 Y5.685
X27.269 Y5.667
X27.364 Y5.59
X27.372 Y5.584
X27.376 Y5.58
X27.379 Y5.576
X27.44 Y5.497
X27.466 Y5.463
X27.475 Y5.451
X27.478 Y5.446
X27.482 Y5.44
X27.502 Y5.395
X27.541 Y5.304
X27.546 Y5.293
X27.548 Y5.287
X27.55 Y5.281
X27.554 Y5.259
X27.561 Y5.213
X27.577 Y5.122
Y5.117
X27.578 Y5.111
X27.577 Y5.1
X27.566 Y4.952
Y4.947
X27.565 Y4.941
X27.564 Y4.935
X27.562 Y4.93
X27.516 Y4.788
X27.514 Y4.783
X27.512 Y4.778
X27.51 Y4.774
X27.507 Y4.769
X27.501 Y4.759
X27.427 Y4.64
X27.424 Y4.635
X27.42 Y4.63
X27.416 Y4.625
X27.41 Y4.62
X27.305 Y4.517
X27.299 Y4.512
X27.294 Y4.507
X27.283 Y4.5
X27.157 Y4.426
X27.151 Y4.423
X27.145 Y4.421
X27.14 Y4.418
X27.134 Y4.417
X27.066 Y4.396
X26.986 Y4.373
X26.981 Y4.372
X26.975 Y4.371
X26.907 Y4.363
X26.901
X26.896
X26.805 Y4.369
X26.737 Y4.373
X26.726 Y4.374
X26.72 Y4.375
X26.714 Y4.377
X26.654 Y4.396
X26.578 Y4.422
X26.556 Y4.43
X26.55 Y4.432
X26.544 Y4.435
X26.533 Y4.442
X26.408 Y4.523
X26.402 Y4.526
X26.397 Y4.531
X26.391 Y4.536
X26.385 Y4.543
X26.361 Y4.568
X26.36
X26.306 Y4.561
X26.3
X26.295
X26.193 Y4.563
X26.181 Y4.564
X26.176
X26.17 Y4.565
X26.165 Y4.566
X26.16 Y4.568
X26.057 Y4.603
X26.051 Y4.605
X26.045 Y4.608
X26.04 Y4.611
X26.034 Y4.615
X25.945 Y4.68
X25.941 Y4.683
X25.937 Y4.687
X25.194 Y5.43
Z5.08
X26.744 Y5.221
Z2.086
Z0.035
X26.712 Y5.222
X26.683 Y5.21
X26.66 Y5.188
X26.648 Y5.158
X26.634 Y5.081
X26.633 Y5.08
X26.649 Y4.999
Y4.998
X26.691 Y4.93
X26.692 Y4.929
X26.693 Y4.927
X26.758 Y4.878
X26.76 Y4.877
X26.839 Y4.854
X26.84 Y4.855
X26.921 Y4.862
X26.923
X26.996 Y4.899
X26.997 Y4.9
X27.052 Y4.96
X27.053 Y4.962
X27.082 Y5.037
X27.083 Y5.039
Y5.121
X27.082 Y5.122
X27.053 Y5.199
X27.051 Y5.201
X26.998 Y5.259
X26.997 Y5.261
X26.923 Y5.298
X26.921
X26.839 Y5.306
X26.838 Y5.305
X26.76 Y5.283
X26.758 Y5.282
X26.694 Y5.234
X26.693 Y5.233
X26.649 Y5.162
Y5.161
X26.648 Y5.158
X26.643 Y5.115
X26.637 Y5.085
Y5.081
Y5.078
X26.639 Y5.066
X26.647 Y5.024 Z0.034
X26.652 Y5
X26.654 Y4.997
X26.658 Y4.99
X26.665 Y4.979 Z0.033
X26.688 Y4.943
X26.695 Y4.933 Z0.032
X26.696 Y4.93
X26.704 Y4.925
X26.723 Y4.91
X26.76 Y4.883 Z0.031
X26.763 Y4.882
X26.781 Y4.877 Z0.03
X26.804 Y4.871 Z0.029
X26.838 Y4.862 Z0.028
X26.842 Y4.861
X26.851 Y4.862
X26.893 Y4.867 Z0.027
X26.92 Y4.87 Z0.026
X26.922 Y4.871
X26.938 Y4.88 Z0.025
X26.986 Y4.905 Z0.023
X26.989 Y4.906
X26.991 Y4.908
X26.995 Y4.913
X27.043 Y4.967 Z0.021
X27.044 Y4.969 Z0.02
X27.049 Y4.983
X27.069 Y5.039 Z0.018
X27.07 Y5.042
Y5.048
X27.068 Y5.119 Z0.015
X27.062 Y5.135
X27.039 Y5.19 Z0.012
X27.038 Y5.192
X27.02 Y5.21 Z0.011
X26.987 Y5.245 Z0.01
X26.985 Y5.247
X26.953 Y5.262 Z0.009
X26.921 Y5.277 Z0.007
X26.919 Y5.279
X26.916
X26.913 Y5.28
X26.841 Y5.285 Z0.005
X26.838 Y5.284
X26.828 Y5.281
X26.772 Y5.264 Z0.003
X26.769
X26.767 Y5.262
X26.75 Y5.249
X26.71 Y5.218 Z0.002
X26.708 Y5.216
X26.703 Y5.207
X26.692 Y5.189 Z0.001
X26.681 Y5.171
X26.672 Y5.155
X26.67 Y5.153
X26.668 Y5.143
X26.666 Y5.132 Z0
X26.663 Y5.111
X26.657 Y5.083
Y5.08
Y5.078
X26.659 Y5.07
X26.663 Y5.034
X26.668 Y5.006
Y5.005
X26.707 Y4.942
X26.708 Y4.941
X26.768 Y4.896
X26.84 Y4.875
X26.842
X26.916 Y4.882
X26.917
X26.984 Y4.915
X26.985 Y4.917
X27.034 Y4.971
X27.035 Y4.972
X27.062 Y5.042
Y5.043
Y5.117
Y5.118
X27.035 Y5.188
Y5.189
X26.985 Y5.243
X26.984 Y5.245
X26.917 Y5.278
X26.916
X26.842 Y5.285
X26.84
X26.768 Y5.264
X26.711 Y5.221
X26.709 Y5.22
X26.708 Y5.218
X26.668 Y5.155
Y5.154
X26.654 Y5.081
Y5.08
X26.663 Y5.034
X26.67 Y5.01
X26.671 Y5.007
X26.672 Y5.004
X26.682 Y4.988
X26.708 Y4.947
X26.71 Y4.944
X26.712 Y4.942
X26.722 Y4.935 Z-0.001
X26.742 Y4.92
X26.768 Y4.9
X26.771 Y4.899
X26.783 Y4.895 Z-0.002
X26.824 Y4.884
X26.839 Y4.88 Z-0.003
X26.842 Y4.879
X26.848 Y4.88
X26.872 Y4.883
X26.908 Y4.886 Z-0.004
X26.915 Y4.887
X26.917 Y4.888
X26.92 Y4.89
X26.958 Y4.909 Z-0.005
X26.98 Y4.921 Z-0.006
X26.982 Y4.923
X26.996 Y4.938 Z-0.007
X27.028 Y4.975 Z-0.008
X27.029 Y4.978
X27.034 Y4.992 Z-0.009
X27.043 Y5.014
X27.053 Y5.041 Z-0.01
X27.054 Y5.044
X27.053 Y5.059 Z-0.011
X27.052 Y5.114 Z-0.013
Y5.117
X27.049 Y5.125
X27.026 Y5.181 Z-0.015
X27.024 Y5.183
X26.977 Y5.233 Z-0.017
X26.975 Y5.235
X26.954 Y5.244 Z-0.018
X26.913 Y5.264 Z-0.02
X26.91
X26.871 Y5.267 Z-0.021
X26.843 Y5.269 Z-0.022
X26.84
X26.827 Y5.265
X26.778 Y5.25 Z-0.024
X26.775 Y5.249
X26.749 Y5.228 Z-0.025
X26.723 Y5.208 Z-0.026
X26.721 Y5.206
X26.717 Y5.199
X26.689 Y5.153 Z-0.027
X26.686 Y5.149
X26.685 Y5.146
X26.681 Y5.122 Z-0.028
X26.675 Y5.09
X26.674 Y5.082
Y5.079
X26.676 Y5.069 Z-0.029
X26.678 Y5.058
X26.682 Y5.037
X26.687 Y5.013
X26.688 Y5.011
X26.696 Y4.997
X26.722 Y4.956 Z-0.03
X26.724 Y4.954
X26.735 Y4.946
X26.752 Y4.933
X26.769 Y4.92
X26.777 Y4.914
X26.779 Y4.913
X26.842 Y4.896
X26.843 Y4.895
X26.91 Y4.902
X26.912
X26.971 Y4.932
X26.972
X27.017 Y4.982
X27.018 Y4.983
X27.042 Y5.046
Y5.047
Y5.114
Y5.115
X27.018 Y5.177
X27.017 Y5.178
X26.973 Y5.227
X26.971 Y5.228
X26.911 Y5.258
X26.91
X26.843 Y5.265
X26.842 Y5.264
X26.778 Y5.246
X26.776 Y5.245
X26.724 Y5.206
X26.722 Y5.204
X26.688 Y5.148
X26.687 Y5.146
X26.675 Y5.081
Y5.08
X26.683 Y5.037
X26.687 Y5.014
X26.688 Y5.012
X26.714 Y4.969
X26.722 Y4.957
X26.723 Y4.955
X26.769 Y4.92
X26.802 Y4.903
X26.839 Y4.896
X26.876 Y4.901
X26.909 Y4.918
X26.936 Y4.944
Z5.08
X27.033 Y8.883
Z2.086
Z0.035
G3 X26.703 Y9.289 I-0.305 J0.089
G1 X26.692
X26.558 Y9.298
X26.545 Y9.299
X26.539 Y9.3
X26.533 Y9.302
X26.442 Y9.33
X26.397 Y9.344
X26.385 Y9.348
X26.38 Y9.35
X26.374 Y9.353
X26.316 Y9.387
X26.243 Y9.43
X26.239 Y9.433
X26.235 Y9.437
X26.226 Y9.445
X26.125 Y9.543
X26.121 Y9.547
X26.117 Y9.551
X26.106 Y9.569
X26.033 Y9.682
X26.03 Y9.688
X26.027 Y9.694
X26.023 Y9.705
X25.989 Y9.806
X25.976 Y9.841
X25.975 Y9.847
X25.974 Y9.852
X25.972 Y9.864
X25.959 Y10
X25.958 Y10.011
Y10.017
X25.959 Y10.023
X25.979 Y10.167
Y10.173
X25.981 Y10.178
X25.982 Y10.184
X25.984 Y10.189
X26.034 Y10.318
X26.039 Y10.329
X26.041 Y10.335
X26.045 Y10.34
X26.124 Y10.455
X26.132 Y10.466
X26.134 Y10.468
X26.136 Y10.471
X26.139 Y10.474
X26.141 Y10.476
X26.252 Y10.575
X26.256 Y10.579
X26.261 Y10.583
X26.351 Y10.632
X26.398 Y10.658
X26.404 Y10.66
X26.409 Y10.662
X26.42 Y10.666
X26.556 Y10.702
X26.561 Y10.704
X26.567 Y10.705
X26.578
X26.726 Y10.709
X26.731
X26.737
X26.743 Y10.708
X26.748 Y10.707
X26.896 Y10.675
X26.901 Y10.674
X26.906 Y10.672
X26.911 Y10.67
X26.915 Y10.668
X27.032 Y10.61
X27.055 Y10.599
X27.06 Y10.596
X27.066 Y10.591
X27.183 Y10.493
X27.187 Y10.489
X27.192 Y10.485
X27.198 Y10.476
X27.281 Y10.363
X27.289 Y10.352
X27.292 Y10.346
X27.295 Y10.34
X27.351 Y10.204
X27.355 Y10.193
X27.357 Y10.187
X27.358 Y10.181
X27.368 Y10.113
X27.382 Y10.023
Y10.017
Y10.011
X27.368 Y9.864
X27.366 Y9.852
X27.365 Y9.847
X27.364 Y9.841
X27.332 Y9.75
X27.312 Y9.694
X27.31 Y9.688
X27.307 Y9.682
X27.293 Y9.66
X27.222 Y9.551
X27.219 Y9.546
X27.215 Y9.542
X27.211 Y9.538
X27.206 Y9.533
X27.112 Y9.445
X27.095 Y9.429
X27.09 Y9.425
X27.086 Y9.422
X27.077 Y9.417
X26.947 Y9.344
X26.941 Y9.342
X26.935 Y9.339
X26.93 Y9.338
X26.805 Y9.304
X26.78 Y9.297
X26.776 Y9.296
X26.772 Y9.295
X26.714 Y9.29
X26.703 Y9.289
G3 X26.442 Y8.836 I0.025 J-0.316
G1 Z5.08
X26.43 Y9.955
Z2.086
Z0.035
G3 X26.693 Y9.714 I0.238 J-0.004
G1 X26.694
X26.785 Y9.737
X26.863 Y9.789
X26.865 Y9.791
X26.921 Y9.862
X26.922 Y9.864
X26.953 Y9.952
Y9.953
Y10.047
Y10.048
X26.923 Y10.135
X26.922 Y10.137
X26.865 Y10.21
X26.864 Y10.211
X26.785 Y10.263
X26.694 Y10.286
X26.693
X26.601 Y10.278
X26.599
X26.514 Y10.241
X26.513 Y10.24
X26.445 Y10.177
X26.443 Y10.175
X26.399 Y10.094
Y10.092
X26.383 Y10.001
Y10
X26.399 Y9.908
Y9.906
X26.442 Y9.827
X26.443 Y9.825
X26.444 Y9.824
X26.513 Y9.76
X26.514 Y9.759
X26.599 Y9.722
X26.6
X26.693 Y9.714
X26.696 Y9.718
X26.704 Y9.72
X26.715 Y9.723
X26.738 Y9.728
X26.783 Y9.74
X26.785 Y9.741
X26.801 Y9.751 Z0.034
X26.821 Y9.765
X26.859 Y9.79 Z0.033
X26.862 Y9.792
X26.873 Y9.807
X26.888 Y9.826
X26.917 Y9.865 Z0.032
X26.919 Y9.868
X26.923 Y9.882 Z0.031
X26.931 Y9.905
X26.946 Y9.952 Z0.029
X26.947 Y9.955
X26.946 Y9.97
Y9.994 Z0.028
X26.945 Y10.046 Z0.027
X26.944 Y10.049
X26.94 Y10.06 Z0.026
X26.932 Y10.082 Z0.025
X26.914 Y10.131 Z0.024
X26.913 Y10.133
X26.905 Y10.142 Z0.023
X26.858 Y10.201 Z0.021
X26.856 Y10.203 Z0.02
X26.846 Y10.209
X26.781 Y10.25 Z0.017
X26.778 Y10.251
X26.747 Y10.258 Z0.016
X26.694 Y10.27 Z0.014
X26.692 Y10.271
X26.661 Y10.267 Z0.013
X26.604 Y10.262 Z0.011
X26.602 Y10.261
X26.576 Y10.249 Z0.01
X26.525 Y10.225 Z0.008
X26.522 Y10.224
X26.503 Y10.205 Z0.007
X26.46 Y10.164 Z0.006
X26.458 Y10.161
X26.447 Y10.14 Z0.005
X26.42 Y10.087 Z0.003
X26.419 Y10.085
X26.415 Y10.061
X26.407 Y10.008 Z0.002
X26.406 Y10
Y9.997
X26.41 Y9.977 Z0.001
X26.417 Y9.934
X26.42 Y9.916
X26.421 Y9.913
X26.426 Y9.904 Z0
X26.431 Y9.895
X26.452 Y9.857
X26.461 Y9.84
X26.464 Y9.836
X26.468 Y9.833
X26.473 Y9.824
X26.523 Y9.778
X26.526 Y9.776
X26.604 Y9.742
X26.607
X26.692 Y9.735
X26.693
X26.777 Y9.756
X26.778 Y9.757
X26.85 Y9.804
X26.852 Y9.806
X26.904 Y9.873
X26.933 Y9.956
Y9.957
Y10.042
Y10.044
X26.905 Y10.125
X26.904 Y10.127
X26.852 Y10.194
X26.85 Y10.196
X26.778 Y10.243
X26.777 Y10.244
X26.693 Y10.265
X26.692
X26.605 Y10.258
X26.604
X26.526 Y10.224
X26.524 Y10.222
X26.462 Y10.165
X26.459 Y10.163
X26.419 Y10.088
X26.418 Y10.086
X26.404 Y10.001
Y10
X26.418 Y9.914
X26.419 Y9.912
X26.442 Y9.869
X26.459 Y9.839
X26.46 Y9.836
X26.473 Y9.824
X26.507 Y9.797
X26.523 Y9.783
X26.525 Y9.781
X26.527 Y9.779
X26.536 Y9.775
X26.547 Y9.771
X26.587 Y9.753 Z-0.001
X26.604 Y9.746
X26.607 Y9.745
X26.61
X26.634 Y9.743
X26.677 Y9.74 Z-0.002
X26.689 Y9.739
X26.692
X26.701 Y9.742 Z-0.003
X26.724 Y9.748
X26.772 Y9.76 Z-0.004
X26.775 Y9.761
X26.788 Y9.77 Z-0.005
X26.807 Y9.783
X26.846 Y9.809 Z-0.006
X26.848 Y9.811 Z-0.007
X26.858 Y9.826
X26.873 Y9.845 Z-0.008
X26.896 Y9.875 Z-0.009
X26.897 Y9.878
X26.899 Y9.884
X26.912 Y9.925 Z-0.011
X26.922 Y9.955 Z-0.012
X26.923 Y9.958
X26.922 Y10.013 Z-0.013
X26.921 Y10.042 Z-0.014
X26.893 Y10.12 Z-0.017
X26.891 Y10.123
X26.878 Y10.138 Z-0.018
X26.841 Y10.185 Z-0.02
X26.838 Y10.187
X26.817 Y10.2 Z-0.021
X26.771 Y10.229 Z-0.022
X26.765 Y10.231
X26.738 Y10.237 Z-0.023
X26.693 Y10.248 Z-0.024
X26.69 Z-0.025
X26.674 Y10.247
X26.652 Y10.244
X26.619 Y10.241 Z-0.026
X26.611 Y10.24
X26.608 Z-0.027
X26.589 Y10.231
X26.569 Y10.222
X26.539 Y10.209 Z-0.028
X26.537 Y10.207
X26.534 Y10.206
X26.53 Y10.202
X26.499 Y10.173 Z-0.029
X26.477 Y10.152
X26.475 Y10.15
X26.47 Y10.141
X26.45 Y10.103 Z-0.03
X26.438 Y10.081
X26.437 Y10.079
X26.435 Y10.063
X26.429 Y10.031
X26.424 Y10.001
Y10
X26.437 Y9.922
X26.438 Y9.919
X26.476 Y9.85
X26.478 Y9.848
X26.534 Y9.795
X26.536 Y9.794
X26.609 Y9.762
X26.611
X26.69 Y9.755
X26.692
X26.768 Y9.775
X26.77 Y9.776
X26.836 Y9.819
X26.838 Y9.821
X26.886 Y9.883
X26.887 Y9.885
X26.912 Y9.959
Y9.96
Y10.039
Y10.041
X26.886 Y10.116
Y10.117
X26.837 Y10.18
X26.835 Y10.182
X26.77 Y10.224
X26.768 Y10.225
X26.692 Y10.245
X26.69
X26.611 Y10.238
X26.61
X26.537 Y10.206
X26.535 Y10.205
X26.476 Y10.151
X26.475 Y10.15
X26.438 Y10.08
X26.437 Y10.078
X26.429 Y10.031
G3 X26.593 Y9.803 I0.196 J-0.033
G1 Z5.08
X28.176 Y9.669
Z2.086
Z0.035
G3 X28.498 Y10.011 I0.005 J0.317
G1 Y10.017
X28.499 Y10.023
X28.519 Y10.168
X28.52 Y10.173
X28.521 Y10.179
X28.522 Y10.184
X28.525 Y10.19
X28.574 Y10.318
X28.579 Y10.329
X28.581 Y10.335
X28.585 Y10.34
X28.664 Y10.455
X28.672 Y10.466
X28.674 Y10.468
X28.676 Y10.471
X28.679 Y10.474
X28.681 Y10.476
X28.792 Y10.575
X28.796 Y10.579
X28.801 Y10.583
X28.892 Y10.632
X28.938 Y10.658
X28.944 Y10.66
X28.949 Y10.662
X28.96 Y10.666
X29.096 Y10.702
X29.102 Y10.704
X29.107 Y10.705
X29.119
X29.266 Y10.709
X29.272
X29.277
X29.283 Y10.708
X29.289 Y10.707
X29.436 Y10.675
X29.441 Y10.673
X29.446 Y10.672
X29.451 Y10.67
X29.456 Y10.667
X29.572 Y10.61
X29.595 Y10.599
X29.601 Y10.595
X29.606 Y10.591
X29.723 Y10.493
X29.727 Y10.489
X29.732 Y10.485
X29.738 Y10.476
X29.821 Y10.363
X29.829 Y10.352
X29.832 Y10.346
X29.835 Y10.34
X29.891 Y10.204
X29.895 Y10.193
X29.897 Y10.187
X29.898 Y10.181
X29.908 Y10.113
X29.922 Y10.023
Y10.017
Y10.011
X29.908 Y9.864
X29.906 Y9.852
X29.905 Y9.847
X29.904 Y9.841
X29.872 Y9.75
X29.852 Y9.694
X29.85 Y9.688
X29.847 Y9.682
X29.833 Y9.66
X29.762 Y9.551
X29.759 Y9.547
X29.755 Y9.542
X29.751 Y9.538
X29.746 Y9.533
X29.653 Y9.445
X29.635 Y9.429
X29.631 Y9.425
X29.626 Y9.422
X29.618 Y9.417
X29.527 Y9.367
X29.481 Y9.342
X29.476 Y9.34
X29.47 Y9.338
X29.345 Y9.304
X29.32 Y9.297
X29.316 Y9.296
X29.312 Y9.295
X29.255 Y9.29
X29.243 Y9.289
X29.232
X29.098 Y9.298
X29.086 Y9.299
X29.079 Y9.3
X29.073 Y9.301
X28.982 Y9.33
X28.937 Y9.344
X28.926 Y9.347
X28.92 Y9.35
X28.914 Y9.353
X28.892 Y9.366
X28.784 Y9.43
X28.779 Y9.433
X28.775 Y9.436
X28.766 Y9.445
X28.665 Y9.543
X28.661 Y9.547
X28.657 Y9.551
X28.646 Y9.569
X28.573 Y9.682
X28.57 Y9.688
X28.567 Y9.694
X28.563 Y9.705
X28.529 Y9.805
X28.516 Y9.841
X28.515 Y9.847
X28.514 Y9.852
X28.512 Y9.864
X28.505 Y9.934
X28.499 Y10
X28.498 Y10.011
G3 X28.128 Y10.3 I-0.317 J-0.024
G1 Z5.08
X28.989 Y10.091
Z2.086
Z0.035
X28.96 Y10.081
X28.937 Y10.06
X28.924 Y10.031
X28.923 Y10
X28.939 Y9.908
Y9.906
X28.982 Y9.826
X28.983 Y9.825
X28.984 Y9.823
X29.052 Y9.761
X29.053 Y9.76
X29.139 Y9.722
X29.14
X29.233 Y9.714
X29.235
X29.324 Y9.737
X29.325
X29.404 Y9.789
X29.406 Y9.791
X29.461 Y9.862
X29.462 Y9.864
X29.493 Y9.952
Y9.953
Y10.047
Y10.048
X29.462 Y10.136
X29.461 Y10.138
X29.405 Y10.21
X29.404 Y10.211
X29.325 Y10.262
X29.324 Y10.263
X29.235 Y10.286
X29.233
X29.14 Y10.278
X29.138 Y10.277
X29.055 Y10.241
X29.053 Y10.24
X28.986 Y10.178
X28.984 Y10.176
X28.939 Y10.094
Y10.092
X28.923 Y10.001
Y10
X28.93 Y9.977
X28.934 Y9.955
X28.942 Y9.909
X28.943 Y9.906
X28.952 Y9.89 Z0.034
X28.963 Y9.869
X28.986 Y9.828 Z0.033
X28.987 Y9.826
X29.001 Y9.813
X29.019 Y9.797
X29.056 Y9.764 Z0.032
X29.058 Y9.763
X29.072 Y9.757 Z0.031
X29.094 Y9.748
X29.14 Y9.729 Z0.029
X29.143 Y9.728
X29.158 Y9.727
X29.181 Y9.725 Z0.028
X29.23 Y9.722 Z0.027
X29.233
X29.248 Y9.726 Z0.026
X29.27 Y9.732 Z0.025
X29.32 Y9.746 Z0.024
X29.323 Y9.747
X29.333 Y9.754 Z0.023
X29.395 Y9.796 Z0.021
X29.397 Y9.798 Z0.02
X29.404 Y9.807
X29.45 Y9.87 Z0.017
X29.451 Y9.872
X29.461 Y9.902 Z0.016
X29.477 Y9.954 Z0.014
X29.478 Y9.957
X29.476 Y10.031 Z0.012
Y10.042 Z0.011
Y10.044
X29.466 Y10.073 Z0.01
X29.446 Y10.126 Z0.008
X29.445 Y10.129
X29.428 Y10.15 Z0.007
X29.392 Y10.194 Z0.006
X29.39 Y10.196
X29.368 Y10.211 Z0.005
X29.317 Y10.242 Z0.003
X29.315 Y10.243
X29.292 Y10.249
X29.239 Y10.262 Z0.002
X29.234 Y10.263
X29.232
X29.229
X29.208 Y10.261 Z0.001
X29.165 Y10.257
X29.146 Y10.256
X29.144 Y10.255
X29.134 Y10.251 Z0
X29.124 Y10.246
X29.085 Y10.229
X29.067 Y10.221
X29.063 Y10.218
X29.06 Y10.215
X29.051 Y10.21
X29.002 Y10.166
X29 Y10.163
X28.959 Y10.088
X28.958 Y10.086
X28.944 Y10.001
Y10
X28.958 Y9.914
X28.959 Y9.912
X28.982 Y9.869
X28.999 Y9.839
X29 Y9.836
X29.064 Y9.778
X29.066 Y9.776
X29.145 Y9.742
X29.147
X29.232 Y9.735
X29.233
X29.317 Y9.756
X29.318 Y9.757
X29.39 Y9.804
X29.392 Y9.806
X29.443 Y9.871
X29.444 Y9.874
X29.473 Y9.956
Y9.957
Y10.042
Y10.044
X29.445 Y10.125
X29.444 Y10.127
X29.392 Y10.194
X29.39 Y10.196
X29.317 Y10.244
X29.311 Y10.245
X29.233 Y10.265
X29.232
X29.145 Y10.258
X29.144
X29.066 Y10.224
X29.064 Y10.223
X29.051 Y10.21
X29.021 Y10.179
X29.005 Y10.164
X29.003 Y10.162
X29.001 Y10.16
X28.997 Y10.152
X28.991 Y10.141
X28.971 Y10.103 Z-0.001
X28.962 Y10.087
X28.961 Y10.084
Y10.081
X28.957 Y10.057
X28.949 Y10.008 Z-0.002
X28.948 Y10.002
Y9.999
X28.95 Y9.99 Z-0.003
X28.954 Y9.966
X28.963 Y9.918 Z-0.004
X28.964 Y9.915
X28.971 Y9.901 Z-0.005
X28.983 Y9.88
X29 Y9.85 Z-0.006
X29.004 Y9.843
X29.006 Y9.84 Z-0.007
X29.022 Y9.825
X29.039 Y9.81 Z-0.008
X29.068 Y9.785 Z-0.009
X29.07 Y9.783
X29.076 Y9.781
X29.116 Y9.764 Z-0.011
X29.145 Y9.752 Z-0.012
X29.148 Y9.751
X29.203 Y9.748 Z-0.013
X29.229 Y9.746 Z-0.014
X29.232
X29.309 Y9.767 Z-0.017
X29.312 Y9.768
X29.331 Y9.781 Z-0.018
X29.379 Y9.813 Z-0.02
X29.381 Y9.815
X29.398 Y9.838 Z-0.021
X29.429 Y9.879 Z-0.022
X29.43 Y9.881
X29.441 Y9.913 Z-0.023
X29.455 Y9.957 Z-0.024
X29.456 Y9.96 Z-0.025
X29.455 Y9.976
Y9.998
Y10.031 Z-0.026
X29.454 Y10.04
Y10.042 Z-0.027
X29.447 Y10.063
X29.439 Y10.083
X29.429 Y10.114 Z-0.028
X29.428 Y10.116
X29.426 Y10.119
X29.423 Y10.123
X29.396 Y10.157 Z-0.029
X29.378 Y10.18
X29.375 Y10.182
X29.366 Y10.188
X29.33 Y10.211 Z-0.03
X29.31 Y10.225
X29.307 Y10.226
X29.291 Y10.23
X29.261 Y10.237
X29.231 Y10.245
X29.229
X29.15 Y10.238
X29.148
X29.077 Y10.206
X29.075 Y10.205
X29.017 Y10.151
X29.016 Y10.15
X28.978 Y10.081
X28.977 Y10.079
X28.964 Y10.001
Y10
X28.978 Y9.92
X28.982 Y9.911
X29.016 Y9.85
X29.018 Y9.848
X29.075 Y9.795
X29.076 Y9.794
X29.148 Y9.762
X29.15
X29.229 Y9.755
X29.231
X29.308 Y9.775
X29.31 Y9.776
X29.376 Y9.819
X29.378 Y9.821
X29.425 Y9.881
X29.426 Y9.883
X29.452 Y9.959
Y9.96
Y10.039
Y10.041
X29.426 Y10.116
Y10.117
X29.377 Y10.18
X29.375 Y10.182
X29.31 Y10.224
X29.308 Y10.225
X29.261 Y10.237
G3 X29.019 Y10.09 I-0.049 J-0.192
G1 Z5.08
X30.671 Y9.745
Z2.086
Z0.035
G3 X31.039 Y10.023 I0.052 J0.313
G1 X31.059 Y10.168
X31.06 Y10.174
X31.061 Y10.179
X31.069 Y10.201
X31.114 Y10.318
X31.119 Y10.329
X31.121 Y10.335
X31.125 Y10.34
X31.204 Y10.455
X31.212 Y10.466
X31.214 Y10.468
X31.216 Y10.471
X31.221 Y10.476
X31.332 Y10.576
X31.337 Y10.58
X31.341 Y10.583
X31.432 Y10.633
X31.478 Y10.658
X31.484 Y10.66
X31.489 Y10.663
X31.501 Y10.666
X31.636 Y10.702
X31.642 Y10.704
X31.647 Y10.705
X31.659
X31.806 Y10.709
X31.812
X31.818
X31.823 Y10.708
X31.829 Y10.707
X31.976 Y10.675
X31.981 Y10.673
X31.986 Y10.672
X31.991 Y10.67
X31.996 Y10.667
X32.112 Y10.61
X32.135 Y10.599
X32.141 Y10.595
X32.146 Y10.591
X32.263 Y10.493
X32.268 Y10.489
X32.272 Y10.484
X32.278 Y10.476
X32.361 Y10.363
X32.369 Y10.352
X32.372 Y10.346
X32.375 Y10.34
X32.431 Y10.204
X32.435 Y10.193
X32.437 Y10.187
X32.438 Y10.181
X32.448 Y10.113
X32.462 Y10.023
Y10.017
Y10.011
X32.448 Y9.864
X32.446 Y9.852
X32.445 Y9.847
X32.444 Y9.841
X32.412 Y9.75
X32.392 Y9.694
X32.39 Y9.688
X32.387 Y9.682
X32.373 Y9.66
X32.302 Y9.551
X32.299 Y9.547
X32.295 Y9.542
X32.291 Y9.538
X32.287 Y9.533
X32.193 Y9.446
X32.175 Y9.429
X32.171 Y9.426
X32.167 Y9.423
X32.158 Y9.418
X32.067 Y9.367
X32.022 Y9.342
X32.016 Y9.34
X32.01 Y9.338
X31.886 Y9.304
X31.86 Y9.297
X31.856 Y9.296
X31.852 Y9.295
X31.795 Y9.29
X31.784 Y9.289
X31.772
X31.638 Y9.298
X31.626 Y9.299
X31.62 Y9.3
X31.613 Y9.301
X31.523 Y9.33
X31.477 Y9.344
X31.466 Y9.347
X31.46 Y9.35
X31.455 Y9.352
X31.432 Y9.366
X31.324 Y9.43
X31.32 Y9.433
X31.315 Y9.436
X31.306 Y9.444
X31.205 Y9.543
X31.201 Y9.547
X31.197 Y9.551
X31.186 Y9.569
X31.113 Y9.682
X31.11 Y9.688
X31.107 Y9.694
X31.103 Y9.705
X31.069 Y9.804
X31.056 Y9.841
X31.055 Y9.847
X31.054 Y9.852
X31.052 Y9.864
X31.039 Y10
X31.038 Y10.011
Y10.017
X31.039 Y10.023
G3 X30.741 Y10.375 I-0.316 J0.035
G1 Z5.08
X31.53 Y10.092
Z2.086
Z0.035
X31.5 Y10.081
X31.477 Y10.06
X31.464 Y10.031
X31.463 Y10
X31.479 Y9.908
Y9.906
X31.523 Y9.826
X31.524 Y9.824
X31.525 Y9.823
X31.592 Y9.761
X31.594 Y9.76
X31.679 Y9.722
X31.68
X31.774 Y9.714
X31.775 Y9.715
X31.864 Y9.737
X31.865 Y9.738
X31.944 Y9.789
X31.946 Y9.791
X32.001 Y9.862
X32.002 Y9.864
X32.033 Y9.952
Y9.953
Y10.047
Y10.048
X32.002 Y10.136
X32.001 Y10.138
X31.945 Y10.21
X31.944 Y10.211
X31.866 Y10.262
X31.864 Y10.263
X31.775 Y10.285
X31.774 Y10.286
X31.68 Y10.278
X31.679
X31.595 Y10.241
X31.593 Y10.24
X31.524 Y10.176
X31.523 Y10.174
X31.479 Y10.094
Y10.092
X31.463 Y10.001
Y10
X31.47 Y9.977
X31.474 Y9.955
X31.482 Y9.909
X31.483 Y9.906
X31.492 Y9.89 Z0.034
X31.503 Y9.869
X31.526 Y9.828 Z0.033
X31.527 Y9.826
X31.541 Y9.813
X31.559 Y9.797
X31.596 Y9.764 Z0.032
X31.598 Y9.763
X31.612 Y9.757 Z0.031
X31.634 Y9.748
X31.68 Y9.729 Z0.029
X31.683 Y9.728
X31.698 Y9.727
X31.721 Y9.725 Z0.028
X31.77 Y9.722 Z0.027
X31.773
X31.788 Y9.726 Z0.026
X31.81 Y9.732 Z0.025
X31.86 Y9.746 Z0.024
X31.863 Y9.747
X31.873 Y9.754 Z0.023
X31.935 Y9.796 Z0.021
X31.937 Y9.798 Z0.02
X31.944 Y9.807
X31.99 Y9.87 Z0.017
X31.991 Y9.872
X32.001 Y9.902 Z0.016
X32.017 Y9.954 Z0.014
X32.018 Y9.957
X32.016 Y10.031 Z0.012
Y10.044 Z0.011
X32.006 Y10.073 Z0.01
X31.986 Y10.126 Z0.008
X31.985 Y10.129
X31.968 Y10.15 Z0.007
X31.932 Y10.194 Z0.006
X31.93 Y10.196
X31.908 Y10.211 Z0.005
X31.857 Y10.242 Z0.003
X31.855 Y10.243
X31.832 Y10.249
X31.779 Y10.262 Z0.002
X31.774 Y10.263
X31.772
X31.769
X31.748 Y10.261 Z0.001
X31.705 Y10.257
X31.686 Y10.256
X31.684 Y10.255
X31.674 Y10.251 Z0
X31.664 Y10.246
X31.625 Y10.229
X31.607 Y10.221
X31.603 Y10.218
X31.6 Y10.215
X31.591 Y10.21
X31.542 Y10.166
X31.54 Y10.164
X31.499 Y10.088
X31.498 Y10.086
X31.484 Y10.001
Y10
X31.498 Y9.914
X31.499 Y9.912
X31.523 Y9.868
X31.539 Y9.839
X31.54 Y9.836
X31.604 Y9.777
X31.606 Y9.776
X31.682 Y9.743
X31.685 Y9.742
X31.771 Y9.735
X31.772
X31.857 Y9.756
X31.858 Y9.757
X31.93 Y9.804
X31.932 Y9.806
X31.983 Y9.872
X31.984 Y9.874
X32.013 Y9.956
Y9.957
Y10.042
Y10.044
X31.984 Y10.127
X31.983 Y10.128
X31.932 Y10.194
X31.93 Y10.196
X31.857 Y10.244
X31.856
X31.772 Y10.265
X31.771
X31.686 Y10.258
X31.684
X31.606 Y10.224
X31.604 Y10.223
X31.591 Y10.21
X31.561 Y10.179
X31.545 Y10.164
X31.543 Y10.162
X31.541 Y10.16
X31.537 Y10.152
X31.531 Y10.141
X31.511 Y10.103 Z-0.001
X31.502 Y10.087
X31.501 Y10.084
Y10.081
X31.497 Y10.057
X31.489 Y10.008 Z-0.002
X31.488 Y10.002
Y9.999
X31.49 Y9.99 Z-0.003
X31.494 Y9.966
X31.503 Y9.918 Z-0.004
X31.504 Y9.915
X31.511 Y9.901 Z-0.005
X31.523 Y9.88
X31.54 Y9.85 Z-0.006
X31.544 Y9.842
X31.546 Y9.84 Z-0.007
X31.562 Y9.825
X31.579 Y9.81 Z-0.008
X31.608 Y9.785 Z-0.009
X31.61 Y9.783
X31.616 Y9.781
X31.656 Y9.764 Z-0.011
X31.685 Y9.752 Z-0.012
X31.688 Y9.751
X31.743 Y9.748 Z-0.013
X31.769 Y9.746 Z-0.014
X31.772
X31.849 Y9.767 Z-0.017
X31.852 Y9.768
X31.871 Y9.781 Z-0.018
X31.919 Y9.813 Z-0.02
X31.921 Y9.815
X31.938 Y9.838 Z-0.021
X31.969 Y9.879 Z-0.022
X31.97 Y9.881
X31.981 Y9.913 Z-0.023
X31.995 Y9.957 Z-0.024
X31.996 Y9.96 Z-0.025
X31.995 Y9.976
Y9.998
Y10.031 Z-0.026
X31.994 Y10.04
Y10.042 Z-0.027
X31.987 Y10.063
X31.979 Y10.083
X31.968 Y10.114 Z-0.028
Y10.116
X31.966 Y10.119
X31.963 Y10.123
X31.936 Y10.157 Z-0.029
X31.918 Y10.18
X31.915 Y10.182
X31.906 Y10.188
X31.87 Y10.211 Z-0.03
X31.85 Y10.225
X31.847 Y10.226
X31.831 Y10.23
X31.801 Y10.237
X31.771 Y10.245
X31.769
X31.69 Y10.238
X31.689
X31.617 Y10.206
X31.615 Y10.205
X31.557 Y10.152
X31.556 Y10.15
X31.518 Y10.081
X31.517 Y10.079
X31.504 Y10.001
Y10
X31.517 Y9.921
X31.518 Y9.92
X31.556 Y9.85
X31.558 Y9.848
X31.615 Y9.795
X31.616 Y9.794
X31.689 Y9.762
X31.69
X31.769 Y9.755
X31.771
X31.847 Y9.775
X31.849
X31.916 Y9.819
X31.918 Y9.821
X31.965 Y9.881
X31.966 Y9.884
X31.992 Y9.959
Y9.96
Y10.039
Y10.041
X31.966 Y10.116
Y10.117
X31.917 Y10.181
X31.914 Y10.182
X31.85 Y10.224
X31.849 Y10.225
X31.801 Y10.237
G3 X31.559 Y10.09 I-0.049 J-0.192
G1 Z5.08
X33.216 Y9.744
Z2.086
Z0.035
G3 X33.579 Y10.023 I0.047 J0.314
G1 X33.599 Y10.169
X33.6 Y10.174
X33.601 Y10.18
X33.609 Y10.202
X33.654 Y10.318
X33.659 Y10.329
X33.661 Y10.335
X33.665 Y10.34
X33.744 Y10.455
X33.752 Y10.466
X33.754 Y10.468
X33.756 Y10.471
X33.761 Y10.476
X33.872 Y10.576
X33.877 Y10.58
X33.882 Y10.583
X33.972 Y10.633
X34.018 Y10.658
X34.024 Y10.66
X34.03 Y10.663
X34.041 Y10.666
X34.176 Y10.702
X34.182 Y10.704
X34.188 Y10.705
X34.199
X34.347 Y10.709
X34.352
X34.358
X34.364 Y10.708
X34.369 Y10.707
X34.517 Y10.675
X34.521 Y10.673
X34.526 Y10.672
X34.536 Y10.667
X34.653 Y10.61
X34.675 Y10.599
X34.681 Y10.595
X34.687 Y10.59
X34.803 Y10.493
X34.808 Y10.489
X34.812 Y10.484
X34.818 Y10.476
X34.901 Y10.363
X34.909 Y10.352
X34.912 Y10.346
X34.915 Y10.34
X34.971 Y10.204
X34.975 Y10.193
X34.977 Y10.187
X34.978 Y10.181
X34.988 Y10.113
X35.002 Y10.023
Y10.017
Y10.011
X34.988 Y9.864
X34.986 Y9.852
X34.985 Y9.847
X34.984 Y9.841
X34.952 Y9.75
X34.932 Y9.694
X34.93 Y9.688
X34.927 Y9.682
X34.913 Y9.66
X34.842 Y9.551
X34.839 Y9.547
X34.835 Y9.542
X34.831 Y9.538
X34.827 Y9.533
X34.715 Y9.429
X34.711 Y9.426
X34.707 Y9.423
X34.698 Y9.418
X34.607 Y9.367
X34.562 Y9.342
X34.556 Y9.34
X34.551 Y9.338
X34.426 Y9.304
X34.4 Y9.297
X34.396 Y9.296
X34.392 Y9.295
X34.335 Y9.29
X34.324 Y9.289
X34.318
X34.313
X34.166 Y9.299
X34.16 Y9.3
X34.154 Y9.301
X34.063 Y9.33
X34.018 Y9.344
X34.006 Y9.347
X34.001 Y9.349
X33.995 Y9.352
X33.972 Y9.366
X33.864 Y9.43
X33.86 Y9.433
X33.855 Y9.436
X33.847 Y9.444
X33.745 Y9.542
X33.741 Y9.547
X33.737 Y9.551
X33.726 Y9.569
X33.653 Y9.682
X33.65 Y9.688
X33.647 Y9.694
X33.643 Y9.705
X33.609 Y9.803
X33.596 Y9.841
X33.595 Y9.847
X33.594 Y9.852
X33.592 Y9.864
X33.579 Y10
X33.578 Y10.011
Y10.017
X33.579 Y10.023
X33.582 Y10.066
X33.587 Y10.109
X33.593 Y10.151 Z0.034
X33.596 Y10.171
Y10.176
X33.597 Y10.18
X33.599 Y10.185
X33.601 Y10.19
X33.616 Y10.23 Z0.033
X33.631 Y10.271 Z0.032
X33.646 Y10.311 Z0.031
X33.653 Y10.33
X33.655 Y10.334
X33.657 Y10.339
X33.66 Y10.343 Z0.03
X33.663 Y10.347
X33.687 Y10.383 Z0.029
X33.711 Y10.419 Z0.028
X33.735 Y10.455 Z0.027
X33.746 Y10.471 Z0.026
X33.749 Y10.475
X33.752 Y10.479
X33.76 Y10.486 Z0.025
X33.791 Y10.516 Z0.024
X33.823 Y10.545 Z0.022
X33.862 Y10.582 Z0.021
X33.869 Y10.588 Z0.02
X33.873 Y10.592
X33.878 Y10.594
X33.887 Y10.6
X34.008 Y10.669 Z0.015
X34.013 Y10.672 Z0.014
X34.017 Y10.674
X34.022 Y10.676
X34.027 Y10.678
X34.037 Y10.681
X34.079 Y10.693 Z0.012
X34.12 Y10.705 Z0.011
X34.162 Y10.717 Z0.009
X34.172 Y10.72
X34.177 Y10.721
X34.182 Y10.722
X34.188 Y10.723 Z0.008
X34.193
X34.247 Y10.726 Z0.007
X34.29 Y10.728 Z0.005
X34.333 Y10.729 Z0.004
X34.344 Y10.73
X34.355
X34.36
X34.365 Y10.729
X34.376 Y10.727 Z0.003
X34.418 Y10.718 Z0.002
X34.461 Y10.709
X34.503 Y10.701 Z0.001
X34.524 Y10.696
X34.529 Y10.695
X34.535 Y10.693
X34.54 Y10.691
X34.545 Y10.688
X34.583 Y10.67 Z0
X34.603 Y10.66
X34.622 Y10.651
X34.641 Y10.638
X34.675 Y10.621
X34.687 Y10.615
X34.692 Y10.612
X34.698 Y10.607
X34.789 Y10.531
X34.821 Y10.504
X34.825 Y10.5
X34.828 Y10.497
X34.833 Y10.49
X34.909 Y10.386
X34.926 Y10.363
X34.929 Y10.357
X34.932 Y10.352
X34.937 Y10.34
X34.993 Y10.204
X34.995 Y10.198
X34.996 Y10.193
X34.998 Y10.187
X34.999 Y10.181
X35.009 Y10.113
X35.022 Y10.023
Y10.017
Y10.011
X35.021 Y10
X35.008 Y9.864
X35.007 Y9.852
X35.006 Y9.847
X35.005 Y9.841
X34.973 Y9.75
X34.956 Y9.7
X34.949 Y9.68
X34.946 Y9.675
X34.943 Y9.67
X34.937 Y9.66
X34.863 Y9.546
X34.855 Y9.535
X34.851 Y9.529
X34.846 Y9.524
X34.797 Y9.478
X34.732 Y9.417
X34.726 Y9.412
X34.721 Y9.408
X34.715 Y9.404
X34.709 Y9.401
X34.585 Y9.331
X34.573 Y9.325
X34.568 Y9.322
X34.562 Y9.32
X34.517 Y9.308
X34.426 Y9.283
X34.403 Y9.277
X34.398 Y9.276
X34.392 Y9.275
X34.335 Y9.269
X34.324
X34.313
X34.165 Y9.279
X34.159 Y9.28
X34.154 Y9.281
X34.101 Y9.297
X34.018 Y9.322
X33.995 Y9.33
X33.989 Y9.332
X33.984 Y9.335
X33.859 Y9.41
X33.848 Y9.417
X33.842 Y9.421
X33.836 Y9.426
X33.736 Y9.524
X33.725 Y9.535
X33.72 Y9.541
X33.716 Y9.546
X33.644 Y9.66
X33.631 Y9.68
X33.629 Y9.685
X33.627 Y9.69
X33.623 Y9.7
X33.609 Y9.741
X33.606 Y9.75
X33.575 Y9.841
X33.574 Y9.847
X33.573 Y9.852
X33.572 Y9.864
X33.559 Y10
X33.558 Y10.01
Y10.011
Y10.017
Y10.023
X33.577 Y10.159
X33.581 Y10.181
X33.582 Y10.187
X33.584 Y10.193
X33.624 Y10.295
X33.642 Y10.34
X33.645 Y10.346
X33.648 Y10.352
X33.734 Y10.476
X33.737 Y10.48
X33.74 Y10.483
X33.743 Y10.487
X33.747 Y10.49
X33.857 Y10.589
X33.863 Y10.595
X33.869 Y10.599
X33.882 Y10.606
X34.009 Y10.676
X34.014 Y10.678
X34.02 Y10.68
X34.063 Y10.693
X34.154 Y10.717
X34.176 Y10.723
X34.182 Y10.724
X34.188 Y10.725
X34.199
X34.347 Y10.729
X34.352
X34.358
X34.364 Y10.728
X34.369 Y10.727
X34.517 Y10.695
X34.527 Y10.693
X34.532 Y10.691
X34.538 Y10.689
X34.559 Y10.679
X34.641 Y10.638
Z5.08
X34.484 Y9.978
Z2.086
Z0.035
G3 X34.406 Y10.262 I-0.167 J0.106
G1 X34.405 Y10.263
X34.314 Y10.286
X34.313
X34.22 Y10.278
X34.219
X34.133 Y10.24
X34.131 Y10.238
X34.065 Y10.177
X34.063 Y10.175
X34.019 Y10.094
Y10.092
X34.003 Y10.001
Y10
X34.019 Y9.908
Y9.906
X34.063 Y9.825
X34.064 Y9.824
X34.132 Y9.76
X34.134
X34.219 Y9.722
X34.221
X34.313 Y9.714
X34.314
X34.404 Y9.737
X34.405 Y9.738
X34.484 Y9.789
X34.541 Y9.862
X34.542 Y9.864
X34.573 Y9.952
Y9.953
Y10.047
Y10.048
X34.542 Y10.136
X34.541 Y10.138
X34.485 Y10.21
X34.484 Y10.211
X34.406 Y10.262
X34.402 Y10.26
X34.394 Y10.263
X34.382 Y10.265
X34.36 Y10.271
X34.315 Y10.282
X34.312
X34.294 Y10.281 Z0.034
X34.27 Y10.279
X34.224 Y10.275 Z0.033
X34.221 Y10.274
X34.204 Y10.267
X34.182 Y10.257
X34.137 Y10.236 Z0.032
X34.134 Y10.235
X34.123 Y10.224 Z0.031
X34.106 Y10.208
X34.07 Y10.174 Z0.029
X34.068 Y10.172
X34.061 Y10.158
X34.05 Y10.137 Z0.028
X34.026 Y10.091 Z0.027
Y10.088
X34.024 Y10.076 Z0.026
X34.021 Y10.053 Z0.025
X34.013 Y10.002 Z0.024
Y9.999
X34.015 Y9.987 Z0.023
X34.029 Y9.916 Z0.021
X34.03 Y9.911 Z0.02
X34.035 Y9.9
X34.074 Y9.833 Z0.017
X34.075 Y9.831
X34.099 Y9.81 Z0.016
X34.14 Y9.774 Z0.014
X34.142 Y9.772
X34.17 Y9.761 Z0.013
X34.223 Y9.739 Z0.011
X34.226 Y9.738
X34.253 Y9.737 Z0.01
X34.31 Y9.733 Z0.008
X34.313
X34.339 Y9.74 Z0.007
X34.397 Y9.756 Z0.006
X34.399 Y9.757
X34.419 Y9.771 Z0.005
X34.468 Y9.804 Z0.003
X34.47 Y9.805
X34.485 Y9.825
X34.517 Y9.867 Z0.002
X34.522 Y9.874
X34.523 Y9.876
X34.53 Y9.896 Z0.001
X34.544 Y9.937
X34.549 Y9.955
X34.55 Y9.957
Y9.968 Z0
Y9.979
Y10.022
Y10.041
X34.549 Y10.046
X34.547 Y10.05
Y10.06
X34.524 Y10.126
X34.523 Y10.128
X34.472 Y10.194
X34.47 Y10.196
X34.398 Y10.243
X34.396 Y10.244
X34.313 Y10.265
X34.311
X34.225 Y10.258
X34.222 Y10.257
X34.144 Y10.223
X34.143 Y10.221
X34.08 Y10.164
X34.079 Y10.162
X34.039 Y10.088
X34.038 Y10.086
X34.024 Y10.001
Y10
X34.038 Y9.914
X34.039 Y9.912
X34.063 Y9.867
X34.079 Y9.839
X34.08 Y9.836
X34.144 Y9.777
X34.147 Y9.776
X34.222 Y9.743
X34.225 Y9.742
X34.311 Y9.735
X34.313
X34.397 Y9.756
X34.399 Y9.757
X34.47 Y9.804
X34.472 Y9.806
X34.523 Y9.872
X34.525 Y9.874
X34.553 Y9.956
Y9.957
Y10.042
Y10.044
X34.547 Y10.06
X34.53 Y10.1
X34.523 Y10.12
X34.522 Y10.123
X34.521 Y10.126
X34.515 Y10.133
X34.508 Y10.143
X34.481 Y10.177 Z-0.001
X34.469 Y10.191
X34.467 Y10.194
X34.465 Y10.195
X34.444 Y10.208
X34.408 Y10.232 Z-0.002
X34.398 Y10.238
X34.395 Y10.24
X34.386 Y10.242 Z-0.003
X34.363 Y10.248
X34.312 Y10.26 Z-0.004
X34.309
X34.297 Y10.258 Z-0.005
X34.273 Y10.256
X34.227 Y10.252 Z-0.006
X34.224 Y10.251 Z-0.007
X34.208 Y10.243
X34.186 Y10.233 Z-0.008
X34.151 Y10.217 Z-0.009
X34.149 Y10.216
X34.144 Y10.212
X34.113 Y10.182 Z-0.011
X34.088 Y10.158 Z-0.012
X34.086 Y10.155
X34.062 Y10.109 Z-0.013
X34.049 Y10.083 Z-0.014
Y10.08
X34.037 Y10.001 Z-0.017
Y9.998
X34.041 Y9.978 Z-0.018
X34.052 Y9.919 Z-0.02
X34.053 Y9.916
X34.065 Y9.894 Z-0.021
X34.092 Y9.847 Z-0.022
X34.094 Y9.845
X34.117 Y9.824 Z-0.023
X34.154 Y9.792 Z-0.025
X34.156 Y9.791
X34.169 Y9.785
X34.189 Y9.777
X34.219 Y9.764 Z-0.026
X34.227 Y9.761
X34.229 Y9.76
X34.251 Y9.758 Z-0.027
X34.273 Y9.757
X34.305 Y9.754 Z-0.028
X34.308
X34.311
X34.316 Y9.755
X34.358 Y9.766 Z-0.029
X34.387 Y9.774
X34.389 Y9.775
X34.398 Y9.781
X34.435 Y9.805 Z-0.03
X34.455 Y9.818
X34.457 Y9.82
X34.467 Y9.833
X34.487 Y9.858
X34.505 Y9.882
X34.507 Y9.884
X34.532 Y9.959
Y9.96
Y10.039
Y10.041
X34.506 Y10.116
Y10.117
X34.457 Y10.18
X34.455 Y10.182
X34.39 Y10.224
X34.389 Y10.225
X34.311 Y10.245
X34.31
X34.23 Y10.238
X34.229
X34.157 Y10.206
X34.155 Y10.205
X34.097 Y10.152
X34.096 Y10.15
X34.058 Y10.082
X34.057 Y10.079
X34.044 Y10.001
Y10
X34.057 Y9.921
X34.058 Y9.92
X34.096 Y9.85
X34.098 Y9.848
X34.155 Y9.795
X34.157 Y9.794
X34.229 Y9.762
X34.23
X34.31 Y9.755
X34.311
X34.388 Y9.775
X34.389
X34.455 Y9.818
X34.457 Y9.819
X34.487 Y9.858
G3 X34.451 Y10.137 I-0.157 J0.122
G1 Z5.08
X33.888 Y6.226
Z2.086
Z0.035
G3 X34.154 Y5.776 I0.288 J-0.133
G1 X34.244 Y5.759
X34.292 Y5.749
X34.314 Y5.745
X34.319 Y5.743
X34.324 Y5.741
X34.452 Y5.681
X34.464 Y5.675
X34.468 Y5.674
X34.471 Y5.672
X34.477 Y5.667
X34.59 Y5.576
X34.595 Y5.572
X34.598 Y5.57
X34.6 Y5.567
X34.604 Y5.563
X34.607 Y5.559
X34.698 Y5.44
X34.702 Y5.434
X34.705 Y5.428
X34.71 Y5.417
X34.759 Y5.304
X34.769 Y5.281
X34.77 Y5.276
X34.771 Y5.27
X34.796 Y5.122
X34.797 Y5.117
X34.798 Y5.111
X34.797 Y5.1
X34.786 Y4.953
X34.785 Y4.947
X34.784 Y4.941
X34.755 Y4.85
X34.736 Y4.793
X34.734 Y4.788
X34.731 Y4.782
X34.718 Y4.759
X34.651 Y4.653
X34.646 Y4.645
X34.643 Y4.641
X34.64 Y4.637
X34.607 Y4.606
X34.532 Y4.533
X34.528 Y4.529
X34.524 Y4.526
X34.521 Y4.523
X34.517 Y4.52
X34.426 Y4.467
X34.381 Y4.441
X34.375 Y4.438
X34.369 Y4.436
X34.225 Y4.393
X34.22 Y4.392
X34.215 Y4.391
X34.194 Y4.389
X34.142 Y4.383
X34.137
X34.131
X33.972 Y4.394
X33.969
X33.965 Y4.395
X33.962 Y4.396
X33.958
X33.882 Y4.422
X33.814 Y4.445
X33.802 Y4.449
X33.797 Y4.451
X33.791 Y4.454
X33.74 Y4.487
X33.66 Y4.539
X33.655 Y4.542
X33.65 Y4.546
X33.647 Y4.548
X33.645 Y4.551
X33.64 Y4.556
X33.536 Y4.669
X33.533 Y4.672
X33.531 Y4.676
X33.528 Y4.679
X33.526 Y4.683
X33.461 Y4.805
X33.449 Y4.828
X33.447 Y4.833
X33.445 Y4.839
X33.428 Y4.91
X33.409 Y4.986
X33.407 Y4.998
X33.406 Y5.003
Y5.009
Y5.032
X33.408 Y5.168
Y5.173
X33.409 Y5.179
X33.41 Y5.185
X33.412 Y5.191
X33.452 Y5.338
X33.454 Y5.344
X33.456 Y5.349
X33.481 Y5.395
X33.533 Y5.485
X33.539 Y5.496
X33.543 Y5.501
X33.548 Y5.507
X33.658 Y5.62
X33.663 Y5.625
X33.668 Y5.629
X33.679 Y5.635
X33.808 Y5.714
X33.814 Y5.717
X33.819 Y5.719
X33.825 Y5.721
X33.972 Y5.766
X33.978 Y5.767
X33.984 Y5.769
X33.989
X33.995
X34.142 Y5.776
X34.148 Y5.777
X34.154 Y5.776
G3 X34.48 Y6.185 I0.022 J0.317
G1 Z5.08
X34.286 Y5.067
Z2.086
Z0.035
G3 X34.11 Y5.303 I-0.195 J0.039
G1 X34.079 Y5.306
X34.078 Y5.305
X33.999 Y5.283
X33.998 Y5.282
X33.934 Y5.234
X33.932 Y5.232
X33.889 Y5.163
Y5.161
X33.874 Y5.081
Y5.079
X33.882 Y5.036
X33.889 Y4.999
Y4.998
X33.932 Y4.928
X33.934 Y4.926
X33.998 Y4.878
X33.999 Y4.877
X34.079 Y4.855
X34.08 Y4.854
X34.161 Y4.862
X34.162
X34.236 Y4.899
X34.237 Y4.9
X34.291 Y4.959
X34.293 Y4.961
X34.322 Y5.037
X34.323 Y5.039
Y5.121
X34.322 Y5.122
X34.293 Y5.199
X34.292 Y5.2
X34.237 Y5.26
X34.236 Y5.261
X34.162 Y5.298
X34.161
X34.11 Y5.303
X34.085 Y5.302
X34.082
X34.079
X34.073 Y5.301
X34.061 Y5.297
X34.02 Y5.285
X34.002 Y5.28 Z0.034
X33.999 Y5.279
X33.997 Y5.277
X33.977 Y5.262
X33.939 Y5.232 Z0.033
X33.936 Y5.23
X33.934 Y5.228
X33.928 Y5.217
X33.915 Y5.197
X33.903 Y5.176 Z0.032
X33.893 Y5.16
Y5.157
X33.892 Y5.154
X33.885 Y5.112 Z0.031
X33.88 Y5.082 Z0.03
Y5.079
X33.883 Y5.064 Z0.029
X33.891 Y5.022 Z0.028
X33.895 Y5.002 Z0.027
X33.897 Y4.999
X33.91 Y4.979
X33.938 Y4.936 Z0.025
X33.939 Y4.933
X33.949 Y4.926 Z0.024
X33.986 Y4.899 Z0.023
X34.002 Y4.888 Z0.022
X34.005 Y4.886
X34.026 Y4.881 Z0.021
X34.07 Y4.869 Z0.02
X34.078 Y4.867 Z0.019
X34.081
X34.092 Y4.868
X34.158 Y4.875 Z0.017
X34.16 Y4.876
X34.178 Y4.886 Z0.016
X34.226 Y4.911 Z0.014
X34.228 Y4.912
X34.248 Y4.935 Z0.013
X34.277 Y4.968 Z0.011
X34.278 Y4.97
X34.3 Y5.029 Z0.009
X34.304 Y5.039
X34.305 Y5.042
X34.304 Y5.05 Z0.008
X34.303 Y5.117 Z0.006
X34.302 Y5.12
X34.296 Y5.135
X34.275 Y5.187 Z0.004
X34.274 Y5.189
X34.255 Y5.209
X34.224 Y5.242 Z0.003
X34.222 Y5.244
X34.208 Y5.251 Z0.002
X34.189 Y5.26
X34.17 Y5.269
X34.156 Y5.276 Z0.001
X34.153
X34.151
X34.108 Y5.28
X34.082 Y5.282 Z0
X34.079
X34.067 Y5.278
X34.025 Y5.266
X34.01 Y5.262
X34.007 Y5.26
X34.004 Y5.258
X33.996 Y5.255
X33.958 Y5.227
X33.949 Y5.22
X33.947 Y5.217
X33.908 Y5.155
Y5.154
X33.894 Y5.081
Y5.08
X33.908 Y5.006
Y5.005
X33.947 Y4.942
X33.948 Y4.941
X34.008 Y4.896
X34.009 Y4.895
X34.08 Y4.875
X34.081
X34.155 Y4.882
X34.157
X34.223 Y4.915
X34.225 Y4.916
X34.274 Y4.971
X34.275 Y4.972
X34.302 Y5.042
Y5.043
Y5.117
Y5.118
X34.275 Y5.188
Y5.189
X34.225 Y5.244
X34.223 Y5.245
X34.157 Y5.278
X34.155
X34.108 Y5.283
X34.081 Y5.285
X34.08
X34.009 Y5.265
X34.008 Y5.264
X33.996 Y5.255
X33.963 Y5.227
X33.951 Y5.218
X33.949 Y5.215
X33.946 Y5.21
X33.933 Y5.189
X33.92 Y5.168 Z-0.001
X33.912 Y5.155
X33.911 Y5.152
X33.91 Y5.146
X33.902 Y5.104
X33.899 Y5.083 Z-0.002
X33.898 Y5.08
X33.901 Y5.068
X33.903 Y5.056
X33.912 Y5.008 Z-0.003
X33.914 Y5.005
X33.922 Y4.992 Z-0.004
X33.935 Y4.972
X33.951 Y4.946 Z-0.005
X33.954 Y4.944
X33.966 Y4.935
X34.01 Y4.903 Z-0.007
X34.013 Y4.902
X34.022 Y4.899
X34.045 Y4.893 Z-0.008
X34.082 Y4.883 Z-0.009
X34.085
X34.091 Y4.884
X34.145 Y4.89 Z-0.011
X34.154 Y4.891
X34.156 Y4.892
X34.215 Y4.923 Z-0.014
X34.218 Y4.925
X34.231 Y4.94
X34.263 Y4.977 Z-0.016
X34.265 Y4.979
X34.271 Y4.995 Z-0.017
X34.289 Y5.044 Z-0.018
Y5.046
X34.288 Y5.111 Z-0.02
Y5.114 Z-0.021
X34.287 Y5.117
X34.284 Y5.124
X34.261 Y5.18 Z-0.023
X34.259 Y5.182
X34.242 Y5.2
X34.22 Y5.224 Z-0.024
X34.214 Y5.23 Z-0.025
X34.212 Y5.231
X34.192 Y5.241
X34.153 Y5.259 Z-0.026
X34.151 Y5.26
X34.132 Y5.262 Z-0.027
X34.084 Y5.266 Z-0.028
X34.081 Y5.265
X34.068 Y5.262
X34.047 Y5.255
X34.019 Y5.247 Z-0.029
X34.016 Y5.246
X34.008 Y5.239
X33.974 Y5.213
X33.963 Y5.205 Z-0.03
X33.961 Y5.203
X33.959 Y5.198
X33.947 Y5.18
X33.936 Y5.162
X33.928 Y5.148
X33.927 Y5.146
X33.926 Y5.143
X33.922 Y5.118
X33.915 Y5.081
Y5.08
X33.927 Y5.013
X33.928 Y5.012
X33.963 Y4.955
X33.965 Y4.954
X34.017 Y4.914
X34.019
X34.083 Y4.895
X34.15 Y4.902
X34.151
X34.212 Y4.932
X34.214 Y4.934
X34.257 Y4.982
X34.258 Y4.984
X34.282 Y5.046
Y5.047
Y5.114
Y5.115
X34.258 Y5.177
X34.256 Y5.179
X34.212 Y5.228
X34.21 Y5.229
X34.151 Y5.258
X34.15
X34.095 Y5.263
X34.083 Y5.265
X34.019 Y5.246
X34.017
X33.964 Y5.206
X33.962 Y5.204
X33.928 Y5.148
X33.927 Y5.146
X33.922 Y5.118
X33.919 Y5.073
X33.929 Y5.029
X33.949 Y4.989
X33.98 Y4.955
X34.018 Y4.931
X34.061 Y4.917
Z5.08
X43.743 Y9.448
Z2.086
Z0.035
G3 X43.988 Y9.909 I-0.036 J0.315
G1 X43.986 Y9.915
X43.985 Y9.921
X43.952 Y10.055
X43.949 Y10.07
X43.947 Y10.077
X43.946 Y10.081
Y10.084
Y10.113
X43.948 Y10.238
Y10.255
X43.949 Y10.26
X43.95 Y10.264
X43.952 Y10.272
X43.992 Y10.42
X43.994 Y10.425
X43.997 Y10.431
X44.022 Y10.476
X44.074 Y10.567
X44.079 Y10.575
X44.082 Y10.58
X44.085 Y10.584
X44.101 Y10.6
X44.191 Y10.692
X44.199 Y10.701
X44.203 Y10.705
X44.207 Y10.708
X44.224 Y10.718
X44.338 Y10.788
X44.349 Y10.794
X44.355 Y10.797
X44.36 Y10.8
X44.406 Y10.813
X44.496 Y10.841
X44.519 Y10.848
X44.525 Y10.849
X44.53
X44.678 Y10.856
X44.689 Y10.857
X44.695 Y10.856
X44.701 Y10.855
X44.84 Y10.828
X44.849 Y10.826
X44.854 Y10.825
X44.859 Y10.823
X44.95 Y10.781
X44.999 Y10.758
X45.007 Y10.754
X45.011 Y10.752
X45.015 Y10.749
X45.131 Y10.655
X45.137 Y10.65
X45.14 Y10.647
X45.143 Y10.644
X45.152 Y10.633
X45.234 Y10.524
X45.24 Y10.516
X45.243 Y10.512
X45.245 Y10.508
X45.259 Y10.476
X45.298 Y10.386
X45.308 Y10.363
X45.31 Y10.357
X45.311 Y10.352
X45.336 Y10.204
X45.337 Y10.198
Y10.193
Y10.187
Y10.181
X45.326 Y10.034
Y10.028
X45.325 Y10.023
X45.313 Y9.986
X45.277 Y9.875
X45.275 Y9.869
X45.272 Y9.864
X45.259 Y9.841
X45.19 Y9.73
X45.186 Y9.725
X45.182 Y9.72
X45.173 Y9.71
X45.071 Y9.611
X45.066 Y9.607
X45.061 Y9.603
X45.041 Y9.591
X44.927 Y9.524
X44.922 Y9.521
X44.916 Y9.519
X44.905 Y9.515
X44.769 Y9.475
X44.763 Y9.473
X44.757 Y9.472
X44.746 Y9.47
X44.723 Y9.468
X44.678 Y9.463
X44.672
X44.667
X44.519 Y9.474
X44.508
X44.502 Y9.476
X44.496 Y9.477
X44.493 Y9.478
X44.349 Y9.526
X44.343 Y9.528
X44.338 Y9.531
X44.332 Y9.534
X44.326 Y9.537
X44.224 Y9.603
X44.191 Y9.625
X44.187 Y9.629
X44.182 Y9.634
X44.134 Y9.687
X44.075 Y9.75
X44.072 Y9.754
X44.069 Y9.757
X44.065 Y9.764
X44 Y9.887
X43.988 Y9.909
G3 X43.454 Y9.956 I-0.282 J-0.146
G1 X42.694 Y8.959
G3 X45.073 Y7.105 I1.199 J-0.914
G1 X45.08 Y7.114
G3 X45.402 Y8.033 Z0 I-1.187 J0.93
G1 Y8.045
G3 X43.888 Y9.558 I-1.513 J0
G1 X41.434
X41.433
X33.443 Y1.568
X33.436 Y1.56
X33.428 Y1.554
X33.367 Y1.506
X33.357 Y1.499
X33.351 Y1.495
X33.346 Y1.493
X33.337 Y1.489
X33.269 Y1.459
X33.258 Y1.454
X33.252 Y1.452
X33.247 Y1.451
X33.156 Y1.435
X33.15 Y1.434
X33.144
X33.133 Y1.433
X33.11
X25.626
X25.62
X25.614 Y1.434
X25.524 Y1.446
X25.518
X25.512 Y1.447
X25.507 Y1.449
X25.501 Y1.451
X25.413 Y1.488
X25.408 Y1.49
X25.403 Y1.493
X25.4 Y1.495
X25.397 Y1.497
X25.322 Y1.554
X25.314 Y1.56
X25.307 Y1.568
X22.942 Y3.932
X22.941 Y3.933
X20.809
X20.807 Y3.932
X19.729 Y2.853
X19.683 Y2.808
X19.638 Y2.773
X19.605 Y2.748
X19.6 Y2.745
X19.596 Y2.742
X19.591 Y2.739
X19.586 Y2.737
X19.502 Y2.702
X19.496 Y2.7
X19.49 Y2.698
X19.485 Y2.697
X19.479 Y2.696
X19.388 Y2.684
X19.383 Y2.683
X19.377
X19.366
X11.881
X11.869
X11.858 Y2.684
X11.79 Y2.693
X11.767 Y2.696
X11.762 Y2.697
X11.756 Y2.699
X11.745 Y2.704
X11.665 Y2.737
X11.66 Y2.739
X11.654 Y2.742
X11.65 Y2.744
X11.647 Y2.747
X11.571 Y2.805
X11.567 Y2.808
X11.563 Y2.811
X11.521 Y2.854
X7.317 Y7.058
X7.315
X6.958
X6.956
X6.948 Y7.055
X6.942 Y7.054
X6.936 Y7.053
X6.931
X6.925
X1.107
X1.102
X1.096
X1.09 Y7.054
X1.085 Y7.055
X1.039 Y7.072
X1.036 Y7.073
X1.032 Y7.075
X1.029 Y7.076
X1.025 Y7.079
X1.022 Y7.081
X1.018 Y7.084
X1.011 Y7.091
X0.983 Y7.119
X0.98 Y7.122
X0.978 Y7.124
X0.976 Y7.127
X0.974 Y7.13
X0.971 Y7.136
X0.968 Y7.142
X0.96 Y7.164
X0.952 Y7.187
X0.95 Y7.193
X0.949 Y7.198
Y7.204
Y7.21
Y8.026
Y8.038
Y8.043
X0.951 Y8.049
X0.952 Y8.055
X0.954 Y8.06
X0.967 Y8.094
X0.969 Y8.1
X0.971 Y8.106
X0.975 Y8.111
X0.977 Y8.114
X0.979 Y8.117
X1.009 Y8.148
X1.017 Y8.155
X1.02 Y8.158
X1.024 Y8.161
X1.028 Y8.163
X1.032 Y8.165
X1.035 Y8.167
X1.039 Y8.168
X1.085 Y8.185
X1.09 Y8.186
X1.096 Y8.187
X1.102
X1.107
X6.925
X6.931
X6.936
X6.942 Y8.186
X6.948 Y8.185
X6.959 Y8.181
X6.993 Y8.168
X6.999 Y8.166
X7.004 Y8.163
X7.007 Y8.161
X7.01 Y8.159
X7.013 Y8.157
X7.016 Y8.155
X7.027 Y8.143
X7.053 Y8.117
X7.055 Y8.114
X7.057 Y8.111
X7.061 Y8.106
X7.063 Y8.1
X7.065 Y8.094
X7.078 Y8.06
X7.08 Y8.055
X7.081 Y8.049
X7.083 Y8.043
Y8.038
Y8.026
Y7.944
X7.085 Y7.942
X7.499
X7.504
X7.509
X7.605 Y7.929
X7.611 Y7.928
X7.617 Y7.927
X7.662 Y7.908
X7.707 Y7.889
X7.719 Y7.884
X7.724 Y7.881
X7.73 Y7.877
X7.772 Y7.845
X7.808 Y7.817
X7.844 Y7.782
X12.057 Y3.568
X12.059 Y3.567
X19.192
X19.194 Y3.57
X20.311 Y4.686
X20.315 Y4.691
X20.32 Y4.694
X20.396 Y4.753
X20.401 Y4.756
X20.407 Y4.759
X20.454 Y4.78
X20.5 Y4.798
X20.505 Y4.801
X20.511 Y4.802
X20.517 Y4.804
X20.522
X20.613 Y4.816
X20.619 Y4.817
X20.624
X23.085
X23.131
X23.176 Y4.811
X23.221 Y4.805
X23.233 Y4.804
X23.238 Y4.802
X23.244 Y4.801
X23.267 Y4.792
X23.344 Y4.759
X23.347 Y4.758
X23.351 Y4.755
X23.358 Y4.75
X23.431 Y4.693
X23.434 Y4.691
X23.437 Y4.689
X23.457 Y4.669
X25.807 Y2.318
X25.808 Y2.317
X32.942
X32.943 Y2.319
X40.919 Y10.295
X40.939 Y10.314
X40.958 Y10.329
X41.015 Y10.373
X41.024 Y10.38
X41.029 Y10.383
X41.034 Y10.386
X41.049 Y10.392
X41.117 Y10.42
X41.128 Y10.425
X41.134 Y10.427
X41.14 Y10.428
X41.23 Y10.44
X41.242 Y10.442
X41.247
X41.253
X43.978
X43.98 Y10.443
X43.984 Y10.451
X44.051 Y10.567
X44.064 Y10.59
X44.069 Y10.595
X44.074 Y10.601
X44.179 Y10.709
X44.19 Y10.72
X44.196 Y10.725
X44.202 Y10.728
X44.338 Y10.811
X44.343 Y10.814
X44.349 Y10.817
X44.36 Y10.821
X44.508 Y10.865
X44.513 Y10.867
X44.519 Y10.868
X44.525 Y10.869
X44.53
X44.678 Y10.876
X44.689 Y10.877
X44.695 Y10.876
X44.701
X44.723 Y10.871
X44.769 Y10.862
X44.859 Y10.844
X44.866 Y10.842
X44.872 Y10.839
X44.995 Y10.782
X45.018 Y10.771
X45.024 Y10.767
X45.029 Y10.763
X45.145 Y10.67
X45.151 Y10.665
X45.155 Y10.661
X45.158 Y10.658
X45.222 Y10.574
X45.253 Y10.533
X45.257 Y10.527
X45.261 Y10.522
X45.281 Y10.476
X45.325 Y10.374
X45.327 Y10.369
X45.329 Y10.363
X45.333 Y10.34
X45.357 Y10.204
Y10.198
